LUTs/SPK Cube Block1 S64/TheBrim_SPK_Type-O_Block1_S64.cube
TITLE "TheBrim® SPK Block 1"
# © Copyright 2021 - TheBrim® d.o.o. Croatia
LUT_3D_SIZE 8
DOMAIN_MIN 0.000000 0.000000 0.000000
DOMAIN_MAX 1.000000 1.000000 1.000000
0.001770 0.000977 0.001221
0.008942 0.004334 0.004273
0.038422 0.006622 0.005005
0.212406 0.000000 0.000000
0.432288 0.000000 0.000000
0.570947 0.000000 0.000000
0.620356 0.000000 0.000000
0.625818 0.000000 0.000000
0.006500 0.014099 0.009888
0.011322 0.013977 0.008637
0.055940 0.017639 0.007080
0.233249 0.017517 0.000000
0.447150 0.000000 0.000000
0.581903 0.000000 0.000000
0.632685 0.000000 0.000000
0.648920 0.000000 0.000000
0.000000 0.086549 0.046540
0.000000 0.086427 0.039704
0.082918 0.098329 0.029541
0.285679 0.122133 0.007996
0.515587 0.109529 0.000000
0.654505 0.052064 0.000000
0.703944 0.000000 0.000000
0.708614 0.000000 0.000000
0.000000 0.264469 0.192905
0.000000 0.251865 0.172274
0.000000 0.266972 0.142519
0.329808 0.308659 0.088808
0.602777 0.324468 0.000000
0.761135 0.313054 0.000000
0.810941 0.282139 0.000000
0.811093 0.257298 0.000000
0.000000 0.439429 0.335698
0.000000 0.434272 0.321843
0.000000 0.465797 0.286687
0.289158 0.545861 0.227543
0.660334 0.585138 0.104036
0.851286 0.579553 0.000000
0.916655 0.551019 0.000000
0.919280 0.515007 0.000000
0.000000 0.510338 0.400397
0.000000 0.511131 0.392370
0.000000 0.557183 0.380255
0.090211 0.666468 0.347906
0.663386 0.747524 0.241855
0.891661 0.763882 0.000000
0.975158 0.750484 0.000000
0.989441 0.722103 0.000000
0.000000 0.576745 0.381842
0.000000 0.597436 0.380957
0.000000 0.649287 0.373022
0.386786 0.725734 0.343969
0.688716 0.782742 0.271244
0.891905 0.812375 0.126497
0.987152 0.811856 0.000000
1.000000 0.792294 0.000000
0.000000 0.668086 0.368322
0.112886 0.684352 0.363684
0.358587 0.720577 0.347662
0.564538 0.760342 0.309667
0.766049 0.795102 0.235508
0.906737 0.813993 0.097200
0.981933 0.817624 0.000000
1.000000 0.817655 0.000000
0.005493 0.005097 0.009308
0.008240 0.005097 0.008942
0.042359 0.006683 0.009155
0.223728 0.000000 0.004822
0.439155 0.000000 0.000000
0.575952 0.000000 0.000000
0.622156 0.000000 0.000000
0.628473 0.000000 0.000000
0.004181 0.014954 0.016907
0.009339 0.013062 0.013062
0.062287 0.017121 0.012177
0.244297 0.013092 0.006928
0.452613 0.000000 0.000000
0.582086 0.000000 0.000000
0.629114 0.000000 0.000000
0.651545 0.000000 0.000000
0.000000 0.096468 0.065248
0.000000 0.087739 0.051026
0.080110 0.097414 0.038911
0.291844 0.119020 0.019135
0.516930 0.099336 0.000000
0.654047 0.031861 0.000000
0.699550 0.000000 0.000000
0.712917 0.000000 0.000000
0.000000 0.264439 0.194766
0.000000 0.251530 0.173831
0.000000 0.265476 0.141604
0.337346 0.306493 0.082033
0.605188 0.318944 0.000000
0.759152 0.302556 0.000000
0.808774 0.275090 0.000000
0.813901 0.258671 0.000000
0.000000 0.439094 0.336217
0.000000 0.433753 0.322271
0.000000 0.466346 0.286503
0.294865 0.545556 0.225681
0.663447 0.582605 0.098604
0.851377 0.572351 0.000000
0.916136 0.546960 0.000000
0.922210 0.522911 0.000000
0.000000 0.510460 0.400275
0.000000 0.511284 0.391943
0.000000 0.557702 0.380194
0.099153 0.666712 0.347234
0.665919 0.747280 0.239841
0.893614 0.763394 0.000000
0.975616 0.750820 0.000000
0.990234 0.731746 0.000000
0.000000 0.581079 0.381720
0.000000 0.601709 0.380743
0.000000 0.652979 0.372107
0.399023 0.727962 0.342443
0.693141 0.783474 0.269444
0.894377 0.813077 0.126070
0.987335 0.815793 0.000000
1.000000 0.806943 0.000000
0.000000 0.674830 0.366522
0.163210 0.691279 0.361303
0.379889 0.724453 0.345006
0.580041 0.763363 0.306310
0.775448 0.796658 0.229923
0.910094 0.814359 0.090669
0.982971 0.817502 0.000000
1.000000 0.830228 0.000000
0.002930 0.007813 0.056062
0.006287 0.006806 0.058991
0.052003 0.008972 0.058656
0.232731 0.000244 0.061189
0.453651 0.000000 0.055055
0.590387 0.000000 0.041169
0.633936 0.000000 0.024201
0.640101 0.000000 0.016907
0.000000 0.021424 0.086763
0.002808 0.018616 0.080568
0.062562 0.021851 0.073396
0.251835 0.015839 0.068788
0.465095 0.000000 0.053986
0.596551 0.000000 0.037263
0.641138 0.000000 0.021912
0.663661 0.000000 0.025849
0.000000 0.113252 0.152499
0.000000 0.103975 0.134890
0.069398 0.111757 0.123720
0.297032 0.130404 0.111849
0.530480 0.111330 0.092317
0.670283 0.043610 0.072602
0.710445 0.000000 0.046326
0.723934 0.000000 0.044160
0.000000 0.279850 0.263706
0.000000 0.266423 0.243931
0.000000 0.280644 0.220127
0.332708 0.324193 0.195499
0.612940 0.337530 0.154940
0.769375 0.318242 0.112764
0.819516 0.289891 0.073426
0.822507 0.269017 0.063752
0.000000 0.441444 0.348394
0.000000 0.437415 0.341039
0.000000 0.471015 0.321935
0.280308 0.554894 0.292973
0.666346 0.598779 0.230869
0.855314 0.595117 0.157107
0.920867 0.570733 0.072084
0.926177 0.542596 0.043305
0.000000 0.511315 0.403143
0.000000 0.512932 0.393194
0.000000 0.558740 0.384222
0.083192 0.672267 0.371160
0.666163 0.758541 0.313909
0.890715 0.783963 0.238712
0.973205 0.777737 0.099367
0.988983 0.759152 0.000000
0.000000 0.590112 0.384131
0.000000 0.611902 0.385168
0.000000 0.663539 0.388159
0.398627 0.737942 0.385687
0.686641 0.800748 0.377173
0.887144 0.838193 0.339239
0.981140 0.841672 0.221408
1.000000 0.832517 0.095888
0.121401 0.685542 0.363195
0.241520 0.701900 0.357549
0.410803 0.730251 0.340520
0.609613 0.769100 0.297887
0.792416 0.800351 0.226169
0.913359 0.823026 0.174228
0.977935 0.845609 0.230137
1.000000 0.852659 0.237095
0.000000 0.017334 0.159640
0.000824 0.016815 0.174014
0.063996 0.019593 0.182315
0.239811 0.012268 0.195010
0.464515 0.000000 0.190982
0.603174 0.000000 0.168124
0.642756 0.000000 0.134493
0.651270 0.000000 0.122591
0.000000 0.038880 0.201541
0.000000 0.026490 0.207828
0.061402 0.026246 0.210330
0.261479 0.013519 0.205936
0.479500 0.000000 0.187869
0.610040 0.000000 0.164858
0.654963 0.000000 0.140780
0.672480 0.000000 0.138613
0.000000 0.129458 0.283482
0.000000 0.121218 0.270542
0.037873 0.128908 0.268162
0.302525 0.144839 0.262882
0.541863 0.122744 0.244755
0.680476 0.053956 0.219608
0.723384 0.000000 0.190799
0.732967 0.000000 0.178134
0.000000 0.296971 0.369238
0.000000 0.284947 0.352819
0.000000 0.303838 0.349889
0.331273 0.347234 0.348272
0.616205 0.357519 0.323003
0.775387 0.337041 0.289220
0.825620 0.305425 0.250401
0.828305 0.281895 0.226719
0.000000 0.464820 0.464118
0.000000 0.460304 0.454749
0.000000 0.501457 0.446082
0.270481 0.586114 0.439246
0.663783 0.627039 0.405219
0.854612 0.622248 0.361608
0.919463 0.593774 0.307652
0.926421 0.564202 0.275364
0.000000 0.533989 0.511742
0.000000 0.535241 0.508659
0.000000 0.587488 0.512413
0.000000 0.705318 0.519646
0.661769 0.786954 0.483040
0.884489 0.809506 0.427192
0.966339 0.804807 0.364172
0.983032 0.785275 0.306340
0.000000 0.615747 0.506920
0.000000 0.637598 0.511955
0.000000 0.690089 0.520836
0.359747 0.761746 0.526207
0.679988 0.824002 0.515190
0.882750 0.859983 0.482277
0.972198 0.867002 0.425360
0.995239 0.858610 0.361242
0.122377 0.712825 0.449744
0.263340 0.727901 0.450721
0.407630 0.754879 0.452155
0.608026 0.796963 0.448676
0.786435 0.833890 0.445411
0.902678 0.857359 0.439521
0.970275 0.871489 0.429847
0.992218 0.876219 0.421729
0.000000 0.034211 0.274357
0.000000 0.028931 0.281834
0.081147 0.029206 0.297215
0.264164 0.012726 0.310430
0.471443 0.000000 0.298802
0.608972 0.000000 0.265324
0.651820 0.000000 0.237369
0.667201 0.000000 0.233127
0.000000 0.058900 0.308965
0.000000 0.034852 0.307530
0.074800 0.031281 0.318425
0.283116 0.011170 0.322850
0.492409 0.000000 0.306645
0.626764 0.000000 0.283024
0.670130 0.000000 0.261814
0.687465 0.000000 0.257847
0.000000 0.138491 0.387152
0.000000 0.130526 0.385840
0.010376 0.138186 0.398260
0.315648 0.152224 0.408331
0.555535 0.127901 0.391333
0.692744 0.051728 0.359808
0.733913 0.000000 0.329503
0.744564 0.000000 0.313390
0.000000 0.309667 0.471168
0.000000 0.303380 0.466102
0.000000 0.325719 0.481941
0.332525 0.365179 0.496742
0.621912 0.375952 0.479835
0.781399 0.355261 0.448646
0.829709 0.320500 0.408270
0.832364 0.296544 0.382238
0.000000 0.477790 0.540795
0.000000 0.477089 0.534722
0.000000 0.528466 0.552422
0.265354 0.609827 0.573816
0.662989 0.648768 0.558923
0.852262 0.642664 0.522301
0.916655 0.615351 0.479438
0.923552 0.584649 0.449348
0.000000 0.547478 0.580407
0.000000 0.550164 0.577142
0.000000 0.611597 0.593469
0.000000 0.732479 0.624018
0.657282 0.806882 0.617700
0.879240 0.831205 0.585443
0.957244 0.826139 0.537469
0.974060 0.807279 0.492134
0.000000 0.642512 0.588800
0.000000 0.663478 0.596033
0.000000 0.716640 0.611780
0.370764 0.785428 0.626459
0.685908 0.845243 0.631128
0.877928 0.879942 0.620813
0.963043 0.887877 0.584497
0.985504 0.881193 0.533654
0.032074 0.741878 0.582208
0.235355 0.755245 0.584588
0.399847 0.782925 0.589960
0.605035 0.823026 0.595514
0.778714 0.856626 0.592737
0.900999 0.880308 0.589349
0.962402 0.893309 0.587945
0.982574 0.897856 0.584192
0.000000 0.076387 0.362890
0.000000 0.075959 0.366796
0.103731 0.078248 0.375952
0.273716 0.078309 0.380072
0.465766 0.032746 0.366003
0.602930 0.000000 0.347631
0.684993 0.000000 0.332341
0.712703 0.000000 0.312352
0.000000 0.097902 0.382177
0.000000 0.098024 0.385718
0.096651 0.104463 0.397681
0.283268 0.107149 0.404273
0.482521 0.080812 0.391363
0.621546 0.002564 0.368261
0.700984 0.000000 0.351598
0.727199 0.000000 0.329839
0.000000 0.163760 0.433509
0.000000 0.164279 0.436347
0.056611 0.176181 0.452857
0.314763 0.188846 0.465797
0.529137 0.182071 0.456153
0.675929 0.151125 0.428840
0.747463 0.129061 0.403662
0.769711 0.111788 0.379553
0.000000 0.317082 0.536187
0.000000 0.319615 0.541161
0.000000 0.343542 0.561212
0.359594 0.381170 0.578790
0.637385 0.385657 0.567315
0.784298 0.366674 0.540093
0.833249 0.347601 0.508629
0.838895 0.317510 0.471626
0.000000 0.484047 0.598840
0.000000 0.495766 0.606409
0.000000 0.552117 0.638666
0.290684 0.630610 0.669520
0.669520 0.666011 0.666682
0.854643 0.658808 0.642451
0.913970 0.629633 0.613001
0.919615 0.597803 0.587304
0.000000 0.554284 0.625971
0.000000 0.568505 0.631342
0.000000 0.638727 0.665919
0.167605 0.754665 0.709438
0.668544 0.822202 0.714046
0.877928 0.845121 0.694331
0.950927 0.841764 0.662593
0.965332 0.823880 0.638605
0.000000 0.664973 0.663905
0.000000 0.684688 0.673182
0.000000 0.734188 0.693599
0.364111 0.801846 0.713375
0.684291 0.860655 0.726284
0.877440 0.894133 0.722866
0.956207 0.900877 0.695125
0.976562 0.897154 0.665003
0.124147 0.764767 0.670954
0.244327 0.777493 0.674250
0.411048 0.802945 0.680110
0.620935 0.842557 0.689204
0.788449 0.874632 0.693751
0.903868 0.896788 0.694881
0.957885 0.907683 0.696010
0.975616 0.911864 0.694331
0.000000 0.135073 0.414771
0.000000 0.137423 0.419409
0.091432 0.144869 0.430854
0.256657 0.150362 0.439277
0.424781 0.140383 0.429755
0.567590 0.112001 0.410651
0.671412 0.053925 0.384588
0.729152 0.037995 0.372137
0.000000 0.152132 0.428351
0.000000 0.154940 0.433234
0.085908 0.163455 0.444495
0.262425 0.172457 0.454536
0.434424 0.166659 0.448859
0.583154 0.141756 0.428351
0.685542 0.106600 0.405097
0.743557 0.097292 0.388952
0.000000 0.204074 0.465949
0.000000 0.207523 0.470863
0.059083 0.218235 0.482002
0.277043 0.232120 0.493111
0.466773 0.231296 0.489448
0.621515 0.215824 0.473091
0.732204 0.213077 0.458106
0.787137 0.219974 0.443427
0.000000 0.318456 0.543084
0.000000 0.323217 0.547417
0.000000 0.338567 0.558434
0.323522 0.365545 0.571008
0.560296 0.391730 0.576043
0.732753 0.409857 0.571557
0.822324 0.412390 0.555810
0.858091 0.408545 0.534081
0.000000 0.500877 0.633631
0.000000 0.519646 0.645350
0.000000 0.576226 0.676936
0.379248 0.642084 0.703365
0.693172 0.671260 0.700740
0.845212 0.664576 0.676722
0.906188 0.665461 0.654688
0.926757 0.650080 0.628229
0.000000 0.570733 0.666224
0.000000 0.593683 0.680140
0.000000 0.675074 0.724605
0.268650 0.774228 0.762539
0.691554 0.833341 0.771969
0.882780 0.853635 0.762295
0.946990 0.849088 0.740352
0.961120 0.834836 0.713069
0.000000 0.681331 0.710170
0.000000 0.702510 0.720394
0.000000 0.750790 0.741787
0.389746 0.816709 0.766964
0.691737 0.872068 0.785214
0.881712 0.903166 0.787320
0.952789 0.909880 0.773281
0.969635 0.907561 0.758480
0.175692 0.783627 0.732906
0.272282 0.794125 0.736416
0.442664 0.820737 0.744808
0.627955 0.855222 0.754574
0.801694 0.887968 0.762600
0.908049 0.908049 0.768734
0.955688 0.917662 0.772641
0.970672 0.921508 0.773922
0.000000 0.177798 0.447303
0.000000 0.179873 0.451240
0.061067 0.188388 0.461341
0.227970 0.196109 0.469459
0.386603 0.197910 0.470008
0.537041 0.183627 0.456672
0.650660 0.155520 0.433814
0.724483 0.139986 0.416083
0.000000 0.191958 0.458137
0.000000 0.195010 0.462470
0.052583 0.203098 0.471473
0.231174 0.211154 0.479377
0.394690 0.214115 0.480171
0.546258 0.206210 0.470405
0.661524 0.180301 0.447852
0.741939 0.177829 0.433814
0.000000 0.237095 0.490394
0.000000 0.240055 0.493843
0.045197 0.249119 0.501823
0.245304 0.259403 0.509697
0.413001 0.265324 0.511315
0.568444 0.258335 0.502220
0.705592 0.267002 0.498634
0.788540 0.289006 0.492500
0.000000 0.325872 0.549523
0.000000 0.329046 0.552026
0.000000 0.336370 0.557031
0.276738 0.355749 0.566247
0.475959 0.385992 0.576715
0.666255 0.424903 0.584955
0.793820 0.453651 0.584009
0.860838 0.480812 0.578698
0.000000 0.508232 0.646021
0.000000 0.522362 0.654414
0.009796 0.558770 0.672511
0.414618 0.601099 0.687556
0.646296 0.641199 0.692561
0.800259 0.671626 0.690028
0.886503 0.695186 0.679438
0.925261 0.703395 0.662989
0.000000 0.663111 0.725460
0.000000 0.687251 0.737026
0.000000 0.741634 0.758419
0.502770 0.797665 0.771481
0.751797 0.835813 0.771847
0.886351 0.849851 0.760922
0.933227 0.851194 0.748836
0.956725 0.855619 0.736660
0.000000 0.716365 0.754025
0.000000 0.734371 0.762722
0.000000 0.779507 0.782986
0.453407 0.834714 0.804318
0.737881 0.884337 0.817838
0.898497 0.907408 0.812711
0.953094 0.911223 0.795438
0.966186 0.910277 0.780697
0.239780 0.799771 0.776425
0.313573 0.808194 0.779446
0.477760 0.835386 0.788998
0.654994 0.868101 0.799863
0.816739 0.897765 0.809903
0.912413 0.915221 0.814969
0.954192 0.923583 0.818418
0.967559 0.927031 0.819974
