LUTs/SPK Cube Block1 S64/TheBrim_SPK_Type-C_Block1_S64.cube
TITLE "TheBrim® SPK Block 1"
# TheBrim® d.o.o. Croatia
# Copyright: (C) Copyright 2020 TheBrim® d.o.o. Croatia
LUT_3D_SIZE 4
0.0000000000 0.0000000000 0.0000000000
0.0385740000 0.0000000000 0.0000000000
0.5263670000 0.0003660000 0.0003660000
0.8964230000 0.0017400000 0.0017400000
0.0003360000 0.0711980000 0.0003360000
0.1193540000 0.1193540000 0.0017090000
0.6768190000 0.1804500000 0.0033570000
0.9268190000 0.2518620000 0.0080260000
0.0032960000 0.6745910000 0.0032960000
0.2494200000 0.7374880000 0.0078430000
0.7900700000 0.7900700000 0.0163570000
0.9462590000 0.8325810000 0.0317380000
0.0159910000 0.9378660000 0.0159910000
0.4130550000 0.9460450000 0.0309450000
0.8643800000 0.9517520000 0.0604860000
0.9561160000 0.9561160000 0.1044620000
0.0000000000 0.0000000000 0.0249940000
0.0495610000 0.0000000000 0.0495610000
0.5568850000 0.0008540000 0.0888670000
0.9034730000 0.0022580000 0.1421200000
0.0007930000 0.0874020000 0.0874020000
0.1400450000 0.1400450000 0.1400450000
0.7010500000 0.2056580000 0.2056580000
0.9313350000 0.2799380000 0.2799380000
0.0045170000 0.6989140000 0.2033080000
0.2772830000 0.7578430000 0.2772830000
0.8070370000 0.8070370000 0.3605350000
0.9485170000 0.8456730000 0.4479980000
0.0201420000 0.9414060000 0.3576350000
0.4451290000 0.9483340000 0.4451290000
0.8742680000 0.9534910000 0.5305790000
0.9574280000 0.9574280000 0.6118470000
0.0000000000 0.0000000000 0.4174500000
0.0624080000 0.0001220000 0.5038450000
0.5867310000 0.0013730000 0.5867310000
0.9096680000 0.0028380000 0.6607060000
0.0013120000 0.1053160000 0.5840760000
0.1629030000 0.1629030000 0.6583860000
0.7237240000 0.2321780000 0.7237240000
0.9356080000 0.3094790000 0.7786870000
0.0062560000 0.7217100000 0.7217100000
0.3067630000 0.7770080000 0.7770080000
0.8225100000 0.8225100000 0.8225100000
0.9505620000 0.8575740000 0.8575740000
0.0258480000 0.9442140000 0.8211060000
0.4767760000 0.9503780000 0.8565980000
0.8833920000 0.9550780000 0.8833920000
0.9585880000 0.9585880000 0.9043580000
0.0000000000 0.0000000000 0.8462220000
0.0770570000 0.0004880000 0.8755800000
0.6154790000 0.0018920000 0.8984990000
0.9150700000 0.0036930000 0.9150700000
0.0018310000 0.1249690000 0.8978270000
0.1872560000 0.1872560000 0.9145810000
0.7448730000 0.2592160000 0.9280700000
0.9394840000 0.3403020000 0.9394840000
0.0084840000 0.7430110000 0.9276730000
0.3374940000 0.7948300000 0.9391780000
0.8363340000 0.8363340000 0.9468690000
0.9523930000 0.8682560000 0.9523930000
0.0333560000 0.9466550000 0.9466550000
0.5080570000 0.9522400000 0.9522400000
0.8918760000 0.9564820000 0.9564820000
0.9596560000 0.9596560000 0.9596560000
