LUTs/SPK Cube Block1 S64/TheBrim_SPK_Type-J_Block 1_S64.cube
TITLE "TheBrim® Industrial Imaging Burau"
# © Copyright 2022 - TheBrim® d.o.o. Croatia
LUT_3D_SIZE 64
0.0000000000 0.0000000000 0.0000000000
0.0000000000 0.0000000000 0.0000000000
0.0000000000 0.0000000000 0.0000000000
0.0000000000 0.0000000000 0.0000000000
0.0088807507 0.0000000000 0.0000000000
0.0309452964 0.0000000000 0.0000000000
0.0530098421 0.0000000000 0.0000000000
0.0750743877 0.0000000000 0.0000000000
0.0971084154 0.0000000000 0.0000000000
0.1191424430 0.0000000000 0.0000000000
0.1411764706 0.0000000000 0.0000000000
0.1632410163 0.0000000000 0.0000000000
0.1852750439 0.0000000000 0.0000000000
0.2074006256 0.0000000000 0.0000000000
0.2294346532 0.0000000000 0.0000000000
0.2514686809 0.0000000000 0.0000000000
0.2735332265 0.0000000000 0.0000000000
0.2955672541 0.0000000000 0.0000000000
0.3176012818 0.0000000000 0.0000000000
0.3396658274 0.0000000000 0.0000000000
0.3616998550 0.0000000000 0.0000000000
0.3837949187 0.0000000000 0.0000000000
0.4058289464 0.0000000000 0.0000000000
0.4278629740 0.0000000000 0.0000000000
0.4498970016 0.0000000000 0.0000000000
0.4719615473 0.0000000000 0.0000305180
0.4940260929 0.0000000000 0.0000305180
0.5160448615 0.0000000000 0.0000305180
0.5380788891 0.0000000000 0.0000305180
0.5601129168 0.0000000000 0.0000305180
0.5822384985 0.0000000000 0.0000305180
0.6042725261 0.0000000000 0.0000305180
0.6263065537 0.0000000000 0.0000305180
0.6483405814 0.0000000000 0.0000305180
0.6703746090 0.0000000000 0.0000305180
0.6924391547 0.0000000000 0.0000305180
0.7144426642 0.0000000000 0.0000305180
0.7364766918 0.0000000000 0.0000305180
0.7585412375 0.0000000000 0.0000305180
0.7806057832 0.0000000000 0.0000610361
0.8026398108 0.0000000000 0.0000610361
0.8246738384 0.0000000000 0.0000610361
0.8467078660 0.0000000000 0.0000610361
0.8687724117 0.0000000000 0.0000610361
0.8908064393 0.0000000000 0.0000610361
0.9128404669 0.0000000000 0.0000610361
0.9348744945 0.0000000000 0.0000610361
0.9569390402 0.0000000000 0.0000610361
0.9789730678 0.0000000000 0.0000915541
1.0000000000 0.0000000000 0.0000915541
1.0000000000 0.0000000000 0.0000915541
1.0000000000 0.0000000000 0.0000915541
1.0000000000 0.0000000000 0.0000915541
1.0000000000 0.0000000000 0.0000915541
1.0000000000 0.0000000000 0.0000915541
1.0000000000 0.0000000000 0.0000915541
1.0000000000 0.0000000000 0.0000915541
1.0000000000 0.0000000000 0.0000915541
1.0000000000 0.0000000000 0.0000915541
1.0000000000 0.0000000000 0.0000915541
1.0000000000 0.0000000000 0.0000915541
1.0000000000 0.0000000000 0.0000915541
1.0000000000 0.0000000000 0.0000915541
1.0000000000 0.0000000000 0.0000915541
0.0000000000 0.0000000000 0.0000000000
0.0000000000 0.0000000000 0.0000000000
0.0000000000 0.0000000000 0.0000000000
0.0000000000 0.0000000000 0.0000000000
0.0088807507 0.0000000000 0.0000000000
0.0309452964 0.0000000000 0.0000000000
0.0530098421 0.0000000000 0.0000000000
0.0750743877 0.0000000000 0.0000000000
0.0971084154 0.0000000000 0.0000000000
0.1191424430 0.0000000000 0.0000000000
0.1411764706 0.0000000000 0.0000000000
0.1632410163 0.0000000000 0.0000000000
0.1852750439 0.0000000000 0.0000000000
0.2074006256 0.0000000000 0.0000000000
0.2294346532 0.0000000000 0.0000000000
0.2514686809 0.0000000000 0.0000000000
0.2735332265 0.0000000000 0.0000000000
0.2955672541 0.0000000000 0.0000000000
0.3176012818 0.0000000000 0.0000000000
0.3396658274 0.0000000000 0.0000000000
0.3616998550 0.0000000000 0.0000000000
0.3837949187 0.0000000000 0.0000000000
0.4058289464 0.0000000000 0.0000000000
0.4278629740 0.0000000000 0.0000000000
0.4498970016 0.0000000000 0.0000000000
0.4719615473 0.0000000000 0.0000305180
0.4940260929 0.0000000000 0.0000305180
0.5160448615 0.0000000000 0.0000305180
0.5380788891 0.0000000000 0.0000305180
0.5601129168 0.0000000000 0.0000305180
0.5822384985 0.0000000000 0.0000305180
0.6042725261 0.0000000000 0.0000305180
0.6263065537 0.0000000000 0.0000305180
0.6483405814 0.0000000000 0.0000305180
0.6703746090 0.0000000000 0.0000305180
0.6924391547 0.0000000000 0.0000305180
0.7144426642 0.0000000000 0.0000305180
0.7364766918 0.0000000000 0.0000305180
0.7585412375 0.0000000000 0.0000305180
0.7806057832 0.0000000000 0.0000610361
0.8026398108 0.0000000000 0.0000610361
0.8246738384 0.0000000000 0.0000610361
0.8467078660 0.0000000000 0.0000610361
0.8687724117 0.0000000000 0.0000610361
0.8908064393 0.0000000000 0.0000610361
0.9128404669 0.0000000000 0.0000610361
0.9348744945 0.0000000000 0.0000610361
0.9569390402 0.0000000000 0.0000610361
0.9789730678 0.0000000000 0.0000915541
1.0000000000 0.0000000000 0.0000915541
1.0000000000 0.0000000000 0.0000915541
1.0000000000 0.0000000000 0.0000915541
1.0000000000 0.0000000000 0.0000915541
1.0000000000 0.0000000000 0.0000915541
1.0000000000 0.0000000000 0.0000915541
1.0000000000 0.0000000000 0.0000915541
1.0000000000 0.0000000000 0.0000915541
1.0000000000 0.0000000000 0.0000915541
1.0000000000 0.0000000000 0.0000915541
1.0000000000 0.0000000000 0.0000915541
1.0000000000 0.0000000000 0.0000915541
1.0000000000 0.0000000000 0.0000915541
1.0000000000 0.0000000000 0.0000915541
1.0000000000 0.0000000000 0.0000915541
0.0000000000 0.0000000000 0.0000000000
0.0000000000 0.0000000000 0.0000000000
0.0000000000 0.0000000000 0.0000000000
0.0000000000 0.0000000000 0.0000000000
0.0088807507 0.0000000000 0.0000000000
0.0309452964 0.0000000000 0.0000000000
0.0530098421 0.0000000000 0.0000000000
0.0750743877 0.0000000000 0.0000000000
0.0971084154 0.0000000000 0.0000000000
0.1191424430 0.0000000000 0.0000000000
0.1411764706 0.0000000000 0.0000000000
0.1632410163 0.0000000000 0.0000000000
0.1852750439 0.0000000000 0.0000000000
0.2074006256 0.0000000000 0.0000000000
0.2294346532 0.0000000000 0.0000000000
0.2514686809 0.0000000000 0.0000000000
0.2735332265 0.0000000000 0.0000000000
0.2955672541 0.0000000000 0.0000000000
0.3176012818 0.0000000000 0.0000000000
0.3396658274 0.0000000000 0.0000000000
0.3616998550 0.0000000000 0.0000000000
0.3837949187 0.0000000000 0.0000000000
0.4058289464 0.0000000000 0.0000000000
0.4278629740 0.0000000000 0.0000000000
0.4498970016 0.0000000000 0.0000000000
0.4719615473 0.0000000000 0.0000305180
0.4940260929 0.0000000000 0.0000305180
0.5160448615 0.0000000000 0.0000305180
0.5380788891 0.0000000000 0.0000305180
0.5601129168 0.0000000000 0.0000305180
0.5822384985 0.0000000000 0.0000305180
0.6042725261 0.0000000000 0.0000305180
0.6263065537 0.0000000000 0.0000305180
0.6483405814 0.0000000000 0.0000305180
0.6703746090 0.0000000000 0.0000305180
0.6924391547 0.0000000000 0.0000305180
0.7144426642 0.0000000000 0.0000305180
0.7364766918 0.0000000000 0.0000305180
0.7585412375 0.0000000000 0.0000305180
0.7806057832 0.0000000000 0.0000610361
0.8026398108 0.0000000000 0.0000610361
0.8246738384 0.0000000000 0.0000610361
0.8467078660 0.0000000000 0.0000610361
0.8687724117 0.0000000000 0.0000610361
0.8908064393 0.0000000000 0.0000610361
0.9128404669 0.0000000000 0.0000610361
0.9348744945 0.0000000000 0.0000610361
0.9569390402 0.0000000000 0.0000610361
0.9789730678 0.0000000000 0.0000915541
1.0000000000 0.0000000000 0.0000915541
1.0000000000 0.0000000000 0.0000915541
1.0000000000 0.0000000000 0.0000915541
1.0000000000 0.0000000000 0.0000915541
1.0000000000 0.0000000000 0.0000915541
1.0000000000 0.0000000000 0.0000915541
1.0000000000 0.0000000000 0.0000915541
1.0000000000 0.0000000000 0.0000915541
1.0000000000 0.0000000000 0.0000915541
1.0000000000 0.0000000000 0.0000915541
1.0000000000 0.0000000000 0.0000915541
1.0000000000 0.0000000000 0.0000915541
1.0000000000 0.0000000000 0.0000915541
1.0000000000 0.0000000000 0.0000915541
1.0000000000 0.0000000000 0.0000915541
0.0000000000 0.0000000000 0.0000000000
0.0000000000 0.0000000000 0.0000000000
0.0000000000 0.0000000000 0.0000000000
0.0000000000 0.0000000000 0.0000000000
0.0088807507 0.0000000000 0.0000000000
0.0309452964 0.0000000000 0.0000000000
0.0530098421 0.0000000000 0.0000000000
0.0750743877 0.0000000000 0.0000000000
0.0971084154 0.0000000000 0.0000000000
0.1191424430 0.0000000000 0.0000000000
0.1411764706 0.0000000000 0.0000000000
0.1632410163 0.0000000000 0.0000000000
0.1852750439 0.0000000000 0.0000000000
0.2074006256 0.0000000000 0.0000000000
0.2294346532 0.0000000000 0.0000000000
0.2514686809 0.0000000000 0.0000000000
0.2735332265 0.0000000000 0.0000000000
0.2955672541 0.0000000000 0.0000000000
0.3176012818 0.0000000000 0.0000000000
0.3396658274 0.0000000000 0.0000000000
0.3616998550 0.0000000000 0.0000000000
0.3837949187 0.0000000000 0.0000000000
0.4058289464 0.0000000000 0.0000000000
0.4278629740 0.0000000000 0.0000000000
0.4498970016 0.0000000000 0.0000000000
0.4719615473 0.0000000000 0.0000305180
0.4940260929 0.0000000000 0.0000305180
0.5160448615 0.0000000000 0.0000305180
0.5380788891 0.0000000000 0.0000305180
0.5601129168 0.0000000000 0.0000305180
0.5822384985 0.0000000000 0.0000305180
0.6042725261 0.0000000000 0.0000305180
0.6263065537 0.0000000000 0.0000305180
0.6483405814 0.0000000000 0.0000305180
0.6703746090 0.0000000000 0.0000305180
0.6924391547 0.0000000000 0.0000305180
0.7144426642 0.0000000000 0.0000305180
0.7364766918 0.0000000000 0.0000305180
0.7585412375 0.0000000000 0.0000305180
0.7806057832 0.0000000000 0.0000610361
0.8026398108 0.0000000000 0.0000610361
0.8246738384 0.0000000000 0.0000610361
0.8467078660 0.0000000000 0.0000610361
0.8687724117 0.0000000000 0.0000610361
0.8908064393 0.0000000000 0.0000610361
0.9128404669 0.0000000000 0.0000610361
0.9348744945 0.0000000000 0.0000610361
0.9569390402 0.0000000000 0.0000610361
0.9789730678 0.0000000000 0.0000915541
1.0000000000 0.0000000000 0.0000915541
1.0000000000 0.0000000000 0.0000915541
1.0000000000 0.0000000000 0.0000915541
1.0000000000 0.0000000000 0.0000915541
1.0000000000 0.0000000000 0.0000915541
1.0000000000 0.0000000000 0.0000915541
1.0000000000 0.0000000000 0.0000915541
1.0000000000 0.0000000000 0.0000915541
1.0000000000 0.0000000000 0.0000915541
1.0000000000 0.0000000000 0.0000915541
1.0000000000 0.0000000000 0.0000915541
1.0000000000 0.0000000000 0.0000915541
1.0000000000 0.0000000000 0.0000915541
1.0000000000 0.0000000000 0.0000915541
1.0000000000 0.0000000000 0.0000915541
0.0000000000 0.0089112688 0.0010070954
0.0000000000 0.0089112688 0.0010070954
0.0000000000 0.0089112688 0.0010070954
0.0000000000 0.0089112688 0.0010070954
0.0086366064 0.0089112688 0.0007324331
0.0307011521 0.0089112688 0.0007324331
0.0528572519 0.0088807507 0.0004577707
0.0750438697 0.0088807507 0.0000000000
0.0971084154 0.0088807507 0.0000000000
0.1191729610 0.0088807507 0.0000000000
0.1411764706 0.0088807507 0.0000000000
0.1632410163 0.0088807507 0.0000000000
0.1853055619 0.0088807507 0.0000000000
0.2074006256 0.0088807507 0.0000000000
0.2294346532 0.0088807507 0.0000000000
0.2514686809 0.0088807507 0.0000000000
0.2735332265 0.0088807507 0.0000000000
0.2955672541 0.0088807507 0.0000000000
0.3176317998 0.0088807507 0.0000000000
0.3396658274 0.0088807507 0.0000000000
0.3616998550 0.0088502327 0.0000000000
0.3837949187 0.0088502327 0.0000000000
0.4058289464 0.0088502327 0.0000000000
0.4278629740 0.0088502327 0.0000000000
0.4498970016 0.0088502327 0.0000000000
0.4719920653 0.0088502327 0.0000305180
0.4940260929 0.0088502327 0.0000305180
0.5160448615 0.0088502327 0.0000305180
0.5380788891 0.0088502327 0.0000305180
0.5601129168 0.0088502327 0.0000305180
0.5822384985 0.0088502327 0.0000305180
0.6042725261 0.0088502327 0.0000305180
0.6263065537 0.0088502327 0.0000305180
0.6483405814 0.0088502327 0.0000305180
0.6703746090 0.0088502327 0.0000305180
0.6924086366 0.0088502327 0.0000305180
0.7144426642 0.0088502327 0.0000305180
0.7364766918 0.0088502327 0.0000305180
0.7585412375 0.0088502327 0.0000305180
0.7806057832 0.0088502327 0.0000610361
0.8026398108 0.0088502327 0.0000610361
0.8246738384 0.0088502327 0.0000610361
0.8467078660 0.0088502327 0.0000610361
0.8687724117 0.0088502327 0.0000610361
0.8908064393 0.0088197147 0.0000610361
0.9128404669 0.0088197147 0.0000610361
0.9348744945 0.0088197147 0.0000610361
0.9569390402 0.0088197147 0.0000610361
0.9789730678 0.0088197147 0.0000915541
1.0000000000 0.0088197147 0.0000915541
1.0000000000 0.0088197147 0.0000915541
1.0000000000 0.0088197147 0.0000915541
1.0000000000 0.0088197147 0.0000915541
1.0000000000 0.0088197147 0.0000915541
1.0000000000 0.0088197147 0.0000915541
1.0000000000 0.0088197147 0.0000915541
1.0000000000 0.0088197147 0.0000915541
1.0000000000 0.0088197147 0.0000915541
1.0000000000 0.0088197147 0.0000915541
1.0000000000 0.0088197147 0.0000915541
1.0000000000 0.0088197147 0.0000915541
1.0000000000 0.0088197147 0.0000915541
1.0000000000 0.0088197147 0.0000915541
1.0000000000 0.0088197147 0.0000915541
0.0000000000 0.0310368505 0.0034790570
0.0000000000 0.0310368505 0.0034790570
0.0000000000 0.0310368505 0.0034790570
0.0000000000 0.0310368505 0.0034790570
0.0086366064 0.0310368505 0.0032043946
0.0300297551 0.0310063325 0.0025635157
0.0524299992 0.0309758145 0.0018310826
0.0747997253 0.0309758145 0.0009155413
0.0970778973 0.0309452964 0.0000305180
0.1191729610 0.0309452964 0.0000000000
0.1412069886 0.0309452964 0.0000000000
0.1632715343 0.0309452964 0.0000000000
0.1853055619 0.0309147784 0.0000000000
0.2074006256 0.0309147784 0.0000000000
0.2294346532 0.0309147784 0.0000000000
0.2514991989 0.0309147784 0.0000000000
0.2735637446 0.0309147784 0.0000000000
0.2955977722 0.0309147784 0.0000000000
0.3176317998 0.0309147784 0.0000000000
0.3396658274 0.0308842603 0.0000000000
0.3616998550 0.0308842603 0.0000000000
0.3837949187 0.0308842603 0.0000000000
0.4058289464 0.0308842603 0.0000000000
0.4278934920 0.0308842603 0.0000000000
0.4499275196 0.0308537423 0.0000000000
0.4719920653 0.0308537423 0.0000305180
0.4940260929 0.0308537423 0.0000305180
0.5160448615 0.0308537423 0.0000305180
0.5380788891 0.0308232242 0.0000305180
0.5601129168 0.0308232242 0.0000305180
0.5822384985 0.0308232242 0.0000305180
0.6042725261 0.0308232242 0.0000305180
0.6262760357 0.0308232242 0.0000305180
0.6483100633 0.0308232242 0.0000305180
0.6703440909 0.0308232242 0.0000305180
0.6924086366 0.0308232242 0.0000305180
0.7144426642 0.0308232242 0.0000305180
0.7364766918 0.0308232242 0.0000305180
0.7585412375 0.0308232242 0.0000305180
0.7806057832 0.0307927062 0.0000610361
0.8026398108 0.0307927062 0.0000610361
0.8246738384 0.0307927062 0.0000610361
0.8467078660 0.0307927062 0.0000610361
0.8687724117 0.0307927062 0.0000610361
0.8908064393 0.0307927062 0.0000610361
0.9128404669 0.0307621881 0.0000610361
0.9348744945 0.0307621881 0.0000610361
0.9569390402 0.0307316701 0.0000610361
0.9789730678 0.0307316701 0.0000915541
1.0000000000 0.0307316701 0.0000915541
1.0000000000 0.0307316701 0.0000915541
1.0000000000 0.0307316701 0.0000915541
1.0000000000 0.0307316701 0.0000915541
1.0000000000 0.0307316701 0.0000915541
1.0000000000 0.0307316701 0.0000915541
1.0000000000 0.0307316701 0.0000915541
1.0000000000 0.0307316701 0.0000915541
1.0000000000 0.0307316701 0.0000915541
1.0000000000 0.0307316701 0.0000915541
1.0000000000 0.0307316701 0.0000915541
1.0000000000 0.0307316701 0.0000915541
1.0000000000 0.0307316701 0.0000915541
1.0000000000 0.0307316701 0.0000915541
1.0000000000 0.0307316701 0.0000915541
0.0000000000 0.0531013962 0.0054016938
0.0000000000 0.0531013962 0.0054016938
0.0000000000 0.0531013962 0.0054016938
0.0000000000 0.0531013962 0.0054016938
0.0081788357 0.0531319142 0.0051880674
0.0291447318 0.0531013962 0.0046997787
0.0515754940 0.0531013962 0.0042725261
0.0740978103 0.0530403601 0.0034485389
0.0966201266 0.0530098421 0.0024719615
0.1189288167 0.0529793240 0.0013427939
0.1411154345 0.0529793240 0.0003356985
0.1632410163 0.0529793240 0.0000000000
0.1853360800 0.0529488060 0.0000000000
0.2074311437 0.0529488060 0.0000000000
0.2294651713 0.0529488060 0.0000000000
0.2514991989 0.0529488060 0.0000000000
0.2735637446 0.0529488060 0.0000000000
0.2955977722 0.0529488060 0.0000000000
0.3176317998 0.0529488060 0.0000000000
0.3396658274 0.0529182879 0.0000000000
0.3617303731 0.0529182879 0.0000000000
0.3838254368 0.0529182879 0.0000000000
0.4058594644 0.0529182879 0.0000000000
0.4278934920 0.0529182879 0.0000000000
0.4499275196 0.0529182879 0.0000000000
0.4719920653 0.0529182879 0.0000000000
0.4940260929 0.0529182879 0.0000305180
0.5160143435 0.0528877699 0.0000305180
0.5380483711 0.0528877699 0.0000305180
0.5600823987 0.0528877699 0.0000305180
0.5822079805 0.0528877699 0.0000305180
0.6042420081 0.0528877699 0.0000305180
0.6262760357 0.0528877699 0.0000305180
0.6483100633 0.0528877699 0.0000305180
0.6703440909 0.0528877699 0.0000305180
0.6924086366 0.0528877699 0.0000305180
0.7144426642 0.0528877699 0.0000305180
0.7364766918 0.0528877699 0.0000305180
0.7585412375 0.0528877699 0.0000305180
0.7806057832 0.0528877699 0.0000610361
0.8026398108 0.0528572519 0.0000610361
0.8246738384 0.0528572519 0.0000610361
0.8467078660 0.0528572519 0.0000610361
0.8687724117 0.0528572519 0.0000610361
0.8908064393 0.0528572519 0.0000610361
0.9128404669 0.0528267338 0.0000610361
0.9348744945 0.0528267338 0.0000610361
0.9569390402 0.0528267338 0.0000610361
0.9789730678 0.0527962158 0.0000915541
1.0000000000 0.0527962158 0.0000915541
1.0000000000 0.0527962158 0.0000915541
1.0000000000 0.0527962158 0.0000915541
1.0000000000 0.0527962158 0.0000915541
1.0000000000 0.0527962158 0.0000915541
1.0000000000 0.0527962158 0.0000915541
1.0000000000 0.0527962158 0.0000915541
1.0000000000 0.0527962158 0.0000915541
1.0000000000 0.0527962158 0.0000915541
1.0000000000 0.0527962158 0.0000915541
1.0000000000 0.0527962158 0.0000915541
1.0000000000 0.0527962158 0.0000915541
1.0000000000 0.0527962158 0.0000915541
1.0000000000 0.0527962158 0.0000915541
1.0000000000 0.0527962158 0.0000915541
0.0000000000 0.0751964599 0.0074769207
0.0000000000 0.0751964599 0.0074769207
0.0000000000 0.0751964599 0.0074769207
0.0000000000 0.0751964599 0.0074769207
0.0081177996 0.0752269780 0.0072022583
0.0286869612 0.0751964599 0.0068360418
0.0502937362 0.0751964599 0.0064393072
0.0732433051 0.0751659419 0.0059205005
0.0958876936 0.0751354238 0.0050965133
0.1183794919 0.0750743877 0.0039978637
0.1407492180 0.0750438697 0.0029602502
0.1630273899 0.0750438697 0.0017700465
0.1851529717 0.0750133516 0.0015869383
0.2073090715 0.0750133516 0.0011291676
0.2293736172 0.0750133516 0.0007934691
0.2514076448 0.0750133516 0.0007019150
0.2735027085 0.0749828336 0.0004272526
0.2955672541 0.0750133516 0.0001525902
0.3176012818 0.0750133516 0.0001220722
0.3396353094 0.0750133516 0.0000000000
0.3616693370 0.0750133516 0.0000000000
0.3837949187 0.0750133516 0.0000000000
0.4058289464 0.0750133516 0.0000000000
0.4278629740 0.0750133516 0.0000000000
0.4498970016 0.0749828336 0.0000000000
0.4719615473 0.0750133516 0.0000000000
0.4939955749 0.0749828336 0.0000305180
0.5160143435 0.0749828336 0.0000305180
0.5380483711 0.0749828336 0.0000305180
0.5600518807 0.0749828336 0.0000305180
0.5822079805 0.0749828336 0.0000305180
0.6042114900 0.0749828336 0.0000305180
0.6262455177 0.0749828336 0.0000305180
0.6482795453 0.0749828336 0.0000305180
0.6703135729 0.0749828336 0.0000305180
0.6923781186 0.0749828336 0.0000305180
0.7144121462 0.0749828336 0.0000305180
0.7364461738 0.0749828336 0.0000305180
0.7585412375 0.0749828336 0.0000305180
0.7806057832 0.0749523156 0.0000610361
0.8026398108 0.0749523156 0.0000610361
0.8246738384 0.0749523156 0.0000610361
0.8467078660 0.0749523156 0.0000610361
0.8687724117 0.0749523156 0.0000610361
0.8908064393 0.0749523156 0.0000610361
0.9128404669 0.0749523156 0.0000610361
0.9348744945 0.0749217975 0.0000610361
0.9569390402 0.0749217975 0.0000610361
0.9789730678 0.0749217975 0.0000915541
1.0000000000 0.0749217975 0.0000915541
1.0000000000 0.0749217975 0.0000915541
1.0000000000 0.0749217975 0.0000915541
1.0000000000 0.0749217975 0.0000915541
1.0000000000 0.0749217975 0.0000915541
1.0000000000 0.0749217975 0.0000915541
1.0000000000 0.0749217975 0.0000915541
1.0000000000 0.0749217975 0.0000915541
1.0000000000 0.0749217975 0.0000915541
1.0000000000 0.0749217975 0.0000915541
1.0000000000 0.0749217975 0.0000915541
1.0000000000 0.0749217975 0.0000915541
1.0000000000 0.0749217975 0.0000915541
1.0000000000 0.0749217975 0.0000915541
1.0000000000 0.0749217975 0.0000915541
0.0000000000 0.0972610056 0.0098268101
0.0000000000 0.0972610056 0.0098268101
0.0000000000 0.0972610056 0.0098268101
0.0000000000 0.0972610056 0.0098268101
0.0080567636 0.0973220417 0.0094300755
0.0285954070 0.0973220417 0.0090638590
0.0495002670 0.0972915236 0.0086366064
0.0715953307 0.0972915236 0.0081483177
0.0949111162 0.0972304875 0.0075379568
0.1176470588 0.0971694514 0.0067444877
0.1401998932 0.0971389334 0.0059205005
0.1625696193 0.0970778973 0.0051270314
0.1848172732 0.0970473793 0.0043335622
0.2070038911 0.0970473793 0.0035706111
0.2291599908 0.0970168612 0.0028686961
0.2512855726 0.0970168612 0.0021667811
0.2733806363 0.0970473793 0.0016479744
0.2954451820 0.0970168612 0.0011596857
0.3175097276 0.0970473793 0.0007324331
0.3395437552 0.0970473793 0.0004272526
0.3616083009 0.0970473793 0.0002746624
0.3837033646 0.0970473793 0.0002136263
0.4057679103 0.0970473793 0.0002136263
0.4278019379 0.0970778973 0.0001525902
0.4498359655 0.0970778973 0.0001220722
0.4719005112 0.0970778973 0.0000610361
0.4939345388 0.0970473793 0.0000610361
0.5159533074 0.0970473793 0.0000305180
0.5380178531 0.0970473793 0.0000305180
0.5600518807 0.0970473793 0.0000305180
0.5821774624 0.0970473793 0.0000305180
0.6042114900 0.0970473793 0.0000305180
0.6262455177 0.0970473793 0.0000305180
0.6482795453 0.0970473793 0.0000305180
0.6703135729 0.0970473793 0.0000305180
0.6923781186 0.0970473793 0.0000305180
0.7144121462 0.0970473793 0.0000305180
0.7364461738 0.0970473793 0.0000305180
0.7585107195 0.0970168612 0.0000305180
0.7805752651 0.0970168612 0.0000610361
0.8026092927 0.0970168612 0.0000610361
0.8246433204 0.0970168612 0.0000610361
0.8466773480 0.0970168612 0.0000610361
0.8687724117 0.0970168612 0.0000610361
0.8908064393 0.0970168612 0.0000610361
0.9128404669 0.0970168612 0.0000610361
0.9348744945 0.0969863432 0.0000610361
0.9569390402 0.0969863432 0.0000610361
0.9789730678 0.0969863432 0.0000915541
1.0000000000 0.0969863432 0.0000915541
1.0000000000 0.0969863432 0.0000915541
1.0000000000 0.0969863432 0.0000915541
1.0000000000 0.0969863432 0.0000915541
1.0000000000 0.0969863432 0.0000915541
1.0000000000 0.0969863432 0.0000915541
1.0000000000 0.0969863432 0.0000915541
1.0000000000 0.0969863432 0.0000915541
1.0000000000 0.0969863432 0.0000915541
1.0000000000 0.0969863432 0.0000915541
1.0000000000 0.0969863432 0.0000915541
1.0000000000 0.0969863432 0.0000915541
1.0000000000 0.0969863432 0.0000915541
1.0000000000 0.0969863432 0.0000915541
1.0000000000 0.0969863432 0.0000915541
0.0000000000 0.1193560693 0.0127870603
0.0000000000 0.1193560693 0.0127870603
0.0000000000 0.1193560693 0.0127870603
0.0000000000 0.1193560693 0.0127870603
0.0079652094 0.1194171054 0.0123292897
0.0284428168 0.1194171054 0.0117494469
0.0490119783 0.1194171054 0.0112306401
0.0704356451 0.1193865873 0.0106813153
0.0928053712 0.1193865873 0.0100099184
0.1166399634 0.1193255512 0.0091554131
0.1394369421 0.1192645151 0.0082703899
0.1619897765 0.1192034791 0.0074769207
0.1843900206 0.1191424430 0.0066834516
0.2066987106 0.1190814069 0.0059815366
0.2289158465 0.1190814069 0.0053101396
0.2510719463 0.1190508888 0.0046997787
0.2731975280 0.1190508888 0.0041809720
0.2952925917 0.1190203708 0.0036621653
0.3173876555 0.1190508888 0.0032043946
0.3394522011 0.1190508888 0.0027466239
0.3614862287 0.1190508888 0.0022888533
0.3836118105 0.1190814069 0.0019836728
0.4056763561 0.1190508888 0.0016784924
0.4277409018 0.1190508888 0.0013122759
0.4497749294 0.1190814069 0.0010681315
0.4718394751 0.1190814069 0.0007934691
0.4939040208 0.1190814069 0.0004882887
0.5159227893 0.1191119249 0.0002746624
0.5379568170 0.1191119249 0.0001220722
0.5599908446 0.1191119249 0.0000305180
0.5821469444 0.1191119249 0.0000305180
0.6041809720 0.1191119249 0.0000305180
0.6262149996 0.1190814069 0.0000305180
0.6482490272 0.1190814069 0.0000305180
0.6702830549 0.1190814069 0.0000305180
0.6923476005 0.1190814069 0.0000305180
