LUTs/SPK Cube Block1 S64/TheBrim_SPK_Type-T_Block1_S64.cube
TITLE "TheBrim® SPK Block 1"
# TheBrim® d.o.o. Croatia
# Copyright: (C) Copyright 2020 TheBrim® d.o.o. Croatia
LUT_3D_SIZE 64
0.0000000000 0.0000000000 0.0000000000
0.0040280000 0.0011600000 0.0006100000
0.0080870000 0.0023190000 0.0012210000
0.0122380000 0.0035100000 0.0018010000
0.0163570000 0.0047000000 0.0024410000
0.0198670000 0.0057070000 0.0029600000
0.0233460000 0.0067140000 0.0034480000
0.0267940000 0.0076900000 0.0039670000
0.0294190000 0.0081480000 0.0040890000
0.0321040000 0.0084530000 0.0042720000
0.0346370000 0.0089110000 0.0046080000
0.0373840000 0.0093990000 0.0048830000
0.0402220000 0.0099180000 0.0052190000
0.0436100000 0.0104680000 0.0055850000
0.0479740000 0.0109250000 0.0059810000
0.0553890000 0.0109860000 0.0062260000
0.0641170000 0.0108950000 0.0068360000
0.0763550000 0.0108640000 0.0075680000
0.0898130000 0.0105590000 0.0081790000
0.1042790000 0.0102840000 0.0089420000
0.1198430000 0.0108950000 0.0096440000
0.1375730000 0.0133360000 0.0102540000
0.1549680000 0.0158080000 0.0106510000
0.1727600000 0.0193790000 0.0105290000
0.1912540000 0.0222170000 0.0103760000
0.2114560000 0.0242310000 0.0101620000
0.2319640000 0.0252380000 0.0101620000
0.2538150000 0.0274350000 0.0105900000
0.2752380000 0.0283810000 0.0113830000
0.2957460000 0.0291750000 0.0116580000
0.3178100000 0.0302430000 0.0118410000
0.3413700000 0.0344540000 0.0130000000
0.3669130000 0.0375670000 0.0143430000
0.3948670000 0.0358890000 0.0165410000
0.4204100000 0.0325930000 0.0183110000
0.4435120000 0.0302430000 0.0195920000
0.4660640000 0.0303650000 0.0211790000
0.4881900000 0.0312810000 0.0226750000
0.5111690000 0.0307620000 0.0241700000
0.5348210000 0.0270690000 0.0259400000
0.5564580000 0.0214230000 0.0270690000
0.5767520000 0.0197450000 0.0277400000
0.5932920000 0.0198970000 0.0282290000
0.6078490000 0.0216670000 0.0278020000
0.6223750000 0.0231320000 0.0272830000
0.6359860000 0.0210570000 0.0270080000
0.6489560000 0.0198670000 0.0266720000
0.6634220000 0.0186770000 0.0261540000
0.6747440000 0.0166930000 0.0263060000
0.6853330000 0.0158080000 0.0267640000
0.6947020000 0.0157170000 0.0274350000
0.7037050000 0.0161440000 0.0282900000
0.7120360000 0.0163880000 0.0290530000
0.7198790000 0.0162050000 0.0297550000
0.7266850000 0.0162960000 0.0303650000
0.7332760000 0.0173950000 0.0310970000
0.7387080000 0.0182800000 0.0316770000
0.7436220000 0.0187380000 0.0321040000
0.7481690000 0.0183110000 0.0324400000
0.7527160000 0.0180050000 0.0328670000
0.7569580000 0.0179440000 0.0333560000
0.7611080000 0.0173650000 0.0339050000
0.7651370000 0.0167240000 0.0344540000
0.7700200000 0.0167850000 0.0353390000
0.0021060000 0.0032650000 0.0016780000
0.0037230000 0.0030210000 0.0013430000
0.0077510000 0.0042110000 0.0019530000
0.0119320000 0.0054020000 0.0025630000
0.0160520000 0.0065920000 0.0031740000
0.0195620000 0.0075680000 0.0037230000
0.0230100000 0.0085750000 0.0042110000
0.0264890000 0.0095520000 0.0047000000
0.0292050000 0.0097960000 0.0046390000
0.0319210000 0.0100400000 0.0047610000
0.0345760000 0.0104060000 0.0050050000
0.0373230000 0.0108950000 0.0053100000
0.0401610000 0.0113830000 0.0056460000
0.0435180000 0.0119320000 0.0059810000
0.0478520000 0.0123290000 0.0063480000
0.0552370000 0.0123600000 0.0065310000
0.0640260000 0.0122680000 0.0071110000
0.0761720000 0.0121460000 0.0078430000
0.0896910000 0.0119930000 0.0084230000
0.1044310000 0.0118410000 0.0092160000
0.1200870000 0.0126950000 0.0098880000
0.1373290000 0.0147710000 0.0102230000
0.1547240000 0.0172420000 0.0106200000
0.1725160000 0.0206300000 0.0104980000
0.1910710000 0.0234070000 0.0103450000
0.2112430000 0.0254820000 0.0101620000
0.2317200000 0.0262760000 0.0101320000
0.2536010000 0.0284120000 0.0105900000
0.2750240000 0.0293270000 0.0113830000
0.2955320000 0.0305480000 0.0115360000
0.3175660000 0.0315250000 0.0117800000
0.3410950000 0.0354920000 0.0130620000
0.3666690000 0.0385440000 0.0143740000
0.3946530000 0.0368960000 0.0166020000
0.4201660000 0.0336300000 0.0183410000
0.4432070000 0.0312190000 0.0195920000
0.4658200000 0.0312810000 0.0211790000
0.4879150000 0.0323180000 0.0226440000
0.5110780000 0.0316160000 0.0242000000
0.5346070000 0.0279540000 0.0259700000
0.5568540000 0.0221560000 0.0271910000
0.5777890000 0.0203860000 0.0278630000
0.5943600000 0.0209960000 0.0282590000
0.6089480000 0.0228580000 0.0279850000
0.6234440000 0.0243530000 0.0276180000
0.6370240000 0.0223080000 0.0269780000
0.6499330000 0.0207210000 0.0264890000
0.6642760000 0.0194700000 0.0264280000
0.6755680000 0.0176090000 0.0267330000
0.6862180000 0.0167540000 0.0272220000
0.6956180000 0.0169680000 0.0278930000
0.7045900000 0.0173950000 0.0287780000
0.7130430000 0.0176700000 0.0295410000
0.7208560000 0.0175170000 0.0302430000
0.7276310000 0.0175170000 0.0308840000
0.7342530000 0.0186160000 0.0316160000
0.7397160000 0.0195010000 0.0321960000
0.7445980000 0.0199890000 0.0326540000
0.7491150000 0.0195920000 0.0329900000
0.7536320000 0.0190430000 0.0333250000
0.7578740000 0.0189820000 0.0337830000
0.7620240000 0.0184020000 0.0343320000
0.7660830000 0.0177920000 0.0348820000
0.7708130000 0.0177000000 0.0357060000
0.0041500000 0.0064700000 0.0033260000
0.0055850000 0.0061650000 0.0029600000
0.0074460000 0.0060420000 0.0027160000
0.0115970000 0.0072330000 0.0033260000
0.0157470000 0.0084230000 0.0039060000
0.0191960000 0.0094300000 0.0044250000
0.0227360000 0.0104370000 0.0049740000
0.0261840000 0.0114140000 0.0054630000
0.0289000000 0.0116880000 0.0054320000
0.0316770000 0.0116880000 0.0053100000
0.0344240000 0.0119630000 0.0054630000
0.0372310000 0.0123900000 0.0057370000
0.0401000000 0.0128780000 0.0060730000
0.0434270000 0.0134280000 0.0064090000
0.0477290000 0.0137330000 0.0066830000
0.0550230000 0.0137940000 0.0068660000
0.0638730000 0.0136720000 0.0073850000
0.0758970000 0.0134280000 0.0080570000
0.0894170000 0.0133670000 0.0086060000
0.1041560000 0.0131840000 0.0093690000
0.1198730000 0.0142210000 0.0098880000
0.1371460000 0.0161740000 0.0102540000
0.1544800000 0.0186770000 0.0105900000
0.1723020000 0.0218510000 0.0104980000
0.1908260000 0.0246890000 0.0103150000
0.2110290000 0.0266720000 0.0101320000
0.2315060000 0.0273440000 0.0101320000
0.2534180000 0.0293270000 0.0105900000
0.2748110000 0.0302730000 0.0113220000
0.2952880000 0.0318910000 0.0114440000
0.3173220000 0.0327450000 0.0116880000
0.3408510000 0.0365600000 0.0130310000
0.3664250000 0.0396120000 0.0144040000
0.3943790000 0.0379030000 0.0166320000
0.4198910000 0.0346370000 0.0183720000
0.4429630000 0.0321960000 0.0196230000
0.4655460000 0.0322270000 0.0212100000
0.4877620000 0.0333860000 0.0227050000
0.5110470000 0.0324400000 0.0242310000
0.5346070000 0.0288090000 0.0260010000
0.5567630000 0.0231320000 0.0271910000
0.5782170000 0.0215150000 0.0278630000
0.5951230000 0.0226140000 0.0285030000
0.6098630000 0.0240170000 0.0282590000
0.6244510000 0.0255430000 0.0279540000
0.6380310000 0.0233150000 0.0273440000
0.6509400000 0.0217900000 0.0267940000
0.6651000000 0.0203860000 0.0268550000
0.6764830000 0.0184630000 0.0271610000
0.6871340000 0.0175780000 0.0276790000
0.6964720000 0.0181580000 0.0283510000
0.7054440000 0.0186460000 0.0292360000
0.7138670000 0.0188900000 0.0300290000
0.7217710000 0.0187990000 0.0307310000
0.7286070000 0.0187380000 0.0314030000
0.7351990000 0.0198360000 0.0321040000
0.7406620000 0.0207210000 0.0327150000
0.7455440000 0.0211790000 0.0331420000
0.7500920000 0.0208740000 0.0334780000
0.7546080000 0.0202330000 0.0338130000
0.7588500000 0.0199890000 0.0342100000
0.7629700000 0.0194400000 0.0347600000
0.7669680000 0.0188600000 0.0353090000
0.7717590000 0.0187680000 0.0361330000
0.0062870000 0.0098270000 0.0050050000
0.0077210000 0.0095520000 0.0046690000
0.0090940000 0.0091250000 0.0042720000
0.0112610000 0.0091550000 0.0040590000
0.0153810000 0.0103450000 0.0047000000
0.0188900000 0.0113220000 0.0052190000
0.0224000000 0.0123290000 0.0057070000
0.0258180000 0.0133060000 0.0062260000
0.0286560000 0.0136110000 0.0062260000
0.0314030000 0.0135800000 0.0060120000
0.0342100000 0.0136410000 0.0060120000
0.0371400000 0.0139470000 0.0062260000
0.0400090000 0.0144040000 0.0065000000
0.0433650000 0.0149840000 0.0068660000
0.0476680000 0.0152590000 0.0071720000
0.0548400000 0.0152590000 0.0072330000
0.0637210000 0.0150760000 0.0077210000
0.0757140000 0.0147710000 0.0083620000
0.0891420000 0.0147400000 0.0087890000
0.1039120000 0.0145570000 0.0095210000
0.1196590000 0.0157780000 0.0098880000
0.1369320000 0.0175780000 0.0102840000
0.1542660000 0.0201720000 0.0105290000
0.1720580000 0.0231930000 0.0104370000
0.1906130000 0.0260310000 0.0102840000
0.2108150000 0.0278930000 0.0101320000
0.2312930000 0.0285030000 0.0101320000
0.2532040000 0.0303340000 0.0105590000
0.2745970000 0.0313110000 0.0113220000
0.2950440000 0.0332030000 0.0113220000
0.3170470000 0.0341190000 0.0115970000
0.3406070000 0.0378110000 0.0129390000
0.3661800000 0.0407100000 0.0144650000
0.3943480000 0.0391540000 0.0167540000
0.4198610000 0.0360410000 0.0184630000
0.4427190000 0.0331730000 0.0196530000
0.4653020000 0.0332340000 0.0212400000
0.4877620000 0.0344850000 0.0228270000
0.5110170000 0.0336610000 0.0243530000
0.5346070000 0.0296940000 0.0260310000
0.5567320000 0.0242310000 0.0271610000
0.5781560000 0.0227660000 0.0277100000
0.5950620000 0.0238950000 0.0283200000
0.6098020000 0.0249940000 0.0281370000
0.6246950000 0.0265810000 0.0278930000
0.6390990000 0.0243840000 0.0277400000
0.6520080000 0.0228580000 0.0271610000
0.6659850000 0.0213010000 0.0273130000
0.6773380000 0.0193790000 0.0276490000
0.6879880000 0.0184020000 0.0281070000
0.6971130000 0.0194090000 0.0287480000
0.7056270000 0.0198060000 0.0294190000
0.7137760000 0.0200500000 0.0300900000
0.7217100000 0.0200200000 0.0307920000
0.7286070000 0.0198970000 0.0314640000
0.7352910000 0.0206910000 0.0322570000
0.7408450000 0.0216370000 0.0328980000
0.7461550000 0.0223080000 0.0335080000
0.7510680000 0.0222170000 0.0340270000
0.7555850000 0.0215450000 0.0343320000
0.7597350000 0.0210270000 0.0346680000
0.7639160000 0.0205380000 0.0352170000
0.7679140000 0.0199280000 0.0357360000
0.7727050000 0.0198360000 0.0365600000
0.0084230000 0.0131840000 0.0067440000
0.0098880000 0.0129090000 0.0064090000
0.0112610000 0.0124820000 0.0060120000
0.0126650000 0.0120850000 0.0055540000
0.0150760000 0.0122380000 0.0054630000
0.0185550000 0.0132450000 0.0059810000
0.0220640000 0.0142520000 0.0065000000
0.0255130000 0.0152280000 0.0069890000
0.0283510000 0.0155940000 0.0070500000
0.0311280000 0.0155330000 0.0067440000
0.0339360000 0.0155330000 0.0067140000
0.0368960000 0.0156560000 0.0067440000
0.0399170000 0.0159910000 0.0069580000
0.0433040000 0.0165100000 0.0072940000
0.0475770000 0.0167850000 0.0075990000
0.0546880000 0.0167240000 0.0075990000
0.0635380000 0.0165410000 0.0079960000
0.0755310000 0.0161740000 0.0086670000
0.0888670000 0.0161440000 0.0089720000
0.1036680000 0.0159300000 0.0097350000
0.1194760000 0.0173650000 0.0098880000
0.1367190000 0.0190120000 0.0102540000
0.1540220000 0.0217590000 0.0104980000
0.1718440000 0.0245970000 0.0104060000
0.1903990000 0.0273130000 0.0102540000
0.2105710000 0.0291440000 0.0101010000
0.2311100000 0.0296630000 0.0101620000
0.2529910000 0.0313420000 0.0105590000
0.2743530000 0.0323180000 0.0112920000
0.2948910000 0.0343320000 0.0113530000
0.3168640000 0.0355220000 0.0115970000
0.3403630000 0.0390930000 0.0128480000
0.3661500000 0.0418400000 0.0146480000
0.3943180000 0.0403750000 0.0168460000
0.4198610000 0.0373840000 0.0185550000
0.4426880000 0.0345460000 0.0197450000
0.4652400000 0.0344240000 0.0213010000
0.4876710000 0.0355830000 0.0229190000
0.5109860000 0.0349120000 0.0244750000
0.5345460000 0.0306090000 0.0260620000
0.5566710000 0.0253300000 0.0271300000
0.5781250000 0.0240780000 0.0275570000
0.5950320000 0.0251460000 0.0281980000
0.6098020000 0.0259700000 0.0280150000
0.6246640000 0.0275570000 0.0278020000
0.6394650000 0.0253300000 0.0278320000
0.6530150000 0.0238950000 0.0275570000
0.6669010000 0.0222170000 0.0277710000
0.6780400000 0.0202640000 0.0280150000
0.6881710000 0.0191040000 0.0282290000
0.6970520000 0.0201720000 0.0287780000
0.7055660000 0.0209660000 0.0295100000
0.7137150000 0.0212100000 0.0301210000
0.7216490000 0.0211490000 0.0308230000
0.7285460000 0.0211180000 0.0314940000
0.7352290000 0.0214840000 0.0323790000
0.7407840000 0.0224000000 0.0329900000
0.7460940000 0.0230710000 0.0336000000
0.7510380000 0.0231020000 0.0341190000
0.7559810000 0.0226140000 0.0346370000
0.7605290000 0.0221860000 0.0350950000
0.7648620000 0.0216060000 0.0356450000
0.7689210000 0.0209960000 0.0361940000
0.7736510000 0.0209350000 0.0370180000
0.0105590000 0.0164790000 0.0084230000
0.0119930000 0.0162660000 0.0081180000
0.0133970000 0.0158690000 0.0077210000
0.0148320000 0.0154720000 0.0073240000
0.0162350000 0.0150450000 0.0068660000
0.0182500000 0.0151370000 0.0067440000
0.0216980000 0.0161440000 0.0072630000
0.0251770000 0.0171200000 0.0077510000
0.0280760000 0.0175480000 0.0078430000
0.0308530000 0.0174560000 0.0074770000
0.0336610000 0.0174870000 0.0074770000
0.0366520000 0.0174870000 0.0074160000
0.0397340000 0.0176390000 0.0075070000
0.0432130000 0.0180660000 0.0077820000
0.0475160000 0.0183410000 0.0080570000
0.0545650000 0.0182800000 0.0080570000
0.0633540000 0.0179750000 0.0083310000
0.0753780000 0.0175780000 0.0090030000
0.0886540000 0.0174870000 0.0091860000
0.1033630000 0.0172730000 0.0099180000
0.1192320000 0.0188900000 0.0099180000
0.1365050000 0.0204470000 0.0102840000
0.1537780000 0.0233760000 0.0104370000
0.1716000000 0.0260930000 0.0103760000
0.1901550000 0.0285950000 0.0102230000
0.2103580000 0.0303650000 0.0101010000
0.2308960000 0.0307920000 0.0101620000
0.2528080000 0.0323180000 0.0105900000
0.2741390000 0.0332950000 0.0112920000
0.2948910000 0.0357060000 0.0114750000
0.3168950000 0.0370480000 0.0118100000
0.3403630000 0.0403750000 0.0130000000
0.3661190000 0.0429380000 0.0147710000
0.3943180000 0.0415950000 0.0169680000
0.4198300000 0.0386960000 0.0186160000
0.4426880000 0.0359190000 0.0198360000
0.4652400000 0.0356140000 0.0213930000
0.4876710000 0.0366820000 0.0230100000
0.5109250000 0.0361330000 0.0245970000
0.5345460000 0.0314940000 0.0261230000
0.5566410000 0.0264280000 0.0271000000
0.5780940000 0.0254210000 0.0274350000
0.5950010000 0.0263980000 0.0280760000
0.6097410000 0.0268550000 0.0278930000
0.6246340000 0.0285340000 0.0276490000
0.6394350000 0.0261540000 0.0277400000
0.6532900000 0.0248110000 0.0276180000
0.6670530000 0.0230710000 0.0278930000
0.6779790000 0.0210270000 0.0280460000
0.6881100000 0.0197750000 0.0282590000
0.6969910000 0.0207820000 0.0287480000
0.7055050000 0.0221250000 0.0295410000
0.7136540000 0.0223390000 0.0301820000
0.7215880000 0.0223080000 0.0308840000
0.7284850000 0.0222780000 0.0315550000
0.7351680000 0.0224300000 0.0324100000
0.7407230000 0.0231930000 0.0330810000
0.7460330000 0.0238650000 0.0337220000
0.7509770000 0.0239560000 0.0342410000
0.7559200000 0.0234680000 0.0347290000
0.7604680000 0.0230410000 0.0351870000
0.7649840000 0.0224300000 0.0357970000
0.7693790000 0.0219120000 0.0364690000
0.7740170000 0.0218200000 0.0372620000
0.0126950000 0.0198360000 0.0101320000
0.0141600000 0.0196230000 0.0098570000
0.0155330000 0.0192570000 0.0094600000
0.0169680000 0.0188290000 0.0090330000
0.0183720000 0.0184330000 0.0085750000
0.0195920000 0.0180660000 0.0082400000
0.0213930000 0.0180660000 0.0080260000
0.0248410000 0.0190430000 0.0085450000
0.0277710000 0.0195010000 0.0086360000
0.0305790000 0.0194090000 0.0082700000
0.0333860000 0.0194090000 0.0082090000
0.0363770000 0.0194090000 0.0081480000
0.0394900000 0.0194090000 0.0080870000
0.0430600000 0.0196530000 0.0082400000
0.0474240000 0.0198970000 0.0084840000
0.0544740000 0.0198670000 0.0084840000
0.0631710000 0.0194400000 0.0086980000
0.0752260000 0.0190120000 0.0093080000
0.0884090000 0.0188290000 0.0094300000
0.1031190000 0.0186770000 0.0101320000
0.1189880000 0.0202330000 0.0100710000
0.1362920000 0.0219730000 0.0103150000
0.1535340000 0.0249940000 0.0103760000
0.1713870000 0.0275880000 0.0103450000
0.1899410000 0.0299380000 0.0101930000
0.2101440000 0.0316160000 0.0100710000
0.2306820000 0.0319520000 0.0101320000
0.2525940000 0.0333560000 0.0105590000
0.2739870000 0.0344850000 0.0113220000
0.2948300000 0.0370480000 0.0116270000
0.3168640000 0.0385740000 0.0119630000
0.3403630000 0.0417480000 0.0131840000
0.3661190000 0.0440670000 0.0149230000
0.3942870000 0.0428470000 0.0170900000
0.4198300000 0.0400090000 0.0187070000
0.4426880000 0.0372620000 0.0199280000
0.4651790000 0.0368040000 0.0214840000
0.4876100000 0.0378110000 0.0231020000
0.5109250000 0.0373840000 0.0246890000
0.5345150000 0.0323790000 0.0261540000
0.5566100000 0.0275270000 0.0270690000
0.5780640000 0.0267330000 0.0273130000
0.5949400000 0.0276490000 0.0279240000
0.6096800000 0.0277710000 0.0278020000
0.6246340000 0.0295100000 0.0275570000
0.6394040000 0.0270390000 0.0276490000
0.6532590000 0.0256650000 0.0275270000
0.6670230000 0.0239560000 0.0278320000
0.6779170000 0.0217590000 0.0280760000
0.6880190000 0.0204160000 0.0282590000
0.6968990000 0.0214230000 0.0287480000
0.7054140000 0.0232850000 0.0296020000
0.7135930000 0.0235290000 0.0302430000
0.7215270000 0.0234680000 0.0309450000
0.7283630000 0.0234070000 0.0316160000
0.7351070000 0.0236210000 0.0324710000
0.7406620000 0.0239870000 0.0331730000
0.7459720000 0.0246580000 0.0337830000
0.7509770000 0.0248110000 0.0343320000
0.7558290000 0.0243530000 0.0348210000
0.7604060000 0.0238950000 0.0352780000
0.7649230000 0.0232540000 0.0358580000
0.7693180000 0.0226750000 0.0365600000
0.7739560000 0.0225520000 0.0373230000
0.0148010000 0.0232850000 0.0118410000
0.0162960000 0.0231320000 0.0115970000
0.0177000000 0.0227050000 0.0111690000
0.0191350000 0.0223080000 0.0107420000
0.0205380000 0.0219120000 0.0103450000
0.0217290000 0.0215450000 0.0099790000
0.0229490000 0.0212100000 0.0096130000
0.0245360000 0.0210880000 0.0093380000
0.0275270000 0.0215450000 0.0094600000
0.0303340000 0.0214840000 0.0090940000
0.0331420000 0.0214540000 0.0089420000
0.0361020000 0.0214540000 0.0089110000
0.0392150000 0.0214840000 0.0088500000
0.0428160000 0.0214540000 0.0087890000
0.0473630000 0.0215450000 0.0089420000
0.0543520000 0.0215150000 0.0089110000
0.0630490000 0.0210880000 0.0091250000
0.0750430000 0.0205690000 0.0095830000
0.0882260000 0.0203860000 0.0097350000
0.1028440000 0.0202030000 0.0102840000
0.1187130000 0.0217590000 0.0101930000
0.1361080000 0.0236510000 0.0103150000
0.1532900000 0.0267640000 0.0103450000
0.1711430000 0.0292050000 0.0102840000
0.1896970000 0.0313720000 0.0101930000
0.2099000000 0.0329900000 0.0100710000
0.2304380000 0.0332030000 0.0101620000
0.2523800000 0.0344540000 0.0105590000
0.2739870000 0.0360410000 0.0114440000
0.2948000000 0.0385440000 0.0117490000
0.3168640000 0.0401610000 0.0121770000
0.3403630000 0.0431210000 0.0133670000
0.3660890000 0.0452580000 0.0150760000
0.3942570000 0.0441280000 0.0172120000
0.4197690000 0.0413820000 0.0187990000
0.4426570000 0.0387270000 0.0200200000
0.4651490000 0.0380550000 0.0215760000
0.4875490000 0.0390620000 0.0231930000
0.5108640000 0.0386660000 0.0248110000
0.5344850000 0.0332640000 0.0261840000
0.5566100000 0.0286560000 0.0270690000
0.5780330000 0.0279240000 0.0272520000
0.5949100000 0.0289920000 0.0278020000
0.6096500000 0.0290220000 0.0276790000
0.6246030000 0.0305480000 0.0274050000
0.6393740000 0.0280460000 0.0275570000
0.6531980000 0.0265200000 0.0274350000
0.6669620000 0.0248720000 0.0277100000
0.6778560000 0.0226140000 0.0281070000
0.6879580000 0.0210880000 0.0282590000
0.6968380000 0.0220640000 0.0287480000
0.7053530000 0.0239560000 0.0296020000
0.7135010000 0.0247190000 0.0303040000
0.7214360000 0.0246890000 0.0309750000
0.7283020000 0.0246280000 0.0316770000
0.7350160000 0.0248110000 0.0325010000
0.7406010000 0.0249630000 0.0332340000
0.7458800000 0.0254820000 0.0339050000
0.7508850000 0.0257570000 0.0344540000
0.7557980000 0.0252380000 0.0349120000
0.7603760000 0.0248110000 0.0354000000
0.7648620000 0.0242000000 0.0359500000
0.7692260000 0.0234680000 0.0366520000
0.7738950000 0.0233150000 0.0374450000
0.0159610000 0.0263670000 0.0126040000
0.0177000000 0.0263370000 0.0126650000
0.0191650000 0.0259700000 0.0122990000
0.0206300000 0.0255430000 0.0119320000
0.0220950000 0.0251770000 0.0115360000
0.0233460000 0.0248410000 0.0112300000
0.0245670000 0.0245060000 0.0109250000
0.0257870000 0.0241700000 0.0105290000
0.0274350000 0.0238650000 0.0102540000
0.0301820000 0.0237430000 0.0097660000
0.0329900000 0.0237120000 0.0096440000
0.0359800000 0.0237120000 0.0095830000
0.0390620000 0.0237120000 0.0095210000
0.0426940000 0.0237120000 0.0094600000
0.0471190000 0.0236510000 0.0093990000
0.0541380000 0.0235900000 0.0093380000
0.0628360000 0.0231320000 0.0095210000
0.0747990000 0.0226750000 0.0098570000
0.0879210000 0.0224610000 0.0100100000
0.1024480000 0.0222780000 0.0104980000
0.1183780000 0.0237730000 0.0103760000
0.1359250000 0.0258480000 0.0103450000
0.1530760000 0.0289000000 0.0103450000
0.1709590000 0.0314640000 0.0102540000
0.1895450000 0.0333860000 0.0101620000
0.2098080000 0.0349730000 0.0101930000
0.2303160000 0.0350650000 0.0102840000
0.2523800000 0.0364070000 0.0107420000
0.2739870000 0.0379330000 0.0115970000
0.2948300000 0.0404050000 0.0119320000
0.3168640000 0.0419620000 0.0124210000
0.3403320000 0.0445560000 0.0135800000
0.3660890000 0.0464780000 0.0152590000
0.3942260000 0.0455020000 0.0173030000
0.4197690000 0.0429080000 0.0188900000
0.4426270000 0.0402220000 0.0201110000
0.4651180000 0.0393070000 0.0216370000
0.4874880000 0.0404660000 0.0232540000
0.5108030000 0.0400090000 0.0249330000
0.5344540000 0.0342710000 0.0262450000
0.5565490000 0.0298460000 0.0270390000
0.5779720000 0.0289000000 0.0272520000
0.5948490000 0.0303960000 0.0276490000
0.6096190000 0.0305480000 0.0275270000
0.6245420000 0.0316160000 0.0273130000
0.6393130000 0.0292360000 0.0274350000
0.6531370000 0.0274350000 0.0273740000
0.6668700000 0.0257870000 0.0276490000
0.6777650000 0.0234070000 0.0281070000
0.6878660000 0.0218510000 0.0282900000
0.6967470000 0.0228270000 0.0287480000
0.7052610000 0.0246280000 0.0296020000
0.7134090000 0.0260010000 0.0303650000
0.7213750000 0.0259400000 0.0310360000
0.7282410000 0.0259400000 0.0317080000
0.7349550000 0.0260930000 0.0325320000
0.7405090000 0.0262450000 0.0332640000
0.7458190000 0.0263670000 0.0339970000
0.7508240000 0.0266720000 0.0345460000
0.7557070000 0.0261840000 0.0350340000
0.7602840000 0.0257570000 0.0354920000
0.7648010000 0.0251460000 0.0360410000
0.7691650000 0.0243840000 0.0367130000
0.7737730000 0.0240480000 0.0374760000
0.0165100000 0.0298460000 0.0128480000
0.0183110000 0.0300600000 0.0130310000
0.0198970000 0.0296330000 0.0127870000
0.0214230000 0.0292360000 0.0124820000
0.0228880000 0.0288090000 0.0121150000
0.0241390000 0.0284730000 0.0117800000
0.0253600000 0.0281680000 0.0114440000
0.0266110000 0.0278020000 0.0111390000
0.0281980000 0.0274960000 0.0108340000
0.0308840000 0.0273130000 0.0104370000
0.0336000000 0.0272220000 0.0101620000
0.0365600000 0.0271910000 0.0101320000
0.0396120000 0.0271300000 0.0100710000
0.0432130000 0.0271300000 0.0100100000
0.0475460000 0.0270390000 0.0098880000
0.0542600000 0.0268250000 0.0096440000
0.0628970000 0.0262450000 0.0098880000
0.0746770000 0.0257570000 0.0101620000
0.0876770000 0.0253300000 0.0102540000
0.1021730000 0.0251160000 0.0106810000
0.1180420000 0.0266110000 0.0105590000
0.1358950000 0.0288390000 0.0104680000
0.1530760000 0.0318910000 0.0105290000
0.1710210000 0.0343630000 0.0104370000
0.1895750000 0.0361020000 0.0103760000
0.2098390000 0.0374760000 0.0104060000
0.2303770000 0.0377200000 0.0105590000
0.2524110000 0.0389710000 0.0110170000
0.2739870000 0.0402530000 0.0118410000
0.2946470000 0.0424800000 0.0119930000
0.3168030000 0.0440980000 0.0126650000
0.3403320000 0.0463870000 0.0138240000
0.3660580000 0.0480040000 0.0154420000
0.3941650000 0.0471500000 0.0174560000
0.4197690000 0.0447690000 0.0190120000
0.4425960000 0.0420530000 0.0202640000
