LUTs/SPK Cube Block1 S64/TheBrim_SPK_Type-Q_Block1_S64.cube
TITLE "TheBrim® SPK Block 1"
# © Copyright 2021 - TheBrim® d.o.o. Croatia
LUT_3D_SIZE 8
DOMAIN_MIN 0.000000 0.000000 0.000000
DOMAIN_MAX 1.000000 1.000000 1.000000
0.000000 0.000000 0.000000
0.075105 0.000000 0.000000
0.309026 0.000000 0.000000
0.543359 0.000000 0.000000
0.786770 0.000000 0.000000
1.000000 0.000000 0.000000
1.000000 0.000000 0.000000
1.000000 0.007019 0.000000
0.000000 0.049805 0.000000
0.004852 0.039185 0.000000
0.237980 0.033600 0.000000
0.471717 0.035126 0.000000
0.719203 0.051606 0.000000
0.992218 0.110597 0.000000
1.000000 0.158480 0.000000
1.000000 0.189273 0.000000
0.000000 0.261814 0.000000
0.000000 0.249790 0.000000
0.173342 0.234867 0.000000
0.409339 0.229862 0.000000
0.659113 0.240635 0.000000
0.925139 0.280461 0.000000
1.000000 0.335821 0.000000
1.000000 0.370489 0.000000
0.000000 0.488472 0.000000
0.000000 0.459174 0.000000
0.075654 0.446448 0.000000
0.342565 0.430671 0.000000
0.598901 0.432471 0.000000
0.863005 0.463813 0.000000
1.000000 0.513146 0.000000
1.000000 0.551537 0.000000
0.000000 0.703273 0.005463
0.000000 0.674525 0.000793
0.075471 0.662531 0.000000
0.242130 0.653895 0.000000
0.532586 0.629206 0.000000
0.801816 0.654353 0.000000
1.000000 0.684047 0.000000
1.000000 0.725002 0.022889
0.000000 0.902068 0.060517
0.000000 0.901915 0.063752
0.091402 0.901549 0.062837
0.238163 0.900084 0.046754
0.460182 0.877623 0.028199
0.734493 0.856046 0.006012
1.000000 0.873167 0.023163
1.000000 0.902068 0.052827
0.000000 1.000000 0.047944
0.000000 1.000000 0.056001
0.102937 1.000000 0.062074
0.246769 1.000000 0.066285
0.398627 1.000000 0.073091
0.671504 1.000000 0.082124
0.942016 1.000000 0.074189
1.000000 1.000000 0.095399
0.000000 1.000000 0.021851
0.000000 1.000000 0.027802
0.098634 1.000000 0.035523
0.246159 1.000000 0.045106
0.397162 1.000000 0.057038
0.553521 1.000000 0.070436
0.874540 1.000000 0.093843
1.000000 1.000000 0.105562
0.000000 0.000000 0.014923
0.057496 0.000000 0.000000
0.285313 0.000000 0.000000
0.517174 0.000000 0.000000
0.764645 0.000000 0.003815
0.995392 0.000000 0.039368
1.000000 0.000000 0.078096
1.000000 0.000000 0.101991
0.000000 0.031647 0.039796
0.025452 0.024323 0.025452
0.249699 0.021393 0.010407
0.477455 0.022309 0.000916
0.719600 0.044465 0.007050
0.984710 0.098085 0.040894
1.000000 0.154726 0.074434
1.000000 0.185245 0.101991
0.000000 0.240360 0.075380
0.000000 0.229465 0.063203
0.188540 0.218662 0.045563
0.419928 0.213718 0.029847
0.664332 0.229557 0.031739
0.927184 0.269413 0.061067
1.000000 0.328740 0.095247
1.000000 0.366857 0.126833
0.000000 0.458320 0.108492
0.000000 0.431678 0.102266
0.085267 0.422766 0.086091
0.357153 0.409979 0.068574
0.606104 0.421576 0.065034
0.867918 0.452033 0.084779
1.000000 0.503349 0.116091
1.000000 0.547753 0.149172
0.000000 0.691188 0.162631
0.000000 0.659205 0.157290
0.082765 0.640833 0.143191
0.256504 0.631220 0.124239
0.540978 0.618280 0.105684
0.809049 0.642115 0.120150
1.000000 0.677790 0.142123
1.000000 0.723964 0.176364
0.000000 0.901915 0.219211
0.000000 0.901732 0.221347
0.096712 0.891386 0.217777
0.243748 0.886625 0.201633
0.472602 0.865171 0.181033
0.742489 0.843015 0.161257
1.000000 0.864530 0.177157
1.000000 0.897612 0.202640
0.000000 1.000000 0.206424
0.000000 1.000000 0.213260
0.107759 1.000000 0.218387
0.249973 1.000000 0.222049
0.402441 1.000000 0.227726
0.680079 1.000000 0.233860
0.946532 1.000000 0.222049
1.000000 1.000000 0.243412
0.000000 1.000000 0.182650
0.000000 1.000000 0.188174
0.108400 1.000000 0.195529
0.252842 1.000000 0.204013
0.402655 1.000000 0.213901
0.559197 1.000000 0.224613
0.883146 1.000000 0.242313
1.000000 1.000000 0.255131
0.000000 0.000000 0.206302
0.081056 0.000000 0.179202
0.267765 0.000000 0.151095
0.497444 0.000000 0.148684
0.737697 0.000000 0.161410
0.974701 0.000000 0.190097
1.000000 0.000000 0.217685
1.000000 0.000000 0.244419
0.000000 0.025910 0.207401
0.058656 0.023041 0.198276
0.236332 0.000000 0.150698
0.458412 0.000000 0.139803
0.696712 0.008881 0.144289
0.959258 0.061311 0.174228
1.000000 0.119295 0.211917
1.000000 0.152285 0.238102
0.000000 0.226627 0.234318
0.000000 0.214542 0.227085
0.209354 0.209628 0.209049
0.432929 0.206241 0.193423
0.673121 0.222416 0.196597
0.933959 0.265171 0.221683
1.000000 0.325628 0.257664
1.000000 0.363745 0.288273
0.000000 0.439185 0.270390
0.000000 0.418372 0.263890
0.114809 0.409705 0.248081
0.372503 0.401709 0.229099
0.616999 0.413153 0.227085
0.875700 0.446143 0.244419
1.000000 0.498909 0.276646
1.000000 0.544366 0.310674
0.000000 0.676417 0.324987
0.000000 0.646876 0.317052
0.090486 0.624811 0.303716
0.295750 0.617731 0.284703
0.553918 0.608515 0.265568
0.817929 0.634882 0.278630
1.000000 0.672480 0.301457
1.000000 0.720974 0.337438
0.000000 0.901549 0.384436
0.000000 0.891844 0.383673
0.102205 0.877714 0.378302
0.250065 0.867857 0.360266
0.495430 0.848814 0.339910
0.753079 0.831235 0.319310
1.000000 0.855741 0.335332
1.000000 0.893736 0.364538
0.000000 1.000000 0.366827
0.000000 1.000000 0.372900
0.114931 1.000000 0.379217
0.256199 1.000000 0.384131
0.408698 1.000000 0.390265
0.695979 1.000000 0.393317
0.955840 1.000000 0.378119
1.000000 1.000000 0.401648
0.000000 1.000000 0.342779
0.000000 1.000000 0.347356
0.118654 1.000000 0.355047
0.259953 1.000000 0.364080
0.408515 1.000000 0.374426
0.565179 1.000000 0.385412
0.896483 1.000000 0.402350
1.000000 1.000000 0.413092
0.000000 0.000000 0.420661
0.108614 0.000000 0.387427
0.289189 0.000000 0.355413
0.479927 0.000000 0.327947
0.719295 0.000000 0.332860
0.955688 0.000000 0.343969
1.000000 0.000000 0.362737
1.000000 0.000000 0.389654
0.000000 0.023407 0.382666
0.093233 0.022614 0.374273
0.261814 0.000000 0.329686
0.443214 0.000000 0.284215
0.679164 0.000000 0.288243
0.936584 0.023987 0.318883
1.000000 0.083436 0.355505
1.000000 0.118776 0.382147
0.000000 0.214939 0.405768
0.041749 0.210910 0.397131
0.241276 0.207218 0.382422
0.419959 0.169284 0.332250
0.655543 0.186038 0.335363
0.912779 0.228489 0.358953
1.000000 0.288914 0.390814
1.000000 0.330327 0.420691
0.000000 0.422522 0.435584
0.000000 0.405921 0.425971
0.173800 0.397253 0.412360
0.394415 0.392676 0.393866
0.632013 0.405219 0.392737
0.886412 0.439124 0.410132
1.000000 0.494484 0.439368
1.000000 0.539879 0.471626
0.000000 0.658198 0.488838
0.000000 0.629267 0.480507
0.097322 0.612879 0.466865
0.335973 0.605371 0.448005
0.572137 0.599237 0.429084
0.830411 0.626520 0.441962
1.000000 0.667933 0.463386
1.000000 0.716213 0.497810
0.000000 0.899962 0.554253
0.000000 0.879942 0.550622
0.108400 0.860136 0.538811
0.257115 0.851743 0.521782
0.524437 0.832578 0.500786
0.768124 0.820249 0.480323
1.000000 0.848264 0.496040
1.000000 0.889830 0.526635
0.000000 1.000000 0.535210
0.000000 1.000000 0.539971
0.122866 1.000000 0.544396
0.264530 1.000000 0.551049
0.416388 1.000000 0.555810
0.718196 1.000000 0.554650
0.968139 1.000000 0.536309
1.000000 1.000000 0.561120
0.000000 1.000000 0.507652
0.000000 1.000000 0.510491
0.128939 1.000000 0.517937
0.268132 1.000000 0.527611
0.415808 1.000000 0.538872
0.572229 1.000000 0.550530
0.914824 1.000000 0.566094
1.000000 1.000000 0.574426
0.000000 0.000000 0.648798
0.157229 0.000000 0.611353
0.330846 0.000000 0.574365
0.511345 0.000000 0.534966
0.696407 0.000000 0.500877
0.938750 0.000000 0.500633
1.000000 0.000000 0.512871
1.000000 0.000000 0.538994
0.000000 0.037995 0.580224
0.143557 0.036866 0.567559
0.305486 0.001007 0.521386
0.481147 0.000000 0.478553
0.665614 0.000000 0.450538
0.918395 0.000000 0.473793
1.000000 0.046418 0.503380
1.000000 0.083619 0.528710
0.000000 0.225437 0.598444
0.100557 0.222232 0.585443
0.291020 0.220157 0.572686
0.461921 0.183841 0.523247
0.640284 0.150240 0.475715
0.893553 0.192111 0.496864
1.000000 0.252018 0.526268
1.000000 0.295384 0.552880
0.000000 0.421485 0.626978
0.045747 0.410864 0.612879
0.234348 0.408057 0.599145
0.441321 0.405127 0.582788
0.619928 0.367834 0.530297
0.870878 0.402533 0.547936
1.000000 0.457343 0.573968
1.000000 0.505943 0.603082
0.000000 0.638788 0.657374
0.000000 0.612360 0.646662
0.144106 0.599969 0.631922
0.374334 0.594324 0.613733
0.594507 0.590204 0.594690
0.846586 0.618769 0.609247
1.000000 0.661707 0.627893
1.000000 0.711788 0.657832
0.000000 0.888609 0.721218
0.000000 0.863645 0.714839
0.116945 0.842863 0.702998
0.280308 0.834043 0.685786
0.556390 0.818845 0.663783
0.787320 0.811398 0.644770
1.000000 0.841093 0.659602
1.000000 0.886625 0.685969
0.000000 1.000000 0.713527
0.000000 1.000000 0.715816
0.128481 1.000000 0.720302
0.272038 1.000000 0.723995
0.451911 1.000000 0.726436
0.744686 1.000000 0.716182
0.985077 1.000000 0.696803
1.000000 1.000000 0.718685
0.000000 1.000000 0.684138
0.000183 1.000000 0.685573
0.138277 1.000000 0.691859
0.276921 1.000000 0.700252
0.424445 1.000000 0.710140
0.640345 1.000000 0.722072
0.937407 1.000000 0.727535
1.000000 1.000000 0.735409
0.077272 0.000000 0.831052
0.225834 0.000000 0.808591
0.388891 0.000000 0.786130
0.559228 0.000000 0.759213
0.734524 0.000000 0.712184
0.923583 0.000000 0.672480
1.000000 0.000000 0.672023
1.000000 0.000000 0.694148
0.038788 0.060243 0.825254
0.214176 0.061250 0.808011
0.369757 0.028077 0.745968
0.536339 0.000000 0.689357
0.713802 0.000000 0.662135
0.900053 0.000000 0.635157
1.000000 0.003388 0.655726
1.000000 0.043275 0.680568
0.006287 0.244694 0.832578
0.172854 0.245426 0.818235
0.359350 0.244694 0.798428
0.523125 0.210544 0.740536
0.695399 0.179294 0.685328
0.876982 0.155642 0.636072
1.000000 0.215030 0.661982
1.000000 0.259220 0.683497
0.000000 0.435584 0.858396
0.128908 0.432319 0.840085
0.309056 0.430030 0.824002
0.507134 0.428931 0.802548
0.678462 0.394934 0.744564
0.857298 0.365393 0.690303
1.000000 0.419837 0.711910
1.000000 0.470680 0.737453
0.000000 0.638239 0.886625
0.060151 0.624170 0.875090
0.248173 0.620508 0.855039
0.448432 0.616663 0.832303
0.657588 0.615198 0.808652
0.835508 0.580652 0.747585
1.000000 0.625971 0.766445
1.000000 0.678187 0.789639
0.000000 0.859434 0.908141
0.000000 0.839384 0.897246
0.125917 0.828214 0.882963
0.368109 0.815030 0.866361
0.590997 0.807309 0.837888
0.810117 0.802274 0.811612
1.000000 0.834409 0.826078
1.000000 0.881865 0.850889
0.000000 1.000000 0.906859
0.000000 1.000000 0.903380
0.139101 1.000000 0.908324
0.281682 1.000000 0.910033
0.532097 1.000000 0.904906
0.773678 1.000000 0.876829
1.000000 1.000000 0.857298
1.000000 1.000000 0.878538
0.000000 1.000000 0.874907
0.010040 1.000000 0.876646
0.148257 1.000000 0.882322
0.287327 1.000000 0.889464
0.434943 1.000000 0.896513
0.704128 1.000000 0.896025
0.962707 1.000000 0.887419
1.000000 1.000000 0.894408
0.146029 0.000000 0.966094
0.288640 0.000000 0.947051
0.444312 0.000000 0.927977
0.608789 0.000000 0.908965
0.782193 0.000000 0.889982
0.964111 0.000000 0.870939
1.000000 0.000000 0.836881
1.000000 0.000000 0.851743
0.113466 0.077272 0.966094
0.283940 0.080934 0.963561
0.436866 0.049683 0.933776
0.599451 0.019104 0.908965
0.770199 0.000000 0.889982
0.948974 0.000000 0.860258
1.000000 0.000000 0.819028
1.000000 0.000000 0.841032
0.085878 0.257603 0.995483
0.245975 0.262364 0.992554
0.428931 0.264805 0.987457
0.587640 0.232883 0.955932
0.755581 0.203494 0.919554
0.931029 0.182010 0.863737
1.000000 0.174777 0.804349
1.000000 0.219211 0.825284
0.057191 0.430091 1.000000
0.212802 0.438544 1.000000
0.385168 0.446357 1.000000
0.574975 0.449714 1.000000
0.740261 0.417731 0.973693
0.913909 0.391272 0.918303
1.000000 0.378576 0.863645
1.000000 0.430274 0.885496
0.011872 0.611597 1.000000
0.176608 0.610895 1.000000
0.351110 0.614435 1.000000
0.535393 0.622675 1.000000
0.729854 0.629725 1.000000
0.896056 0.604669 0.981201
1.000000 0.583886 0.919921
1.000000 0.639704 0.939666
0.000000 0.834318 1.000000
0.076844 0.824735 1.000000
0.275517 0.824613 1.000000
0.474983 0.822080 1.000000
0.678431 0.818143 1.000000
0.884794 0.816281 1.000000
1.000000 0.794186 0.977844
1.000000 0.839353 1.000000
0.000000 1.000000 1.000000
0.017731 1.000000 1.000000
0.162081 1.000000 1.000000
0.360052 1.000000 1.000000
0.599878 1.000000 1.000000
0.816190 1.000000 1.000000
1.000000 1.000000 1.000000
1.000000 1.000000 1.000000
0.000000 1.000000 1.000000
0.013550 1.000000 1.000000
0.159670 1.000000 1.000000
0.304723 1.000000 1.000000
0.473335 1.000000 1.000000
0.761532 1.000000 1.000000
0.993866 1.000000 1.000000
1.000000 1.000000 1.000000
0.180087 0.000000 0.985077
0.328954 0.000000 0.985077
0.487526 0.000000 0.985077
0.654170 0.000000 0.985077
0.828214 0.000000 0.985077
1.000000 0.000000 0.985077
1.000000 0.000000 0.985077
1.000000 0.000000 0.985077
0.154208 0.107759 1.000000
0.325078 0.112367 1.000000
0.481971 0.080049 0.993286
0.647425 0.048249 0.985077
0.819883 0.018921 0.985077
0.998901 0.000000 0.985077
1.000000 0.000000 0.985077
1.000000 0.000000 0.985077
0.145144 0.259342 1.000000
0.309880 0.267094 1.000000
0.487709 0.276341 1.000000
0.643183 0.252628 1.000000
0.809140 0.229313 1.000000
0.983246 0.209964 1.000000
1.000000 0.194308 0.985351
1.000000 0.171878 0.985077
0.111360 0.448188 1.000000
0.272892 0.453651 1.000000
0.448463 0.459724 1.000000
0.637049 0.464820 1.000000
0.803799 0.432502 1.000000
0.977203 0.406836 1.000000
1.000000 0.388342 1.000000
1.000000 0.376623 1.000000
0.068330 0.651362 1.000000
0.229221 0.652277 1.000000
0.401984 0.654475 1.000000
0.589258 0.655360 1.000000
0.785763 0.657191 1.000000
0.959045 0.623072 1.000000
1.000000 0.596063 1.000000
1.000000 0.570520 1.000000
0.006226 0.867582 1.000000
0.168551 0.866575 1.000000
0.343206 0.866361 1.000000
0.532738 0.862364 1.000000
0.730098 0.857603 1.000000
0.933928 0.854215 1.000000
1.000000 0.815549 1.000000
1.000000 0.783749 1.000000
0.000000 1.000000 1.000000
0.042908 1.000000 1.000000
0.248600 1.000000 1.000000
0.458625 1.000000 1.000000
0.665248 1.000000 1.000000
0.870756 1.000000 1.000000
1.000000 1.000000 1.000000
1.000000 1.000000 1.000000
0.000000 1.000000 1.000000
0.013550 1.000000 1.000000
0.159670 1.000000 1.000000
0.304723 1.000000 1.000000
0.570672 1.000000 1.000000
0.797421 1.000000 1.000000
1.000000 1.000000 1.000000
1.000000 1.000000 1.000000
