LUTs/SPK Cube Block1 S64/TheBrim_SPK_Type-D_Block1_S64.cube
TITLE "TheBrim® SPK Block 1"
# TheBrim® d.o.o. Croatia
# Copyright: (C) Copyright 2020 TheBrim® d.o.o. Croatia
LUT_3D_SIZE 64
0.0066220000 0.0100400000 0.0125730000
0.0100400000 0.0103450000 0.0123290000
0.0142210000 0.0112300000 0.0119930000
0.0176700000 0.0119630000 0.0117800000
0.0211490000 0.0126950000 0.0115660000
0.0244140000 0.0135500000 0.0112300000
0.0274050000 0.0144650000 0.0102230000
0.0318600000 0.0153810000 0.0093990000
0.0363460000 0.0162660000 0.0085750000
0.0405270000 0.0169680000 0.0081180000
0.0455020000 0.0177610000 0.0061340000
0.0507810000 0.0186160000 0.0031740000
0.0560610000 0.0194700000 0.0002140000
0.0612180000 0.0203550000 0.0000000000
0.0677190000 0.0212100000 0.0000000000
0.0747680000 0.0220340000 0.0000000000
0.0813290000 0.0232240000 0.0000000000
0.0873110000 0.0247190000 0.0000000000
0.0956120000 0.0256350000 0.0000000000
0.1067200000 0.0258790000 0.0000000000
0.1183470000 0.0269170000 0.0000000000
0.1307680000 0.0280150000 0.0000000000
0.1442260000 0.0293270000 0.0000000000
0.1624150000 0.0315550000 0.0000000000
0.1810300000 0.0334470000 0.0000000000
0.1989440000 0.0353090000 0.0000000000
0.2167360000 0.0373840000 0.0000000000
0.2366940000 0.0422970000 0.0000000000
0.2562260000 0.0470890000 0.0000000000
0.2763060000 0.0520940000 0.0000000000
0.2967220000 0.0571900000 0.0000000000
0.3171690000 0.0623470000 0.0000000000
0.3370670000 0.0661010000 0.0000000000
0.3574830000 0.0699460000 0.0000000000
0.3784480000 0.0738830000 0.0000000000
0.3977360000 0.0777890000 0.0000000000
0.4166560000 0.0839540000 0.0000000000
0.4353030000 0.0907290000 0.0000000000
0.4534300000 0.0973510000 0.0000000000
0.4660950000 0.1018680000 0.0044560000
0.4776310000 0.1049190000 0.0080870000
0.4897770000 0.1060490000 0.0087280000
0.5018010000 0.1072690000 0.0094910000
0.5106810000 0.1073300000 0.0070500000
0.5179140000 0.1069640000 0.0032650000
0.5253300000 0.1070860000 0.0000000000
0.5334170000 0.1100460000 0.0000000000
0.5408020000 0.1123960000 0.0000000000
0.5465700000 0.1133730000 0.0000000000
0.5522460000 0.1143190000 0.0000000000
0.5573730000 0.1151120000 0.0012510000
0.5616150000 0.1157230000 0.0035400000
0.5642090000 0.1161500000 0.0035400000
0.5668330000 0.1165770000 0.0035400000
0.5694270000 0.1170040000 0.0035400000
0.5721130000 0.1174320000 0.0036930000
0.5747680000 0.1178590000 0.0040280000
0.5765990000 0.1181640000 0.0040280000
0.5784300000 0.1185000000 0.0040280000
0.5802610000 0.1188660000 0.0040280000
0.5825810000 0.1192930000 0.0039060000
0.5850220000 0.1197510000 0.0037230000
0.5866700000 0.1201170000 0.0037230000
0.5883480000 0.1204830000 0.0037230000
0.0067440000 0.0122680000 0.0134580000
0.0099490000 0.0125730000 0.0132450000
0.0140690000 0.0134280000 0.0129090000
0.0175480000 0.0139470000 0.0126950000
0.0210270000 0.0146790000 0.0124820000
0.0242610000 0.0155330000 0.0119320000
0.0276490000 0.0163570000 0.0107730000
0.0325010000 0.0171810000 0.0097050000
0.0369870000 0.0180660000 0.0088500000
0.0411990000 0.0187680000 0.0084840000
0.0466610000 0.0195310000 0.0060730000
0.0520630000 0.0203550000 0.0030210000
0.0573430000 0.0212100000 0.0000610000
0.0625310000 0.0221250000 0.0000000000
0.0694270000 0.0229190000 0.0000000000
0.0765690000 0.0237430000 0.0000000000
0.0831300000 0.0249330000 0.0000000000
0.0891110000 0.0264280000 0.0000000000
0.0985410000 0.0274960000 0.0000000000
0.1104430000 0.0279540000 0.0000000000
0.1221010000 0.0290220000 0.0000000000
0.1344600000 0.0301210000 0.0000000000
0.1486820000 0.0317080000 0.0000000000
0.1684880000 0.0346980000 0.0000000000
0.1869810000 0.0365300000 0.0000000000
0.2046510000 0.0383000000 0.0000000000
0.2224730000 0.0403750000 0.0000000000
0.2438350000 0.0449830000 0.0000000000
0.2633970000 0.0498960000 0.0000000000
0.2834470000 0.0549320000 0.0000000000
0.3038640000 0.0600280000 0.0000000000
0.3246150000 0.0658870000 0.0000000000
0.3453980000 0.0713200000 0.0000000000
0.3655400000 0.0751340000 0.0000000000
0.3862000000 0.0790410000 0.0000000000
0.4051820000 0.0828860000 0.0000000000
0.4235840000 0.0867310000 0.0000000000
0.4422300000 0.0929570000 0.0000000000
0.4604800000 0.0996090000 0.0000000000
0.4732360000 0.1041560000 0.0044560000
0.4845890000 0.1081850000 0.0095520000
0.4960330000 0.1116640000 0.0138240000
0.5082090000 0.1128850000 0.0145570000
0.5170590000 0.1128850000 0.0119630000
0.5245360000 0.1124880000 0.0079960000
0.5317990000 0.1120610000 0.0041200000
0.5391540000 0.1115720000 0.0000610000
0.5463870000 0.1137390000 0.0000000000
0.5521240000 0.1147160000 0.0000000000
0.5578000000 0.1156620000 0.0000000000
0.5631710000 0.1165470000 0.0000000000
0.5678100000 0.1173400000 0.0000920000
0.5704350000 0.1177670000 0.0000920000
0.5730290000 0.1181950000 0.0000920000
0.5756530000 0.1186220000 0.0000920000
0.5782470000 0.1190490000 0.0000920000
0.5806880000 0.1194460000 0.0000920000
0.5825200000 0.1197810000 0.0000920000
0.5843200000 0.1201170000 0.0000920000
0.5861820000 0.1204530000 0.0000920000
0.5882570000 0.1208500000 0.0000920000
0.5902100000 0.1212160000 0.0000920000
0.5918880000 0.1216130000 0.0000920000
0.5935360000 0.1219790000 0.0000920000
0.0068360000 0.0145260000 0.0143430000
0.0101010000 0.0148320000 0.0141300000
0.0139160000 0.0156250000 0.0138240000
0.0173950000 0.0161130000 0.0136110000
0.0208740000 0.0166630000 0.0133670000
0.0241090000 0.0175170000 0.0128480000
0.0276180000 0.0183110000 0.0114750000
0.0329280000 0.0190120000 0.0101320000
0.0376280000 0.0198670000 0.0091550000
0.0418400000 0.0205380000 0.0088200000
0.0474240000 0.0213010000 0.0062260000
0.0533140000 0.0220950000 0.0028990000
0.0586550000 0.0229490000 0.0000000000
0.0638430000 0.0238650000 0.0000000000
0.0708620000 0.0246890000 0.0000000000
0.0782780000 0.0254520000 0.0000000000
0.0849300000 0.0266420000 0.0000000000
0.0909120000 0.0281070000 0.0000000000
0.1009220000 0.0290830000 0.0000000000
0.1136170000 0.0297240000 0.0000000000
0.1255800000 0.0307620000 0.0000000000
0.1379090000 0.0317990000 0.0000000000
0.1524960000 0.0334470000 0.0000000000
0.1726680000 0.0367430000 0.0000000000
0.1922000000 0.0393680000 0.0000000000
0.2098690000 0.0411380000 0.0000000000
0.2278140000 0.0432740000 0.0000000000
0.2492680000 0.0478820000 0.0000000000
0.2705990000 0.0527650000 0.0000000000
0.2905880000 0.0577700000 0.0000000000
0.3110350000 0.0628660000 0.0000000000
0.3317570000 0.0687560000 0.0000000000
0.3528440000 0.0748600000 0.0000000000
0.3738710000 0.0803530000 0.0000000000
0.3942870000 0.0842290000 0.0000000000
0.4128720000 0.0879820000 0.0000000000
0.4310300000 0.0917970000 0.0000000000
0.4491270000 0.0956420000 0.0000000000
0.4673770000 0.1018370000 0.0000000000
0.4802250000 0.1064150000 0.0044560000
0.4916990000 0.1104740000 0.0095520000
0.5031430000 0.1145320000 0.0146180000
0.5144960000 0.1185000000 0.0196230000
0.5234070000 0.1184690000 0.0169370000
0.5309450000 0.1180110000 0.0127260000
0.5385130000 0.1173710000 0.0077820000
0.5459290000 0.1167300000 0.0028690000
0.5523680000 0.1169130000 0.0000000000
0.5580750000 0.1182860000 0.0000000000
0.5638120000 0.1196290000 0.0000000000
0.5692440000 0.1208500000 0.0000000000
0.5739440000 0.1219790000 0.0000000000
0.5767210000 0.1225890000 0.0000000000
0.5793460000 0.1230160000 0.0000000000
0.5819700000 0.1234440000 0.0000000000
0.5845640000 0.1238710000 0.0000000000
0.5870670000 0.1243590000 0.0000000000
0.5892030000 0.1248780000 0.0000000000
0.5910340000 0.1252140000 0.0000000000
0.5928650000 0.1255800000 0.0000000000
0.5949400000 0.1259460000 0.0000000000
0.5968320000 0.1263730000 0.0000000000
0.5984800000 0.1268310000 0.0000000000
0.6001590000 0.1271970000 0.0000000000
0.0070800000 0.0167240000 0.0151060000
0.0102230000 0.0171200000 0.0150150000
0.0139770000 0.0178530000 0.0147090000
0.0172420000 0.0183110000 0.0145260000
0.0207210000 0.0187990000 0.0142820000
0.0239560000 0.0195010000 0.0137330000
0.0276180000 0.0202940000 0.0123600000
0.0328980000 0.0209960000 0.0108640000
0.0382080000 0.0216980000 0.0094910000
0.0424800000 0.0223390000 0.0091860000
0.0481570000 0.0231020000 0.0064090000
0.0540470000 0.0238950000 0.0030520000
0.0599370000 0.0247190000 0.0000000000
0.0651250000 0.0256350000 0.0000000000
0.0722960000 0.0264590000 0.0000000000
0.0797120000 0.0272830000 0.0000000000
0.0869750000 0.0282590000 0.0000000000
0.0931700000 0.0296630000 0.0000000000
0.1036070000 0.0305790000 0.0000000000
0.1162720000 0.0312190000 0.0000000000
0.1285710000 0.0323180000 0.0000000000
0.1412660000 0.0333860000 0.0000000000
0.1563420000 0.0351870000 0.0000000000
0.1764830000 0.0384830000 0.0000000000
0.1965940000 0.0415650000 0.0000000000
0.2150570000 0.0439760000 0.0000000000
0.2332760000 0.0462340000 0.0000000000
0.2546390000 0.0508120000 0.0000000000
0.2760310000 0.0556640000 0.0000000000
0.2977600000 0.0605770000 0.0000000000
0.3181460000 0.0656740000 0.0000000000
0.3388670000 0.0716250000 0.0000000000
0.3600160000 0.0777590000 0.0000000000
0.3813780000 0.0839540000 0.0000000000
0.4026490000 0.0894470000 0.0000000000
0.4208070000 0.0931700000 0.0000000000
0.4387510000 0.0969540000 0.0000000000
0.4566040000 0.1007390000 0.0000000000
0.4743040000 0.1045840000 0.0000000000
0.4871520000 0.1089780000 0.0046690000
0.4986880000 0.1134640000 0.0099790000
0.5101620000 0.1178590000 0.0152590000
0.5216370000 0.1222840000 0.0205380000
0.5300900000 0.1232300000 0.0178830000
0.5377500000 0.1226200000 0.0126340000
0.5453800000 0.1219790000 0.0075990000
0.5530090000 0.1212770000 0.0025330000
0.5592650000 0.1216130000 0.0000000000
0.5643010000 0.1229250000 0.0000000000
0.5699460000 0.1242680000 0.0000000000
0.5753780000 0.1255190000 0.0000000000
0.5799870000 0.1266480000 0.0000000000
0.5828250000 0.1273190000 0.0000000000
0.5856630000 0.1279600000 0.0000000000
0.5882870000 0.1283870000 0.0000000000
0.5908810000 0.1288150000 0.0000000000
0.5933530000 0.1293030000 0.0000000000
0.5955200000 0.1298520000 0.0000000000
0.5977480000 0.1304320000 0.0000000000
0.5996090000 0.1307980000 0.0000000000
0.6016850000 0.1311650000 0.0000000000
0.6035460000 0.1315920000 0.0000000000
0.6051640000 0.1320800000 0.0000000000
0.6067810000 0.1325380000 0.0000000000
0.0074460000 0.0192260000 0.0162050000
0.0104370000 0.0195620000 0.0162050000
0.0139160000 0.0200200000 0.0159300000
0.0171810000 0.0204770000 0.0157470000
0.0204470000 0.0209350000 0.0155640000
0.0238650000 0.0214230000 0.0152590000
0.0278630000 0.0220640000 0.0140690000
0.0331420000 0.0227660000 0.0125430000
0.0384220000 0.0234680000 0.0110170000
0.0432430000 0.0241390000 0.0092160000
0.0490420000 0.0249330000 0.0062260000
0.0549320000 0.0256960000 0.0028690000
0.0608520000 0.0265200000 0.0000000000
0.0664370000 0.0275270000 0.0000000000
0.0737610000 0.0283510000 0.0000000000
0.0811460000 0.0291440000 0.0000000000
0.0884090000 0.0301210000 0.0000000000
0.0953670000 0.0312500000 0.0000000000
0.1062930000 0.0320740000 0.0000000000
0.1189580000 0.0327150000 0.0000000000
0.1312870000 0.0338130000 0.0000000000
0.1443180000 0.0349430000 0.0000000000
0.1601560000 0.0369570000 0.0000000000
0.1803280000 0.0402530000 0.0000000000
0.2004390000 0.0433350000 0.0000000000
0.2196040000 0.0462650000 0.0000000000
0.2387700000 0.0491940000 0.0000000000
0.2601320000 0.0537720000 0.0000000000
0.2813720000 0.0585630000 0.0000000000
0.3031620000 0.0635070000 0.0000000000
0.3252870000 0.0685120000 0.0000000000
0.3460390000 0.0745540000 0.0000000000
0.3673400000 0.0807800000 0.0000000000
0.3888850000 0.0870970000 0.0000000000
0.4107060000 0.0934750000 0.0000000000
0.4287110000 0.0986630000 0.0000000000
0.4463500000 0.1024480000 0.0000000000
0.4638980000 0.1062620000 0.0000000000
0.4813230000 0.1101380000 0.0000000000
0.4938350000 0.1134640000 0.0055240000
0.5054320000 0.1176150000 0.0111390000
0.5170290000 0.1221310000 0.0164490000
0.5285640000 0.1265870000 0.0217590000
0.5371700000 0.1276250000 0.0191040000
0.5446170000 0.1272280000 0.0130000000
0.5521850000 0.1266480000 0.0075070000
0.5598750000 0.1259160000 0.0023800000
0.5661620000 0.1263430000 0.0000000000
0.5711980000 0.1276550000 0.0000000000
0.5761720000 0.1289370000 0.0000000000
0.5815120000 0.1301880000 0.0000000000
0.5860290000 0.1313170000 0.0000000000
0.5888980000 0.1319890000 0.0000000000
0.5917660000 0.1326600000 0.0000000000
0.5946040000 0.1333310000 0.0000000000
0.5972290000 0.1337590000 0.0000000000
0.5996400000 0.1342470000 0.0000000000
0.6018370000 0.1348270000 0.0000000000
0.6040340000 0.1353760000 0.0000000000
0.6062620000 0.1359560000 0.0000000000
0.6084290000 0.1363830000 0.0000000000
0.6102290000 0.1368410000 0.0000000000
0.6118470000 0.1373290000 0.0000000000
0.6134640000 0.1378170000 0.0000000000
0.0052800000 0.0217590000 0.0169370000
0.0082090000 0.0222170000 0.0169370000
0.0124510000 0.0226140000 0.0165410000
0.0163570000 0.0230410000 0.0162660000
0.0196230000 0.0234990000 0.0160830000
0.0228270000 0.0239870000 0.0157470000
0.0274960000 0.0245360000 0.0144040000
0.0330200000 0.0252080000 0.0127870000
0.0383000000 0.0259090000 0.0112610000
0.0431820000 0.0264890000 0.0094300000
0.0496220000 0.0272220000 0.0061950000
0.0555110000 0.0279850000 0.0028380000
0.0614320000 0.0288090000 0.0000000000
0.0668330000 0.0297850000 0.0000000000
0.0747680000 0.0304870000 0.0000000000
0.0821230000 0.0312810000 0.0000000000
0.0893550000 0.0322880000 0.0000000000
0.0963130000 0.0333860000 0.0000000000
0.1082150000 0.0343630000 0.0000000000
0.1211850000 0.0350650000 0.0000000000
0.1335140000 0.0361020000 0.0000000000
0.1468810000 0.0372920000 0.0000000000
0.1638490000 0.0396120000 0.0000000000
0.1852720000 0.0432740000 0.0000000000
0.2054440000 0.0463560000 0.0000000000
0.2246400000 0.0493470000 0.0000000000
0.2447200000 0.0525820000 0.0000000000
0.2666320000 0.0572200000 0.0000000000
0.2877200000 0.0621340000 0.0000000000
0.3094790000 0.0672610000 0.0000000000
0.3318790000 0.0724490000 0.0000000000
0.3537900000 0.0783080000 0.0000000000
0.3753360000 0.0845640000 0.0000000000
0.3969120000 0.0908810000 0.0000000000
0.4187320000 0.0972600000 0.0000000000
0.4365230000 0.1031800000 0.0000000000
0.4538880000 0.1085820000 0.0000000000
0.4714050000 0.1123960000 0.0000000000
0.4888000000 0.1162410000 0.0000000000
0.5012820000 0.1195680000 0.0055240000
0.5128170000 0.1228640000 0.0118410000
0.5243840000 0.1266780000 0.0177310000
0.5358580000 0.1311040000 0.0230100000
0.5444030000 0.1321110000 0.0203550000
0.5516660000 0.1315920000 0.0142520000
0.5590820000 0.1311650000 0.0081180000
0.5665590000 0.1305540000 0.0023500000
0.5728450000 0.1310120000 0.0000000000
0.5779110000 0.1323240000 0.0000000000
0.5828860000 0.1336360000 0.0000000000
0.5875850000 0.1348570000 0.0000000000
0.5919490000 0.1360170000 0.0000000000
0.5949100000 0.1368100000 0.0000000000
0.5977480000 0.1374820000 0.0000000000
0.6006470000 0.1381530000 0.0000000000
0.6035160000 0.1388240000 0.0000000000
0.6061400000 0.1394350000 0.0000000000
0.6083370000 0.1399840000 0.0000000000
0.6105040000 0.1405330000 0.0000000000
0.6127010000 0.1411130000 0.0000000000
0.6149600000 0.1415410000 0.0000000000
0.6168520000 0.1420590000 0.0000000000
0.6184690000 0.1425170000 0.0000000000
0.6200870000 0.1430050000 0.0000000000
0.0026250000 0.0242610000 0.0175480000
0.0056150000 0.0247500000 0.0174870000
0.0097960000 0.0252690000 0.0171510000
0.0148010000 0.0257260000 0.0167240000
0.0187070000 0.0261840000 0.0164490000
0.0218200000 0.0266420000 0.0160830000
0.0263370000 0.0271610000 0.0147710000
0.0327150000 0.0278020000 0.0127560000
0.0381470000 0.0284730000 0.0111690000
0.0429990000 0.0290530000 0.0093380000
0.0495610000 0.0296940000 0.0061950000
0.0560610000 0.0303960000 0.0028080000
0.0619810000 0.0312190000 0.0000000000
0.0674130000 0.0321660000 0.0000000000
0.0750430000 0.0328370000 0.0000000000
0.0831300000 0.0335390000 0.0000000000
0.0903320000 0.0345150000 0.0000000000
0.0972900000 0.0356140000 0.0000000000
0.1087950000 0.0365910000 0.0000000000
0.1231080000 0.0375370000 0.0000000000
0.1359250000 0.0387270000 0.0000000000
0.1493230000 0.0399480000 0.0000000000
0.1664730000 0.0423280000 0.0000000000
0.1895140000 0.0467220000 0.0000000000
0.2107240000 0.0503850000 0.0000000000
0.2300110000 0.0534360000 0.0000000000
0.2501220000 0.0566710000 0.0000000000
0.2724610000 0.0612490000 0.0000000000
0.2940370000 0.0660710000 0.0000000000
0.3158870000 0.0711670000 0.0000000000
0.3383180000 0.0764470000 0.0000000000
0.3603520000 0.0823670000 0.0000000000
0.3828740000 0.0884090000 0.0000000000
0.4048770000 0.0946660000 0.0000000000
0.4267270000 0.1010440000 0.0000000000
0.4444890000 0.1069640000 0.0000000000
0.4617920000 0.1128850000 0.0000000000
0.4789730000 0.1185300000 0.0000000000
0.4963070000 0.1223750000 0.0000000000
0.5087590000 0.1257020000 0.0055240000
0.5203250000 0.1290280000 0.0118410000
0.5318300000 0.1322940000 0.0181580000
0.5432430000 0.1356810000 0.0242920000
0.5517270000 0.1366580000 0.0216370000
0.5588990000 0.1360780000 0.0155030000
0.5661620000 0.1355900000 0.0093080000
0.5735170000 0.1352230000 0.0028990000
0.5794980000 0.1358340000 0.0000000000
0.5845340000 0.1372380000 0.0000000000
0.5894780000 0.1385800000 0.0000000000
0.5942080000 0.1398930000 0.0000000000
0.5984500000 0.1412350000 0.0000000000
0.6014400000 0.1421810000 0.0000000000
0.6043700000 0.1430050000 0.0000000000
0.6072690000 0.1436770000 0.0000000000
0.6101680000 0.1443480000 0.0000000000
0.6136170000 0.1460270000 0.0017090000
0.6171570000 0.1483460000 0.0046390000
0.6193240000 0.1488950000 0.0046080000
0.6214900000 0.1494140000 0.0045780000
0.6235350000 0.1496280000 0.0043030000
0.6252440000 0.1499330000 0.0013730000
0.6269230000 0.1504820000 0.0000000000
0.6285400000 0.1509700000 0.0000000000
0.0000000000 0.0267640000 0.0181880000
0.0029910000 0.0272520000 0.0180660000
0.0072330000 0.0278020000 0.0177000000
0.0121150000 0.0283810000 0.0173340000
0.0171200000 0.0288390000 0.0169070000
0.0208130000 0.0293270000 0.0163880000
0.0255130000 0.0298460000 0.0150150000
0.0315550000 0.0304260000 0.0130920000
0.0379330000 0.0310670000 0.0111080000
0.0428160000 0.0316470000 0.0092160000
0.0493770000 0.0322880000 0.0060730000
0.0560300000 0.0328670000 0.0028380000
0.0625000000 0.0336300000 0.0000000000
0.0679320000 0.0345760000 0.0000000000
0.0755920000 0.0352480000 0.0000000000
0.0833440000 0.0358890000 0.0000000000
0.0914310000 0.0368350000 0.0000000000
0.0983890000 0.0379640000 0.0000000000
0.1094360000 0.0389710000 0.0000000000
0.1237490000 0.0398860000 0.0000000000
0.1376040000 0.0413210000 0.0000000000
0.1516720000 0.0427550000 0.0000000000
0.1682740000 0.0449520000 0.0000000000
0.1920170000 0.0495000000 0.0000000000
0.2149960000 0.0540470000 0.0000000000
0.2351990000 0.0575260000 0.0000000000
0.2554020000 0.0607600000 0.0000000000
0.2777710000 0.0653380000 0.0000000000
0.2997440000 0.0700990000 0.0000000000
0.3221440000 0.0751040000 0.0000000000
0.3445740000 0.0803530000 0.0000000000
0.3667300000 0.0863650000 0.0000000000
0.3893430000 0.0924380000 0.0000000000
0.4121700000 0.0985720000 0.0000000000
0.4346620000 0.1048280000 0.0000000000
0.4524230000 0.1107480000 0.0000000000
0.4697270000 0.1166690000 0.0000000000
0.4868770000 0.1225590000 0.0000000000
0.5039370000 0.1284180000 0.0000000000
0.5164790000 0.1318660000 0.0053710000
0.5283200000 0.1350400000 0.0113830000
0.5400700000 0.1382140000 0.0174260000
0.5517270000 0.1412960000 0.0234380000
0.5593260000 0.1419370000 0.0218510000
0.5662840000 0.1414180000 0.0156560000
0.5734560000 0.1409610000 0.0093080000
0.5806580000 0.1405030000 0.0028990000
0.5864870000 0.1410830000 0.0000000000
0.5910640000 0.1423650000 0.0000000000
0.5960390000 0.1437380000 0.0000000000
0.6007390000 0.1450200000 0.0000000000
0.6050110000 0.1463930000 0.0000000000
0.6080320000 0.1474610000 0.0000000000
0.6110230000 0.1484990000 0.0000000000
0.6140140000 0.1493230000 0.0000000000
0.6169130000 0.1499940000 0.0000000000
0.6203310000 0.1515500000 0.0014340000
0.6245420000 0.1547850000 0.0058900000
0.6285710000 0.1578370000 0.0100710000
0.6307370000 0.1583250000 0.0100400000
0.6327210000 0.1584780000 0.0097050000
0.6343690000 0.1587220000 0.0067440000
0.6357120000 0.1590270000 0.0017700000
0.6373900000 0.1596070000 0.0000000000
0.0000000000 0.0293580000 0.0190120000
0.0000000000 0.0296940000 0.0188900000
0.0041810000 0.0302430000 0.0185550000
0.0089720000 0.0308230000 0.0182190000
0.0137940000 0.0313720000 0.0178830000
0.0195310000 0.0318600000 0.0171810000
0.0251460000 0.0323790000 0.0156860000
0.0311580000 0.0329900000 0.0137940000
0.0371700000 0.0336000000 0.0118410000
0.0427550000 0.0343020000 0.0090330000
0.0493160000 0.0349120000 0.0058900000
0.0559690000 0.0355220000 0.0026550000
0.0626220000 0.0361330000 0.0000000000
0.0685120000 0.0369870000 0.0000000000
0.0761410000 0.0376590000 0.0000000000
0.0839230000 0.0383000000 0.0000000000
0.0916440000 0.0392150000 0.0000000000
0.0994570000 0.0403140000 0.0000000000
0.1101070000 0.0413210000 0.0000000000
0.1243590000 0.0422360000 0.0000000000
0.1382750000 0.0436710000 0.0000000000
0.1532590000 0.0453490000 0.0000000000
0.1700440000 0.0475460000 0.0000000000
0.1938480000 0.0521240000 0.0000000000
0.2175290000 0.0568540000 0.0000000000
0.2395020000 0.0611880000 0.0000000000
0.2605290000 0.0648190000 0.0000000000
0.2830510000 0.0695190000 0.0000000000
0.3050540000 0.0742190000 0.0000000000
0.3277280000 0.0791320000 0.0000000000
0.3508300000 0.0842900000 0.0000000000
0.3729860000 0.0902710000 0.0000000000
0.3958130000 0.0965580000 0.0000000000
0.4188540000 0.1028440000 0.0000000000
0.4421390000 0.1091610000 0.0000000000
0.4606020000 0.1145630000 0.0000000000
0.4779360000 0.1204830000 0.0000000000
0.4951780000 0.1264040000 0.0000000000
0.5122680000 0.1322630000 0.0000000000
0.5254520000 0.1369930000 0.0040890000
0.5374760000 0.1406250000 0.0096440000
0.5492550000 0.1437990000 0.0156860000
0.5609440000 0.1468810000 0.0216980000
0.5685120000 0.1475220000 0.0201110000
0.5741880000 0.1469420000 0.0151980000
0.5808110000 0.1463930000 0.0093080000
0.5879520000 0.1458740000 0.0028990000
0.5936280000 0.1463320000 0.0000000000
0.5981140000 0.1476140000 0.0000000000
0.6025700000 0.1488950000 0.0000000000
0.6073000000 0.1501770000 0.0000000000
0.6115420000 0.1515200000 0.0000000000
0.6145940000 0.1526180000 0.0000000000
0.6176150000 0.1537170000 0.0000000000
0.6206360000 0.1547850000 0.0000000000
0.6236570000 0.1556700000 0.0000000000
0.6270140000 0.1570430000 0.0011600000
0.6312260000 0.1602780000 0.0056150000
0.6354370000 0.1635440000 0.0101320000
0.6395870000 0.1667480000 0.0146180000
0.6419370000 0.1673890000 0.0151670000
0.6435240000 0.1675720000 0.0121460000
0.6448060000 0.1678160000 0.0071410000
0.6461790000 0.1681210000 0.0021670000
0.0000000000 0.0322880000 0.0192570000
0.0000000000 0.0324710000 0.0190430000
0.0001220000 0.0329590000 0.0184020000
0.0048220000 0.0335690000 0.0179750000
0.0094910000 0.0342100000 0.0175780000
0.0152590000 0.0346980000 0.0169070000
0.0245360000 0.0352480000 0.0145260000
0.0307920000 0.0358580000 0.0125730000
0.0367740000 0.0364990000 0.0104980000
0.0417790000 0.0372310000 0.0079650000
0.0490420000 0.0377810000 0.0058590000
0.0556950000 0.0383610000 0.0026250000
0.0623470000 0.0389710000 0.0000000000
0.0686340000 0.0397640000 0.0000000000
0.0771180000 0.0406490000 0.0000000000
0.0849000000 0.0412900000 0.0000000000
0.0926210000 0.0422060000 0.0000000000
0.1003420000 0.0433040000 0.0000000000
0.1120610000 0.0448000000 0.0000000000
0.1266780000 0.0459290000 0.0000000000
0.1405330000 0.0473630000 0.0000000000
0.1554870000 0.0489200000 0.0000000000
0.1732790000 0.0514530000 0.0000000000
0.1980290000 0.0563960000 0.0000000000
0.2216490000 0.0610960000 0.0000000000
0.2439880000 0.0656130000 0.0000000000
0.2666320000 0.0699460000 0.0000000000
0.2896730000 0.0748600000 0.0000000000
0.3117070000 0.0795290000 0.0000000000
0.3345340000 0.0845340000 0.0000000000
0.3580020000 0.0897830000 0.0000000000
0.3800050000 0.0949710000 0.0000000000
0.4028930000 0.1012880000 0.0000000000
0.4260250000 0.1076350000 0.0000000000
0.4492800000 0.1139530000 0.0000000000
0.4680480000 0.1190490000 0.0000000000
