LUTs/SPK Cube Block1 S64/TheBrim_SPK_Type-V_Block1_S64.cube
TITLE "TheBrim® SPK Block 1"
# © Copyright 2021 - TheBrim® d.o.o. Croatia
LUT_3D_SIZE 64
DOMAIN_MIN 0.000000 0.000000 0.000000
DOMAIN_MAX 1.000000 1.000000 1.000000
0.007721 0.009491 0.011383
0.009216 0.009705 0.011475
0.010681 0.009888 0.011536
0.013092 0.010193 0.011658
0.015473 0.010498 0.011749
0.018952 0.010925 0.011933
0.022797 0.011322 0.012024
0.027832 0.011810 0.012146
0.034577 0.012482 0.012299
0.043244 0.013367 0.012543
0.054170 0.014313 0.012696
0.066011 0.015351 0.012940
0.079683 0.016419 0.013123
0.094514 0.017548 0.013245
0.110597 0.018494 0.013214
0.127871 0.019471 0.013092
0.146975 0.020203 0.012696
0.168826 0.020661 0.012116
0.192172 0.020783 0.011292
0.215335 0.019989 0.010315
0.238437 0.018250 0.009186
0.263371 0.015747 0.007660
0.288914 0.012573 0.005859
0.314031 0.008423 0.003876
0.338079 0.003662 0.001862
0.360510 0.000000 0.000000
0.381262 0.000000 0.000000
0.402350 0.000000 0.000000
0.423499 0.000000 0.000000
0.442756 0.000000 0.000000
0.459724 0.000000 0.000000
0.475257 0.000000 0.000000
0.489296 0.000000 0.000000
0.502922 0.000000 0.000000
0.513573 0.000000 0.000000
0.522637 0.000000 0.000000
0.530785 0.000000 0.000000
0.538354 0.000000 0.000000
0.545495 0.000000 0.000000
0.552331 0.000000 0.000000
0.558831 0.000000 0.000000
0.564599 0.000000 0.000000
0.570550 0.000000 0.000000
0.574426 0.000000 0.000000
0.577722 0.000000 0.000000
0.580682 0.000000 0.000000
0.583154 0.000000 0.000000
0.585290 0.000000 0.000000
0.587335 0.000000 0.000000
0.589258 0.000000 0.000000
0.591180 0.000000 0.000000
0.593042 0.000000 0.000000
0.594659 0.000000 0.000000
0.596277 0.000000 0.000000
0.597559 0.000000 0.000000
0.598810 0.000000 0.000000
0.600000 0.000000 0.000000
0.601282 0.000000 0.000000
0.602594 0.000000 0.000000
0.603540 0.000000 0.000000
0.604425 0.000000 0.000000
0.605859 0.000000 0.000000
0.607355 0.000000 0.000000
0.608850 0.000000 0.000000
0.007782 0.010590 0.011627
0.009216 0.010712 0.011658
0.010742 0.010925 0.011688
0.013123 0.011261 0.011810
0.015595 0.011597 0.011902
0.018952 0.012024 0.012055
0.023072 0.012512 0.012146
0.027771 0.013001 0.012238
0.034699 0.013642 0.012390
0.041749 0.014252 0.012634
0.052857 0.015320 0.012848
0.063966 0.016297 0.013123
0.077943 0.017548 0.013275
0.092073 0.018647 0.013428
0.108522 0.019837 0.013367
0.125032 0.020783 0.013306
0.143526 0.021668 0.012940
0.163455 0.022248 0.012482
0.187259 0.022431 0.011597
0.210269 0.022248 0.010742
0.233799 0.020905 0.009522
0.257969 0.018891 0.008179
0.284001 0.015991 0.006287
0.309422 0.012360 0.004395
0.333867 0.007813 0.002258
0.357031 0.002808 0.000183
0.378210 0.000000 0.000000
0.398840 0.000000 0.000000
0.420325 0.000000 0.000000
0.440925 0.000000 0.000000
0.458167 0.000000 0.000000
0.474372 0.000000 0.000000
0.489570 0.000000 0.000000
0.503319 0.000000 0.000000
0.515099 0.000000 0.000000
0.524376 0.000000 0.000000
0.533501 0.000000 0.000000
0.541192 0.000000 0.000000
0.548547 0.000000 0.000000
0.556054 0.000000 0.000000
0.563073 0.000000 0.000000
0.569085 0.000000 0.000000
0.575158 0.000000 0.000000
0.580346 0.000000 0.000000
0.583642 0.000000 0.000000
0.586419 0.000000 0.000000
0.589075 0.000000 0.000000
0.591333 0.000000 0.000000
0.593408 0.000000 0.000000
0.595331 0.000000 0.000000
0.597223 0.000000 0.000000
0.598993 0.000000 0.000000
0.600580 0.000000 0.000000
0.602167 0.000000 0.000000
0.603754 0.000000 0.000000
0.605005 0.000000 0.000000
0.606256 0.000000 0.000000
0.607446 0.000000 0.000000
0.608545 0.000000 0.000000
0.609339 0.000000 0.000000
0.610193 0.000000 0.000000
0.611017 0.000000 0.000000
0.611048 0.000000 0.000000
0.612543 0.000000 0.000000
0.007874 0.012207 0.011933
0.009308 0.012177 0.011933
0.010742 0.012116 0.011810
0.013092 0.012451 0.011933
0.015625 0.012726 0.011994
0.018860 0.013092 0.012116
0.023072 0.013581 0.012207
0.027649 0.014130 0.012329
0.034607 0.014801 0.012512
0.041535 0.015442 0.012787
0.051545 0.016388 0.013062
0.062440 0.017456 0.013306
0.076204 0.018738 0.013519
0.090211 0.020020 0.013642
0.106569 0.021271 0.013642
0.122957 0.022431 0.013550
0.141176 0.023407 0.013214
0.159365 0.024262 0.012818
0.182559 0.024445 0.012024
0.205631 0.024628 0.011139
0.229252 0.023499 0.009949
0.252781 0.022187 0.008698
0.279057 0.019379 0.006806
0.305058 0.016449 0.004883
0.329534 0.011872 0.002747
0.353552 0.007294 0.000610
0.374762 0.001862 0.000000
0.395453 0.000000 0.000000
0.416907 0.000000 0.000000
0.438483 0.000000 0.000000
0.456580 0.000000 0.000000
0.473030 0.000000 0.000000
0.489113 0.000000 0.000000
0.503960 0.000000 0.000000
0.517021 0.000000 0.000000
0.526513 0.000000 0.000000
0.535821 0.000000 0.000000
0.544823 0.000000 0.000000
0.552483 0.000000 0.000000
0.560204 0.000000 0.000000
0.567712 0.000000 0.000000
0.573877 0.000000 0.000000
0.579980 0.000000 0.000000
0.586023 0.000000 0.000000
0.589410 0.000000 0.000000
0.592157 0.000000 0.000000
0.594781 0.000000 0.000000
0.597223 0.000000 0.000000
0.599481 0.000000 0.000000
0.601404 0.000000 0.000000
0.603296 0.000000 0.000000
0.604974 0.000000 0.000000
0.606561 0.000000 0.000000
0.608148 0.000000 0.000000
0.609674 0.000000 0.000000
0.611200 0.000000 0.000000
0.612451 0.000000 0.000000
0.613672 0.000000 0.000000
0.614557 0.000000 0.000000
0.615381 0.000000 0.000000
0.616205 0.000000 0.000000
0.617029 0.000000 0.000000
0.617243 0.000000 0.000000
0.618769 0.000000 0.000000
0.007904 0.014221 0.012329
0.009491 0.014313 0.012299
0.010956 0.014282 0.012207
0.013092 0.014405 0.012207
0.015869 0.014832 0.012299
0.018982 0.015198 0.012421
0.023560 0.015778 0.012482
0.027802 0.016236 0.012604
0.035187 0.017060 0.012909
0.042054 0.017517 0.013153
0.051362 0.018372 0.013397
0.061433 0.019257 0.013611
0.074708 0.020752 0.013825
0.088869 0.022095 0.013947
0.104860 0.023682 0.013977
0.121370 0.024964 0.013855
0.139315 0.026215 0.013550
0.157290 0.027039 0.013153
0.178317 0.027405 0.012482
0.201114 0.027649 0.011597
0.224887 0.027344 0.010437
0.248569 0.026307 0.009155
0.274388 0.024414 0.007355
0.300542 0.021668 0.005402
0.325719 0.017853 0.003235
0.349828 0.013336 0.001068
0.371893 0.008423 0.000000
0.392615 0.003265 0.000000
0.414191 0.000000 0.000000
0.435889 0.000000 0.000000
0.455543 0.000000 0.000000
0.472175 0.000000 0.000000
0.488197 0.000000 0.000000
0.504234 0.000000 0.000000
0.518608 0.000000 0.000000
0.528832 0.000000 0.000000
0.538201 0.000000 0.000000
0.547509 0.000000 0.000000
0.555901 0.000000 0.000000
0.563928 0.000000 0.000000
0.571771 0.000000 0.000000
0.578424 0.000000 0.000000
0.584710 0.000000 0.000000
0.590814 0.000000 0.000000
0.595148 0.000000 0.000000
0.597925 0.000000 0.000000
0.600580 0.000000 0.000000
0.603082 0.000000 0.000000
0.605554 0.000000 0.000000
0.607630 0.000000 0.000000
0.609491 0.000000 0.000000
0.611078 0.000000 0.000000
0.612634 0.000000 0.000000
0.614221 0.000000 0.000000
0.615747 0.000000 0.000000
0.617243 0.000000 0.000000
0.618708 0.000000 0.000000
0.619837 0.000000 0.000000
0.620661 0.000000 0.000000
0.621485 0.000000 0.000000
0.622309 0.000000 0.000000
0.623102 0.000000 0.000000
0.623377 0.000000 0.000000
0.624903 0.000000 0.000000
0.007965 0.016876 0.012757
0.009583 0.016724 0.012696
0.011200 0.016571 0.012573
0.013428 0.016541 0.012543
0.015869 0.016754 0.012604
0.018952 0.017212 0.012696
0.023682 0.017884 0.012818
0.028351 0.018524 0.013001
0.035431 0.019348 0.013306
0.042878 0.020081 0.013550
0.051820 0.020905 0.013794
0.061585 0.021851 0.013947
0.073182 0.023041 0.014160
0.087861 0.024811 0.014252
0.103182 0.026398 0.014313
0.119936 0.028107 0.014130
0.137331 0.029419 0.013916
0.155703 0.030701 0.013428
0.175296 0.031250 0.012879
0.197147 0.031434 0.011994
0.220218 0.031434 0.010986
0.244358 0.030976 0.009522
0.269108 0.029572 0.007996
0.295903 0.027314 0.005829
0.321538 0.023987 0.003784
0.346014 0.019806 0.001434
0.368627 0.015198 0.000000
0.389410 0.010193 0.000000
0.410468 0.004669 0.000000
0.432593 0.000000 0.000000
0.453895 0.000000 0.000000
0.470741 0.000000 0.000000
0.486580 0.000000 0.000000
0.502770 0.000000 0.000000
0.518456 0.000000 0.000000
0.530694 0.000000 0.000000
0.540215 0.000000 0.000000
0.549493 0.000000 0.000000
0.558251 0.000000 0.000000
0.566888 0.000000 0.000000
0.575189 0.000000 0.000000
0.582452 0.000000 0.000000
0.589441 0.000000 0.000000
0.595850 0.000000 0.000000
0.601434 0.000000 0.000000
0.604486 0.000000 0.000000
0.607202 0.000000 0.000000
0.609705 0.000000 0.000000
0.612116 0.000000 0.000000
0.614466 0.000000 0.000000
0.616358 0.000000 0.000000
0.618006 0.000000 0.000000
0.619593 0.000000 0.000000
0.621180 0.000000 0.000000
0.622675 0.000000 0.000000
0.624201 0.000000 0.000000
0.625666 0.000000 0.000000
0.626764 0.000000 0.000000
0.627558 0.000000 0.000000
0.628290 0.000000 0.000000
0.629053 0.000000 0.000000
0.629786 0.000000 0.000000
0.629877 0.000000 0.000000
0.631434 0.000000 0.000000
0.007813 0.020050 0.013214
0.009674 0.020081 0.013184
0.011322 0.019959 0.013062
0.013794 0.020020 0.013031
0.016388 0.020111 0.013062
0.018860 0.020081 0.013092
0.023957 0.020905 0.013245
0.028717 0.021515 0.013489
0.035859 0.022431 0.013764
0.043366 0.023041 0.014008
0.052338 0.023865 0.014221
0.062074 0.024659 0.014343
0.072480 0.025574 0.014496
0.086244 0.027131 0.014588
0.101320 0.028962 0.014649
0.118227 0.030823 0.014496
0.135195 0.032532 0.014282
0.153719 0.033936 0.013794
0.172366 0.035126 0.013245
0.193912 0.035279 0.012421
0.215793 0.035462 0.011505
0.239536 0.035065 0.010132
0.263676 0.034638 0.008637
0.290440 0.032471 0.006531
0.316899 0.030152 0.004364
0.341619 0.026032 0.002167
0.365270 0.022004 0.000000
0.385962 0.017029 0.000000
0.406806 0.012024 0.000000
0.428840 0.005615 0.000000
0.450996 0.000000 0.000000
0.469215 0.000000 0.000000
0.485206 0.000000 0.000000
0.501274 0.000000 0.000000
0.517205 0.000000 0.000000
0.532464 0.000000 0.000000
0.542473 0.000000 0.000000
0.551995 0.000000 0.000000
0.561242 0.000000 0.000000
0.570092 0.000000 0.000000
0.579004 0.000000 0.000000
0.586999 0.000000 0.000000
0.594263 0.000000 0.000000
0.601160 0.000000 0.000000
0.606989 0.000000 0.000000
0.611170 0.000000 0.000000
0.613916 0.000000 0.000000
0.616419 0.000000 0.000000
0.618830 0.000000 0.000000
0.621180 0.000000 0.000000
0.623194 0.000000 0.000000
0.624964 0.000000 0.000000
0.626581 0.000000 0.000000
0.628168 0.000000 0.000000
0.629725 0.000000 0.000000
0.631220 0.000000 0.000000
0.632624 0.000000 0.000000
0.633631 0.000000 0.000000
0.634607 0.000000 0.000000
0.635401 0.000000 0.000000
0.636164 0.000000 0.000000
0.636896 0.000000 0.000000
0.636988 0.000000 0.000000
0.638483 0.000000 0.000000
0.007568 0.024292 0.013764
0.009491 0.023926 0.013672
0.011383 0.023499 0.013489
0.014008 0.023377 0.013458
0.016785 0.023621 0.013489
0.019471 0.023713 0.013519
0.023896 0.024170 0.013703
0.029206 0.025055 0.013947
0.036011 0.025971 0.014221
0.044221 0.026917 0.014435
0.052888 0.027802 0.014679
0.063142 0.029084 0.014801
0.073030 0.029938 0.014954
0.086061 0.031556 0.014984
0.099794 0.033051 0.015045
0.116640 0.035645 0.014862
0.133211 0.037354 0.014679
0.152438 0.038727 0.014191
0.170504 0.040040 0.013672
0.191836 0.040925 0.012787
0.213413 0.041016 0.011902
0.235813 0.041169 0.010620
0.259525 0.040803 0.009125
0.285924 0.040009 0.007050
0.312474 0.037842 0.005005
0.338140 0.035065 0.002747
0.361852 0.031128 0.000519
0.383764 0.026856 0.000000
0.404456 0.021912 0.000000
0.425910 0.016266 0.000000
0.448341 0.009613 0.000000
0.468330 0.003235 0.000000
0.484565 0.000000 0.000000
0.500175 0.000000 0.000000
0.516411 0.000000 0.000000
0.532189 0.000000 0.000000
0.544793 0.000000 0.000000
0.554772 0.000000 0.000000
0.564294 0.000000 0.000000
0.573327 0.000000 0.000000
0.582330 0.000000 0.000000
0.591028 0.000000 0.000000
0.598718 0.000000 0.000000
0.605951 0.000000 0.000000
0.612329 0.000000 0.000000
0.617639 0.000000 0.000000
0.620569 0.000000 0.000000
0.623102 0.000000 0.000000
0.625513 0.000000 0.000000
0.627741 0.000000 0.000000
0.629786 0.000000 0.000000
0.631769 0.000000 0.000000
0.633539 0.000000 0.000000
0.635187 0.000000 0.000000
0.636744 0.000000 0.000000
0.638239 0.000000 0.000000
0.639460 0.000000 0.000000
0.640467 0.000000 0.000000
0.641505 0.000000 0.000000
0.642512 0.000000 0.000000
0.643305 0.000000 0.000000
0.644068 0.000000 0.000000
0.644099 0.000000 0.000000
0.645472 0.000000 0.000000
0.006958 0.029572 0.014313
0.009155 0.029480 0.014221
0.011109 0.029145 0.014038
0.014099 0.029145 0.014008
0.017090 0.029114 0.014008
0.019867 0.028931 0.014160
0.024689 0.029206 0.014313
0.029236 0.029175 0.014466
0.036164 0.030152 0.014740
0.044495 0.030793 0.014893
0.053254 0.031556 0.015076
0.063661 0.032959 0.015259
0.073854 0.034272 0.015351
0.086641 0.035889 0.015412
0.099672 0.037507 0.015381
0.114900 0.039582 0.015290
0.131655 0.042176 0.014954
0.150179 0.043610 0.014588
0.169406 0.044953 0.013947
0.189364 0.046021 0.013214
0.211490 0.046906 0.012116
0.233310 0.046998 0.011017
0.255955 0.047120 0.009491
0.280613 0.046571 0.007813
0.307897 0.045380 0.005524
0.333989 0.043061 0.003418
0.358221 0.040040 0.000977
0.380926 0.036225 0.000000
0.402136 0.031678 0.000000
0.423041 0.026734 0.000000
0.445350 0.020111 0.000000
0.466743 0.013764 0.000000
0.483528 0.007782 0.000000
0.499458 0.001953 0.000000
0.515190 0.000000 0.000000
0.531273 0.000000 0.000000
0.546441 0.000000 0.000000
0.557061 0.000000 0.000000
0.567071 0.000000 0.000000
0.576410 0.000000 0.000000
0.585504 0.000000 0.000000
0.594751 0.000000 0.000000
0.602747 0.000000 0.000000
0.610559 0.000000 0.000000
0.617670 0.000000 0.000000
0.623590 0.000000 0.000000
0.627985 0.000000 0.000000
0.630579 0.000000 0.000000
0.633051 0.000000 0.000000
0.635218 0.000000 0.000000
0.637293 0.000000 0.000000
0.639368 0.000000 0.000000
0.641444 0.000000 0.000000
0.643214 0.000000 0.000000
0.644739 0.000000 0.000000
0.646204 0.000000 0.000000
0.647242 0.000000 0.000000
0.648219 0.000000 0.000000
0.649226 0.000000 0.000000
0.650202 0.000000 0.000000
0.651209 0.000000 0.000000
0.651881 0.000000 0.000000
0.651759 0.000000 0.000000
0.653040 0.000000 0.000000
0.006073 0.036408 0.014893
0.008362 0.035798 0.014771
0.010712 0.035065 0.014588
0.013886 0.034791 0.014496
0.017151 0.035004 0.014588
0.020233 0.035065 0.014740
0.025330 0.035492 0.014923
0.030365 0.035828 0.015076
0.036011 0.036011 0.015259
0.045197 0.037232 0.015442
0.053681 0.037934 0.015625
0.064637 0.039429 0.015747
0.074861 0.040497 0.015869
0.087709 0.042115 0.015900
0.100587 0.043458 0.015869
0.114595 0.045075 0.015717
0.130220 0.047150 0.015381
0.148257 0.049256 0.014954
0.167544 0.050507 0.014374
0.187198 0.051850 0.013581
0.209262 0.052674 0.012543
0.231449 0.053498 0.011383
0.253727 0.053529 0.009949
0.276249 0.053529 0.008453
0.302953 0.052552 0.006287
0.329992 0.051331 0.004028
0.354650 0.048768 0.001587
0.378027 0.045777 0.000000
0.399756 0.041871 0.000000
0.420966 0.037324 0.000000
0.442817 0.031708 0.000000
0.464149 0.025299 0.000000
0.482979 0.019837 0.000000
0.499001 0.014191 0.000000
0.514611 0.008667 0.000000
0.530816 0.001831 0.000000
0.546990 0.000000 0.000000
0.559442 0.000000 0.000000
0.570123 0.000000 0.000000
0.580255 0.000000 0.000000
0.589532 0.000000 0.000000
0.598993 0.000000 0.000000
0.607660 0.000000 0.000000
0.615717 0.000000 0.000000
0.623438 0.000000 0.000000
0.629603 0.000000 0.000000
0.635279 0.000000 0.000000
0.638361 0.000000 0.000000
0.640772 0.000000 0.000000
0.642878 0.000000 0.000000
0.644953 0.000000 0.000000
0.647059 0.000000 0.000000
0.649104 0.000000 0.000000
0.651179 0.000000 0.000000
0.652857 0.000000 0.000000
0.654139 0.000000 0.000000
0.655177 0.000000 0.000000
0.656153 0.000000 0.000000
0.657160 0.000000 0.000000
0.658167 0.000000 0.000000
0.659174 0.000000 0.000000
0.660151 0.000000 0.000000
0.659907 0.000000 0.000000
0.661189 0.000000 0.000000
0.004761 0.045136 0.015564
0.006928 0.045380 0.015534
0.009308 0.044862 0.015351
0.012909 0.044617 0.015290
0.016541 0.044434 0.015381
0.019867 0.044068 0.015534
0.025696 0.044160 0.015686
0.030854 0.043977 0.015808
0.037049 0.043763 0.015900
0.044831 0.043397 0.015961
0.054047 0.044709 0.016114
0.064820 0.046143 0.016266
0.075807 0.047730 0.016297
0.088136 0.049256 0.016388
0.101747 0.051057 0.016205
0.115267 0.052552 0.016114
0.130282 0.054414 0.015717
0.146212 0.056306 0.015351
0.166751 0.057771 0.014679
0.185245 0.059022 0.014069
0.208011 0.060639 0.012818
0.230259 0.061646 0.011688
0.253056 0.062409 0.010224
0.275395 0.062531 0.008698
0.299931 0.062074 0.006714
0.326757 0.061189 0.004395
0.352239 0.059785 0.001862
0.375982 0.057496 0.000000
0.398749 0.054719 0.000000
0.420356 0.051331 0.000000
0.441901 0.046693 0.000000
0.463783 0.041413 0.000000
0.484230 0.034974 0.000000
0.500603 0.030488 0.000000
0.516075 0.025086 0.000000
0.532250 0.018891 0.000000
0.548608 0.012146 0.000000
0.563165 0.005798 0.000000
0.574151 0.000549 0.000000
0.584710 0.000000 0.000000
0.594232 0.000000 0.000000
0.603815 0.000000 0.000000
0.612970 0.000000 0.000000
0.621149 0.000000 0.000000
0.629206 0.000000 0.000000
0.635859 0.000000 0.000000
0.641901 0.000000 0.000000
0.646632 0.000000 0.000000
0.648981 0.000000 0.000000
0.651087 0.000000 0.000000
0.653132 0.000000 0.000000
0.655238 0.000000 0.000000
0.657313 0.000000 0.000000
0.659388 0.000000 0.000000
0.661189 0.000000 0.000000
0.662409 0.000000 0.000000
0.663416 0.000000 0.000000
0.664424 0.000000 0.000000
0.665431 0.000000 0.000000
0.666438 0.000000 0.000000
0.667445 0.000000 0.000000
0.668452 0.000000 0.000000
0.668269 0.000000 0.000000
0.669581 0.000000 0.000000
0.002991 0.054810 0.016236
0.005249 0.054871 0.016175
0.007538 0.054932 0.016083
0.011475 0.054688 0.016022
0.015503 0.054383 0.016114
0.019379 0.054292 0.016205
0.025391 0.054444 0.016388
0.031586 0.054627 0.016449
0.037690 0.054414 0.016602
0.046357 0.054047 0.016632
0.054139 0.053651 0.016693
0.065431 0.055146 0.016815
0.076448 0.056458 0.016876
0.088716 0.058045 0.016876
0.102388 0.059632 0.016724
0.116274 0.061036 0.016541
0.131411 0.062440 0.016144
0.146059 0.063844 0.015686
0.164706 0.064881 0.015076
0.184237 0.066285 0.014343
0.206058 0.067842 0.013275
0.229007 0.069520 0.011994
0.251835 0.070649 0.010590
0.274693 0.071290 0.008881
0.298131 0.071229 0.007019
0.323796 0.070558 0.004669
0.349645 0.069795 0.002167
0.373816 0.068299 0.000000
0.397498 0.066316 0.000000
0.419348 0.063722 0.000000
0.441108 0.060731 0.000000
0.462989 0.055970 0.000000
0.484382 0.050965 0.000000
0.501884 0.045350 0.000000
0.517723 0.040986 0.000000
0.533532 0.035554 0.000000
0.550072 0.028992 0.000000
0.566583 0.022339 0.000000
0.577905 0.016907 0.000000
0.588769 0.011475 0.000000
0.598840 0.006195 0.000000
0.608515 0.001617 0.000000
0.618280 0.000000 0.000000
0.626612 0.000000 0.000000
0.634943 0.000000 0.000000
0.642298 0.000000 0.000000
0.648768 0.000000 0.000000
0.654902 0.000000 0.000000
0.658106 0.000000 0.000000
0.660334 0.000000 0.000000
0.662440 0.000000 0.000000
0.664576 0.000000 0.000000
0.666682 0.000000 0.000000
0.668818 0.000000 0.000000
0.670466 0.000000 0.000000
0.671778 0.000000 0.000000
0.672938 0.000000 0.000000
0.673823 0.000000 0.000000
0.674769 0.000000 0.000000
0.675776 0.000000 0.000000
0.676722 0.000000 0.000000
0.677516 0.000000 0.000000
0.677485 0.000000 0.000000
0.678798 0.000000 0.000000
0.000488 0.065217 0.016846
0.003082 0.065492 0.016724
0.005371 0.065553 0.016663
0.009186 0.066133 0.016663
0.013458 0.066285 0.016693
0.017517 0.065919 0.016846
0.024628 0.066041 0.017029
0.030884 0.065827 0.017151
0.038300 0.065614 0.017243
0.047272 0.064729 0.017273
0.055818 0.064088 0.017243
0.065217 0.064179 0.017273
0.077333 0.065919 0.017273
0.089296 0.067475 0.017273
0.103365 0.069490 0.017060
0.117067 0.071107 0.016876
0.133547 0.072328 0.016480
0.148653 0.073548 0.016022
0.165835 0.074983 0.015290
0.184482 0.076265 0.014466
0.205783 0.078004 0.013458
0.229160 0.079927 0.012085
0.252201 0.081453 0.010651
0.275547 0.082429 0.008759
0.298314 0.082612 0.007019
0.324071 0.082277 0.004395
0.348730 0.081392 0.001984
0.373114 0.080690 0.000000
0.397070 0.079164 0.000000
0.420020 0.077760 0.000000
0.441901 0.075135 0.000000
0.463905 0.072358 0.000000
0.485267 0.067292 0.000000
0.504723 0.062928 0.000000
0.520653 0.058198 0.000000
0.536248 0.053925 0.000000
0.553155 0.049592 0.000000
0.569757 0.043183 0.000000
0.583246 0.038727 0.000000
0.594232 0.033692 0.000000
0.604791 0.028656 0.000000
0.614679 0.024506 0.000000
0.624598 0.020630 0.000000
0.633478 0.018891 0.000000
0.641901 0.016693 0.000000
0.649714 0.014710 0.000000
0.656245 0.013245 0.000000
0.662531 0.010864 0.000000
0.667659 0.011200 0.000000
0.669978 0.011292 0.000000
0.672145 0.010864 0.000000
0.674281 0.010407 0.000000
0.676387 0.009979 0.000000
0.678462 0.009400 0.000000
0.679988 0.008637 0.000000
0.681270 0.007507 0.000000
0.682490 0.006195 0.000000
0.683497 0.004425 0.000000
0.684443 0.002655 0.000000
0.685420 0.000824 0.000000
0.686366 0.000000 0.000000
0.687037 0.000000 0.000000
0.686946 0.000000 0.000000
0.688289 0.000000 0.000000
0.000000 0.076173 0.017365
0.000061 0.076265 0.017243
0.003265 0.076478 0.017151
0.007294 0.076967 0.017151
0.011200 0.077546 0.017182
0.015778 0.077638 0.017304
0.022919 0.077790 0.017487
0.030182 0.077882 0.017548
0.037781 0.077699 0.017670
0.048096 0.077180 0.017700
0.056886 0.076387 0.017762
0.067109 0.075959 0.017792
0.077516 0.075929 0.017762
0.089906 0.077546 0.017670
0.104341 0.079469 0.017456
0.118318 0.081300 0.017151
0.134554 0.082551 0.016754
0.150851 0.083314 0.016236
0.168002 0.084565 0.015503
0.185946 0.086122 0.014527
0.205264 0.087739 0.013611
0.229129 0.090028 0.012085
0.252689 0.092103 0.010559
0.276371 0.093416 0.008606
0.299657 0.094209 0.006592
0.324987 0.094301 0.004089
0.350042 0.094148 0.001343
0.373419 0.093294 0.000000
0.397498 0.092744 0.000000
0.421057 0.091402 0.000000
0.443641 0.090211 0.000000
0.465278 0.087495 0.000000
0.487160 0.084535 0.000000
0.508141 0.080018 0.000000
0.524315 0.076692 0.000000
0.540124 0.072633 0.000000
0.556695 0.069032 0.000000
0.573663 0.065583 0.000000
0.589105 0.059937 0.000000
0.600183 0.056855 0.000000
0.610986 0.052277 0.000000
0.621088 0.048463 0.000000
0.631098 0.044800 0.000000
0.640314 0.041688 0.000000
0.648798 0.040314 0.000000
0.657130 0.038392 0.000000
0.663783 0.036835 0.000000
0.670100 0.034760 0.000000
0.675837 0.032410 0.000000
0.679469 0.032380 0.000000
0.681788 0.032410 0.000000
0.683986 0.032074 0.000000
0.686091 0.031556 0.000000
0.688106 0.031189 0.000000
0.689509 0.030426 0.000000
0.690822 0.029328 0.000000
0.692012 0.028016 0.000000
0.693080 0.026429 0.000000
0.694087 0.024720 0.000000
0.695064 0.022889 0.000000
0.695888 0.021241 0.000000
0.696468 0.019562 0.000000
0.696437 0.016480 0.000000
0.697780 0.016510 0.000000
0.000000 0.088380 0.017762
0.000000 0.088594 0.017639
0.000000 0.088930 0.017548
0.003876 0.089540 0.017487
0.007904 0.090211 0.017517
0.012146 0.090913 0.017670
0.020294 0.091218 0.017853
0.027771 0.091035 0.017975
0.036896 0.090761 0.018067
0.047791 0.089815 0.018097
0.057771 0.088899 0.018067
0.068482 0.088563 0.018097
0.079591 0.088380 0.017975
0.090120 0.088319 0.017884
0.105257 0.090547 0.017639
0.119753 0.092531 0.017304
0.136202 0.094423 0.016754
0.153079 0.095644 0.016114
0.170321 0.096773 0.015442
0.188663 0.098268 0.014435
0.206424 0.099458 0.013519
0.229221 0.101411 0.011841
0.253056 0.103639 0.010193
0.277317 0.105531 0.008057
0.300816 0.106355 0.006073
0.325933 0.106996 0.003388
0.351202 0.106966 0.000641
0.375219 0.106783 0.000000
0.397955 0.105715 0.000000
0.422004 0.105196 0.000000
0.444678 0.104158 0.000000
0.466651 0.102693 0.000000
0.488655 0.100099 0.000000
0.509972 0.097078 0.000000
0.527825 0.094026 0.000000
0.543786 0.090669 0.000000
0.560082 0.087465 0.000000
0.577173 0.084321 0.000000
0.594293 0.081056 0.000000
0.606073 0.078004 0.000000
0.617060 0.074800 0.000000
0.627497 0.071656 0.000000
0.637568 0.068208 0.000000
0.647456 0.065126 0.000000
0.655818 0.062898 0.000000
0.664363 0.061372 0.000000
0.671626 0.060487 0.000000
0.678065 0.058473 0.000000
0.684138 0.056641 0.000000
0.689479 0.054902 0.000000
