LUTs/SPK Cube Block1 S64/TheBrim_SPK_Type-Y_Block1_S64.cube
TITLE "TheBrim® Industrial Imaging Burau"
# © Copyright 2022 - TheBrim® d.o.o. Croatia
LUT_3D_SIZE 64
DOMAIN_MIN 0.000000 0.000000 0.000000
DOMAIN_MAX 1.000000 1.000000 1.000000
0.000000 0.000031 0.000031
0.000000 0.000031 0.000031
0.000793 0.000031 0.000031
0.003387 0.000031 0.000031
0.007019 0.000031 0.000031
0.011261 0.000031 0.000031
0.016479 0.000031 0.000031
0.021637 0.000031 0.000031
0.027435 0.000031 0.000031
0.034637 0.000031 0.000031
0.044159 0.000031 0.000031
0.054932 0.000031 0.000031
0.066589 0.000031 0.000031
0.078461 0.000031 0.000031
0.090637 0.000031 0.000031
0.104279 0.000031 0.000031
0.119537 0.000031 0.000031
0.135895 0.000031 0.000031
0.153442 0.000031 0.000031
0.173431 0.000031 0.000031
0.196136 0.000031 0.000031
0.219818 0.000031 0.000031
0.244904 0.000031 0.000031
0.270660 0.000031 0.000031
0.297699 0.000031 0.000031
0.325745 0.000031 0.000031
0.353058 0.000031 0.000031
0.379578 0.000031 0.000031
0.405792 0.000031 0.000031
0.432556 0.000031 0.000031
0.459900 0.000031 0.000031
0.487610 0.000031 0.000031
0.516632 0.000031 0.000031
0.547424 0.000031 0.000031
0.577606 0.000031 0.000031
0.604553 0.000031 0.000031
0.629578 0.000031 0.000031
0.655792 0.000031 0.000031
0.683563 0.000031 0.000031
0.713623 0.000031 0.000031
0.745941 0.000031 0.000031
0.776459 0.000031 0.000031
0.805206 0.000031 0.000031
0.829834 0.000031 0.000031
0.862549 0.000031 0.000031
0.896454 0.000031 0.000031
0.923615 0.000031 0.000031
0.946106 0.000031 0.000031
0.963684 0.000031 0.000031
0.978851 0.000031 0.000031
0.987579 0.000031 0.000031
0.992065 0.000031 0.000031
0.994751 0.000031 0.000031
0.996552 0.000031 0.000031
0.997650 0.000031 0.000031
0.998444 0.000031 0.000031
0.999054 0.000031 0.000031
0.999573 0.000031 0.000031
0.999939 0.000031 0.000031
0.999969 0.000031 0.000031
0.999969 0.000031 0.000031
0.999969 0.000031 0.000031
0.999969 0.000031 0.000031
0.999969 0.000031 0.000031
0.000000 0.000031 0.000031
0.000000 0.000031 0.000031
0.000793 0.000031 0.000031
0.003387 0.000031 0.000031
0.007019 0.000031 0.000031
0.011261 0.000031 0.000031
0.016479 0.000031 0.000031
0.021637 0.000031 0.000031
0.027435 0.000031 0.000031
0.034637 0.000031 0.000031
0.044159 0.000031 0.000031
0.054932 0.000031 0.000031
0.066589 0.000031 0.000031
0.078461 0.000031 0.000031
0.090637 0.000031 0.000031
0.104279 0.000031 0.000031
0.119537 0.000031 0.000031
0.135895 0.000031 0.000031
0.153442 0.000031 0.000031
0.173431 0.000031 0.000031
0.196136 0.000031 0.000031
0.219818 0.000031 0.000031
0.244904 0.000031 0.000031
0.270660 0.000031 0.000031
0.297699 0.000031 0.000031
0.325745 0.000031 0.000031
0.353058 0.000031 0.000031
0.379578 0.000031 0.000031
0.405792 0.000031 0.000031
0.432556 0.000031 0.000031
0.459900 0.000031 0.000031
0.487610 0.000031 0.000031
0.516632 0.000031 0.000031
0.547424 0.000031 0.000031
0.577606 0.000031 0.000031
0.604553 0.000031 0.000031
0.629578 0.000031 0.000031
0.655792 0.000031 0.000031
0.683563 0.000031 0.000031
0.713623 0.000031 0.000031
0.745941 0.000031 0.000031
0.776459 0.000031 0.000031
0.805206 0.000031 0.000031
0.829834 0.000031 0.000031
0.862549 0.000031 0.000031
0.896454 0.000031 0.000031
0.923615 0.000031 0.000031
0.946106 0.000031 0.000031
0.963684 0.000031 0.000031
0.978851 0.000031 0.000031
0.987579 0.000031 0.000031
0.992065 0.000031 0.000031
0.994751 0.000031 0.000031
0.996552 0.000031 0.000031
0.997650 0.000031 0.000031
0.998444 0.000031 0.000031
0.999054 0.000031 0.000031
0.999573 0.000031 0.000031
0.999939 0.000031 0.000031
0.999969 0.000031 0.000031
0.999969 0.000031 0.000031
0.999969 0.000031 0.000031
0.999969 0.000031 0.000031
0.999969 0.000031 0.000031
0.000000 0.000580 0.000031
0.000000 0.000580 0.000031
0.000793 0.000580 0.000031
0.003387 0.000580 0.000031
0.007019 0.000580 0.000031
0.011261 0.000580 0.000031
0.016479 0.000580 0.000031
0.021637 0.000580 0.000031
0.027435 0.000580 0.000031
0.034637 0.000580 0.000031
0.044159 0.000580 0.000031
0.054932 0.000580 0.000031
0.066589 0.000580 0.000031
0.078461 0.000580 0.000031
0.090637 0.000580 0.000031
0.104279 0.000580 0.000031
0.119537 0.000580 0.000031
0.135895 0.000580 0.000031
0.153442 0.000580 0.000031
0.173431 0.000580 0.000031
0.196136 0.000580 0.000031
0.219818 0.000580 0.000031
0.244904 0.000580 0.000031
0.270660 0.000580 0.000031
0.297699 0.000580 0.000031
0.325745 0.000580 0.000031
0.353058 0.000580 0.000031
0.379578 0.000580 0.000031
0.405792 0.000580 0.000031
0.432556 0.000580 0.000031
0.459900 0.000580 0.000031
0.487610 0.000580 0.000031
0.516632 0.000580 0.000031
0.547424 0.000580 0.000031
0.577606 0.000580 0.000031
0.604553 0.000580 0.000031
0.629578 0.000580 0.000031
0.655792 0.000580 0.000031
0.683563 0.000580 0.000031
0.713623 0.000580 0.000031
0.745941 0.000580 0.000031
0.776459 0.000580 0.000031
0.805206 0.000580 0.000031
0.829834 0.000580 0.000031
0.862549 0.000580 0.000031
0.896454 0.000580 0.000031
0.923615 0.000580 0.000031
0.946106 0.000580 0.000031
0.963684 0.000580 0.000031
0.978851 0.000580 0.000031
0.987579 0.000580 0.000031
0.992065 0.000580 0.000031
0.994751 0.000580 0.000031
0.996552 0.000580 0.000031
0.997650 0.000580 0.000031
0.998444 0.000580 0.000031
0.999054 0.000580 0.000031
0.999573 0.000580 0.000031
0.999939 0.000580 0.000031
0.999969 0.000580 0.000031
0.999939 0.000580 0.000031
0.999969 0.000580 0.000031
0.999969 0.000580 0.000031
0.999969 0.000580 0.000031
0.000000 0.002472 0.000031
0.000000 0.002472 0.000031
0.000793 0.002472 0.000031
0.003387 0.002472 0.000031
0.007019 0.002472 0.000031
0.011261 0.002472 0.000031
0.016479 0.002472 0.000031
0.021637 0.002472 0.000031
0.027435 0.002472 0.000031
0.034637 0.002472 0.000031
0.044159 0.002472 0.000031
0.054932 0.002472 0.000031
0.066589 0.002472 0.000031
0.078461 0.002472 0.000031
0.090637 0.002472 0.000031
0.104279 0.002472 0.000031
0.119537 0.002472 0.000031
0.135895 0.002472 0.000031
0.153442 0.002472 0.000031
0.173431 0.002472 0.000031
0.196136 0.002472 0.000031
0.219818 0.002472 0.000031
0.244904 0.002472 0.000031
0.270660 0.002472 0.000031
0.297699 0.002472 0.000031
0.325745 0.002472 0.000031
0.353058 0.002472 0.000031
0.379578 0.002472 0.000031
0.405792 0.002472 0.000031
0.432556 0.002472 0.000031
0.459900 0.002472 0.000031
0.487610 0.002472 0.000031
0.516632 0.002472 0.000031
0.547424 0.002472 0.000031
0.577606 0.002472 0.000031
0.604553 0.002472 0.000031
0.629578 0.002472 0.000031
0.655792 0.002472 0.000031
0.683563 0.002472 0.000031
0.713623 0.002472 0.000031
0.745941 0.002472 0.000031
0.776459 0.002472 0.000031
0.805206 0.002472 0.000031
0.829834 0.002472 0.000031
0.862549 0.002472 0.000031
0.896454 0.002472 0.000031
0.923615 0.002472 0.000031
0.946106 0.002472 0.000031
0.963684 0.002472 0.000031
0.978851 0.002472 0.000031
0.987579 0.002472 0.000031
0.992065 0.002472 0.000031
0.994751 0.002472 0.000031
0.996552 0.002472 0.000031
0.997650 0.002472 0.000031
0.998444 0.002472 0.000031
0.999054 0.002472 0.000031
0.999573 0.002472 0.000031
0.999939 0.002472 0.000031
0.999969 0.002472 0.000031
0.999969 0.002472 0.000031
0.999969 0.002472 0.000031
0.999969 0.002472 0.000031
0.999969 0.002472 0.000031
0.000000 0.006805 0.000031
0.000000 0.006805 0.000031
0.000793 0.006805 0.000031
0.003387 0.006805 0.000031
0.007019 0.006805 0.000031
0.011261 0.006805 0.000031
0.016479 0.006805 0.000031
0.021637 0.006805 0.000031
0.027435 0.006805 0.000031
0.034637 0.006805 0.000031
0.044159 0.006805 0.000031
0.054932 0.006805 0.000031
0.066589 0.006805 0.000031
0.078461 0.006805 0.000031
0.090637 0.006805 0.000031
0.104279 0.006805 0.000031
0.119537 0.006805 0.000031
0.135895 0.006805 0.000031
0.153442 0.006805 0.000031
0.173431 0.006805 0.000031
0.196136 0.006805 0.000031
0.219818 0.006805 0.000031
0.244904 0.006805 0.000031
0.270660 0.006805 0.000031
0.297699 0.006805 0.000031
0.325745 0.006805 0.000031
0.353058 0.006805 0.000031
0.379578 0.006805 0.000031
0.405792 0.006805 0.000031
0.432556 0.006805 0.000031
0.459900 0.006805 0.000031
0.487610 0.006805 0.000031
0.516632 0.006805 0.000031
0.547424 0.006805 0.000031
0.577606 0.006805 0.000031
0.604553 0.006805 0.000031
0.629578 0.006805 0.000031
0.655792 0.006805 0.000031
0.683563 0.006805 0.000031
0.713623 0.006805 0.000031
0.745941 0.006805 0.000031
0.776459 0.006805 0.000031
0.805206 0.006805 0.000031
0.829834 0.006805 0.000031
0.862549 0.006805 0.000031
0.896454 0.006805 0.000031
0.923615 0.006805 0.000031
0.946106 0.006805 0.000031
0.963684 0.006805 0.000031
0.978851 0.006805 0.000031
0.987579 0.006805 0.000031
0.992065 0.006805 0.000031
0.994751 0.006805 0.000031
0.996552 0.006805 0.000031
0.997650 0.006805 0.000031
0.998444 0.006805 0.000031
0.999054 0.006805 0.000031
0.999573 0.006805 0.000031
0.999939 0.006805 0.000031
0.999969 0.006805 0.000031
0.999969 0.006805 0.000031
0.999969 0.006805 0.000031
0.999969 0.006805 0.000031
0.999969 0.006805 0.000031
0.000000 0.015350 0.000031
0.000000 0.015350 0.000031
0.000793 0.015350 0.000031
0.003387 0.015350 0.000031
0.007019 0.015350 0.000031
0.011261 0.015350 0.000031
0.016479 0.015350 0.000031
0.021637 0.015350 0.000031
0.027435 0.015350 0.000031
0.034637 0.015350 0.000031
0.044159 0.015350 0.000031
0.054932 0.015350 0.000031
0.066589 0.015350 0.000031
0.078461 0.015350 0.000031
0.090637 0.015350 0.000031
0.104279 0.015350 0.000031
0.119537 0.015350 0.000031
0.135895 0.015350 0.000031
0.153442 0.015350 0.000031
0.173431 0.015350 0.000031
0.196136 0.015350 0.000031
0.219818 0.015350 0.000031
0.244904 0.015350 0.000031
0.270660 0.015350 0.000031
0.297699 0.015350 0.000031
0.325745 0.015350 0.000031
0.353058 0.015350 0.000031
0.379578 0.015350 0.000031
0.405792 0.015350 0.000031
0.432556 0.015350 0.000031
0.459900 0.015350 0.000031
0.487610 0.015350 0.000031
0.516632 0.015350 0.000031
0.547424 0.015350 0.000031
0.577606 0.015350 0.000031
0.604553 0.015350 0.000031
0.629578 0.015350 0.000031
0.655792 0.015350 0.000031
0.683563 0.015350 0.000031
0.713623 0.015350 0.000031
0.745941 0.015350 0.000031
0.776459 0.015350 0.000031
0.805206 0.015350 0.000031
0.829834 0.015350 0.000031
0.862549 0.015350 0.000031
0.896454 0.015350 0.000031
0.923615 0.015350 0.000031
0.946106 0.015350 0.000031
0.963684 0.015350 0.000031
0.978851 0.015350 0.000031
0.987579 0.015350 0.000031
0.992065 0.015350 0.000031
0.994751 0.015350 0.000031
0.996552 0.015350 0.000031
0.997650 0.015350 0.000031
0.998444 0.015350 0.000031
0.999054 0.015350 0.000031
0.999573 0.015350 0.000031
0.999939 0.015350 0.000031
0.999969 0.015350 0.000031
0.999969 0.015350 0.000031
0.999969 0.015350 0.000031
0.999969 0.015350 0.000031
0.999969 0.015350 0.000031
0.000000 0.027679 0.000031
0.000000 0.027679 0.000031
0.000793 0.027679 0.000031
0.003387 0.027679 0.000031
0.007019 0.027679 0.000031
0.011261 0.027679 0.000031
0.016479 0.027679 0.000031
0.021637 0.027679 0.000031
0.027435 0.027679 0.000031
0.034637 0.027679 0.000031
0.044159 0.027679 0.000031
0.054932 0.027679 0.000031
0.066589 0.027679 0.000031
0.078461 0.027679 0.000031
0.090637 0.027679 0.000031
0.104279 0.027679 0.000031
0.119537 0.027679 0.000031
0.135895 0.027679 0.000031
0.153442 0.027679 0.000031
0.173431 0.027679 0.000031
0.196136 0.027679 0.000031
0.219818 0.027679 0.000031
0.244904 0.027679 0.000031
0.270660 0.027679 0.000031
0.297699 0.027679 0.000031
0.325745 0.027679 0.000031
0.353058 0.027679 0.000031
0.379578 0.027679 0.000031
0.405792 0.027679 0.000031
0.432556 0.027679 0.000031
0.459900 0.027679 0.000031
0.487610 0.027679 0.000031
0.516632 0.027679 0.000031
0.547424 0.027679 0.000031
0.577606 0.027679 0.000031
0.604553 0.027679 0.000031
0.629578 0.027679 0.000031
0.655792 0.027679 0.000031
0.683563 0.027679 0.000031
0.713623 0.027679 0.000031
0.745941 0.027679 0.000031
0.776459 0.027679 0.000031
0.805206 0.027679 0.000031
0.829834 0.027679 0.000031
0.862549 0.027679 0.000031
0.896454 0.027679 0.000031
0.923615 0.027679 0.000031
0.946106 0.027679 0.000031
0.963684 0.027679 0.000031
0.978851 0.027679 0.000031
0.987579 0.027679 0.000031
0.992065 0.027679 0.000031
0.994751 0.027679 0.000031
0.996552 0.027679 0.000031
0.997650 0.027679 0.000031
0.998444 0.027679 0.000031
0.999054 0.027679 0.000031
0.999573 0.027679 0.000031
0.999939 0.027679 0.000031
0.999969 0.027679 0.000031
0.999969 0.027679 0.000031
0.999969 0.027679 0.000031
0.999969 0.027679 0.000031
0.999969 0.027679 0.000031
0.000000 0.040771 0.000031
0.000000 0.040771 0.000031
0.000793 0.040771 0.000031
0.003387 0.040771 0.000031
0.007019 0.040771 0.000031
0.011261 0.040771 0.000031
0.016479 0.040771 0.000031
0.021637 0.040771 0.000031
0.027435 0.040771 0.000031
0.034637 0.040771 0.000031
0.044159 0.040771 0.000031
0.054932 0.040771 0.000031
0.066589 0.040771 0.000031
0.078461 0.040771 0.000031
0.090637 0.040771 0.000031
0.104279 0.040771 0.000031
0.119537 0.040771 0.000031
0.135895 0.040771 0.000031
0.153442 0.040771 0.000031
0.173431 0.040771 0.000031
0.196136 0.040771 0.000031
0.219818 0.040771 0.000031
0.244904 0.040771 0.000031
0.270660 0.040771 0.000031
0.297699 0.040771 0.000031
0.325745 0.040771 0.000031
0.353058 0.040771 0.000031
0.379578 0.040771 0.000031
0.405792 0.040771 0.000031
0.432556 0.040771 0.000031
0.459900 0.040771 0.000031
0.487610 0.040771 0.000031
0.516632 0.040771 0.000031
0.547424 0.040771 0.000031
0.577606 0.040771 0.000031
0.604553 0.040771 0.000031
0.629578 0.040771 0.000031
0.655792 0.040771 0.000031
0.683563 0.040771 0.000031
0.713623 0.040771 0.000031
0.745941 0.040771 0.000031
0.776459 0.040771 0.000031
0.805206 0.040771 0.000031
0.829834 0.040771 0.000031
0.862549 0.040771 0.000031
0.896454 0.040771 0.000031
0.923615 0.040771 0.000031
0.946106 0.040771 0.000031
0.963684 0.040771 0.000031
0.978851 0.040771 0.000031
0.987579 0.040771 0.000031
0.992065 0.040771 0.000031
0.994751 0.040771 0.000031
0.996552 0.040771 0.000031
0.997650 0.040771 0.000031
0.998444 0.040771 0.000031
0.999054 0.040771 0.000031
0.999573 0.040771 0.000031
0.999939 0.040771 0.000031
0.999969 0.040771 0.000031
0.999969 0.040771 0.000031
0.999969 0.040771 0.000031
0.999969 0.040771 0.000031
0.999969 0.040771 0.000031
0.000000 0.053101 0.000031
0.000000 0.053101 0.000031
0.000793 0.053101 0.000031
0.003387 0.053101 0.000031
0.007019 0.053101 0.000031
0.011261 0.053101 0.000031
0.016479 0.053101 0.000031
0.021637 0.053101 0.000031
0.027435 0.053101 0.000031
0.034637 0.053101 0.000031
0.044159 0.053101 0.000031
0.054932 0.053101 0.000031
0.066589 0.053101 0.000031
0.078461 0.053101 0.000031
0.090637 0.053101 0.000031
0.104279 0.053101 0.000031
0.119537 0.053101 0.000031
0.135895 0.053101 0.000031
0.153442 0.053101 0.000031
0.173431 0.053101 0.000031
0.196136 0.053101 0.000031
0.219818 0.053101 0.000031
0.244904 0.053101 0.000031
0.270660 0.053101 0.000031
0.297699 0.053101 0.000031
0.325745 0.053101 0.000031
0.353058 0.053101 0.000031
0.379578 0.053101 0.000031
0.405792 0.053101 0.000031
0.432556 0.053101 0.000031
0.459900 0.053101 0.000031
0.487610 0.053101 0.000031
0.516632 0.053101 0.000031
0.547424 0.053101 0.000031
0.577606 0.053101 0.000031
0.604553 0.053101 0.000031
0.629578 0.053101 0.000031
0.655792 0.053101 0.000031
0.683563 0.053101 0.000031
0.713623 0.053101 0.000031
0.745941 0.053101 0.000031
0.776459 0.053101 0.000031
0.805206 0.053101 0.000031
0.829834 0.053101 0.000031
0.862549 0.053101 0.000031
0.896454 0.053101 0.000031
0.923615 0.053101 0.000031
0.946106 0.053101 0.000031
0.963684 0.053101 0.000031
0.978851 0.053101 0.000031
0.987579 0.053101 0.000031
0.992065 0.053101 0.000031
0.994751 0.053101 0.000031
0.996552 0.053101 0.000031
0.997650 0.053101 0.000031
0.998444 0.053101 0.000031
0.999054 0.053101 0.000031
0.999573 0.053101 0.000031
0.999939 0.053101 0.000031
0.999969 0.053101 0.000031
0.999969 0.053101 0.000031
0.999969 0.053101 0.000031
0.999969 0.053101 0.000031
0.999969 0.053101 0.000031
0.000000 0.064453 0.000031
0.000000 0.064453 0.000031
0.000793 0.064453 0.000031
0.003387 0.064453 0.000031
0.007019 0.064453 0.000031
0.011261 0.064453 0.000031
0.016479 0.064453 0.000031
0.021637 0.064453 0.000031
0.027435 0.064453 0.000031
0.034637 0.064453 0.000031
0.044159 0.064453 0.000031
0.054932 0.064453 0.000031
0.066589 0.064453 0.000031
0.078461 0.064453 0.000031
0.090637 0.064453 0.000031
0.104279 0.064453 0.000031
0.119537 0.064453 0.000031
0.135895 0.064453 0.000031
0.153442 0.064453 0.000031
0.173431 0.064453 0.000031
0.196136 0.064453 0.000031
0.219818 0.064453 0.000031
0.244904 0.064453 0.000031
0.270660 0.064453 0.000031
0.297699 0.064453 0.000031
0.325745 0.064453 0.000031
0.353058 0.064453 0.000031
0.379578 0.064453 0.000031
0.405792 0.064453 0.000031
0.432556 0.064453 0.000031
0.459900 0.064453 0.000031
0.487610 0.064453 0.000031
0.516632 0.064453 0.000031
0.547424 0.064453 0.000031
0.577606 0.064453 0.000031
0.604553 0.064453 0.000031
0.629578 0.064453 0.000031
0.655792 0.064453 0.000031
0.683563 0.064453 0.000031
0.713623 0.064453 0.000031
0.745941 0.064453 0.000031
0.776459 0.064453 0.000031
0.805206 0.064453 0.000031
0.829834 0.064453 0.000031
0.862549 0.064453 0.000031
0.896454 0.064453 0.000031
0.923615 0.064453 0.000031
0.946106 0.064453 0.000031
0.963684 0.064453 0.000031
0.978851 0.064453 0.000031
0.987579 0.064453 0.000031
0.992065 0.064453 0.000031
0.994751 0.064453 0.000031
0.996552 0.064453 0.000031
0.997650 0.064453 0.000031
0.998444 0.064453 0.000031
0.999054 0.064453 0.000031
0.999573 0.064453 0.000031
0.999939 0.064453 0.000031
0.999969 0.064453 0.000031
0.999969 0.064453 0.000031
0.999969 0.064453 0.000031
0.999969 0.064453 0.000031
0.999969 0.064453 0.000031
0.000000 0.075470 0.000031
0.000000 0.075470 0.000031
0.000793 0.075470 0.000031
0.003387 0.075470 0.000031
0.007019 0.075470 0.000031
0.011261 0.075470 0.000031
0.016479 0.075470 0.000031
0.021637 0.075470 0.000031
0.027435 0.075470 0.000031
0.034637 0.075470 0.000031
0.044159 0.075470 0.000031
0.054932 0.075470 0.000031
0.066589 0.075470 0.000031
0.078461 0.075470 0.000031
0.090637 0.075470 0.000031
0.104279 0.075470 0.000031
0.119537 0.075470 0.000031
0.135895 0.075470 0.000031
0.153442 0.075470 0.000031
0.173431 0.075470 0.000031
0.196136 0.075470 0.000031
0.219818 0.075470 0.000031
0.244904 0.075470 0.000031
0.270660 0.075470 0.000031
0.297699 0.075470 0.000031
0.325745 0.075470 0.000031
0.353058 0.075470 0.000031
0.379578 0.075470 0.000031
0.405792 0.075470 0.000031
0.432556 0.075470 0.000031
0.459900 0.075470 0.000031
0.487610 0.075470 0.000031
0.516632 0.075470 0.000031
0.547424 0.075470 0.000031
0.577606 0.075470 0.000031
0.604553 0.075470 0.000031
0.629578 0.075470 0.000031
0.655792 0.075470 0.000031
0.683563 0.075470 0.000031
0.713623 0.075470 0.000031
0.745941 0.075470 0.000031
0.776459 0.075470 0.000031
0.805206 0.075470 0.000031
0.829834 0.075470 0.000031
0.862549 0.075470 0.000031
0.896454 0.075470 0.000031
0.923615 0.075470 0.000031
0.946106 0.075470 0.000031
0.963684 0.075470 0.000031
0.978851 0.075470 0.000031
0.987579 0.075470 0.000031
0.992065 0.075470 0.000031
0.994751 0.075470 0.000031
0.996552 0.075470 0.000031
0.997650 0.075470 0.000031
0.998444 0.075470 0.000031
0.999054 0.075470 0.000031
0.999573 0.075470 0.000031
0.999939 0.075470 0.000031
0.999969 0.075470 0.000031
0.999939 0.075470 0.000031
0.999969 0.075470 0.000031
0.999969 0.075470 0.000031
0.999969 0.075470 0.000031
0.000000 0.086792 0.000031
0.000000 0.086792 0.000031
0.000793 0.086792 0.000031
0.003387 0.086792 0.000031
0.007019 0.086792 0.000031
0.011261 0.086792 0.000031
0.016479 0.086792 0.000031
0.021637 0.086792 0.000031
0.027435 0.086792 0.000031
0.034637 0.086792 0.000031
0.044159 0.086792 0.000031
0.054932 0.086792 0.000031
0.066589 0.086792 0.000031
0.078461 0.086792 0.000031
0.090637 0.086792 0.000031
0.104279 0.086792 0.000031
0.119537 0.086792 0.000031
0.135895 0.086792 0.000031
0.153442 0.086792 0.000031
0.173431 0.086792 0.000031
0.196136 0.086792 0.000031
0.219818 0.086792 0.000031
0.244904 0.086792 0.000031
0.270660 0.086792 0.000031
0.297699 0.086792 0.000031
0.325745 0.086792 0.000031
0.353058 0.086792 0.000031
0.379578 0.086792 0.000031
0.405792 0.086792 0.000031
0.432556 0.086792 0.000031
0.459900 0.086792 0.000031
0.487610 0.086792 0.000031
0.516632 0.086792 0.000031
0.547424 0.086792 0.000031
0.577606 0.086792 0.000031
0.604553 0.086792 0.000031
0.629578 0.086792 0.000031
0.655792 0.086792 0.000031
0.683563 0.086792 0.000031
0.713623 0.086792 0.000031
0.745941 0.086792 0.000031
0.776459 0.086792 0.000031
0.805206 0.086792 0.000031
0.829834 0.086792 0.000031
0.862549 0.086792 0.000031
0.896454 0.086792 0.000031
0.923615 0.086792 0.000031
0.946106 0.086792 0.000031
0.963684 0.086792 0.000031
0.978851 0.086792 0.000031
0.987579 0.086792 0.000031
0.992065 0.086792 0.000031
0.994751 0.086792 0.000031
0.996552 0.086792 0.000031
0.997650 0.086792 0.000031
0.998444 0.086792 0.000031
0.999054 0.086792 0.000031
0.999573 0.086792 0.000031
0.999939 0.086792 0.000031
0.999969 0.086792 0.000031
0.999969 0.086792 0.000031
0.999969 0.086792 0.000031
0.999969 0.086792 0.000031
0.999969 0.086792 0.000031
0.000000 0.099213 0.000031
0.000000 0.099213 0.000031
0.000793 0.099213 0.000031
0.003387 0.099213 0.000031
0.007019 0.099213 0.000031
0.011261 0.099213 0.000031
0.016479 0.099213 0.000031
0.021637 0.099213 0.000031
0.027435 0.099213 0.000031
0.034637 0.099213 0.000031
0.044159 0.099213 0.000031
0.054932 0.099213 0.000031
0.066589 0.099213 0.000031
0.078461 0.099213 0.000031
0.090637 0.099213 0.000031
0.104279 0.099213 0.000031
0.119537 0.099213 0.000031
0.135895 0.099213 0.000031
0.153442 0.099213 0.000031
0.173431 0.099213 0.000031
0.196136 0.099213 0.000031
0.219818 0.099213 0.000031
0.244904 0.099213 0.000031
0.270660 0.099213 0.000031
0.297699 0.099213 0.000031
0.325745 0.099213 0.000031
0.353058 0.099213 0.000031
0.379578 0.099213 0.000031
0.405792 0.099213 0.000031
0.432556 0.099213 0.000031
0.459900 0.099213 0.000031
0.487610 0.099213 0.000031
0.516632 0.099213 0.000031
0.547424 0.099213 0.000031
0.577606 0.099213 0.000031
0.604553 0.099213 0.000031
0.629578 0.099213 0.000031
0.655792 0.099213 0.000031
0.683563 0.099213 0.000031
0.713623 0.099213 0.000031
0.745941 0.099213 0.000031
0.776459 0.099213 0.000031
0.805206 0.099213 0.000031
0.829834 0.099213 0.000031
0.862549 0.099213 0.000031
0.896454 0.099213 0.000031
0.923615 0.099213 0.000031
0.946106 0.099213 0.000031
0.963684 0.099213 0.000031
0.978851 0.099213 0.000031
0.987579 0.099213 0.000031
0.992065 0.099213 0.000031
0.994751 0.099213 0.000031
0.996552 0.099213 0.000031
0.997650 0.099213 0.000031
0.998444 0.099213 0.000031
0.999054 0.099213 0.000031
0.999573 0.099213 0.000031
0.999939 0.099213 0.000031
0.999969 0.099213 0.000031
0.999969 0.099213 0.000031
0.999969 0.099213 0.000031
0.999969 0.099213 0.000031
0.999969 0.099213 0.000031
0.000000 0.112854 0.000031
0.000000 0.112854 0.000031
0.000793 0.112854 0.000031
0.003387 0.112854 0.000031
0.007019 0.112854 0.000031
0.011261 0.112854 0.000031
0.016479 0.112854 0.000031
0.021637 0.112854 0.000031
0.027435 0.112854 0.000031
0.034637 0.112854 0.000031
0.044159 0.112854 0.000031
0.054932 0.112854 0.000031
0.066589 0.112854 0.000031
0.078461 0.112854 0.000031
0.090637 0.112854 0.000031
0.104279 0.112854 0.000031
0.119537 0.112854 0.000031
0.135895 0.112854 0.000031
0.153442 0.112854 0.000031
0.173431 0.112854 0.000031
0.196136 0.112854 0.000031
0.219818 0.112854 0.000031
0.244904 0.112854 0.000031
0.270660 0.112854 0.000031
0.297699 0.112854 0.000031
0.325745 0.112854 0.000031
0.353058 0.112854 0.000031
0.379578 0.112854 0.000031
0.405792 0.112854 0.000031
0.432556 0.112854 0.000031
0.459900 0.112854 0.000031
0.487610 0.112854 0.000031
0.516632 0.112854 0.000031
0.547424 0.112854 0.000031
0.577606 0.112854 0.000031
0.604553 0.112854 0.000031
0.629578 0.112854 0.000031
0.655792 0.112854 0.000031
0.683563 0.112854 0.000031
0.713623 0.112854 0.000031
0.745941 0.112854 0.000031
0.776459 0.112854 0.000031
0.805206 0.112854 0.000031
0.829834 0.112854 0.000031
0.862549 0.112854 0.000031
0.896454 0.112854 0.000031
0.923615 0.112854 0.000031
0.946106 0.112854 0.000031
0.963684 0.112854 0.000031
0.978851 0.112854 0.000031
