LUTs/SPK Cube Block1 S64/TheBrim_SPK_Type-V_Block1_S64.cube
TITLE "TheBrim® SPK Block 1"
# © Copyright 2021 - TheBrim® d.o.o. Croatia
LUT_3D_SIZE 8
DOMAIN_MIN 0.000000 0.000000 0.000000
DOMAIN_MAX 1.000000 1.000000 1.000000
0.007721 0.009491 0.011383
0.043244 0.013367 0.012543
0.192172 0.020783 0.011292
0.402350 0.000000 0.000000
0.530785 0.000000 0.000000
0.580682 0.000000 0.000000
0.597559 0.000000 0.000000
0.608850 0.000000 0.000000
0.004761 0.045136 0.015564
0.044831 0.043397 0.015961
0.166751 0.057771 0.014679
0.375982 0.057496 0.000000
0.548608 0.012146 0.000000
0.635859 0.000000 0.000000
0.661189 0.000000 0.000000
0.669581 0.000000 0.000000
0.000000 0.178775 0.015381
0.023926 0.171420 0.014160
0.178378 0.170535 0.010254
0.387793 0.186923 0.000000
0.587976 0.183688 0.000000
0.708003 0.172061 0.000000
0.752834 0.166232 0.000000
0.760067 0.156863 0.000000
0.000000 0.348516 0.000000
0.000000 0.351171 0.000000
0.183352 0.363470 0.000000
0.424750 0.385595 0.000000
0.653376 0.400610 0.000000
0.792386 0.395544 0.000000
0.853300 0.391302 0.000000
0.861509 0.374273 0.000000
0.000000 0.450355 0.000000
0.000000 0.494118 0.000000
0.156222 0.540215 0.000000
0.454505 0.586267 0.000000
0.690974 0.614466 0.000000
0.845121 0.619715 0.000000
0.919158 0.621271 0.000000
0.937072 0.598627 0.000000
0.000000 0.507134 0.000000
0.000000 0.573022 0.000000
0.203067 0.641596 0.000000
0.499306 0.705379 0.000000
0.717891 0.743252 0.000000
0.871366 0.762722 0.000000
0.948455 0.767330 0.000000
0.974701 0.756008 0.000000
0.000000 0.519097 0.000000
0.000000 0.599298 0.000000
0.237217 0.670710 0.000000
0.513085 0.736812 0.000000
0.726223 0.786282 0.000000
0.878782 0.817105 0.000000
0.958221 0.831785 0.000000
0.989685 0.842222 0.000000
0.000000 0.522911 0.000000
0.000000 0.602716 0.000000
0.235416 0.677058 0.000000
0.498482 0.743709 0.000000
0.702785 0.798459 0.000000
0.866239 0.839567 0.000000
0.953674 0.860380 0.000000
0.990082 0.865293 0.000000
0.003784 0.010651 0.049195
0.039063 0.015106 0.048341
0.192996 0.022248 0.054261
0.414008 0.000000 0.048127
0.546502 0.000000 0.034699
0.589715 0.000000 0.021515
0.606714 0.000000 0.010620
0.614252 0.000000 0.005371
0.000488 0.038849 0.046448
0.037079 0.040833 0.043885
0.152193 0.055940 0.050416
0.355200 0.058473 0.047944
0.537743 0.017243 0.034577
0.636286 0.000000 0.021881
0.670619 0.000000 0.016083
0.677729 0.000000 0.013397
0.000000 0.175265 0.068696
0.023590 0.145113 0.059907
0.163607 0.155062 0.062593
0.363165 0.174044 0.057008
0.569451 0.177066 0.036622
0.700526 0.167239 0.017456
0.757748 0.165164 0.003876
0.766964 0.159274 0.000000
0.000000 0.350469 0.068849
0.000000 0.316228 0.061067
0.169223 0.339147 0.054994
0.403265 0.366674 0.030854
0.629664 0.384863 0.000000
0.778164 0.384405 0.000000
0.851041 0.384131 0.000000
0.866361 0.376959 0.000000
0.000000 0.464118 0.064515
0.000000 0.488869 0.045594
0.120943 0.531029 0.000000
0.433936 0.575830 0.000000
0.670832 0.600641 0.000000
0.836973 0.613123 0.000000
0.916442 0.611994 0.000000
0.941131 0.607233 0.000000
0.000000 0.537774 0.099977
0.000000 0.600153 0.080812
0.118807 0.660182 0.021698
0.467750 0.715846 0.000000
0.699733 0.752712 0.000000
0.862852 0.770748 0.000000
0.945251 0.775540 0.000000
0.976684 0.774228 0.000000
0.000000 0.560998 0.101503
0.000000 0.643488 0.120211
0.193240 0.709377 0.143587
0.493446 0.769223 0.144076
0.715877 0.813962 0.097078
0.872496 0.843748 0.093263
0.953918 0.856748 0.086885
0.987152 0.859983 0.090944
0.000000 0.561334 0.065095
0.000000 0.640131 0.084108
0.183780 0.713558 0.115816
0.478401 0.777951 0.169955
0.689570 0.830625 0.233738
0.859068 0.869200 0.293095
0.948852 0.887358 0.323217
0.985657 0.891508 0.309636
0.000000 0.002350 0.200473
0.029358 0.004120 0.209689
0.179446 0.009583 0.213565
0.403021 0.000000 0.214084
0.558801 0.000000 0.203647
0.601648 0.000000 0.163638
0.618860 0.000000 0.127352
0.624964 0.000000 0.105318
0.000000 0.044892 0.181674
0.023957 0.045289 0.144350
0.144961 0.060060 0.153353
0.348913 0.061555 0.166781
0.539055 0.018647 0.172213
0.643519 0.000000 0.164767
0.681697 0.000000 0.147219
0.688838 0.000000 0.135714
0.000000 0.169833 0.194522
0.001862 0.140291 0.149905
0.151827 0.158328 0.167605
0.352667 0.176913 0.177859
0.562127 0.180514 0.183932
0.701137 0.172610 0.185122
0.765438 0.170932 0.174655
0.775387 0.165743 0.158083
0.000000 0.349645 0.219181
0.000000 0.323552 0.191867
0.143740 0.340887 0.194308
0.392187 0.370916 0.204318
0.621576 0.389288 0.206363
0.776913 0.391913 0.208774
0.854185 0.392950 0.200992
0.872404 0.389746 0.177310
0.000000 0.484352 0.236210
0.000000 0.502220 0.218204
0.007324 0.541741 0.219303
0.414710 0.586450 0.220981
0.661402 0.614252 0.219394
0.830411 0.624262 0.220218
0.913695 0.623957 0.214633
0.943084 0.623804 0.176333
0.000000 0.569787 0.275029
0.000000 0.627955 0.274235
0.000000 0.684077 0.277531
0.439490 0.736812 0.268345
0.685939 0.774472 0.261387
0.853696 0.791531 0.254917
0.940490 0.794644 0.245274
0.975616 0.791562 0.206027
0.000000 0.606775 0.295567
0.000000 0.686213 0.330724
0.101808 0.745449 0.356054
0.477180 0.801968 0.372839
0.707790 0.844633 0.370581
0.864500 0.870481 0.362371
0.947845 0.877623 0.341558
0.982696 0.879057 0.336645
0.000000 0.615534 0.275914
0.000000 0.697047 0.325750
0.145846 0.762783 0.373602
0.478950 0.818082 0.416175
0.697810 0.862852 0.452399
0.856931 0.892454 0.476173
0.944305 0.905791 0.475624
0.980560 0.909575 0.464057
0.000000 0.000000 0.303624
0.030671 0.000000 0.343053
0.158297 0.000000 0.393378
0.388342 0.000000 0.425513
0.563470 0.000000 0.422034
0.614405 0.000000 0.358221
0.631983 0.000000 0.299321
0.638575 0.000000 0.259464
0.000000 0.032197 0.324315
0.007385 0.035340 0.302098
0.136599 0.040009 0.329168
0.339788 0.038483 0.352636
0.530571 0.000000 0.354406
0.649744 0.000000 0.348394
0.693324 0.000000 0.325200
0.701900 0.000000 0.299199
0.000000 0.166812 0.344457
0.000000 0.150942 0.309392
0.136599 0.164218 0.329351
0.347539 0.181521 0.352270
0.561517 0.184543 0.367407
0.706142 0.176272 0.373785
0.774197 0.176577 0.366247
0.785946 0.174411 0.343023
0.000000 0.359136 0.388830
0.000000 0.330816 0.357488
0.081514 0.352819 0.372503
0.378729 0.382666 0.393988
0.615412 0.399573 0.407568
0.775998 0.403052 0.415381
0.856565 0.405585 0.410468
0.877592 0.408240 0.384741
0.000000 0.504540 0.409918
0.000000 0.520317 0.398657
0.000000 0.558679 0.414466
0.388281 0.603082 0.431586
0.649409 0.630365 0.443275
0.823789 0.640345 0.450629
0.910399 0.640833 0.447120
0.941039 0.643214 0.416571
0.000000 0.591028 0.437446
0.000000 0.650904 0.446296
0.000000 0.705043 0.463020
0.405707 0.758633 0.476875
0.670436 0.794736 0.484016
0.842954 0.811246 0.485420
0.932464 0.814786 0.479438
0.969238 0.814328 0.452308
0.000000 0.639460 0.459113
0.000000 0.716487 0.493782
0.000000 0.772549 0.524559
0.454871 0.826688 0.543145
0.697108 0.868101 0.549645
0.854246 0.890654 0.550103
0.938293 0.897856 0.538170
0.976196 0.896666 0.511559
0.000000 0.662470 0.453193
0.000000 0.739010 0.504631
0.082551 0.795377 0.546227
0.484565 0.845396 0.581048
0.704433 0.885283 0.609033
0.857145 0.911498 0.629145
0.938445 0.923583 0.631983
0.974609 0.925109 0.599725
0.001251 0.000000 0.354376
0.031159 0.000000 0.392798
0.131807 0.000000 0.455268
0.332708 0.000000 0.509911
0.528130 0.000000 0.527001
0.623835 0.000000 0.511009
0.644892 0.000000 0.469764
0.652979 0.000000 0.429114
0.000000 0.015625 0.402136
0.005005 0.009979 0.414405
0.128969 0.003418 0.453895
0.320958 0.000000 0.492042
0.523888 0.000000 0.510887
0.654963 0.000000 0.516503
0.705226 0.000000 0.499916
0.716335 0.000000 0.472602
0.000000 0.162753 0.452979
0.000000 0.151553 0.452735
0.122255 0.162234 0.479774
0.341833 0.177584 0.514397
0.560693 0.179110 0.538231
0.710597 0.170230 0.548089
0.782406 0.171847 0.545006
0.796323 0.175875 0.527794
0.000000 0.351385 0.507408
0.000000 0.335912 0.502342
0.007111 0.360784 0.533135
0.366217 0.388739 0.564660
0.609033 0.406531 0.585077
0.775204 0.411292 0.594629
0.858640 0.415656 0.595758
0.880858 0.421393 0.582788
0.000000 0.511345 0.540520
0.000000 0.533379 0.553246
0.000000 0.569421 0.579522
0.363806 0.614282 0.608392
0.638056 0.640284 0.624628
0.817136 0.650202 0.633814
0.906462 0.652644 0.635096
0.937530 0.658778 0.618189
0.000000 0.600610 0.560876
0.000000 0.662867 0.589960
0.000000 0.719600 0.619318
0.376379 0.771756 0.643214
0.656031 0.807187 0.655604
0.833707 0.824491 0.661494
0.925109 0.830259 0.662776
0.961913 0.831449 0.648005
0.000000 0.658808 0.586969
0.000000 0.732174 0.628992
0.000000 0.791073 0.661433
0.437201 0.844602 0.682643
0.685481 0.882719 0.693568
0.844816 0.903807 0.697200
0.929839 0.912016 0.693477
0.968231 0.910887 0.677577
0.000000 0.696834 0.597803
0.000000 0.766659 0.642878
0.097719 0.816800 0.677882
0.486641 0.863645 0.708431
0.710292 0.901061 0.731502
0.857176 0.924376 0.745113
0.932952 0.935271 0.746944
0.968048 0.938415 0.729976
0.004456 0.000000 0.381109
0.031800 0.000000 0.418921
0.113588 0.000000 0.473640
0.275212 0.000000 0.534905
0.482826 0.000000 0.578363
0.619135 0.000000 0.598657
0.654047 0.000000 0.583032
0.664393 0.000000 0.555535
0.000000 0.008576 0.436164
0.000366 0.003571 0.474525
0.119203 0.000000 0.526696
0.299962 0.000000 0.582513
0.512505 0.000000 0.613214
0.656458 0.000000 0.621180
0.718257 0.000000 0.620294
0.728389 0.000000 0.602167
0.000000 0.155795 0.510399
0.000000 0.155367 0.542809
0.099153 0.164279 0.583612
0.330327 0.177615 0.624903
0.555535 0.180362 0.652613
0.714656 0.171145 0.666743
0.790219 0.168734 0.668360
0.805386 0.172946 0.658412
0.000000 0.335363 0.576410
0.000000 0.341680 0.601343
0.000000 0.366430 0.640375
0.350286 0.395666 0.678981
0.601740 0.414771 0.704341
0.775051 0.420386 0.717464
0.860746 0.424170 0.722286
0.883787 0.429786 0.715724
0.000000 0.505760 0.619745
0.000000 0.533776 0.651972
0.000000 0.575555 0.690120
0.343145 0.619379 0.724147
0.627802 0.646784 0.745327
0.812222 0.658137 0.756924
0.904295 0.661433 0.762142
0.935424 0.669306 0.754635
0.000000 0.603571 0.642084
0.000000 0.668177 0.688502
0.000000 0.723690 0.722866
0.352178 0.775875 0.750759
0.645258 0.812985 0.769650
0.826719 0.832120 0.780545
0.920745 0.838590 0.785672
0.956847 0.841367 0.777340
0.000000 0.669123 0.676478
0.000000 0.739834 0.722164
0.000000 0.801144 0.756405
0.422309 0.853361 0.781613
0.674647 0.889708 0.794125
0.837644 0.911009 0.799954
0.924681 0.919249 0.802121
0.962402 0.920439 0.796445
0.000000 0.716487 0.700801
0.000000 0.781613 0.742672
0.000000 0.829801 0.773770
0.489631 0.875731 0.800900
0.713436 0.911040 0.818418
0.854398 0.932280 0.826566
0.928069 0.942809 0.830167
0.963165 0.947082 0.824338
0.011017 0.000000 0.401862
0.039887 0.000000 0.440284
0.111635 0.000000 0.491524
0.248783 0.000000 0.547478
0.442878 0.000000 0.591394
0.599481 0.000000 0.616236
0.657282 0.000000 0.622797
0.666957 0.000000 0.620325
0.000000 0.000000 0.456947
0.012177 0.000000 0.499397
0.121614 0.000000 0.550317
0.283268 0.000000 0.603693
0.488624 0.000000 0.645502
0.653162 0.000000 0.669306
0.723964 0.000000 0.676204
0.732113 0.000000 0.671870
0.000000 0.143008 0.528740
0.000000 0.157931 0.572351
0.093874 0.176547 0.621363
0.316869 0.192233 0.671412
0.543053 0.195621 0.707301
0.713893 0.186770 0.727016
0.793545 0.174075 0.735744
0.811185 0.169406 0.733761
0.000000 0.321538 0.603449
0.000000 0.345098 0.649683
0.000000 0.374914 0.696223
0.327123 0.406806 0.741238
0.588708 0.428595 0.773465
0.773648 0.435920 0.790799
0.861112 0.434882 0.796017
0.886931 0.438941 0.796048
0.000000 0.494118 0.659541
0.000000 0.535668 0.710414
0.000000 0.580865 0.757137
0.311070 0.624903 0.795590
0.613031 0.655238 0.820401
0.808347 0.669215 0.833341
0.901335 0.670039 0.837980
0.934752 0.679194 0.839322
0.000000 0.604608 0.693812
0.000000 0.665614 0.747433
0.000000 0.726406 0.791531
0.322789 0.778897 0.823392
0.631891 0.817624 0.844541
0.821012 0.837888 0.855833
0.916686 0.843687 0.860349
0.953643 0.848447 0.860838
0.000000 0.670405 0.727321
0.000000 0.738827 0.775326
0.000000 0.802060 0.813626
0.398657 0.854185 0.839536
0.662623 0.891112 0.854185
0.832273 0.913451 0.864378
0.921233 0.922454 0.869200
0.958709 0.925536 0.869566
0.000000 0.721340 0.760281
0.000000 0.783627 0.800809
0.000000 0.834531 0.829953
0.485267 0.881285 0.853330
0.709499 0.915435 0.866758
0.850462 0.936278 0.873625
0.925536 0.946899 0.877501
0.960601 0.951720 0.877592
0.018372 0.000000 0.419471
0.051942 0.000000 0.457527
0.119631 0.000000 0.506004
0.243473 0.000000 0.557519
0.420661 0.000000 0.599725
0.580407 0.000000 0.624811
0.652644 0.000000 0.632471
0.658839 0.000000 0.627131
0.000000 0.000000 0.472450
0.037995 0.000000 0.515709
0.136629 0.000000 0.566308
0.284337 0.000000 0.616358
0.473030 0.000000 0.655634
0.639765 0.000000 0.679255
0.716732 0.000000 0.685695
0.723323 0.000000 0.678584
0.000000 0.125307 0.541222
0.000000 0.145113 0.588952
0.127077 0.173983 0.638911
0.320439 0.196353 0.685756
0.531548 0.206149 0.721004
0.707210 0.194919 0.741299
0.790097 0.178714 0.748318
0.806851 0.148104 0.745266
0.000000 0.299931 0.614679
0.000000 0.332952 0.665187
0.000000 0.374060 0.712856
0.329137 0.410864 0.756283
0.580804 0.436439 0.787747
0.768399 0.446784 0.805264
0.859007 0.445045 0.812192
0.885069 0.430793 0.812070
0.000000 0.477668 0.673121
0.000000 0.524926 0.725032
0.000000 0.578027 0.770932
0.301671 0.626642 0.809995
0.602106 0.660975 0.837217
0.802579 0.679103 0.852659
0.899962 0.681941 0.859220
0.933135 0.672480 0.860594
0.000000 0.605432 0.713832
0.000000 0.666133 0.766171
0.000000 0.722652 0.807095
0.296727 0.776394 0.841978
0.618189 0.816831 0.865415
0.815061 0.840208 0.878691
0.914244 0.848447 0.885161
0.952148 0.846067 0.887755
0.000000 0.681880 0.749722
0.000000 0.744045 0.795987
0.000000 0.800656 0.831968
0.380560 0.853819 0.861295
0.651972 0.891081 0.879606
0.826566 0.913848 0.890532
0.918090 0.923613 0.896239
0.957092 0.926818 0.899443
0.000000 0.711269 0.768032
0.000000 0.773190 0.811490
0.000000 0.830838 0.845487
0.464210 0.880430 0.870695
0.698268 0.915892 0.886687
0.845426 0.937774 0.896117
0.924681 0.949096 0.901488
0.959136 0.954101 0.904753
