LUTs/SPK Cube Block1 S64/TheBrim_SPK_Type-Y_Block1_S64.cube
TITLE "TheBrim® Industrial Imaging Burau"
# © Copyright 2022 - TheBrim® d.o.o. Croatia
LUT_3D_SIZE 4
DOMAIN_MIN 0.000000 0.000000 0.000000
DOMAIN_MAX 1.000000 1.000000 1.000000
0.000000 0.000031 0.000031
0.219818 0.000031 0.000031
0.805206 0.000031 0.000031
0.999969 0.000031 0.000031
0.000000 0.252136 0.000031
0.219818 0.252136 0.000031
0.805206 0.252136 0.000031
0.999969 0.252136 0.000031
0.000000 0.795044 0.000031
0.219818 0.795044 0.000031
0.805206 0.795044 0.000031
0.999969 0.795044 0.000031
0.000000 0.986603 0.000031
0.219818 0.986603 0.000031
0.805206 0.986603 0.000031
0.999969 0.986603 0.000031
0.000000 0.000031 0.246552
0.219818 0.000031 0.246552
0.805206 0.000031 0.246552
0.999969 0.000031 0.246552
0.000000 0.252136 0.246552
0.219818 0.252136 0.246552
0.805206 0.252136 0.246552
0.999969 0.252136 0.246552
0.000000 0.795044 0.246552
0.219818 0.795044 0.246552
0.805206 0.795044 0.246552
0.999939 0.795044 0.246552
0.000000 0.986603 0.246552
0.219818 0.986603 0.246552
0.805206 0.986603 0.246552
0.999969 0.986603 0.246552
0.000000 0.000031 0.702942
0.219818 0.000031 0.702942
0.805206 0.000031 0.702942
0.999969 0.000031 0.702942
0.000000 0.252136 0.702942
0.219818 0.252136 0.702942
0.805206 0.252136 0.702942
0.999939 0.252136 0.702942
0.000000 0.795044 0.702942
0.219818 0.795044 0.702942
0.805206 0.795044 0.702942
0.999969 0.795044 0.702942
0.000000 0.986603 0.702942
0.219818 0.986603 0.702942
0.805206 0.986603 0.702942
0.999969 0.986603 0.702942
0.000000 0.000031 0.958984
0.219818 0.000031 0.958984
0.805206 0.000031 0.958984
0.999969 0.000031 0.958984
0.000000 0.252136 0.958984
0.219818 0.252136 0.958984
0.805206 0.252136 0.958984
0.999969 0.252136 0.958984
0.000000 0.795044 0.958984
0.219818 0.795044 0.958984
0.805206 0.795044 0.958984
0.999969 0.795044 0.958984
0.000000 0.986603 0.958984
0.219818 0.986603 0.958984
0.805206 0.986603 0.958984
0.999969 0.986603 0.958984
