LUTs/SPK Cube Block1 S64/TheBrim_SPK_Type-J_Block 1_S64.cube
TITLE "TheBrim® Industrial Imaging Burau"
# © Copyright 2022 - TheBrim® d.o.o. Croatia
LUT_3D_SIZE 4
0.0000000000 0.0000000000 0.0000000000
0.3837949187 0.0000000000 0.0000000000
0.8467078660 0.0000000000 0.0000610361
1.0000000000 0.0000000000 0.0000915541
0.0000000000 0.3844052796 0.0404058900
0.3774776837 0.3842221714 0.0271000229
0.8460364691 0.3837033646 0.0147707332
0.9996948196 0.3836423285 0.0119020371
0.0000000000 0.8480811780 0.0706187533
0.3559014267 0.8479285878 0.0657358663
0.8335240711 0.8474402991 0.0606088350
0.9920347906 0.8471656367 0.0550545510
0.0000000000 1.0000000000 0.0706187533
0.3558098726 1.0000000000 0.0657053483
0.8195468070 1.0000000000 0.0657053483
0.9846494240 1.0000000000 0.0657053483
0.0126039521 0.0000000000 0.2848554208
0.3101243610 0.0000000000 0.2850080110
0.7593041886 0.0000000000 0.3152208743
1.0000000000 0.0000000000 0.3487907225
0.0000000000 0.3068284123 0.3132066835
0.3066453040 0.3066453040 0.3066453040
0.7711451896 0.2995040818 0.2879987793
1.0000000000 0.3204089418 0.3045090410
0.0000000000 0.7642786297 0.3883421073
0.2743877317 0.7715114061 0.3483329519
0.7605554284 0.7713893339 0.3324330510
0.9950865949 0.7915312428 0.3493400473
0.0000000000 1.0000000000 0.4230106050
0.3147325856 1.0000000000 0.3885252155
0.7854886702 1.0000000000 0.3843747616
0.9866330968 1.0000000000 0.4057068742
0.0289005875 0.0000000000 0.6171816587
0.2520485237 0.0000000000 0.5191882200
0.6710154879 0.0000000000 0.6172426947
1.0000000000 0.0000000000 0.7535667964
0.0196231022 0.2245212482 0.5059128710
0.2112458991 0.1902800031 0.6232242313
0.6714427405 0.1904631113 0.6175783932
1.0000000000 0.2438086519 0.6661631189
0.0000000000 0.6645151446 0.6771801328
0.1785915923 0.6649729152 0.6762035554
0.6641489281 0.6641489281 0.6641489281
1.0000000000 0.7167315175 0.7086442359
0.0000000000 1.0000000000 0.8386816205
0.2753643091 1.0000000000 0.7864042115
0.7499961852 1.0000000000 0.7820401312
0.9951476310 1.0000000000 0.8350194553
0.0441901274 0.0000000000 0.9294117647
0.2614480812 0.0000000000 0.8078278782
0.6634164950 0.0000000000 0.9294117647
1.0000000000 0.0000000000 0.9294117647
0.0283207446 0.1821316854 0.6689707790
0.1423361563 0.0955519951 0.9294422827
0.5892576486 0.0955519951 0.9294422827
1.0000000000 0.1850614176 0.9291981384
0.0296635386 0.6048218509 0.9261463340
0.1331197070 0.5700617990 0.9687800412
0.5757076371 0.5589837491 0.9629816129
1.0000000000 0.6545662623 0.9627069505
0.0000000000 1.0000000000 1.0000000000
0.2592813001 1.0000000000 1.0000000000
0.7427328908 1.0000000000 1.0000000000
1.0000000000 1.0000000000 1.0000000000
