LUTs/SPK Cube Block1 S64/TheBrim_SPK_Type-L_Block 1_S64.cube
TITLE "TheBrim® Industrial Imaging Burau"
# © Copyright 2022 - TheBrim® d.o.o. Croatia
LUT_3D_SIZE 64
0.0073548486 0.0089417868 0.0091554131
0.0086060883 0.0100099184 0.0103150988
0.0107423514 0.0119630732 0.0117189288
0.0128480964 0.0133058671 0.0129396506
0.0148928054 0.0145571069 0.0141298543
0.0177920195 0.0153810941 0.0145876249
0.0209048600 0.0161745632 0.0149538415
0.0245975433 0.0164187076 0.0147707332
0.0301823453 0.0169069963 0.0145571069
0.0354009308 0.0178225376 0.0149538415
0.0426642252 0.0188906691 0.0152590219
0.0505989166 0.0201419089 0.0154116121
0.0584115358 0.0213626307 0.0155642023
0.0668955520 0.0224307622 0.0155642023
0.0761425193 0.0233157855 0.0155336843
0.0866102083 0.0239871824 0.0153200580
0.0990615702 0.0244754711 0.0148317693
0.1152971695 0.0242008087 0.0140077821
0.1330891890 0.0237735561 0.0131227588
0.1514610513 0.0234683757 0.0122682536
0.1724269474 0.0218204013 0.0107728695
0.1959563592 0.0189517052 0.0085145342
0.2210421912 0.0131227588 0.0060425727
0.2452429999 0.0051575494 0.0036316472
0.2635538262 0.0000000000 0.0015869383
0.2786297398 0.0000000000 0.0003967346
0.2934004730 0.0000000000 0.0000000000
0.3099717708 0.0000000000 0.0000000000
0.3272144656 0.0000000000 0.0000000000
0.3453421836 0.0000000000 0.0000000000
0.3665827420 0.0000000000 0.0000000000
0.3886778058 0.0000000000 0.0000000000
0.4066834516 0.0000000000 0.0000000000
0.4216067750 0.0000000000 0.0000000000
0.4373235676 0.0000000000 0.0000000000
0.4538033112 0.0000000000 0.0000000000
0.4714427405 0.0000000000 0.0000000000
0.4894789044 0.0000000000 0.0000000000
0.5067368582 0.0000000000 0.0000000000
0.5218738079 0.0000000000 0.0000000000
0.5351491569 0.0000000000 0.0000000000
0.5478446632 0.0000000000 0.0000000000
0.5580376898 0.0000000000 0.0000000000
0.5688715953 0.0000000000 0.0000000000
0.5801022354 0.0000000000 0.0000000000
0.5912108034 0.0000000000 0.0000000000
0.5998168917 0.0000000000 0.0000000000
0.6077515831 0.0000000000 0.0000000000
0.6128786145 0.0000000000 0.0000000000
0.6175173571 0.0000000000 0.0000000000
0.6214236667 0.0000000000 0.0000000000
0.6256351568 0.0000000000 0.0000000000
0.6295414664 0.0000000000 0.0000000000
0.6316472114 0.0000000000 0.0000000000
0.6332341497 0.0000000000 0.0000000000
0.6345464256 0.0000000000 0.0000000000
0.6356755932 0.0000000000 0.0000000000
0.6372320134 0.0000000000 0.0000000000
0.6381780728 0.0000000000 0.0000000000
0.6393682765 0.0000000000 0.0000000000
0.6396734569 0.0000000000 0.0000000000
0.6398260472 0.0000000000 0.0000000000
0.6408026246 0.0000000000 0.0000000000
0.6421149004 0.0000000000 0.0000000000
0.0081788357 0.0130922408 0.0124818799
0.0092469673 0.0127565423 0.0118410010
0.0113832303 0.0148317693 0.0139467460
0.0130312047 0.0150759136 0.0138857099
0.0151674678 0.0163576715 0.0150453956
0.0179446098 0.0165407797 0.0146791791
0.0211184863 0.0176089113 0.0150759136
0.0250247959 0.0175478752 0.0147096971
0.0305485618 0.0179751278 0.0144655528
0.0357976654 0.0187075608 0.0146791791
0.0435797665 0.0200808728 0.0149538415
0.0525825895 0.0209964141 0.0148928054
0.0603952087 0.0222476539 0.0150759136
0.0694590677 0.0234378576 0.0151369497
0.0790417334 0.0242618448 0.0150759136
0.0904554818 0.0247501335 0.0147096971
0.1032120241 0.0250553140 0.0140688182
0.1195391775 0.0243839170 0.0130312047
0.1376058595 0.0242618448 0.0122377356
0.1540550851 0.0245670253 0.0117494469
0.1753261616 0.0226443885 0.0101014725
0.1989776455 0.0196536202 0.0079346914
0.2235141527 0.0147096971 0.0056153201
0.2459449149 0.0078431373 0.0036316472
0.2644693675 0.0016479744 0.0014953841
0.2791790646 0.0000000000 0.0001831083
0.2941939422 0.0000000000 0.0000000000
0.3102159152 0.0000000000 0.0000000000
0.3273060197 0.0000000000 0.0000000000
0.3454032197 0.0000000000 0.0000000000
0.3667353323 0.0000000000 0.0000000000
0.3891050584 0.0000000000 0.0000000000
0.4068360418 0.0000000000 0.0000000000
0.4215762570 0.0000000000 0.0000000000
0.4372320134 0.0000000000 0.0000000000
0.4537117571 0.0000000000 0.0000000000
0.4712291142 0.0000000000 0.0000000000
0.4892347601 0.0000000000 0.0000000000
0.5069199664 0.0000000000 0.0000000000
0.5222705425 0.0000000000 0.0000000000
0.5351491569 0.0000000000 0.0000000000
0.5477225910 0.0000000000 0.0000000000
0.5580682078 0.0000000000 0.0000000000
0.5689936675 0.0000000000 0.0000000000
0.5800717174 0.0000000000 0.0000000000
0.5911192493 0.0000000000 0.0000000000
0.5997253376 0.0000000000 0.0000000000
0.6077210651 0.0000000000 0.0000000000
0.6128480964 0.0000000000 0.0000000000
0.6174868391 0.0000000000 0.0000000000
0.6214847028 0.0000000000 0.0000000000
0.6256961929 0.0000000000 0.0000000000
0.6294804303 0.0000000000 0.0000000000
0.6315861753 0.0000000000 0.0000000000
0.6332036316 0.0000000000 0.0000000000
0.6345464256 0.0000000000 0.0000000000
0.6356450752 0.0000000000 0.0000000000
0.6372014954 0.0000000000 0.0000000000
0.6381475547 0.0000000000 0.0000000000
0.6393377584 0.0000000000 0.0000000000
0.6396734569 0.0000000000 0.0000000000
0.6398260472 0.0000000000 0.0000000000
0.6420843824 0.0000000000 0.0000000000
0.6434576944 0.0000000000 0.0000000000
0.0093385214 0.0197451743 0.0180972000
0.0104371710 0.0191653315 0.0173037308
0.0120546273 0.0187380789 0.0164187076
0.0137331197 0.0190432593 0.0162661173
0.0153200580 0.0194094759 0.0162661173
0.0183718624 0.0195620661 0.0157473106
0.0213321126 0.0196231022 0.0153200580
0.0252384222 0.0195315480 0.0149233234
0.0310978866 0.0197146563 0.0144960708
0.0361943999 0.0203250172 0.0146791791
0.0440985733 0.0213321126 0.0147402152
0.0533760586 0.0222171359 0.0146181430
0.0628366522 0.0232547494 0.0146486610
0.0720531014 0.0245059892 0.0147096971
0.0816357671 0.0253299763 0.0147096971
0.0933546960 0.0257267109 0.0142214084
0.1073319600 0.0259098192 0.0134584573
0.1243610285 0.0252079042 0.0123903258
0.1423361563 0.0243839170 0.0112916762
0.1576256962 0.0249942779 0.0109864958
0.1782253758 0.0235904479 0.0097047379
0.2019684138 0.0205691615 0.0075074388
0.2266575113 0.0153810941 0.0049744411
0.2482642863 0.0097047379 0.0031738766
0.2655069810 0.0047608148 0.0013427939
0.2802471962 0.0014038300 0.0000305180
0.2951705196 0.0000000000 0.0000000000
0.3109788663 0.0000000000 0.0000000000
0.3273670558 0.0000000000 0.0000000000
0.3451285573 0.0000000000 0.0000000000
0.3667658503 0.0000000000 0.0000000000
0.3892271305 0.0000000000 0.0000000000
0.4070496681 0.0000000000 0.0000000000
0.4216983291 0.0000000000 0.0000000000
0.4371404593 0.0000000000 0.0000000000
0.4535896849 0.0000000000 0.0000000000
0.4711375601 0.0000000000 0.0000000000
0.4890211337 0.0000000000 0.0000000000
0.5066147860 0.0000000000 0.0000000000
0.5224536507 0.0000000000 0.0000000000
0.5355458915 0.0000000000 0.0000000000
0.5477836271 0.0000000000 0.0000000000
0.5579156176 0.0000000000 0.0000000000
0.5690547036 0.0000000000 0.0000000000
0.5801937896 0.0000000000 0.0000000000
0.5910276951 0.0000000000 0.0000000000
0.5996337835 0.0000000000 0.0000000000
0.6076600290 0.0000000000 0.0000000000
0.6128175784 0.0000000000 0.0000000000
0.6174563210 0.0000000000 0.0000000000
0.6214541848 0.0000000000 0.0000000000
0.6257267109 0.0000000000 0.0000000000
0.6295109483 0.0000000000 0.0000000000
0.6315861753 0.0000000000 0.0000000000
0.6331731136 0.0000000000 0.0000000000
0.6345464256 0.0000000000 0.0000000000
0.6356450752 0.0000000000 0.0000000000
0.6371709773 0.0000000000 0.0000000000
0.6380865187 0.0000000000 0.0000000000
0.6392767224 0.0000000000 0.0000000000
0.6396429389 0.0000000000 0.0000000000
0.6398565652 0.0000000000 0.0000000000
0.6421149004 0.0000000000 0.0000000000
0.6447394522 0.0000000000 0.0000000000
0.0093385214 0.0235294118 0.0203250172
0.0107728695 0.0230411231 0.0194094759
0.0124208438 0.0225833524 0.0185244526
0.0140993362 0.0223697261 0.0177920195
0.0156862745 0.0227359426 0.0177615015
0.0183718624 0.0227359426 0.0172732128
0.0217288472 0.0228580148 0.0166933700
0.0249637598 0.0224917983 0.0161745632
0.0314030671 0.0226749065 0.0156252384
0.0367132067 0.0230106050 0.0155336843
0.0441901274 0.0239261463 0.0155336843
0.0534981308 0.0245365072 0.0151064317
0.0631723507 0.0255130846 0.0151369497
0.0744335088 0.0265506981 0.0149233234
0.0842298009 0.0273746853 0.0147707332
0.0963149462 0.0271610590 0.0137026017
0.1099259937 0.0277103838 0.0131227588
0.1255817502 0.0280766003 0.0127260243
0.1439230945 0.0273136492 0.0114442664
0.1595483330 0.0272220951 0.0108033875
0.1810635538 0.0260013733 0.0094605936
0.2038605325 0.0224307622 0.0072632944
0.2274509804 0.0180056458 0.0050354772
0.2477759976 0.0144045167 0.0035400931
0.2660868238 0.0090638590 0.0016479744
0.2813458457 0.0046692607 0.0000915541
0.2960250248 0.0010070954 0.0000000000
0.3111619745 0.0000000000 0.0000000000
0.3273365377 0.0000000000 0.0000000000
0.3449149310 0.0000000000 0.0000000000
0.3667353323 0.0000000000 0.0000000000
0.3896849012 0.0000000000 0.0000000000
0.4073548486 0.0000000000 0.0000000000
0.4216067750 0.0000000000 0.0000000000
0.4371709773 0.0000000000 0.0000000000
0.4535286488 0.0000000000 0.0000000000
0.4708934157 0.0000000000 0.0000000000
0.4886549172 0.0000000000 0.0000000000
0.5067368582 0.0000000000 0.0000000000
0.5228809033 0.0000000000 0.0000000000
0.5356984817 0.0000000000 0.0000000000
0.5477225910 0.0000000000 0.0000000000
0.5578545815 0.0000000000 0.0000000000
0.5689631495 0.0000000000 0.0000000000
0.5801937896 0.0000000000 0.0000000000
0.5911192493 0.0000000000 0.0000000000
0.5995117113 0.0000000000 0.0000000000
0.6075684749 0.0000000000 0.0000000000
0.6127870603 0.0000000000 0.0000000000
0.6174868391 0.0000000000 0.0000000000
0.6214541848 0.0000000000 0.0000000000
0.6257267109 0.0000000000 0.0000000000
0.6295109483 0.0000000000 0.0000000000
0.6315861753 0.0000000000 0.0000000000
0.6332036316 0.0000000000 0.0000000000
0.6345769436 0.0000000000 0.0000000000
0.6356145571 0.0000000000 0.0000000000
0.6371099413 0.0000000000 0.0000000000
0.6380560006 0.0000000000 0.0000000000
0.6392156863 0.0000000000 0.0000000000
0.6404058900 0.0000000000 0.0000000000
0.6407110704 0.0000000000 0.0000000000
0.6433661402 0.0000000000 0.0000000000
0.6459906920 0.0000000000 0.0000000000
0.0089417868 0.0282902266 0.0234683757
0.0109254597 0.0274662394 0.0218509194
0.0126955062 0.0267338064 0.0206301976
0.0144045167 0.0263981079 0.0198977646
0.0162355993 0.0261234455 0.0192263676
0.0190127413 0.0260013733 0.0187075608
0.0217898833 0.0258793011 0.0181887541
0.0252079042 0.0256351568 0.0176089113
0.0311589227 0.0256046387 0.0169680323
0.0374151217 0.0261234455 0.0166933700
0.0445563439 0.0266422522 0.0165102617
0.0539864195 0.0273441672 0.0160219730
0.0632639048 0.0278629740 0.0156862745
0.0748302434 0.0288700694 0.0154421302
0.0865186542 0.0296025025 0.0150148775
0.0988784619 0.0292668040 0.0138246738
0.1127641718 0.0292973220 0.0127565423
0.1282063020 0.0299992370 0.0124818799
0.1454489967 0.0304264897 0.0116578927
0.1614709697 0.0301213092 0.0108949416
0.1837796597 0.0284733349 0.0091859312
0.2063019760 0.0250858320 0.0069886320
0.2290379187 0.0203860533 0.0046692607
0.2483253223 0.0172732128 0.0035095750
0.2661478599 0.0135805295 0.0021972992
0.2818036164 0.0088197147 0.0004882887
0.2970626383 0.0045166705 0.0000000000
0.3118944076 0.0000000000 0.0000000000
0.3277637903 0.0000000000 0.0000000000
0.3451285573 0.0000000000 0.0000000000
0.3670710307 0.0000000000 0.0000000000
0.3900816358 0.0000000000 0.0000000000
0.4080567636 0.0000000000 0.0000000000
0.4221560998 0.0000000000 0.0000000000
0.4372320134 0.0000000000 0.0000000000
0.4535896849 0.0000000000 0.0000000000
0.4707713436 0.0000000000 0.0000000000
0.4884412909 0.0000000000 0.0000000000
0.5063096056 0.0000000000 0.0000000000
0.5230640116 0.0000000000 0.0000000000
0.5361257343 0.0000000000 0.0000000000
0.5478751812 0.0000000000 0.0000000000
0.5578545815 0.0000000000 0.0000000000
0.5689021134 0.0000000000 0.0000000000
0.5801327535 0.0000000000 0.0000000000
0.5911497673 0.0000000000 0.0000000000
0.5995422293 0.0000000000 0.0000000000
0.6074464027 0.0000000000 0.0000000000
0.6126955062 0.0000000000 0.0000000000
0.6174868391 0.0000000000 0.0000000000
0.6214847028 0.0000000000 0.0000000000
0.6257267109 0.0000000000 0.0000000000
0.6295414664 0.0000000000 0.0000000000
0.6315861753 0.0000000000 0.0000000000
0.6332036316 0.0000000000 0.0000000000
0.6346074617 0.0000000000 0.0000000000
0.6356755932 0.0000000000 0.0000000000
0.6371099413 0.0000000000 0.0000000000
0.6380865187 0.0000000000 0.0000000000
0.6392462043 0.0000000000 0.0000000000
0.6404669261 0.0000000000 0.0000000000
0.6418097200 0.0000000000 0.0000000000
0.6445258259 0.0000000000 0.0000000000
0.6474250401 0.0000000000 0.0000000000
0.0082093538 0.0333257038 0.0269779507
0.0100404364 0.0330205234 0.0259403372
0.0120851453 0.0321965362 0.0243839170
0.0136415656 0.0321355001 0.0238651102
0.0155642023 0.0317387655 0.0227359426
0.0191042954 0.0316166934 0.0217593652
0.0219119554 0.0314030671 0.0209964141
0.0251163500 0.0311589227 0.0200503548
0.0315556573 0.0309758145 0.0191348135
0.0374151217 0.0305485618 0.0184023804
0.0451056687 0.0310978866 0.0180056458
0.0541390097 0.0313725490 0.0174868391
0.0636606394 0.0317692836 0.0169680323
0.0752574960 0.0321965362 0.0162355993
0.0870069429 0.0329594873 0.0158693828
0.0994888228 0.0331731136 0.0149843595
0.1128557259 0.0332036316 0.0138246738
0.1275349050 0.0340886549 0.0133669032
0.1455405509 0.0344853895 0.0123598077
0.1639124132 0.0337834745 0.0108949416
0.1855802243 0.0326237888 0.0093690394
0.2063019760 0.0304570077 0.0077515831
0.2281528954 0.0271000229 0.0052491035
0.2470740826 0.0242008087 0.0038147555
0.2663004501 0.0200503548 0.0024719615
0.2825665675 0.0140688182 0.0008545052
0.2975204089 0.0094911116 0.0000000000
0.3119249256 0.0050354772 0.0000000000
0.3279163806 0.0000000000 0.0000000000
0.3456168460 0.0000000000 0.0000000000
0.3667353323 0.0000000000 0.0000000000
0.3903868162 0.0000000000 0.0000000000
0.4094911116 0.0000000000 0.0000000000
0.4239871824 0.0000000000 0.0000000000
0.4386968795 0.0000000000 0.0000000000
0.4548409247 0.0000000000 0.0000000000
0.4713206683 0.0000000000 0.0000000000
0.4884412909 0.0000000000 0.0000000000
0.5062790875 0.0000000000 0.0000000000
0.5231860838 0.0000000000 0.0000000000
0.5364309148 0.0000000000 0.0000000000
0.5482108797 0.0000000000 0.0000000000
0.5579461357 0.0000000000 0.0000000000
0.5687495232 0.0000000000 0.0000000000
0.5801937896 0.0000000000 0.0000000000
0.5913328756 0.0000000000 0.0000000000
0.5993286030 0.0000000000 0.0000000000
0.6072632944 0.0000000000 0.0000000000
0.6126649882 0.0000000000 0.0000000000
0.6175173571 0.0000000000 0.0000000000
0.6215457389 0.0000000000 0.0000000000
0.6257877470 0.0000000000 0.0000000000
0.6297245747 0.0000000000 0.0000000000
0.6317998016 0.0000000000 0.0000000000
0.6336614023 0.0000000000 0.0000000000
0.6351567864 0.0000000000 0.0000000000
0.6364080262 0.0000000000 0.0000000000
0.6378728923 0.0000000000 0.0000000000
0.6393377584 0.0000000000 0.0000000000
0.6405279622 0.0000000000 0.0000000000
0.6424811170 0.0000000000 0.0000000000
0.6439765011 0.0000000000 0.0000000000
0.6465094987 0.0000000000 0.0000000000
0.6494697490 0.0000000000 0.0000000000
0.0076905470 0.0383611810 0.0304875257
0.0094911116 0.0380560006 0.0294193942
0.0112306401 0.0377203021 0.0284733349
0.0129701686 0.0375677119 0.0278019379
0.0146486610 0.0375677119 0.0272526131
0.0182803082 0.0374151217 0.0260929274
0.0217288472 0.0372014954 0.0250858320
0.0249942779 0.0369268330 0.0240787366
0.0312504768 0.0370794232 0.0230106050
0.0376287480 0.0367742428 0.0218204013
0.0446478981 0.0364385443 0.0206912337
0.0545357443 0.0368352789 0.0196841382
0.0635690852 0.0370489052 0.0189517052
0.0752269780 0.0374151217 0.0176699474
0.0873426413 0.0377203021 0.0166933700
0.1001602197 0.0380865187 0.0158388647
0.1134355688 0.0381780728 0.0148012512
0.1272602426 0.0388799878 0.0142214084
0.1448996719 0.0392156863 0.0131837949
0.1644007019 0.0383611810 0.0114747845
0.1874418250 0.0365300984 0.0094605936
0.2080720226 0.0349126421 0.0079041733
0.2280613413 0.0325627527 0.0060730907
0.2463721675 0.0306706340 0.0043945983
0.2655985351 0.0271610590 0.0028686961
0.2831158923 0.0214847028 0.0010376135
0.2988326848 0.0166018158 0.0000000000
0.3130540932 0.0124208438 0.0000000000
0.3292896925 0.0065308614 0.0000000000
0.3467460136 0.0005188067 0.0000000000
0.3666437781 0.0000000000 0.0000000000
0.3899290455 0.0000000000 0.0000000000
0.4108644236 0.0000000000 0.0000000000
0.4253604944 0.0000000000 0.0000000000
0.4405279622 0.0000000000 0.0000000000
0.4563363088 0.0000000000 0.0000000000
0.4723582818 0.0000000000 0.0000000000
0.4890211337 0.0000000000 0.0000000000
0.5064316777 0.0000000000 0.0000000000
0.5233997101 0.0000000000 0.0000000000
0.5367360952 0.0000000000 0.0000000000
0.5486381323 0.0000000000 0.0000000000
0.5584344244 0.0000000000 0.0000000000
0.5689631495 0.0000000000 0.0000000000
0.5801937896 0.0000000000 0.0000000000
0.5915770199 0.0000000000 0.0000000000
0.5996643015 0.0000000000 0.0000000000
0.6073243305 0.0000000000 0.0000000000
0.6126039521 0.0000000000 0.0000000000
0.6176699474 0.0000000000 0.0000000000
0.6217593652 0.0000000000 0.0000000000
0.6260318914 0.0000000000 0.0000000000
0.6299687190 0.0000000000 0.0000000000
0.6322575723 0.0000000000 0.0000000000
0.6340581369 0.0000000000 0.0000000000
0.6358281834 0.0000000000 0.0000000000
0.6370794232 0.0000000000 0.0000000000
0.6387273976 0.0000000000 0.0000000000
0.6402227817 0.0000000000 0.0000000000
0.6421759365 0.0000000000 0.0000000000
0.6441901274 0.0000000000 0.0000000000
0.6461738003 0.0000000000 0.0000000000
0.6488593881 0.0000000000 0.0000000000
0.6517891203 0.0000000000 0.0000000000
0.0074158846 0.0438849470 0.0339665827
0.0088807507 0.0437323568 0.0331425956
0.0106507973 0.0432440681 0.0320744640
0.0120241093 0.0430914778 0.0314641032
0.0140077821 0.0429694057 0.0307927062
0.0169985504 0.0429694057 0.0298161288
0.0205996796 0.0425421530 0.0286564431
0.0240482185 0.0421759365 0.0274662394
0.0302738994 0.0421149004 0.0262760357
0.0366826886 0.0421454185 0.0250858320
0.0433051041 0.0419012741 0.0238956283
0.0534676127 0.0422369726 0.0225528344
0.0634470130 0.0426947433 0.0215762570
0.0742504005 0.0431525139 0.0206607156
0.0867017624 0.0436713207 0.0193179217
0.0998550393 0.0444647898 0.0185244526
0.1138017853 0.0450751507 0.0169375143
0.1282368200 0.0451667048 0.0153505760
0.1447775998 0.0454108492 0.0143129625
0.1633325704 0.0451361868 0.0127870603
0.1860074769 0.0440375372 0.0103761349
0.2064545663 0.0426337072 0.0088807507
0.2272068360 0.0400396735 0.0067750057
0.2471656367 0.0362859541 0.0045777066
0.2656595712 0.0344243534 0.0030823224
0.2821393149 0.0296635386 0.0017395285
0.2990157931 0.0245670253 0.0001831083
0.3140917067 0.0201724269 0.0000000000
0.3309681849 0.0138246738 0.0000000000
0.3496147097 0.0065613794 0.0000000000
0.3682307164 0.0000610361 0.0000000000
0.3887693599 0.0000000000 0.0000000000
0.4122072175 0.0000000000 0.0000000000
0.4279850462 0.0000000000 0.0000000000
0.4427557794 0.0000000000 0.0000000000
0.4579842832 0.0000000000 0.0000000000
0.4739757382 0.0000000000 0.0000000000
0.4902418555 0.0000000000 0.0000000000
0.5077744717 0.0000000000 0.0000000000
0.5244068055 0.0000000000 0.0000000000
0.5382009613 0.0000000000 0.0000000000
0.5509575036 0.0000000000 0.0000000000
0.5607232776 0.0000000000 0.0000000000
0.5707331960 0.0000000000 0.0000000000
0.5819638361 0.0000000000 0.0000000000
0.5938963912 0.0000000000 0.0000000000
0.6020752270 0.0000000000 0.0000000000
0.6099183642 0.0000000000 0.0000000000
0.6148928054 0.0000000000 0.0000000000
0.6198062104 0.0000000000 0.0000000000
0.6239566644 0.0000000000 0.0000000000
0.6281376364 0.0000000000 0.0000000000
0.6323491264 0.0000000000 0.0000000000
0.6354009308 0.0000000000 0.0000000000
0.6369878691 0.0000000000 0.0000000000
0.6384222171 0.0000000000 0.0000000000
0.6396429389 0.0000000000 0.0000000000
0.6412909133 0.0000000000 0.0000000000
0.6429388876 0.0000000000 0.0000000000
0.6446784161 0.0000000000 0.0000000000
0.6469367514 0.0000000000 0.0000000000
0.6490119783 0.0000000000 0.0000000000
0.6515449760 0.0000000000 0.0000000000
0.6547188525 0.0000000000 0.0000000000
0.0066529335 0.0500495918 0.0375066758
0.0083009079 0.0498359655 0.0366216526
0.0097047379 0.0496528573 0.0357976654
0.0111085679 0.0494392309 0.0351262684
0.0128175784 0.0493781949 0.0345159075
0.0159914549 0.0493171588 0.0335088121
0.0190432593 0.0492561227 0.0325322347
0.0225223163 0.0488899062 0.0313115129
0.0290226596 0.0488288701 0.0299382010
0.0358892195 0.0487678340 0.0285954070
0.0422369726 0.0485847257 0.0274357214
0.0523384451 0.0486152438 0.0258793011
0.0624704356 0.0487983520 0.0246280613
0.0737926299 0.0494392309 0.0235294118
0.0860303655 0.0498359655 0.0223392081
0.0992751965 0.0507209888 0.0212710765
0.1134660868 0.0516365301 0.0199282826
0.1289082170 0.0523689631 0.0178835737
0.1455405509 0.0520332647 0.0159304189
0.1631799802 0.0516365301 0.0140077821
0.1838712139 0.0510261692 0.0120851453
0.2048981460 0.0502937362 0.0102235447
0.2253757534 0.0484321355 0.0083314260
0.2461585412 0.0455329213 0.0051575494
0.2658426795 0.0423590448 0.0031433585
0.2829022660 0.0392462043 0.0017090105
0.2986800946 0.0345159075 0.0008239872
0.3141222248 0.0295414664 0.0000000000
0.3319142443 0.0220950637 0.0000000000
0.3508964675 0.0137331197 0.0000000000
0.3706721599 0.0061951629 0.0000000000
0.3898985275 0.0001220722 0.0000000000
0.4120546273 0.0000000000 0.0000000000
0.4299382010 0.0000000000 0.0000000000
0.4457465476 0.0000000000 0.0000000000
0.4609140154 0.0000000000 0.0000000000
0.4758983749 0.0000000000 0.0000000000
0.4919203479 0.0000000000 0.0000000000
0.5094834821 0.0000000000 0.0000000000
0.5267261769 0.0000000000 0.0000000000
0.5405508507 0.0000000000 0.0000000000
0.5538261997 0.0000000000 0.0000000000
0.5641107805 0.0000000000 0.0000000000
0.5740901808 0.0000000000 0.0000000000
0.5848020142 0.0000000000 0.0000000000
0.5964904250 0.0000000000 0.0000000000
0.6052185855 0.0000000000 0.0000000000
0.6133058671 0.0000000000 0.0000000000
0.6182803082 0.0000000000 0.0000000000
0.6231021592 0.0000000000 0.0000000000
0.6271000229 0.0000000000 0.0000000000
0.6314335851 0.0000000000 0.0000000000
0.6355840391 0.0000000000 0.0000000000
0.6390936141 0.0000000000 0.0000000000
0.6408026246 0.0000000000 0.0000000000
0.6419623102 0.0000000000 0.0000000000
0.6428778515 0.0000000000 0.0000000000
0.6442816815 0.0000000000 0.0000000000
0.6457770657 0.0000000000 0.0000000000
0.6474860761 0.0000000000 0.0000000000
0.6496223392 0.0000000000 0.0000000000
0.6520332647 0.0000000000 0.0000000000
0.6548409247 0.0000000000 0.0000000000
0.6577706569 0.0000000000 0.0000000000
0.0051270314 0.0559395743 0.0409246967
0.0067139696 0.0557564660 0.0401617456
0.0084229801 0.0555733577 0.0393377584
0.0097962921 0.0552376593 0.0384527352
0.0114442664 0.0551155871 0.0377813382
0.0142519265 0.0551155871 0.0368352789
0.0175173571 0.0551155871 0.0358587015
0.0209353780 0.0552681773 0.0348516060
0.0264286259 0.0551155871 0.0335698482
0.0346684977 0.0557259480 0.0322270542
0.0414740215 0.0555428397 0.0308842603
0.0512703136 0.0559090562 0.0294193942
0.0619821469 0.0560921645 0.0279240101
0.0728465705 0.0569466697 0.0269474327
0.0865186542 0.0577096208 0.0252994583
0.0996108949 0.0582894636 0.0237430381
0.1143816281 0.0592050050 0.0222476539
0.1288776989 0.0599679561 0.0208743420
0.1460593576 0.0602121004 0.0184939345
0.1627527276 0.0599984741 0.0166628519
0.1817349508 0.0592965591 0.0140688182
0.2039826047 0.0571297780 0.0111696040
0.2240024414 0.0561532006 0.0093385214
0.2445410849 0.0541695277 0.0069886320
0.2651712825 0.0516670481 0.0040894179
0.2824444953 0.0489814603 0.0027466239
0.2993820096 0.0449835966 0.0012817578
0.3165636683 0.0389105058 0.0000305180
0.3338979171 0.0332951858 0.0000000000
0.3515678645 0.0262455177 0.0000000000
0.3714656291 0.0172426947 0.0000000000
0.3919432364 0.0094300755 0.0000000000
0.4134889754 0.0010070954 0.0000000000
0.4318608377 0.0000000000 0.0000000000
0.4478217746 0.0000000000 0.0000000000
0.4632333867 0.0000000000 0.0000000000
