LUTs/SPK Cube Block1 S64/TheBrim_SPK_Type-Q_Block1_S64.cube
TITLE "TheBrim® SPK Block 1"
# © Copyright 2021 - TheBrim® d.o.o. Croatia
LUT_3D_SIZE 64
DOMAIN_MIN 0.000000 0.000000 0.000000
DOMAIN_MAX 1.000000 1.000000 1.000000
0.000000 0.000000 0.000000
0.000000 0.000000 0.000000
0.000000 0.000000 0.000000
0.000000 0.000000 0.000000
0.000000 0.000000 0.000000
0.000000 0.000000 0.000000
0.000000 0.000000 0.000000
0.023621 0.000000 0.000000
0.049348 0.000000 0.000000
0.075105 0.000000 0.000000
0.100923 0.000000 0.000000
0.126711 0.000000 0.000000
0.152468 0.000000 0.000000
0.178531 0.000000 0.000000
0.204562 0.000000 0.000000
0.230747 0.000000 0.000000
0.256840 0.000000 0.000000
0.282933 0.000000 0.000000
0.309026 0.000000 0.000000
0.335241 0.000000 0.000000
0.361364 0.000000 0.000000
0.387640 0.000000 0.000000
0.413703 0.000000 0.000000
0.439673 0.000000 0.000000
0.465644 0.000000 0.000000
0.491676 0.000000 0.000000
0.517571 0.000000 0.000000
0.543359 0.000000 0.000000
0.568780 0.000000 0.000000
0.594232 0.000000 0.000000
0.619745 0.000000 0.000000
0.645228 0.000000 0.000000
0.672328 0.000000 0.000000
0.700832 0.000000 0.000000
0.729488 0.000000 0.000000
0.758114 0.000000 0.000000
0.786770 0.000000 0.000000
0.816281 0.000000 0.000000
0.845151 0.000000 0.000000
0.874449 0.000000 0.000000
0.903349 0.000000 0.000000
0.931914 0.000000 0.000000
0.953368 0.000000 0.000000
0.974731 0.000000 0.000000
0.996155 0.000000 0.000000
1.000000 0.000000 0.000000
1.000000 0.000000 0.000000
1.000000 0.000000 0.000000
1.000000 0.000000 0.000000
1.000000 0.000000 0.000000
1.000000 0.000000 0.000000
1.000000 0.000000 0.000000
1.000000 0.000000 0.000000
1.000000 0.000000 0.000000
1.000000 0.000000 0.000000
1.000000 0.000000 0.000000
1.000000 0.000000 0.000000
1.000000 0.000000 0.000000
1.000000 0.000000 0.000000
1.000000 0.000000 0.000000
1.000000 0.000000 0.000000
1.000000 0.000458 0.000000
1.000000 0.003723 0.000000
1.000000 0.007019 0.000000
0.000000 0.000000 0.000000
0.000000 0.000000 0.000000
0.000000 0.000000 0.000000
0.000000 0.000000 0.000000
0.000000 0.000000 0.000000
0.000000 0.000000 0.000000
0.000000 0.000000 0.000000
0.015473 0.000000 0.000000
0.041260 0.000000 0.000000
0.067018 0.000000 0.000000
0.092836 0.000000 0.000000
0.118746 0.000000 0.000000
0.144503 0.000000 0.000000
0.170382 0.000000 0.000000
0.196262 0.000000 0.000000
0.222232 0.000000 0.000000
0.248325 0.000000 0.000000
0.274449 0.000000 0.000000
0.300542 0.000000 0.000000
0.326726 0.000000 0.000000
0.352911 0.000000 0.000000
0.379126 0.000000 0.000000
0.405188 0.000000 0.000000
0.431189 0.000000 0.000000
0.457160 0.000000 0.000000
0.483223 0.000000 0.000000
0.509209 0.000000 0.000000
0.535119 0.000000 0.000000
0.560571 0.000000 0.000000
0.586053 0.000000 0.000000
0.611597 0.000000 0.000000
0.637140 0.000000 0.000000
0.664332 0.000000 0.000000
0.692836 0.000000 0.000000
0.721492 0.000000 0.000000
0.750088 0.000000 0.000000
0.778744 0.000000 0.000000
0.808225 0.000000 0.000000
0.838163 0.000000 0.000000
0.868132 0.000000 0.000000
0.897765 0.000000 0.000000
0.926879 0.000000 0.000000
0.950622 0.000000 0.000000
0.972076 0.000000 0.000000
0.993469 0.000000 0.000000
1.000000 0.000000 0.000000
1.000000 0.000000 0.000000
1.000000 0.000000 0.000000
1.000000 0.000000 0.000000
1.000000 0.000000 0.000000
1.000000 0.000000 0.000000
1.000000 0.000000 0.000000
1.000000 0.000000 0.000000
1.000000 0.000000 0.000000
1.000000 0.000000 0.000000
1.000000 0.001190 0.000000
1.000000 0.004486 0.000000
1.000000 0.007752 0.000000
1.000000 0.010986 0.000000
1.000000 0.014282 0.000000
1.000000 0.017548 0.000000
1.000000 0.020844 0.000000
1.000000 0.024079 0.000000
1.000000 0.027375 0.000000
0.000000 0.000000 0.000000
0.000000 0.000000 0.000000
0.000000 0.000000 0.000000
0.000000 0.000000 0.000000
0.000000 0.000000 0.000000
0.000000 0.000000 0.000000
0.000000 0.000000 0.000000
0.008057 0.000000 0.000000
0.033295 0.000000 0.000000
0.059052 0.000000 0.000000
0.084779 0.000000 0.000000
0.110719 0.000000 0.000000
0.136538 0.000000 0.000000
0.162356 0.000000 0.000000
0.188174 0.000000 0.000000
0.214084 0.000000 0.000000
0.239994 0.000000 0.000000
0.266087 0.000000 0.000000
0.292180 0.000000 0.000000
0.318395 0.000000 0.000000
0.344579 0.000000 0.000000
0.370764 0.000000 0.000000
0.396796 0.000000 0.000000
0.422766 0.000000 0.000000
0.448737 0.000000 0.000000
0.474800 0.000000 0.000000
0.500816 0.000000 0.000000
0.526879 0.000000 0.000000
0.552514 0.000000 0.000000
0.577996 0.000000 0.000000
0.603571 0.000000 0.000000
0.629114 0.000000 0.000000
0.656214 0.000000 0.000000
0.684962 0.000000 0.000000
0.713466 0.000000 0.000000
0.742092 0.000000 0.000000
0.770687 0.000000 0.000000
0.800168 0.000000 0.000000
0.830137 0.000000 0.000000
0.861326 0.000000 0.000000
0.891661 0.000000 0.000000
0.921508 0.000000 0.000000
0.947967 0.000000 0.000000
0.969329 0.000000 0.000000
0.990814 0.000000 0.000000
1.000000 0.000000 0.000000
1.000000 0.000000 0.000000
1.000000 0.000000 0.000000
1.000000 0.000000 0.000000
1.000000 0.000000 0.000000
1.000000 0.000000 0.000000
1.000000 0.004303 0.000000
1.000000 0.008881 0.000000
1.000000 0.014160 0.000000
1.000000 0.018219 0.000000
1.000000 0.021576 0.000000
1.000000 0.024811 0.000000
1.000000 0.028107 0.000000
1.000000 0.031373 0.000000
1.000000 0.034607 0.000000
1.000000 0.037903 0.000000
1.000000 0.041108 0.000000
1.000000 0.044404 0.000000
1.000000 0.047669 0.000000
0.000000 0.000000 0.000000
0.000000 0.000000 0.000000
0.000000 0.000000 0.000000
0.000000 0.000000 0.000000
0.000000 0.000000 0.000000
0.000000 0.000000 0.000000
0.000000 0.000000 0.000000
0.000977 0.000000 0.000000
0.026276 0.000000 0.000000
0.051331 0.000000 0.000000
0.077089 0.000000 0.000000
0.102937 0.000000 0.000000
0.128817 0.000000 0.000000
0.154818 0.000000 0.000000
0.180545 0.000000 0.000000
0.206332 0.000000 0.000000
0.232212 0.000000 0.000000
0.258122 0.000000 0.000000
0.284306 0.000000 0.000000
0.310430 0.000000 0.000000
0.336553 0.000000 0.000000
0.362737 0.000000 0.000000
0.388739 0.000000 0.000000
0.414649 0.000000 0.000000
0.440650 0.000000 0.000000
0.466651 0.000000 0.000000
0.492744 0.000000 0.000000
0.518761 0.000000 0.000000
0.544579 0.000000 0.000000
0.570153 0.000000 0.000000
0.595697 0.000000 0.000000
0.621241 0.000000 0.000000
0.648432 0.000000 0.000000
0.677150 0.000000 0.000000
0.705592 0.000000 0.000000
0.734035 0.000000 0.000000
0.762631 0.000000 0.000000
0.792111 0.000000 0.000000
0.822080 0.000000 0.000000
0.853178 0.000000 0.000000
0.884855 0.000000 0.000000
0.915465 0.000000 0.000000
0.945220 0.000000 0.000000
0.966674 0.000000 0.000000
0.988067 0.000000 0.000000
1.000000 0.000000 0.000000
1.000000 0.000641 0.000000
1.000000 0.005371 0.000000
1.000000 0.009857 0.000000
1.000000 0.014527 0.000000
1.000000 0.019104 0.000000
1.000000 0.023713 0.000000
1.000000 0.028260 0.000000
1.000000 0.033570 0.000000
1.000000 0.038605 0.000000
1.000000 0.041810 0.000000
1.000000 0.045106 0.000000
1.000000 0.048341 0.000000
1.000000 0.051637 0.000000
1.000000 0.054902 0.000000
1.000000 0.058106 0.000000
1.000000 0.061402 0.000000
1.000000 0.064668 0.000000
1.000000 0.067933 0.000000
0.000000 0.000000 0.000000
0.000000 0.000000 0.000000
0.000000 0.000000 0.000000
0.000000 0.000000 0.000000
0.000000 0.000000 0.000000
0.000000 0.000000 0.000000
0.000000 0.000000 0.000000
0.000000 0.000000 0.000000
0.019196 0.000000 0.000000
0.044282 0.000000 0.000000
0.069337 0.000000 0.000000
0.095155 0.000000 0.000000
0.121035 0.000000 0.000000
0.147036 0.000000 0.000000
0.172946 0.000000 0.000000
0.198703 0.000000 0.000000
0.224460 0.000000 0.000000
0.250340 0.000000 0.000000
0.276280 0.000000 0.000000
0.302464 0.000000 0.000000
0.328679 0.000000 0.000000
0.354772 0.000000 0.000000
0.380835 0.000000 0.000000
0.406744 0.000000 0.000000
0.432593 0.000000 0.000000
0.458595 0.000000 0.000000
0.484718 0.000000 0.000000
0.510704 0.000000 0.000000
0.536584 0.000000 0.000000
0.562249 0.000000 0.000000
0.587915 0.000000 0.000000
0.613458 0.000000 0.000000
0.640620 0.000000 0.000000
0.669306 0.000000 0.000000
0.697871 0.000000 0.000000
0.726253 0.000000 0.000000
0.754635 0.000000 0.000000
0.784054 0.000000 0.000000
0.814023 0.000000 0.000000
0.845121 0.000000 0.000000
0.876738 0.000000 0.000000
0.908659 0.000000 0.000000
0.939361 0.000000 0.000000
0.963989 0.003204 0.000000
0.985412 0.010529 0.000000
1.000000 0.015656 0.000000
1.000000 0.020325 0.000000
1.000000 0.024903 0.000000
1.000000 0.029450 0.000000
1.000000 0.033936 0.000000
1.000000 0.038514 0.000000
1.000000 0.043122 0.000000
1.000000 0.047700 0.000000
1.000000 0.053376 0.000000
1.000000 0.058747 0.000000
1.000000 0.062043 0.000000
1.000000 0.065309 0.000000
1.000000 0.068666 0.000000
1.000000 0.071870 0.000000
1.000000 0.075166 0.000000
1.000000 0.078401 0.000000
1.000000 0.081605 0.000000
1.000000 0.084901 0.000000
1.000000 0.088075 0.000000
0.000000 0.000000 0.000000
0.000000 0.000000 0.000000
0.000000 0.000000 0.000000
0.000000 0.000000 0.000000
0.000000 0.000000 0.000000
0.000000 0.000000 0.000000
0.000000 0.000000 0.000000
0.000000 0.000000 0.000000
0.011444 0.000000 0.000000
0.037171 0.000000 0.000000
0.062226 0.000000 0.000000
0.087434 0.000000 0.000000
0.113283 0.000000 0.000000
0.139254 0.000000 0.000000
0.165164 0.000000 0.000000
0.191135 0.000000 0.000000
0.216861 0.000000 0.000000
0.242588 0.000000 0.000000
0.268498 0.000000 0.000000
0.294499 0.000000 0.000000
0.320714 0.000000 0.000000
0.346960 0.000000 0.000000
0.372992 0.000000 0.000000
0.398871 0.000000 0.000000
0.424781 0.000000 0.000000
0.450629 0.000000 0.000000
0.476753 0.000000 0.000000
0.502739 0.000000 0.000000
0.528740 0.000000 0.000000
0.554345 0.000000 0.000000
0.580102 0.000000 0.000000
0.605737 0.000000 0.000000
0.632868 0.000000 0.000000
0.661616 0.000000 0.000000
0.690181 0.000000 0.000000
0.718502 0.000000 0.000000
0.746792 0.000000 0.000000
0.775998 0.000000 0.000000
0.805936 0.000000 0.000000
0.836790 0.000000 0.000000
0.868467 0.000000 0.000000
0.900359 0.005280 0.000000
0.932372 0.014374 0.000000
0.961242 0.022522 0.000000
0.982666 0.030030 0.000000
1.000000 0.035309 0.000000
1.000000 0.040070 0.000000
1.000000 0.044678 0.000000
1.000000 0.049073 0.000000
1.000000 0.053559 0.000000
1.000000 0.058106 0.000000
1.000000 0.062837 0.000000
1.000000 0.067414 0.000000
1.000000 0.072969 0.000000
1.000000 0.079011 0.000000
1.000000 0.082429 0.000000
1.000000 0.085634 0.000000
1.000000 0.088838 0.000000
1.000000 0.092134 0.000000
1.000000 0.095338 0.000000
1.000000 0.098604 0.000000
1.000000 0.101839 0.000000
1.000000 0.105104 0.000000
1.000000 0.108339 0.000000
0.000000 0.000000 0.000000
0.000000 0.000000 0.000000
0.000000 0.000000 0.000000
0.000000 0.000000 0.000000
0.000000 0.000000 0.000000
0.000000 0.000000 0.000000
0.000000 0.000000 0.000000
0.000000 0.000000 0.000000
0.003632 0.000000 0.000000
0.029480 0.000000 0.000000
0.055085 0.000000 0.000000
0.080323 0.000000 0.000000
0.105501 0.000000 0.000000
0.131472 0.000000 0.000000
0.157382 0.000000 0.000000
0.183291 0.000000 0.000000
0.209232 0.000000 0.000000
0.234958 0.000000 0.000000
0.260716 0.000000 0.000000
0.286717 0.000000 0.000000
0.312749 0.000000 0.000000
0.338994 0.000000 0.000000
0.365118 0.000000 0.000000
0.391028 0.000000 0.000000
0.416907 0.000000 0.000000
0.442847 0.000000 0.000000
0.468879 0.000000 0.000000
0.494972 0.000000 0.000000
0.521019 0.000000 0.000000
0.546593 0.000000 0.000000
0.572351 0.000000 0.000000
0.598138 0.000000 0.000000
0.625452 0.000000 0.000000
0.654200 0.000000 0.000000
0.682765 0.000000 0.000000
0.711238 0.000000 0.000000
0.739559 0.000000 0.000000
0.768032 0.000000 0.000000
0.797330 0.000000 0.000000
0.827909 0.006134 0.000000
0.859495 0.014649 0.000000
0.891356 0.023590 0.000000
0.923400 0.032654 0.000000
0.955138 0.041382 0.000000
0.979950 0.049317 0.000000
1.000000 0.054841 0.000000
1.000000 0.059785 0.000000
1.000000 0.064454 0.000000
1.000000 0.068849 0.000000
1.000000 0.073274 0.000000
1.000000 0.077760 0.000000
1.000000 0.082765 0.000000
1.000000 0.087465 0.000000
1.000000 0.092775 0.000000
1.000000 0.098817 0.000000
1.000000 0.102632 0.000000
1.000000 0.105837 0.000000
1.000000 0.109071 0.000000
1.000000 0.112337 0.000000
1.000000 0.115572 0.000000
1.000000 0.118837 0.000000
1.000000 0.122042 0.000000
1.000000 0.125338 0.000000
1.000000 0.128573 0.000000
0.000000 0.003204 0.000000
0.000000 0.002258 0.000000
0.000000 0.001343 0.000000
0.000000 0.000702 0.000000
0.000000 0.000000 0.000000
0.000000 0.000000 0.000000
0.000000 0.000000 0.000000
0.000000 0.000000 0.000000
0.000000 0.000000 0.000000
0.021607 0.000000 0.000000
0.047303 0.000000 0.000000
0.073091 0.000000 0.000000
0.098268 0.000000 0.000000
0.123629 0.000000 0.000000
0.149538 0.000000 0.000000
0.175418 0.000000 0.000000
0.201389 0.000000 0.000000
0.227298 0.000000 0.000000
0.253086 0.000000 0.000000
0.278904 0.000000 0.000000
0.304936 0.000000 0.000000
0.331029 0.000000 0.000000
0.357214 0.000000 0.000000
0.383154 0.000000 0.000000
0.409064 0.000000 0.000000
0.434943 0.000000 0.000000
0.460975 0.000000 0.000000
0.487190 0.000000 0.000000
0.513268 0.000000 0.000000
0.538964 0.000000 0.000000
0.564721 0.000000 0.000000
0.590448 0.000000 0.000000
0.617914 0.000000 0.000000
0.646876 0.000000 0.000000
0.675532 0.002472 0.000000
0.703944 0.006409 0.000000
0.732387 0.010346 0.000000
0.760708 0.014435 0.000000
0.789364 0.018738 0.000000
0.819028 0.024506 0.000000
0.850553 0.032929 0.000000
0.882292 0.041749 0.000000
0.914549 0.050813 0.000000
0.946441 0.059480 0.000000
0.977264 0.067933 0.000000
0.998688 0.074098 0.000000
1.000000 0.079377 0.000000
1.000000 0.084047 0.000000
1.000000 0.088533 0.000000
1.000000 0.092927 0.000000
1.000000 0.097444 0.000000
1.000000 0.102541 0.000000
1.000000 0.107424 0.000000
1.000000 0.112734 0.000000
1.000000 0.118746 0.000000
1.000000 0.122866 0.000000
1.000000 0.126101 0.000000
1.000000 0.129305 0.000000
1.000000 0.132601 0.000000
1.000000 0.135805 0.000000
1.000000 0.139101 0.000000
1.000000 0.142306 0.000000
1.000000 0.145571 0.000000
1.000000 0.148867 0.000000
0.000000 0.026551 0.000000
0.000000 0.025513 0.000000
0.000000 0.024537 0.000000
0.000000 0.023713 0.000000
0.000000 0.022950 0.000000
0.000000 0.021485 0.000000
0.000000 0.019837 0.000000
0.000000 0.018555 0.000000
0.000000 0.017273 0.000000
0.012787 0.016297 0.000000
0.039429 0.015747 0.000000
0.065309 0.014984 0.000000
0.091188 0.014282 0.000000
0.116548 0.013611 0.000000
0.141817 0.012909 0.000000
0.167636 0.012604 0.000000
0.193484 0.012146 0.000000
0.219425 0.011872 0.000000
0.245396 0.011536 0.000000
0.271214 0.011231 0.000000
0.297032 0.010986 0.000000
0.323095 0.011048 0.000000
0.349157 0.011322 0.000000
0.375189 0.011872 0.000000
0.401160 0.012451 0.000000
0.427070 0.013062 0.000000
0.452949 0.013642 0.000000
0.479194 0.013458 0.000000
0.505394 0.013336 0.000000
0.531212 0.013642 0.000000
0.556939 0.013977 0.000000
0.582696 0.014252 0.000000
0.610163 0.016114 0.000000
0.639368 0.019501 0.000000
0.668360 0.023072 0.000000
0.696773 0.027070 0.000000
0.725338 0.031006 0.000000
0.753841 0.034974 0.000000
0.782589 0.039246 0.000000
0.811429 0.043641 0.000000
0.842039 0.050690 0.000000
0.873716 0.059144 0.000000
0.905821 0.068147 0.000000
0.937987 0.076997 0.000000
0.969604 0.085359 0.000000
0.995941 0.092836 0.000000
1.000000 0.098634 0.000000
1.000000 0.103639 0.000000
1.000000 0.108217 0.000000
1.000000 0.112642 0.000000
1.000000 0.117098 0.000000
1.000000 0.122225 0.000000
1.000000 0.127169 0.000000
1.000000 0.132509 0.000000
1.000000 0.138705 0.000000
1.000000 0.143008 0.000000
1.000000 0.146395 0.000000
1.000000 0.149630 0.000000
1.000000 0.152895 0.000000
1.000000 0.156191 0.000000
1.000000 0.159396 0.000000
1.000000 0.162692 0.000000
1.000000 0.165896 0.000000
1.000000 0.169192 0.000000
0.000000 0.049805 0.000000
0.000000 0.048707 0.000000
0.000000 0.047761 0.000000
0.000000 0.046876 0.000000
0.000000 0.046113 0.000000
0.000000 0.044953 0.000000
0.000000 0.043397 0.000000
0.000000 0.041840 0.000000
0.000000 0.040528 0.000000
0.004852 0.039185 0.000000
0.030854 0.038178 0.000000
0.057679 0.037507 0.000000
0.083589 0.036805 0.000000
0.109621 0.036072 0.000000
0.134951 0.035401 0.000000
0.160342 0.034699 0.000000
0.186069 0.034333 0.000000
0.212009 0.033936 0.000000
0.237980 0.033600 0.000000
0.263981 0.033295 0.000000
0.289830 0.033051 0.000000
0.315740 0.032837 0.000000
0.341741 0.033021 0.000000
0.367590 0.033387 0.000000
0.393591 0.033967 0.000000
0.419562 0.034607 0.000000
0.445502 0.035218 0.000000
0.471717 0.035126 0.000000
0.497963 0.034852 0.000000
0.523980 0.034791 0.000000
0.549706 0.035065 0.000000
0.575525 0.035431 0.000000
0.602991 0.037324 0.000000
0.632319 0.040620 0.000000
0.661677 0.043946 0.000000
0.690669 0.047669 0.000000
0.719203 0.051606 0.000000
0.747707 0.055573 0.000000
0.776425 0.059754 0.000000
0.805173 0.064088 0.000000
0.834684 0.069612 0.000000
0.865293 0.076753 0.000000
0.897246 0.085512 0.000000
0.929351 0.094484 0.000000
0.961151 0.102815 0.000000
0.992218 0.110597 0.000000
1.000000 0.117372 0.000000
1.000000 0.122866 0.000000
1.000000 0.127749 0.000000
1.000000 0.132296 0.000000
1.000000 0.136782 0.000000
1.000000 0.141726 0.000000
1.000000 0.146792 0.000000
1.000000 0.151980 0.000000
1.000000 0.158480 0.000000
1.000000 0.162997 0.000000
1.000000 0.166629 0.000000
1.000000 0.169924 0.000000
1.000000 0.173129 0.000000
1.000000 0.176333 0.000000
1.000000 0.179568 0.000000
1.000000 0.182773 0.000000
1.000000 0.185977 0.000000
1.000000 0.189273 0.000000
0.000000 0.073243 0.000000
0.000000 0.072145 0.000000
0.000000 0.071138 0.000000
0.000000 0.070222 0.000000
0.000000 0.069337 0.000000
0.000000 0.068238 0.000000
0.000000 0.066773 0.000000
0.000000 0.065278 0.000000
0.000000 0.063630 0.000000
0.000000 0.062318 0.000000
0.023438 0.060853 0.000000
0.049592 0.059846 0.000000
0.076387 0.059113 0.000000
0.102449 0.058412 0.000000
0.128450 0.057771 0.000000
0.153841 0.057099 0.000000
0.179263 0.056550 0.000000
0.205112 0.056092 0.000000
0.231052 0.055756 0.000000
0.257023 0.055451 0.000000
0.283055 0.055177 0.000000
0.308934 0.054932 0.000000
0.334783 0.054902 0.000000
0.360693 0.055116 0.000000
0.386511 0.055573 0.000000
0.412543 0.056184 0.000000
0.438453 0.056825 0.000000
0.464576 0.056916 0.000000
0.490944 0.056458 0.000000
0.517021 0.056214 0.000000
0.542901 0.056123 0.000000
0.568750 0.056458 0.000000
0.596155 0.058412 0.000000
0.625605 0.061707 0.000000
0.654994 0.065034 0.000000
0.684138 0.068574 0.000000
0.713100 0.072175 0.000000
0.741634 0.076204 0.000000
0.770230 0.080293 0.000000
0.799039 0.084535 0.000000
0.828367 0.089906 0.000000
0.857877 0.095613 0.000000
0.888823 0.103029 0.000000
0.920928 0.111818 0.000000
0.952636 0.120302 0.000000
0.984070 0.128298 0.000000
1.000000 0.135134 0.000000
1.000000 0.141573 0.000000
1.000000 0.147036 0.000000
1.000000 0.151827 0.000000
1.000000 0.156405 0.000000
1.000000 0.161227 0.000000
1.000000 0.166293 0.000000
1.000000 0.171328 0.000000
1.000000 0.178012 0.000000
1.000000 0.182650 0.000000
1.000000 0.186770 0.000000
1.000000 0.190005 0.000000
1.000000 0.193240 0.000000
1.000000 0.196414 0.000000
1.000000 0.199619 0.000000
1.000000 0.202914 0.000000
1.000000 0.206119 0.000000
1.000000 0.209354 0.000000
0.000000 0.096620 0.000000
0.000000 0.095521 0.000000
0.000000 0.094514 0.000000
0.000000 0.093568 0.000000
0.000000 0.092592 0.000000
0.000000 0.091676 0.000000
0.000000 0.090120 0.000000
0.000000 0.088716 0.000000
0.000000 0.087068 0.000000
0.000000 0.085420 0.000000
0.014557 0.083986 0.000000
0.042084 0.082704 0.000000
0.068147 0.081575 0.000000
0.095216 0.080873 0.000000
0.121218 0.080232 0.000000
0.147250 0.079500 0.000000
0.172763 0.078920 0.000000
0.198184 0.078309 0.000000
0.224002 0.077943 0.000000
0.249973 0.077638 0.000000
0.276005 0.077363 0.000000
0.302159 0.077119 0.000000
0.327947 0.076997 0.000000
0.353735 0.076936 0.000000
0.379553 0.077363 0.000000
0.405371 0.077729 0.000000
0.431403 0.078309 0.000000
0.457435 0.078767 0.000000
0.483803 0.078309 0.000000
0.510063 0.077821 0.000000
0.536034 0.077638 0.000000
0.561944 0.077485 0.000000
0.589441 0.079500 0.000000
0.618738 0.082856 0.000000
0.648249 0.086152 0.000000
0.677516 0.089570 0.000000
0.706600 0.093141 0.000000
0.735592 0.096803 0.000000
0.764096 0.100801 0.000000
0.792905 0.105104 0.000000
0.822141 0.110170 0.000000
0.851652 0.115908 0.000000
0.881468 0.121889 0.000000
0.912444 0.129366 0.000000
0.944305 0.137789 0.000000
0.975616 0.145785 0.000000
1.000000 0.152926 0.000000
1.000000 0.159335 0.000000
1.000000 0.165713 0.000000
1.000000 0.170871 0.000000
1.000000 0.175814 0.000000
1.000000 0.180636 0.000000
1.000000 0.185763 0.000000
1.000000 0.190768 0.000000
1.000000 0.197513 0.000000
1.000000 0.202396 0.000000
1.000000 0.206760 0.000000
1.000000 0.210056 0.000000
1.000000 0.213260 0.000000
1.000000 0.216495 0.000000
1.000000 0.219760 0.000000
1.000000 0.222965 0.000000
1.000000 0.226200 0.000000
1.000000 0.229404 0.000000
0.000000 0.120302 0.000000
0.000000 0.119051 0.000000
0.000000 0.118013 0.000000
0.000000 0.117037 0.000000
0.000000 0.116091 0.000000
0.000000 0.115267 0.000000
0.000000 0.113985 0.000000
0.000000 0.112551 0.000000
0.000000 0.110597 0.000000
0.000000 0.108797 0.000000
0.005829 0.107240 0.000000
0.033509 0.105867 0.000000
0.060761 0.104463 0.000000
0.087098 0.103304 0.000000
0.113985 0.102632 0.000000
0.140078 0.101930 0.000000
0.166171 0.101350 0.000000
0.191684 0.100740 0.000000
0.217136 0.100191 0.000000
0.243015 0.099825 0.000000
0.269017 0.099519 0.000000
0.295201 0.099245 0.000000
0.321172 0.099062 0.000000
0.347051 0.099001 0.000000
0.372686 0.099092 0.000000
0.398505 0.099458 0.000000
0.424262 0.099886 0.000000
0.450294 0.100526 0.000000
0.476753 0.100160 0.000000
0.503075 0.099641 0.000000
0.529168 0.099184 0.000000
0.555077 0.099001 0.000000
0.582666 0.100526 0.000000
0.611902 0.104005 0.000000
0.641444 0.107301 0.000000
0.670771 0.110689 0.000000
0.700008 0.114168 0.000000
0.729091 0.117739 0.000000
0.758053 0.121340 0.000000
0.786709 0.125612 0.000000
0.815915 0.130556 0.000000
0.845426 0.136172 0.000000
0.875181 0.142184 0.000000
0.905089 0.148165 0.000000
0.935973 0.155459 0.000000
0.967315 0.163333 0.000000
0.997986 0.170687 0.000000
1.000000 0.177188 0.000000
1.000000 0.183566 0.000000
1.000000 0.189578 0.000000
1.000000 0.194980 0.000000
1.000000 0.200259 0.000000
1.000000 0.205295 0.000000
1.000000 0.210330 0.000000
1.000000 0.216861 0.000000
1.000000 0.221866 0.000000
1.000000 0.226444 0.000000
1.000000 0.230106 0.000000
1.000000 0.233341 0.000000
1.000000 0.236606 0.000000
1.000000 0.239841 0.000000
1.000000 0.243046 0.000000
1.000000 0.246250 0.000000
1.000000 0.249516 0.000000
0.000000 0.144045 0.000000
0.000000 0.142916 0.000000
0.000000 0.141665 0.000000
0.000000 0.140627 0.000000
0.000000 0.139651 0.000000
0.000000 0.138796 0.000000
0.000000 0.137728 0.000000
0.000000 0.136263 0.000000
0.000000 0.134340 0.000000
0.000000 0.132418 0.000000
0.000000 0.130831 0.000000
0.024445 0.129091 0.000000
0.051911 0.127718 0.000000
0.079591 0.126284 0.000000
0.105745 0.125063 0.000000
0.132784 0.124361 0.000000
0.158877 0.123690 0.000000
0.184970 0.123140 0.000000
0.210544 0.122591 0.000000
0.236088 0.122072 0.000000
0.261967 0.121706 0.000000
0.288151 0.121340 0.000000
0.314183 0.121126 0.000000
0.340185 0.121065 0.000000
0.365850 0.121126 0.000000
0.391547 0.121248 0.000000
0.417365 0.121614 0.000000
0.443214 0.122042 0.000000
0.469429 0.122042 0.000000
0.495979 0.121492 0.000000
0.522057 0.121035 0.000000
0.548119 0.120607 0.000000
0.575799 0.122042 0.000000
0.605035 0.125093 0.000000
0.634577 0.128450 0.000000
0.663905 0.131838 0.000000
0.693233 0.135256 0.000000
0.722438 0.138735 0.000000
0.751522 0.142306 0.000000
0.780453 0.146151 0.000000
0.809415 0.151003 0.000000
0.838926 0.156588 0.000000
0.868681 0.162539 0.000000
0.898589 0.168643 0.000000
0.928557 0.174716 0.000000
0.959503 0.181765 0.000000
0.990478 0.189395 0.000000
1.000000 0.196048 0.000000
1.000000 0.202487 0.000000
1.000000 0.208530 0.000000
