LUTs/SPK Cube Block1 S64/TheBrim_SPK_Type-Z_Block1_S64.cube
TITLE "TheBrim® Industrial Imaging Burau"
# © Copyright 2022 - TheBrim® d.o.o. Croatia
LUT_3D_SIZE 64
DOMAIN_MIN 0.000000 0.000000 0.000000
DOMAIN_MAX 1.000000 1.000000 1.000000
0.000000 0.000000 0.000000
0.000000 0.000000 0.000000
0.000000 0.000000 0.000000
0.000000 0.000000 0.000000
0.000000 0.000000 0.000000
0.000000 0.000000 0.000000
0.000000 0.000000 0.000000
0.000000 0.000000 0.000000
0.000000 0.000000 0.000000
0.000000 0.000000 0.000000
0.000000 0.000000 0.000000
0.000000 0.000000 0.000000
0.000000 0.000000 0.000000
0.000000 0.000000 0.000000
0.000000 0.000000 0.000000
0.000000 0.000000 0.000000
0.000000 0.000000 0.000000
0.000000 0.000000 0.000000
0.000000 0.000000 0.000000
0.000000 0.000000 0.000000
0.000000 0.000000 0.000000
0.000000 0.000000 0.000000
0.000000 0.000000 0.000000
0.000000 0.000000 0.000000
0.000000 0.000000 0.000000
0.000000 0.000000 0.000000
0.000000 0.000000 0.000000
0.000000 0.000000 0.000000
0.000000 0.000000 0.000000
0.000000 0.000000 0.000000
0.000000 0.000000 0.000000
0.000000 0.000000 0.000000
0.001831 0.001831 0.001831
0.002167 0.002167 0.002167
0.002167 0.002167 0.002167
0.002167 0.002167 0.002167
0.002167 0.002167 0.002167
0.004150 0.004150 0.004150
0.004303 0.004303 0.004303
0.005066 0.005066 0.005066
0.006470 0.006470 0.006470
0.008148 0.008148 0.008148
0.008636 0.008636 0.008636
0.010773 0.010773 0.010773
0.011688 0.011688 0.011688
0.014282 0.014282 0.014282
0.015076 0.015076 0.015076
0.017395 0.017395 0.017395
0.020538 0.020538 0.020538
0.023682 0.023682 0.023682
0.026825 0.026825 0.026825
0.029968 0.029968 0.029968
0.033081 0.033081 0.033081
0.036224 0.036224 0.036224
0.041107 0.041107 0.041107
0.045776 0.045776 0.045776
0.049255 0.049255 0.049255
0.055481 0.055481 0.055481
0.060181 0.060181 0.060181
0.067078 0.067078 0.067078
0.075165 0.075165 0.075165
0.084351 0.084351 0.084351
0.090210 0.090210 0.090210
0.101624 0.101624 0.101624
0.000000 0.000000 0.000000
0.000000 0.000000 0.000000
0.000000 0.000000 0.000000
0.000000 0.000000 0.000000
0.000000 0.000000 0.000000
0.000000 0.000000 0.000000
0.000000 0.000000 0.000000
0.000000 0.000000 0.000000
0.000000 0.000000 0.000000
0.000000 0.000000 0.000000
0.000000 0.000000 0.000000
0.000000 0.000000 0.000000
0.000000 0.000000 0.000000
0.000000 0.000000 0.000000
0.000000 0.000000 0.000000
0.000000 0.000000 0.000000
0.000000 0.000000 0.000000
0.000000 0.000000 0.000000
0.000000 0.000000 0.000000
0.000000 0.000000 0.000000
0.000000 0.000000 0.000000
0.000000 0.000000 0.000000
0.000000 0.000000 0.000000
0.000000 0.000000 0.000000
0.000000 0.000000 0.000000
0.000000 0.000000 0.000000
0.000000 0.000000 0.000000
0.000000 0.000000 0.000000
0.000000 0.000000 0.000000
0.000000 0.000000 0.000000
0.001770 0.001770 0.001770
0.002167 0.002167 0.002167
0.002167 0.002167 0.002167
0.002167 0.002167 0.002167
0.002167 0.002167 0.002167
0.004028 0.004028 0.004028
0.004303 0.004303 0.004303
0.005005 0.005005 0.005005
0.006470 0.006470 0.006470
0.008057 0.008057 0.008057
0.008606 0.008606 0.008606
0.010773 0.010773 0.010773
0.011597 0.011597 0.011597
0.014221 0.014221 0.014221
0.015076 0.015076 0.015076
0.017303 0.017303 0.017303
0.020447 0.020447 0.020447
0.023590 0.023590 0.023590
0.026733 0.026733 0.026733
0.029877 0.029877 0.029877
0.032959 0.032959 0.032959
0.036133 0.036133 0.036133
0.040894 0.040894 0.040894
0.045685 0.045685 0.045685
0.049133 0.049133 0.049133
0.055389 0.055389 0.055389
0.059937 0.059937 0.059937
0.066895 0.066895 0.066895
0.074799 0.074799 0.074799
0.084198 0.084198 0.084198
0.089935 0.089935 0.089935
0.101257 0.101257 0.101257
0.112915 0.112915 0.112915
0.124603 0.124603 0.124603
0.000000 0.000000 0.000000
0.000000 0.000000 0.000000
0.000000 0.000000 0.000000
0.000000 0.000000 0.000000
0.000000 0.000000 0.000000
0.000000 0.000000 0.000000
0.000000 0.000000 0.000000
0.000000 0.000000 0.000000
0.000000 0.000000 0.000000
0.000000 0.000000 0.000000
0.000000 0.000000 0.000000
0.000000 0.000000 0.000000
0.000000 0.000000 0.000000
0.000000 0.000000 0.000000
0.000000 0.000000 0.000000
0.000000 0.000000 0.000000
0.000000 0.000000 0.000000
0.000000 0.000000 0.000000
0.000000 0.000000 0.000000
0.000000 0.000000 0.000000
0.000000 0.000000 0.000000
0.000000 0.000000 0.000000
0.000000 0.000000 0.000000
0.000000 0.000000 0.000000
0.000000 0.000000 0.000000
0.000000 0.000000 0.000000
0.000000 0.000000 0.000000
0.000000 0.000000 0.000000
0.001678 0.001678 0.001678
0.002167 0.002167 0.002167
0.002167 0.002167 0.002167
0.002167 0.002167 0.002167
0.002167 0.002167 0.002167
0.003967 0.003967 0.003967
0.004303 0.004303 0.004303
0.004883 0.004883 0.004883
0.006470 0.006470 0.006470
0.007965 0.007965 0.007965
0.008606 0.008606 0.008606
0.010773 0.010773 0.010773
0.011505 0.011505 0.011505
0.014099 0.014099 0.014099
0.015076 0.015076 0.015076
0.017181 0.017181 0.017181
0.020355 0.020355 0.020355
0.023499 0.023499 0.023499
0.026642 0.026642 0.026642
0.029755 0.029755 0.029755
0.032867 0.032867 0.032867
0.036041 0.036041 0.036041
0.040680 0.040680 0.040680
0.045563 0.045563 0.045563
0.049011 0.049011 0.049011
0.055267 0.055267 0.055267
0.059692 0.059692 0.059692
0.066772 0.066772 0.066772
0.074493 0.074493 0.074493
0.083923 0.083923 0.083923
0.089569 0.089569 0.089569
0.100800 0.100800 0.100800
0.112488 0.112488 0.112488
0.124146 0.124146 0.124146
0.136475 0.136475 0.136475
0.149231 0.149231 0.149231
0.000000 0.000000 0.000000
0.000000 0.000000 0.000000
0.000000 0.000000 0.000000
0.000000 0.000000 0.000000
0.000000 0.000000 0.000000
0.000000 0.000000 0.000000
0.000000 0.000000 0.000000
0.000000 0.000000 0.000000
0.000000 0.000000 0.000000
0.000000 0.000000 0.000000
0.000000 0.000000 0.000000
0.000000 0.000000 0.000000
0.000000 0.000000 0.000000
0.000000 0.000000 0.000000
0.000000 0.000000 0.000000
0.000000 0.000000 0.000000
0.000000 0.000000 0.000000
0.000000 0.000000 0.000000
0.000000 0.000000 0.000000
0.000000 0.000000 0.000000
0.000000 0.000000 0.000000
0.000000 0.000000 0.000000
0.000000 0.000000 0.000000
0.000000 0.000000 0.000000
0.000000 0.000000 0.000000
0.000000 0.000000 0.000000
0.001587 0.001587 0.001587
0.002167 0.002167 0.002167
0.002167 0.002167 0.002167
0.002167 0.002167 0.002167
0.002167 0.002167 0.002167
0.003906 0.003906 0.003906
0.004303 0.004303 0.004303
0.004822 0.004822 0.004822
0.006470 0.006470 0.006470
0.007874 0.007874 0.007874
0.008606 0.008606 0.008606
0.010773 0.010773 0.010773
0.011414 0.011414 0.011414
0.014038 0.014038 0.014038
0.015076 0.015076 0.015076
0.017090 0.017090 0.017090
0.020233 0.020233 0.020233
0.023376 0.023376 0.023376
0.026520 0.026520 0.026520
0.029663 0.029663 0.029663
0.032776 0.032776 0.032776
0.035919 0.035919 0.035919
0.040436 0.040436 0.040436
0.045471 0.045471 0.045471
0.048889 0.048889 0.048889
0.055145 0.055145 0.055145
0.059479 0.059479 0.059479
0.066620 0.066620 0.066620
0.074188 0.074188 0.074188
0.083649 0.083649 0.083649
0.089264 0.089264 0.089264
0.100433 0.100433 0.100433
0.112122 0.112122 0.112122
0.123779 0.123779 0.123779
0.135986 0.135986 0.135986
0.148743 0.148743 0.148743
0.161499 0.161499 0.161499
0.174225 0.174225 0.174225
0.000000 0.000000 0.000000
0.000000 0.000000 0.000000
0.000000 0.000000 0.000000
0.000000 0.000000 0.000000
0.000000 0.000000 0.000000
0.000000 0.000000 0.000000
0.000000 0.000000 0.000000
0.000000 0.000000 0.000000
0.000000 0.000000 0.000000
0.000000 0.000000 0.000000
0.000000 0.000000 0.000000
0.000000 0.000000 0.000000
0.000000 0.000000 0.000000
0.000000 0.000000 0.000000
0.000000 0.000000 0.000000
0.000000 0.000000 0.000000
0.000000 0.000000 0.000000
0.000000 0.000000 0.000000
0.000000 0.000000 0.000000
0.000000 0.000000 0.000000
0.000000 0.000000 0.000000
0.000000 0.000000 0.000000
0.000000 0.000000 0.000000
0.000000 0.000000 0.000000
0.001495 0.001495 0.001495
0.002167 0.002167 0.002167
0.002167 0.002167 0.002167
0.002167 0.002167 0.002167
0.002167 0.002167 0.002167
0.003815 0.003815 0.003815
0.004303 0.004303 0.004303
0.004730 0.004730 0.004730
0.006470 0.006470 0.006470
0.007812 0.007812 0.007812
0.008606 0.008606 0.008606
0.010773 0.010773 0.010773
0.011353 0.011353 0.011353
0.013947 0.013947 0.013947
0.015076 0.015076 0.015076
0.017029 0.017029 0.017029
0.020142 0.020142 0.020142
0.023285 0.023285 0.023285
0.026428 0.026428 0.026428
0.029572 0.029572 0.029572
0.032684 0.032684 0.032684
0.035828 0.035828 0.035828
0.040222 0.040222 0.040222
0.045349 0.045349 0.045349
0.048798 0.048798 0.048798
0.055054 0.055054 0.055054
0.059265 0.059265 0.059265
0.066467 0.066467 0.066467
0.073944 0.073944 0.073944
0.083405 0.083405 0.083405
0.089020 0.089020 0.089020
0.100128 0.100128 0.100128
0.111816 0.111816 0.111816
0.123474 0.123474 0.123474
0.135651 0.135651 0.135651
0.148407 0.148407 0.148407
0.161163 0.161163 0.161163
0.173828 0.173828 0.173828
0.186035 0.186035 0.186035
0.198486 0.198486 0.198486
0.000000 0.000000 0.000000
0.000000 0.000000 0.000000
0.000000 0.000000 0.000000
0.000000 0.000000 0.000000
0.000000 0.000000 0.000000
0.000000 0.000000 0.000000
0.000000 0.000000 0.000000
0.000000 0.000000 0.000000
0.000000 0.000000 0.000000
0.000000 0.000000 0.000000
0.000000 0.000000 0.000000
0.000000 0.000000 0.000000
0.000000 0.000000 0.000000
0.000000 0.000000 0.000000
0.000000 0.000000 0.000000
0.000000 0.000000 0.000000
0.000000 0.000000 0.000000
0.000000 0.000000 0.000000
0.000000 0.000000 0.000000
0.000000 0.000000 0.000000
0.000000 0.000000 0.000000
0.000000 0.000000 0.000000
0.001404 0.001404 0.001404
0.002167 0.002167 0.002167
0.002167 0.002167 0.002167
0.002167 0.002167 0.002167
0.002167 0.002167 0.002167
0.003723 0.003723 0.003723
0.004303 0.004303 0.004303
0.004669 0.004669 0.004669
0.006470 0.006470 0.006470
0.007721 0.007721 0.007721
0.008606 0.008606 0.008606
0.010742 0.010742 0.010742
0.011230 0.011230 0.011230
0.013885 0.013885 0.013885
0.015076 0.015076 0.015076
0.016937 0.016937 0.016937
0.020050 0.020050 0.020050
0.023193 0.023193 0.023193
0.026337 0.026337 0.026337
0.029449 0.029449 0.029449
0.032593 0.032593 0.032593
0.035736 0.035736 0.035736
0.040009 0.040009 0.040009
0.045227 0.045227 0.045227
0.048676 0.048676 0.048676
0.054932 0.054932 0.054932
0.059052 0.059052 0.059052
0.066315 0.066315 0.066315
0.073578 0.073578 0.073578
0.083038 0.083038 0.083038
0.088654 0.088654 0.088654
0.099670 0.099670 0.099670
0.111359 0.111359 0.111359
0.123016 0.123016 0.123016
0.135162 0.135162 0.135162
0.147919 0.147919 0.147919
0.160767 0.160767 0.160767
0.173431 0.173431 0.173431
0.185638 0.185638 0.185638
0.197968 0.197968 0.197968
0.214783 0.214783 0.214783
0.225922 0.225922 0.225922
0.000000 0.000000 0.000000
0.000000 0.000000 0.000000
0.000000 0.000000 0.000000
0.000000 0.000000 0.000000
0.000000 0.000000 0.000000
0.000000 0.000000 0.000000
0.000000 0.000000 0.000000
0.000000 0.000000 0.000000
0.000000 0.000000 0.000000
0.000000 0.000000 0.000000
0.000000 0.000000 0.000000
0.000000 0.000000 0.000000
0.000000 0.000000 0.000000
0.000000 0.000000 0.000000
0.000000 0.000000 0.000000
0.000000 0.000000 0.000000
0.000000 0.000000 0.000000
0.000000 0.000000 0.000000
0.000000 0.000000 0.000000
0.000000 0.000000 0.000000
0.001312 0.001312 0.001312
0.002167 0.002167 0.002167
0.002167 0.002167 0.002167
0.002167 0.002167 0.002167
0.002167 0.002167 0.002167
0.003632 0.003632 0.003632
0.004303 0.004303 0.004303
0.004547 0.004547 0.004547
0.006470 0.006470 0.006470
0.007629 0.007629 0.007629
0.008606 0.008606 0.008606
0.010712 0.010712 0.010712
0.011169 0.011169 0.011169
0.013763 0.013763 0.013763
0.015076 0.015076 0.015076
0.016846 0.016846 0.016846
0.019958 0.019958 0.019958
0.023102 0.023102 0.023102
0.026215 0.026215 0.026215
0.029358 0.029358 0.029358
0.032471 0.032471 0.032471
0.035614 0.035614 0.035614
0.039795 0.039795 0.039795
0.045135 0.045135 0.045135
0.048553 0.048553 0.048553
0.054749 0.054749 0.054749
0.058807 0.058807 0.058807
0.066162 0.066162 0.066162
0.073273 0.073273 0.073273
0.082733 0.082733 0.082733
0.088348 0.088348 0.088348
0.099304 0.099304 0.099304
0.110992 0.110992 0.110992
0.122650 0.122650 0.122650
0.134766 0.134766 0.134766
0.147522 0.147522 0.147522
0.160278 0.160278 0.160278
0.172974 0.172974 0.172974
0.185181 0.185181 0.185181
0.197479 0.197479 0.197479
0.214417 0.214417 0.214417
0.225555 0.225555 0.225555
0.239532 0.239532 0.239532
0.252045 0.252045 0.252045
0.000000 0.000000 0.000000
0.000000 0.000000 0.000000
0.000000 0.000000 0.000000
0.000000 0.000000 0.000000
0.000000 0.000000 0.000000
0.000000 0.000000 0.000000
0.000000 0.000000 0.000000
0.000000 0.000000 0.000000
0.000000 0.000000 0.000000
0.000000 0.000000 0.000000
0.000000 0.000000 0.000000
0.000000 0.000000 0.000000
0.000000 0.000000 0.000000
0.000000 0.000000 0.000000
0.000000 0.000000 0.000000
0.000000 0.000000 0.000000
0.000000 0.000000 0.000000
0.000000 0.000000 0.000000
0.001251 0.001251 0.001251
0.002167 0.002167 0.002167
0.002167 0.002167 0.002167
0.002167 0.002167 0.002167
0.002167 0.002167 0.002167
0.003540 0.003540 0.003540
0.004303 0.004303 0.004303
0.004456 0.004456 0.004456
0.006470 0.006470 0.006470
0.007538 0.007538 0.007538
0.008606 0.008606 0.008606
0.010620 0.010620 0.010620
0.011078 0.011078 0.011078
0.013702 0.013702 0.013702
0.015076 0.015076 0.015076
0.016785 0.016785 0.016785
0.019836 0.019836 0.019836
0.022949 0.022949 0.022949
0.026093 0.026093 0.026093
0.029266 0.029266 0.029266
0.032379 0.032379 0.032379
0.035522 0.035522 0.035522
0.039520 0.039520 0.039520
0.045013 0.045013 0.045013
0.048431 0.048431 0.048431
0.054504 0.054504 0.054504
0.058594 0.058594 0.058594
0.066010 0.066010 0.066010
0.072968 0.072968 0.072968
0.082428 0.082428 0.082428
0.088074 0.088074 0.088074
0.098938 0.098938 0.098938
0.110596 0.110596 0.110596
0.122284 0.122284 0.122284
0.134338 0.134338 0.134338
0.147095 0.147095 0.147095
0.159851 0.159851 0.159851
0.172577 0.172577 0.172577
0.184784 0.184784 0.184784
0.196991 0.196991 0.196991
0.213989 0.213989 0.213989
0.225128 0.225128 0.225128
0.238892 0.238892 0.238892
0.251648 0.251648 0.251648
0.261810 0.261810 0.261810
0.275970 0.275970 0.275970
0.000000 0.000000 0.000000
0.000000 0.000000 0.000000
0.000000 0.000000 0.000000
0.000000 0.000000 0.000000
0.000000 0.000000 0.000000
0.000000 0.000000 0.000000
0.000000 0.000000 0.000000
0.000000 0.000000 0.000000
0.000000 0.000000 0.000000
0.000000 0.000000 0.000000
0.000000 0.000000 0.000000
0.000000 0.000000 0.000000
0.000000 0.000000 0.000000
0.000000 0.000000 0.000000
0.000000 0.000000 0.000000
0.000000 0.000000 0.000000
0.001129 0.001129 0.001129
0.002167 0.002167 0.002167
0.002167 0.002167 0.002167
0.002167 0.002167 0.002167
0.002167 0.002167 0.002167
0.003479 0.003479 0.003479
0.004303 0.004303 0.004303
0.004364 0.004364 0.004364
0.006470 0.006470 0.006470
0.007446 0.007446 0.007446
0.008606 0.008606 0.008606
0.010529 0.010529 0.010529
0.010986 0.010986 0.010986
0.013611 0.013611 0.013611
0.015076 0.015076 0.015076
0.016693 0.016693 0.016693
0.019714 0.019714 0.019714
0.022858 0.022858 0.022858
0.026001 0.026001 0.026001
0.029144 0.029144 0.029144
0.032257 0.032257 0.032257
0.035400 0.035400 0.035400
0.039307 0.039307 0.039307
0.044891 0.044891 0.044891
0.048340 0.048340 0.048340
0.054291 0.054291 0.054291
0.058319 0.058319 0.058319
0.065826 0.065826 0.065826
0.072662 0.072662 0.072662
0.082153 0.082153 0.082153
0.087860 0.087860 0.087860
0.098541 0.098541 0.098541
0.110229 0.110229 0.110229
0.121918 0.121918 0.121918
0.133942 0.133942 0.133942
0.146698 0.146698 0.146698
0.159454 0.159454 0.159454
0.172180 0.172180 0.172180
0.184387 0.184387 0.184387
0.196625 0.196625 0.196625
0.213654 0.213654 0.213654
0.224762 0.224762 0.224762
0.238342 0.238342 0.238342
0.251343 0.251343 0.251343
0.261383 0.261383 0.261383
0.275574 0.275574 0.275574
0.286926 0.286926 0.286926
0.298920 0.298920 0.298920
0.000000 0.000000 0.000000
0.000000 0.000000 0.000000
0.000000 0.000000 0.000000
0.000000 0.000000 0.000000
0.000000 0.000000 0.000000
0.000000 0.000000 0.000000
0.000000 0.000000 0.000000
0.000000 0.000000 0.000000
0.000000 0.000000 0.000000
0.000000 0.000000 0.000000
0.000000 0.000000 0.000000
0.000000 0.000000 0.000000
0.000000 0.000000 0.000000
0.000000 0.000000 0.000000
0.001068 0.001068 0.001068
0.002167 0.002167 0.002167
0.002167 0.002167 0.002167
0.002167 0.002167 0.002167
0.002167 0.002167 0.002167
0.003357 0.003357 0.003357
0.004303 0.004303 0.004303
0.004303 0.004303 0.004303
0.006470 0.006470 0.006470
0.007385 0.007385 0.007385
0.008606 0.008606 0.008606
0.010468 0.010468 0.010468
0.010895 0.010895 0.010895
0.013519 0.013519 0.013519
0.015076 0.015076 0.015076
0.016602 0.016602 0.016602
0.019623 0.019623 0.019623
0.022736 0.022736 0.022736
0.025909 0.025909 0.025909
0.029053 0.029053 0.029053
0.032166 0.032166 0.032166
0.035309 0.035309 0.035309
0.039093 0.039093 0.039093
0.044769 0.044769 0.044769
0.048218 0.048218 0.048218
0.054047 0.054047 0.054047
0.058136 0.058136 0.058136
0.065674 0.065674 0.065674
0.072296 0.072296 0.072296
0.081787 0.081787 0.081787
0.087677 0.087677 0.087677
0.098114 0.098114 0.098114
0.109772 0.109772 0.109772
0.121460 0.121460 0.121460
0.133453 0.133453 0.133453
0.146210 0.146210 0.146210
0.158966 0.158966 0.158966
0.171722 0.171722 0.171722
0.183990 0.183990 0.183990
0.196198 0.196198 0.196198
0.213287 0.213287 0.213287
0.224426 0.224426 0.224426
0.237823 0.237823 0.237823
0.251007 0.251007 0.251007
0.261017 0.261017 0.261017
0.275208 0.275208 0.275208
0.286469 0.286469 0.286469
0.298553 0.298553 0.298553
0.311096 0.311096 0.311096
0.321503 0.321503 0.321503
0.000000 0.000000 0.000000
0.000000 0.000000 0.000000
0.000000 0.000000 0.000000
0.000000 0.000000 0.000000
0.000000 0.000000 0.000000
0.000000 0.000000 0.000000
0.000000 0.000000 0.000000
0.000000 0.000000 0.000000
0.000000 0.000000 0.000000
0.000000 0.000000 0.000000
0.000000 0.000000 0.000000
0.000000 0.000000 0.000000
0.000977 0.000977 0.000977
0.002167 0.002167 0.002167
0.002167 0.002167 0.002167
0.002167 0.002167 0.002167
0.002167 0.002167 0.002167
0.003296 0.003296 0.003296
0.004303 0.004303 0.004303
0.004303 0.004303 0.004303
0.006470 0.006470 0.006470
0.007263 0.007263 0.007263
0.008606 0.008606 0.008606
0.010345 0.010345 0.010345
0.010834 0.010834 0.010834
0.013428 0.013428 0.013428
0.015076 0.015076 0.015076
0.016510 0.016510 0.016510
0.019531 0.019531 0.019531
0.022644 0.022644 0.022644
0.025818 0.025818 0.025818
0.028931 0.028931 0.028931
0.032074 0.032074 0.032074
0.035217 0.035217 0.035217
0.038879 0.038879 0.038879
0.044678 0.044678 0.044678
0.048096 0.048096 0.048096
0.053833 0.053833 0.053833
0.057922 0.057922 0.057922
0.065521 0.065521 0.065521
0.072021 0.072021 0.072021
0.081482 0.081482 0.081482
0.087524 0.087524 0.087524
0.097717 0.097717 0.097717
0.109406 0.109406 0.109406
0.121094 0.121094 0.121094
0.133026 0.133026 0.133026
0.145782 0.145782 0.145782
0.158539 0.158539 0.158539
0.171295 0.171295 0.171295
0.183533 0.183533 0.183533
0.195740 0.195740 0.195740
0.212830 0.212830 0.212830
0.224060 0.224060 0.224060
0.237274 0.237274 0.237274
0.250702 0.250702 0.250702
0.260742 0.260742 0.260742
0.274933 0.274933 0.274933
0.285919 0.285919 0.285919
0.298187 0.298187 0.298187
0.310638 0.310638 0.310638
0.321198 0.321198 0.321198
0.335297 0.335297 0.335297
0.348083 0.348083 0.348083
0.000000 0.000000 0.000000
0.000000 0.000000 0.000000
0.000000 0.000000 0.000000
0.000000 0.000000 0.000000
0.000000 0.000000 0.000000
0.000000 0.000000 0.000000
0.000000 0.000000 0.000000
0.000000 0.000000 0.000000
0.000000 0.000000 0.000000
0.000000 0.000000 0.000000
0.000885 0.000885 0.000885
0.002167 0.002167 0.002167
0.002167 0.002167 0.002167
0.002167 0.002167 0.002167
0.002167 0.002167 0.002167
0.003204 0.003204 0.003204
0.004303 0.004303 0.004303
0.004303 0.004303 0.004303
0.006470 0.006470 0.006470
0.007202 0.007202 0.007202
0.008606 0.008606 0.008606
0.010284 0.010284 0.010284
0.010773 0.010773 0.010773
0.013336 0.013336 0.013336
0.015076 0.015076 0.015076
0.016418 0.016418 0.016418
0.019409 0.019409 0.019409
0.022522 0.022522 0.022522
0.025665 0.025665 0.025665
0.028839 0.028839 0.028839
0.031982 0.031982 0.031982
0.035095 0.035095 0.035095
0.038605 0.038605 0.038605
0.044525 0.044525 0.044525
0.047974 0.047974 0.047974
0.053619 0.053619 0.053619
0.057739 0.057739 0.057739
0.065369 0.065369 0.065369
0.071716 0.071716 0.071716
0.081177 0.081177 0.081177
0.087372 0.087372 0.087372
0.097351 0.097351 0.097351
0.109039 0.109039 0.109039
0.120697 0.120697 0.120697
0.132629 0.132629 0.132629
0.145386 0.145386 0.145386
0.158142 0.158142 0.158142
0.170898 0.170898 0.170898
0.183136 0.183136 0.183136
0.195343 0.195343 0.195343
0.212402 0.212402 0.212402
0.223633 0.223633 0.223633
0.236633 0.236633 0.236633
0.250305 0.250305 0.250305
0.260345 0.260345 0.260345
0.274536 0.274536 0.274536
0.285461 0.285461 0.285461
0.297882 0.297882 0.297882
0.310089 0.310089 0.310089
0.320831 0.320831 0.320831
0.334839 0.334839 0.334839
0.347778 0.347778 0.347778
0.359467 0.359467 0.359467
0.373657 0.373657 0.373657
0.000000 0.000000 0.000000
0.000000 0.000000 0.000000
0.000000 0.000000 0.000000
0.000000 0.000000 0.000000
0.000000 0.000000 0.000000
0.000000 0.000000 0.000000
0.000000 0.000000 0.000000
0.000000 0.000000 0.000000
0.000793 0.000793 0.000793
0.002167 0.002167 0.002167
0.002167 0.002167 0.002167
0.002167 0.002167 0.002167
0.002167 0.002167 0.002167
0.003113 0.003113 0.003113
0.004303 0.004303 0.004303
0.004303 0.004303 0.004303
0.006470 0.006470 0.006470
0.007111 0.007111 0.007111
0.008606 0.008606 0.008606
0.010193 0.010193 0.010193
0.010773 0.010773 0.010773
0.013275 0.013275 0.013275
0.015076 0.015076 0.015076
0.016357 0.016357 0.016357
0.019318 0.019318 0.019318
0.022430 0.022430 0.022430
0.025574 0.025574 0.025574
0.028717 0.028717 0.028717
0.031860 0.031860 0.031860
0.035004 0.035004 0.035004
0.038422 0.038422 0.038422
0.044434 0.044434 0.044434
0.047882 0.047882 0.047882
0.053406 0.053406 0.053406
0.057587 0.057587 0.057587
0.065216 0.065216 0.065216
0.071411 0.071411 0.071411
0.080933 0.080933 0.080933
0.087219 0.087219 0.087219
0.096985 0.096985 0.096985
0.108643 0.108643 0.108643
0.120331 0.120331 0.120331
0.132233 0.132233 0.132233
0.144989 0.144989 0.144989
0.157745 0.157745 0.157745
0.170502 0.170502 0.170502
0.182739 0.182739 0.182739
0.194946 0.194946 0.194946
0.211853 0.211853 0.211853
0.223297 0.223297 0.223297
0.236115 0.236115 0.236115
0.249969 0.249969 0.249969
0.260040 0.260040 0.260040
0.274231 0.274231 0.274231
0.285004 0.285004 0.285004
0.297577 0.297577 0.297577
0.309631 0.309631 0.309631
0.320526 0.320526 0.320526
0.334290 0.334290 0.334290
0.347412 0.347412 0.347412
0.359009 0.359009 0.359009
0.373291 0.373291 0.373291
0.383881 0.383881 0.383881
0.397949 0.397949 0.397949
0.000000 0.000000 0.000000
0.000000 0.000000 0.000000
0.000000 0.000000 0.000000
0.000000 0.000000 0.000000
0.000000 0.000000 0.000000
0.000000 0.000000 0.000000
0.000732 0.000732 0.000732
0.002167 0.002167 0.002167
0.002167 0.002167 0.002167
0.002167 0.002167 0.002167
0.002167 0.002167 0.002167
0.003021 0.003021 0.003021
0.004303 0.004303 0.004303
0.004303 0.004303 0.004303
0.006470 0.006470 0.006470
0.007019 0.007019 0.007019
0.008606 0.008606 0.008606
0.010101 0.010101 0.010101
0.010773 0.010773 0.010773
0.013184 0.013184 0.013184
0.015076 0.015076 0.015076
0.016266 0.016266 0.016266
0.019226 0.019226 0.019226
0.022339 0.022339 0.022339
0.025513 0.025513 0.025513
0.028625 0.028625 0.028625
0.031769 0.031769 0.031769
0.034882 0.034882 0.034882
0.038208 0.038208 0.038208
0.044342 0.044342 0.044342
0.047760 0.047760 0.047760
0.053131 0.053131 0.053131
0.057465 0.057465 0.057465
0.065033 0.065033 0.065033
0.071045 0.071045 0.071045
0.080505 0.080505 0.080505
0.087067 0.087067 0.087067
0.096619 0.096619 0.096619
0.108276 0.108276 0.108276
0.119965 0.119965 0.119965
0.131805 0.131805 0.131805
0.144562 0.144562 0.144562
0.157318 0.157318 0.157318
0.170074 0.170074 0.170074
0.182343 0.182343 0.182343
0.194580 0.194580 0.194580
0.211273 0.211273 0.211273
0.222931 0.222931 0.222931
0.235565 0.235565 0.235565
0.249664 0.249664 0.249664
