LUTs/SPK Cube Block1 S64/TheBrim_SPK_Type-I_Block1_S64.cube
TITLE "TheBrim® SPK Block 1"
# © Copyright 2021 - TheBrim® d.o.o. Croatia
LUT_3D_SIZE 64
DOMAIN_MIN 0.000000 0.000000 0.000000
DOMAIN_MAX 1.000000 1.000000 1.000000
0.006195 0.007263 0.008331
0.006409 0.007507 0.008637
0.006653 0.007782 0.008911
0.006867 0.008057 0.009186
0.007111 0.008331 0.009522
0.007538 0.008789 0.010010
0.008057 0.009308 0.010620
0.008606 0.009857 0.011261
0.009216 0.010468 0.011994
0.009949 0.011170 0.012818
0.010681 0.011902 0.013672
0.011841 0.013214 0.015045
0.013153 0.014679 0.016602
0.014466 0.016144 0.018158
0.015778 0.017578 0.019654
0.017121 0.019104 0.021241
0.019562 0.021759 0.024140
0.022095 0.024506 0.027131
0.024598 0.027222 0.030060
0.027008 0.029816 0.032929
0.030274 0.033356 0.036652
0.034516 0.037903 0.041352
0.038727 0.042451 0.046021
0.043000 0.047089 0.050782
0.047272 0.051667 0.055543
0.053193 0.057923 0.061830
0.059174 0.064179 0.068116
0.065034 0.070314 0.074281
0.070924 0.076509 0.080507
0.077089 0.082948 0.086976
0.084779 0.090700 0.095308
0.091768 0.097749 0.102846
0.097993 0.104005 0.109560
0.104067 0.110109 0.116091
0.109957 0.116060 0.122438
0.116823 0.122927 0.129824
0.124269 0.130251 0.137697
0.131716 0.137606 0.145602
0.139101 0.144900 0.153445
0.146151 0.151827 0.160891
0.153017 0.158633 0.168215
0.160098 0.165591 0.175692
0.168612 0.174228 0.184878
0.174319 0.179995 0.190982
0.179080 0.184817 0.196109
0.183780 0.189548 0.201144
0.188144 0.193973 0.205875
0.192050 0.197910 0.210025
0.195834 0.201724 0.214084
0.199435 0.205386 0.217960
0.203037 0.209049 0.221866
0.206607 0.212619 0.225681
0.210147 0.216220 0.229496
0.213809 0.219944 0.233433
0.217288 0.223331 0.237125
0.221134 0.226963 0.241093
0.224887 0.230533 0.244999
0.228641 0.234104 0.248936
0.232486 0.237736 0.252903
0.236240 0.241306 0.256809
0.240024 0.244877 0.260746
0.244999 0.249577 0.265904
0.249943 0.254307 0.271092
0.255009 0.259068 0.276310
0.006439 0.007568 0.008667
0.006622 0.007752 0.008850
0.006836 0.007996 0.009155
0.007080 0.008270 0.009430
0.007416 0.008637 0.009857
0.007965 0.009186 0.010498
0.008484 0.009705 0.011109
0.009033 0.010254 0.011749
0.009583 0.010834 0.012421
0.010193 0.011414 0.013123
0.011017 0.012268 0.014069
0.012299 0.013703 0.015595
0.013581 0.015137 0.017090
0.014862 0.016602 0.018616
0.016175 0.018036 0.020142
0.017792 0.019837 0.022034
0.020111 0.022339 0.024781
0.022522 0.024964 0.027649
0.025025 0.027680 0.030579
0.027497 0.030365 0.033509
0.031250 0.034424 0.037720
0.035523 0.039002 0.042481
0.039857 0.043671 0.047272
0.044129 0.048310 0.052064
0.048615 0.053101 0.057008
0.054871 0.059663 0.063569
0.060914 0.066011 0.069947
0.066773 0.072145 0.076112
0.072694 0.078370 0.082338
0.079316 0.085176 0.089418
0.087007 0.092958 0.097719
0.094362 0.100343 0.105653
0.100954 0.106996 0.112764
0.106996 0.113100 0.119265
0.112978 0.119112 0.125704
0.120607 0.126619 0.133791
0.128328 0.134249 0.142000
0.135805 0.141634 0.149935
0.143343 0.149081 0.157931
0.150820 0.156466 0.165866
0.157961 0.163485 0.173434
0.165988 0.171572 0.182040
0.174472 0.180148 0.191165
0.181857 0.187625 0.199100
0.186618 0.192447 0.204227
0.191318 0.197208 0.209262
0.195926 0.201846 0.214206
0.199985 0.205936 0.218570
0.203799 0.209812 0.222690
0.207431 0.213474 0.226566
0.211032 0.217105 0.230442
0.214633 0.220768 0.234318
0.218723 0.224674 0.238590
0.223148 0.228885 0.243198
0.227512 0.233036 0.247745
0.231357 0.236667 0.251713
0.235233 0.240360 0.255772
0.239017 0.243931 0.259678
0.242832 0.247532 0.263676
0.246586 0.251102 0.267582
0.250431 0.254734 0.271580
0.254185 0.258305 0.275486
0.256596 0.260594 0.277989
0.261509 0.265263 0.283085
0.006714 0.007874 0.009003
0.006867 0.008057 0.009186
0.007019 0.008240 0.009400
0.007294 0.008545 0.009735
0.007813 0.009064 0.010346
0.008362 0.009583 0.010986
0.008881 0.010132 0.011597
0.009430 0.010651 0.012238
0.010010 0.011231 0.012909
0.010590 0.011841 0.013611
0.011566 0.012909 0.014740
0.012879 0.014343 0.016266
0.014160 0.015778 0.017762
0.015412 0.017212 0.019257
0.016724 0.018677 0.020783
0.018830 0.020935 0.023255
0.021118 0.023438 0.025971
0.023377 0.025910 0.028656
0.025788 0.028504 0.031495
0.028260 0.031189 0.034394
0.032532 0.035798 0.039155
0.036835 0.040436 0.043915
0.041199 0.045136 0.048768
0.045502 0.049775 0.053559
0.050507 0.055085 0.058991
0.056519 0.061372 0.065309
0.062593 0.067750 0.071687
0.068482 0.073945 0.077913
0.074403 0.080171 0.084138
0.081697 0.087587 0.091981
0.089509 0.095460 0.100404
0.096803 0.102815 0.108278
0.103761 0.109834 0.115785
0.110170 0.116274 0.122683
0.117006 0.123079 0.130007
0.124514 0.130495 0.137942
0.132082 0.137972 0.145998
0.139742 0.145541 0.154116
0.147341 0.153017 0.162173
0.155093 0.160678 0.170413
0.163272 0.168826 0.179110
0.171847 0.177493 0.188327
0.180392 0.186130 0.197513
0.188968 0.194827 0.206729
0.194186 0.200076 0.212314
0.198886 0.204837 0.217380
0.203433 0.209415 0.222263
0.207736 0.213809 0.226902
0.211795 0.217899 0.231266
0.215457 0.221592 0.235203
0.219852 0.225772 0.239780
0.224277 0.229984 0.244388
0.228641 0.234104 0.248936
0.233036 0.238254 0.253452
0.237308 0.242313 0.257939
0.241611 0.246403 0.262425
0.245457 0.250034 0.266392
0.249271 0.253666 0.270390
0.253056 0.257237 0.274296
0.256870 0.260868 0.278264
0.260716 0.264500 0.282261
0.264469 0.268040 0.286168
0.267216 0.270665 0.289036
0.272190 0.275364 0.294224
0.006989 0.008179 0.009339
0.007141 0.008362 0.009552
0.007385 0.008606 0.009827
0.007752 0.008972 0.010254
0.008270 0.009491 0.010864
0.008789 0.010040 0.011475
0.009339 0.010559 0.012116
0.009888 0.011109 0.012757
0.010498 0.011749 0.013489
0.011261 0.012573 0.014374
0.012299 0.013703 0.015595
0.013428 0.014984 0.016938
0.014740 0.016449 0.018463
0.016022 0.017853 0.019928
0.017548 0.019562 0.021729
0.019867 0.022095 0.024506
0.022126 0.024537 0.027192
0.024384 0.026978 0.029816
0.026612 0.029389 0.032441
0.029511 0.032563 0.035798
0.033845 0.037201 0.040589
0.038117 0.041810 0.045350
0.042451 0.046479 0.050172
0.046784 0.051148 0.054994
0.052430 0.057099 0.061006
0.058350 0.063294 0.067231
0.064179 0.069459 0.073396
0.070161 0.075715 0.079683
0.076204 0.082063 0.086061
0.084047 0.089937 0.094484
0.091859 0.097810 0.102907
0.099275 0.105287 0.110933
0.106172 0.112276 0.118379
0.112917 0.119051 0.125673
0.120821 0.126864 0.134035
0.128420 0.134340 0.142092
0.135958 0.141756 0.150088
0.143526 0.149264 0.158114
0.151095 0.156741 0.166171
0.158999 0.164523 0.174563
0.168246 0.173861 0.184451
0.177432 0.183139 0.194339
0.186191 0.191989 0.203738
0.194827 0.200748 0.213046
0.201724 0.207706 0.220432
0.206485 0.212528 0.225559
0.211093 0.217166 0.230503
0.215427 0.221530 0.235142
0.220584 0.226474 0.240543
0.225284 0.230930 0.245426
0.229740 0.235142 0.250034
0.234165 0.239322 0.254643
0.238529 0.243473 0.259190
0.242893 0.247623 0.263737
0.247257 0.251743 0.268284
0.251499 0.255772 0.272679
0.255802 0.259831 0.277165
0.259709 0.263523 0.281224
0.263462 0.267094 0.285130
0.267308 0.270726 0.289097
0.271061 0.274296 0.293034
0.274815 0.277867 0.296941
0.277714 0.280583 0.299931
0.282689 0.285313 0.305119
0.007324 0.008576 0.009766
0.007660 0.008911 0.010163
0.007996 0.009216 0.010529
0.008331 0.009583 0.010956
0.008728 0.009949 0.011383
0.009247 0.010468 0.011994
0.009796 0.011017 0.012634
0.010376 0.011597 0.013336
0.011109 0.012390 0.014191
0.012146 0.013519 0.015412
0.013123 0.014649 0.016571
0.014130 0.015747 0.017731
0.015290 0.017060 0.019104
0.016602 0.018494 0.020630
0.018555 0.020661 0.022950
0.020905 0.023224 0.025727
0.023163 0.025666 0.028412
0.025360 0.028046 0.031006
0.027558 0.030457 0.033600
0.030884 0.034028 0.037324
0.035035 0.038483 0.041932
0.039399 0.043183 0.046784
0.043702 0.047822 0.051545
0.048005 0.052461 0.056367
0.054139 0.058900 0.062806
0.060151 0.065187 0.069123
0.066041 0.071412 0.075349
0.071870 0.077516 0.081483
0.078370 0.084230 0.088380
0.086122 0.092073 0.096742
0.093935 0.099916 0.105196
0.101381 0.107454 0.113222
0.108339 0.114443 0.120729
0.115785 0.121859 0.128695
0.124147 0.130129 0.137545
0.131899 0.137789 0.145785
0.139467 0.145266 0.153841
0.146975 0.152651 0.161776
0.154604 0.160159 0.169863
0.163149 0.168704 0.178988
0.172793 0.178439 0.189334
0.182193 0.187961 0.199466
0.191501 0.197360 0.209445
0.200351 0.206332 0.218967
0.208957 0.215000 0.228214
0.213993 0.220096 0.233616
0.219181 0.225132 0.239078
0.224491 0.230167 0.244602
0.229648 0.235050 0.249973
0.234775 0.239902 0.255283
0.239414 0.244297 0.260105
0.243900 0.248569 0.264775
0.248264 0.252689 0.269322
0.252720 0.256901 0.273930
0.257023 0.260990 0.278416
0.261387 0.265110 0.282963
0.265690 0.269200 0.287419
0.269841 0.273136 0.291752
0.273747 0.276829 0.295811
0.277501 0.280400 0.299748
0.281346 0.284031 0.303716
0.285222 0.287755 0.307652
0.288121 0.290745 0.310369
0.293462 0.296239 0.315343
0.007965 0.009186 0.010498
0.008270 0.009522 0.010864
0.008606 0.009827 0.011261
0.008972 0.010193 0.011688
0.009339 0.010559 0.012116
0.009705 0.010956 0.012543
0.010254 0.011505 0.013214
0.010895 0.012146 0.013947
0.011963 0.013336 0.015198
0.013001 0.014466 0.016388
0.014008 0.015625 0.017609
0.014984 0.016724 0.018738
0.015991 0.017823 0.019898
0.017243 0.019226 0.021393
0.019562 0.021759 0.024140
0.021942 0.024323 0.026947
0.024231 0.026825 0.029664
0.026429 0.029206 0.032227
0.028901 0.031891 0.035126
0.032593 0.035859 0.039216
0.036347 0.039918 0.043397
0.040589 0.044465 0.048096
0.044953 0.049165 0.052949
0.049805 0.054353 0.058259
0.055818 0.060639 0.064576
0.062043 0.067201 0.071138
0.067994 0.073426 0.077394
0.073701 0.079438 0.083406
0.080568 0.086427 0.090730
0.088319 0.094270 0.099123
0.096040 0.102052 0.107454
0.103487 0.109560 0.115480
0.110475 0.116609 0.123018
0.118624 0.124666 0.131716
0.126955 0.132876 0.140536
0.135164 0.140993 0.149264
0.142977 0.148714 0.157534
0.150546 0.156191 0.165591
0.158083 0.163607 0.173587
0.167239 0.172854 0.183413
0.177035 0.182742 0.193942
0.186740 0.192538 0.204318
0.196323 0.202243 0.214633
0.205631 0.211643 0.224613
0.214542 0.220645 0.234195
0.222812 0.228580 0.242832
0.228397 0.233860 0.248631
0.233707 0.238895 0.254154
0.238865 0.243778 0.259556
0.243961 0.248631 0.264866
0.249027 0.253391 0.270085
0.253727 0.257847 0.274998
0.258091 0.261997 0.279545
0.262516 0.266209 0.284154
0.266819 0.270268 0.288609
0.271244 0.274479 0.293248
0.275547 0.278569 0.297704
0.279789 0.282567 0.302098
0.283970 0.286534 0.306432
0.288060 0.290684 0.310307
0.292180 0.294926 0.314153
0.296178 0.299016 0.317845
0.299168 0.302068 0.320623
0.304448 0.307500 0.325505
0.008576 0.009827 0.011231
0.008911 0.010132 0.011627
0.009216 0.010468 0.011994
0.009583 0.010803 0.012390
0.009949 0.011200 0.012848
0.010315 0.011566 0.013275
0.010773 0.011994 0.013794
0.011780 0.013123 0.014984
0.012818 0.014282 0.016205
0.013825 0.015412 0.017395
0.014862 0.016602 0.018616
0.015869 0.017700 0.019776
0.016815 0.018769 0.020905
0.018524 0.020630 0.022919
0.020630 0.022889 0.025391
0.022980 0.025452 0.028168
0.025238 0.027924 0.030854
0.027497 0.030365 0.033478
0.030732 0.033845 0.037140
0.034424 0.037842 0.041260
0.038117 0.041810 0.045350
0.041901 0.045869 0.049561
0.046143 0.050446 0.054261
0.051637 0.056275 0.060182
0.057801 0.062745 0.066682
0.064057 0.069306 0.073243
0.069978 0.075532 0.079500
0.075715 0.081544 0.085512
0.082948 0.088838 0.093294
0.090486 0.096468 0.101472
0.098299 0.104341 0.109895
0.105623 0.111696 0.117769
0.112581 0.118715 0.125277
0.121340 0.127352 0.134585
0.129702 0.135592 0.143465
0.138003 0.143801 0.152285
0.146181 0.151888 0.160952
0.153994 0.159579 0.169223
0.161959 0.167483 0.177707
0.171481 0.177096 0.187930
0.181094 0.186862 0.198276
0.190951 0.196811 0.208865
0.200748 0.206699 0.219394
0.210391 0.216464 0.229740
0.220645 0.226535 0.240604
0.231601 0.236912 0.251987
0.237644 0.242649 0.258274
0.242954 0.247684 0.263798
0.248203 0.252628 0.269261
0.253330 0.257481 0.274571
0.258366 0.262242 0.279820
0.263340 0.266972 0.284977
0.267979 0.271366 0.289799
0.272465 0.275639 0.294499
0.276768 0.279698 0.298955
0.281132 0.283848 0.303502
0.285496 0.288060 0.307927
0.289982 0.292668 0.312078
0.294469 0.297246 0.316258
0.298955 0.301854 0.320409
0.303075 0.306096 0.324254
0.307225 0.310338 0.328099
0.310216 0.313420 0.330877
0.315465 0.318822 0.335760
0.009186 0.010437 0.011963
0.009522 0.010773 0.012360
0.009857 0.011078 0.012726
0.010193 0.011444 0.013123
0.010590 0.011810 0.013581
0.011139 0.012390 0.014221
0.011841 0.013214 0.015076
0.012634 0.014099 0.015991
0.013703 0.015290 0.017243
0.014710 0.016388 0.018402
0.015717 0.017517 0.019593
0.016724 0.018647 0.020783
0.018250 0.020325 0.022583
0.020081 0.022309 0.024750
0.021912 0.024323 0.026917
0.024018 0.026581 0.029389
0.026276 0.029053 0.032074
0.028779 0.031769 0.035004
0.032593 0.035859 0.039216
0.036286 0.039826 0.043305
0.039979 0.043824 0.047425
0.043671 0.047791 0.051514
0.047517 0.051911 0.055787
0.053529 0.058259 0.062165
0.059785 0.064820 0.068757
0.066011 0.071351 0.075288
0.071962 0.077607 0.081575
0.078096 0.083986 0.088106
0.085420 0.091341 0.095979
0.092836 0.098817 0.104005
0.100465 0.106508 0.112215
0.107820 0.113924 0.120150
0.115328 0.121431 0.128206
0.124086 0.130068 0.137514
0.132509 0.138369 0.146426
0.140719 0.146487 0.155154
0.148989 0.154635 0.163912
0.157168 0.162722 0.172610
0.166171 0.171756 0.182223
0.175631 0.181308 0.192386
0.185306 0.191104 0.202792
0.195041 0.200961 0.213260
0.204959 0.210971 0.223911
0.214755 0.220890 0.234440
0.226444 0.231998 0.246616
0.237980 0.242954 0.258640
0.246799 0.251316 0.267796
0.252110 0.256321 0.273320
0.257359 0.261295 0.278752
0.262455 0.266148 0.284092
0.267491 0.270909 0.289311
0.272526 0.275700 0.294560
0.277562 0.280461 0.299809
0.282200 0.284855 0.304631
0.286717 0.289281 0.309056
0.291325 0.294041 0.313359
0.295811 0.298650 0.317510
0.300237 0.303166 0.321599
0.304784 0.307866 0.325841
0.309270 0.312474 0.329992
0.313848 0.317144 0.334234
0.317967 0.321386 0.338079
0.321111 0.324590 0.340978
0.326360 0.329992 0.345861
0.009827 0.011048 0.012696
0.010163 0.011383 0.013092
0.010498 0.011719 0.013458
0.010864 0.012085 0.013886
0.011566 0.012909 0.014740
0.012329 0.013733 0.015595
0.013031 0.014527 0.016449
0.013764 0.015351 0.017304
0.014557 0.016236 0.018250
0.015595 0.017395 0.019440
0.016571 0.018494 0.020600
0.018036 0.020111 0.022339
0.019837 0.022034 0.024445
0.021637 0.024018 0.026581
0.023468 0.026001 0.028748
0.025330 0.027985 0.030945
0.027344 0.030213 0.033326
0.030671 0.033783 0.037079
0.034485 0.037903 0.041321
0.038148 0.041840 0.045380
0.041840 0.045808 0.049500
0.045563 0.049836 0.053620
0.050019 0.054566 0.058442
0.055634 0.060487 0.064393
0.061799 0.066957 0.070893
0.068025 0.073457 0.077424
0.073976 0.079713 0.083711
0.080720 0.086610 0.090944
0.088075 0.094026 0.098848
0.095430 0.101442 0.106783
0.102815 0.108858 0.114748
0.110018 0.116121 0.122530
0.118318 0.124361 0.131380
0.126955 0.132876 0.140536
0.135439 0.141268 0.149538
0.143709 0.149416 0.158328
0.151919 0.157534 0.167056
0.160189 0.165713 0.175814
0.170108 0.175723 0.186465
0.179843 0.185580 0.196933
0.189517 0.195377 0.207340
0.199374 0.205325 0.217899
0.209171 0.215244 0.228428
0.219791 0.225711 0.239689
0.231937 0.237217 0.252354
0.243778 0.248447 0.264652
0.254917 0.259007 0.276249
0.261326 0.265049 0.282902
0.266636 0.270085 0.288426
0.271672 0.274876 0.293645
0.276707 0.279637 0.298894
0.281804 0.284489 0.304204
0.286931 0.289525 0.309239
0.292271 0.294987 0.314214
0.297093 0.299962 0.318700
0.301732 0.304723 0.323003
0.306218 0.309331 0.327153
0.310704 0.313909 0.331334
0.315129 0.318456 0.335424
0.319677 0.323125 0.339666
0.324224 0.327794 0.343877
0.328710 0.332403 0.348058
0.331853 0.335637 0.350958
0.337133 0.341039 0.355840
0.010529 0.011780 0.013519
0.010925 0.012177 0.013977
0.011505 0.012818 0.014649
0.012085 0.013489 0.015351
0.012818 0.014282 0.016205
0.013550 0.015106 0.017060
0.014282 0.015930 0.017945
0.015015 0.016754 0.018799
0.015747 0.017578 0.019623
0.016480 0.018372 0.020508
0.017853 0.019898 0.022126
0.019684 0.021881 0.024262
0.021515 0.023865 0.026429
0.023316 0.025818 0.028565
0.025116 0.027802 0.030701
0.026917 0.029755 0.032837
0.029175 0.032166 0.035431
0.032746 0.036011 0.039368
0.036622 0.040192 0.043702
0.040284 0.044129 0.047761
0.043915 0.048066 0.051820
0.047700 0.052125 0.056001
0.053193 0.057923 0.061830
0.058686 0.063661 0.067567
0.064271 0.069520 0.073487
0.070314 0.075868 0.079866
0.076265 0.082124 0.086122
0.083619 0.089509 0.094026
0.091035 0.096986 0.102052
0.098451 0.104463 0.110048
0.105715 0.111818 0.117891
0.113008 0.119142 0.125765
0.122072 0.128084 0.135378
0.130831 0.136751 0.144686
0.139193 0.144991 0.153536
0.147524 0.153201 0.162356
0.155795 0.161349 0.171145
0.164797 0.170352 0.180758
0.174655 0.180331 0.191348
0.184665 0.190433 0.202090
0.194461 0.200351 0.212619
0.204257 0.210269 0.223148
0.214084 0.220218 0.233738
0.225834 0.231449 0.245975
0.238071 0.243015 0.258701
0.250156 0.254490 0.271275
0.261845 0.265568 0.283452
0.271122 0.274357 0.293095
0.276432 0.279393 0.298619
0.281529 0.284215 0.303929
0.286625 0.289220 0.308995
0.292058 0.294774 0.314000
0.297398 0.300267 0.318975
0.302800 0.305821 0.323980
0.307866 0.311009 0.328679
0.312566 0.315831 0.333043
0.317052 0.320439 0.337224
0.321538 0.325017 0.341375
0.326024 0.329625 0.345525
0.330510 0.334234 0.349706
0.334905 0.338781 0.353796
0.339483 0.343450 0.358038
0.342901 0.346960 0.361212
0.348241 0.352422 0.366155
0.011566 0.012879 0.014740
0.012146 0.013550 0.015412
0.012757 0.014221 0.016114
0.013367 0.014923 0.016846
0.014069 0.015686 0.017670
0.014801 0.016510 0.018524
0.015534 0.017334 0.019379
0.016266 0.018158 0.020264
0.016999 0.018952 0.021088
0.018250 0.020294 0.022553
0.019532 0.021729 0.024109
0.021332 0.023682 0.026246
0.023163 0.025635 0.028382
0.024994 0.027649 0.030549
0.026795 0.029633 0.032685
0.028931 0.031922 0.035157
0.032105 0.035340 0.038666
0.035187 0.038666 0.042115
0.038697 0.042420 0.045991
0.042420 0.046418 0.050141
0.046113 0.050416 0.054231
0.050843 0.055451 0.059327
0.056367 0.061219 0.065156
0.061891 0.067018 0.070954
0.067292 0.072694 0.076661
0.072877 0.078553 0.082551
0.079347 0.085237 0.089448
0.086641 0.092561 0.097292
0.093935 0.099916 0.105196
0.101381 0.107454 0.113222
0.108797 0.114900 0.121218
0.116915 0.123018 0.129915
0.125978 0.131930 0.139498
0.134737 0.140597 0.148806
0.143069 0.148806 0.157626
0.151369 0.157015 0.166445
0.159640 0.165164 0.175235
0.169497 0.175113 0.185824
0.179232 0.184970 0.196292
0.189303 0.195163 0.207095
0.199374 0.205325 0.217899
0.209293 0.215335 0.228550
0.219852 0.225772 0.239780
0.231937 0.237217 0.252354
0.244175 0.248814 0.265080
0.256260 0.260288 0.277653
0.268223 0.271611 0.290074
0.279850 0.282628 0.302190
0.286412 0.289006 0.308782
0.291691 0.294408 0.313664
0.297032 0.299901 0.318639
0.302373 0.305364 0.323583
0.307713 0.310857 0.328557
0.313115 0.316411 0.333562
0.318181 0.321599 0.338262
0.323095 0.326635 0.342840
0.327794 0.331456 0.347204
0.332280 0.336065 0.351354
0.336706 0.340581 0.355444
0.341253 0.345281 0.359686
0.345739 0.349889 0.363836
0.350225 0.354467 0.368017
0.354009 0.358343 0.371527
0.359472 0.363714 0.376501
0.012848 0.014313 0.016205
0.013428 0.014954 0.016907
0.014008 0.015625 0.017609
0.014649 0.016327 0.018341
0.015320 0.017090 0.019135
0.016022 0.017884 0.019959
0.016785 0.018738 0.020844
0.017945 0.019989 0.022217
0.019257 0.021393 0.023774
0.020478 0.022736 0.025208
0.021729 0.024079 0.026673
0.023011 0.025483 0.028199
0.024811 0.027466 0.030335
0.026642 0.029450 0.032502
0.028717 0.031678 0.034913
0.031891 0.035096 0.038422
0.035065 0.038544 0.041993
0.038148 0.041840 0.045380
0.041230 0.045167 0.048829
0.044617 0.048829 0.052583
0.048646 0.053132 0.057038
0.054139 0.058900 0.062806
0.059663 0.064698 0.068635
0.065187 0.070497 0.074434
0.070588 0.076173 0.080140
0.076020 0.081849 0.085847
0.082673 0.088594 0.093050
0.089845 0.095827 0.100771
0.097139 0.103151 0.108614
0.104494 0.110536 0.116548
0.111940 0.118074 0.124605
0.121065 0.127077 0.134279
0.129976 0.135866 0.143740
0.138827 0.144625 0.153140
0.147250 0.152926 0.162081
0.155428 0.160983 0.170748
0.164401 0.169986 0.180331
0.174258 0.179934 0.190921
0.184054 0.189822 0.201450
0.194125 0.200015 0.212284
0.204257 0.210269 0.223148
0.214206 0.220310 0.233860
0.226047 0.231632 0.246189
0.238071 0.243015 0.258701
0.250156 0.254490 0.271275
0.262394 0.266087 0.284001
0.274296 0.277348 0.296391
0.286198 0.288792 0.308598
0.297307 0.300175 0.318914
0.302220 0.305211 0.323461
0.307439 0.310552 0.328283
0.312779 0.316045 0.333257
0.318181 0.321599 0.338262
0.323522 0.327062 0.343236
0.328649 0.332341 0.347997
0.333501 0.337316 0.352483
0.338323 0.342260 0.356970
0.342901 0.346960 0.361212
0.347387 0.351568 0.365362
0.351934 0.356237 0.369604
0.356420 0.360845 0.373754
0.361364 0.365454 0.378180
0.365545 0.369238 0.381842
0.371374 0.374548 0.386999
0.014130 0.015747 0.017731
0.014710 0.016388 0.018402
0.015290 0.017060 0.019104
0.015930 0.017762 0.019837
0.016571 0.018463 0.020600
0.017456 0.019471 0.021637
0.018830 0.020966 0.023285
0.020203 0.022431 0.024872
0.021485 0.023865 0.026429
0.022705 0.025177 0.027863
0.023957 0.026520 0.029328
0.025177 0.027863 0.030793
0.026490 0.029267 0.032319
0.028443 0.031403 0.034607
0.031647 0.034852 0.038178
0.034852 0.038300 0.041718
0.037995 0.041688 0.045228
0.041138 0.045075 0.048707
0.044190 0.048371 0.052125
0.047242 0.051667 0.055512
0.051972 0.056641 0.060517
0.057496 0.062440 0.066346
0.063020 0.068238 0.072175
0.068544 0.074006 0.077974
0.074006 0.079744 0.083742
0.080232 0.086122 0.090394
0.086793 0.092744 0.097475
0.093294 0.099275 0.104494
0.100404 0.106447 0.112154
0.107790 0.113863 0.120119
0.115877 0.121950 0.128786
0.125185 0.131167 0.138674
0.134157 0.140017 0.148196
0.143008 0.148745 0.157595
0.151369 0.157015 0.166445
0.159640 0.165164 0.175235
0.169375 0.175021 0.185702
0.179080 0.184817 0.196109
0.189029 0.194858 0.206790
0.199039 0.204990 0.217563
0.209171 0.215244 0.228428
0.219974 0.225895 0.239902
0.232151 0.237430 0.252567
0.244236 0.248875 0.265141
0.256352 0.260349 0.277714
0.268498 0.271885 0.290379
0.280522 0.283268 0.302892
0.292760 0.295506 0.314672
0.304997 0.308080 0.326024
0.312993 0.316258 0.333440
0.317967 0.321386 0.338079
0.323247 0.326787 0.342962
0.328649 0.332341 0.347997
0.334051 0.337896 0.353002
0.339117 0.343084 0.357702
0.344030 0.348119 0.362249
0.348791 0.353002 0.366674
0.353491 0.357855 0.371038
0.358129 0.362493 0.375311
0.363104 0.367010 0.379706
0.368231 0.371679 0.384222
0.373205 0.376196 0.388586
0.377386 0.380011 0.392279
0.383307 0.385382 0.397498
0.015412 0.017182 0.019257
0.015991 0.017853 0.019928
0.016602 0.018494 0.020630
0.017365 0.019379 0.021546
0.018555 0.020630 0.022919
0.019776 0.021973 0.024384
0.021088 0.023407 0.025940
0.022431 0.024872 0.027527
0.023774 0.026337 0.029114
0.024994 0.027649 0.030549
0.026246 0.028992 0.032013
0.027466 0.030335 0.033478
0.029084 0.032074 0.035309
0.031403 0.034577 0.037873
0.034668 0.038087 0.041505
0.037873 0.041535 0.045075
0.040986 0.044892 0.048554
0.044099 0.048249 0.052003
0.047242 0.051637 0.055482
0.051423 0.056062 0.059937
0.055909 0.060761 0.064668
0.060914 0.066011 0.069947
0.066407 0.071778 0.075746
0.071901 0.077546 0.081514
0.077729 0.083589 0.087678
0.084596 0.090517 0.095094
0.091157 0.097139 0.102205
0.097414 0.103426 0.108919
0.103914 0.109987 0.115938
0.111055 0.117159 0.123629
0.120058 0.126101 0.133211
0.129366 0.135286 0.143099
0.138430 0.144228 0.152712
0.147158 0.152834 0.161990
0.155550 0.161135 0.170901
0.164614 0.170199 0.180575
0.174411 0.180087 0.191104
0.184176 0.189944 0.201572
0.194064 0.199954 0.212222
0.204044 0.210025 0.222904
0.214084 0.220218 0.233738
0.225956 0.231571 0.246128
0.238193 0.243137 0.258854
0.250492 0.254795 0.271641
0.262577 0.266270 0.284215
0.274632 0.277653 0.296727
0.286717 0.289281 0.309056
0.299229 0.302159 0.320684
0.311498 0.314733 0.332067
0.323674 0.327214 0.343359
