LUTs/SPK Cube Block1 S64/TheBrim_SPK_Type-P_Block 1_S64.cube
TITLE "TheBrim® Industrial Imaging Burau"
# © Copyright 2022 - TheBrim® d.o.o. Croatia
LUT_3D_SIZE 8
0.0000000000 0.0000000000 0.0000000000
0.0576485847 0.0000000000 0.0000000000
0.2338597696 0.0163576715 0.0048218509
0.4615243763 0.0389715419 0.0219729915
0.6537422751 0.0888075074 0.0643625544
0.9267872129 0.1599755856 0.1302204929
1.0000000000 0.2327611200 0.1847867552
1.0000000000 0.2588845655 0.1999237049
0.0000000000 0.0472419318 0.0073243305
0.0367742428 0.0475776303 0.0000000000
0.2290379187 0.0806591897 0.0000000000
0.4339360647 0.0954909590 0.0077821012
0.6368047608 0.1195696956 0.0555733577
0.9112230106 0.1851224537 0.1231708248
1.0000000000 0.2634622721 0.1784695201
1.0000000000 0.3109483482 0.1820096132
0.0000000000 0.1956816968 0.0643930724
0.0161745632 0.1899137865 0.0516975662
0.1536278325 0.1872281987 0.0242313268
0.3631647211 0.2054169528 0.0246280613
0.5851682307 0.2229037919 0.0424811170
0.8633707179 0.2788128481 0.0950331884
1.0000000000 0.3557793545 0.1410238804
1.0000000000 0.3961547265 0.1521934844
0.0000000000 0.3842526894 0.1835660334
0.0000000000 0.3655756466 0.1611657893
0.0761730373 0.3489738308 0.1258258946
0.2879682612 0.3423208972 0.0840466926
0.5189135576 0.3606927596 0.0651865415
0.7996795605 0.4129091325 0.0872816052
1.0000000000 0.4792248417 0.1186846723
1.0000000000 0.5240405890 0.1253681239
0.0000000000 0.6030212863 0.2886396582
0.0000000000 0.5912718395 0.2658121614
0.0573128862 0.5584649424 0.2292210269
0.2050507362 0.5507133593 0.1788052186
0.4587167163 0.5372243839 0.1228961624
0.7374227512 0.5765621424 0.1132829786
1.0000000000 0.6301213092 0.1144731823
1.0000000000 0.6775463493 0.1087052720
0.0000000000 0.8361486229 0.3626459144
0.0000000000 0.8264438849 0.3497978180
0.0692149233 0.8160982681 0.3276417182
0.1945220111 0.8031891356 0.2809185931
0.3996948196 0.7979705501 0.2263523308
0.6800793469 0.7814602884 0.1610437171
0.9648126955 0.8204928664 0.1313801785
1.0000000000 0.8636148623 0.0991836423
0.0890821698 0.8286717021 0.3250782025
0.1104142824 0.8349889372 0.3196765087
0.1646448463 0.8524757763 0.3061264973
0.2547341115 0.8858625162 0.2859540703
0.3718928817 0.9356069276 0.2594338903
0.6413519493 0.9993286030 0.2250095369
0.9181811246 1.0000000000 0.1602502480
1.0000000000 1.0000000000 0.1002822919
0.1847562371 0.8591287098 0.3012741283
0.2023956664 0.8660868238 0.2977035172
0.2464026856 0.8821087968 0.2878767071
0.3142748150 0.9120469978 0.2718547341
0.4452277409 0.9546501869 0.2489662013
0.6700083925 1.0000000000 0.2210421912
0.8881513695 1.0000000000 0.1784695201
1.0000000000 1.0000000000 0.1612573434
0.0000000000 0.0000000000 0.0300297551
0.0448310063 0.0000000000 0.0206912337
0.2420996414 0.0000000000 0.0464789807
0.4637216754 0.0014343481 0.0612191958
0.6561837186 0.0735179675 0.0856946670
0.9362478065 0.1569237812 0.1401693751
1.0000000000 0.2304722667 0.1916533150
1.0000000000 0.2367284657 0.2215915160
0.0000000000 0.0466010529 0.0529793240
0.0470283055 0.0462348363 0.0467536431
0.2270847639 0.0626535439 0.0536202029
0.4330205234 0.0802014191 0.0647592889
0.6469367514 0.1121538109 0.0797436484
0.9290150301 0.1802090486 0.1351644160
1.0000000000 0.2554055085 0.1870756085
1.0000000000 0.3012741283 0.2196078431
0.0000000000 0.2216830701 0.0941176471
0.0000000000 0.1857633326 0.0684824903
0.1511863890 0.1762722210 0.0432745861
0.3693293660 0.1976043336 0.0485236896
0.5944762341 0.2164950027 0.0550240330
0.8791790646 0.2759136339 0.1016556039
1.0000000000 0.3515678645 0.1480735485
1.0000000000 0.3917296101 0.1924162661
0.0000000000 0.3794003204 0.1857938506
0.0000000000 0.3665522240 0.1629053178
0.0768139162 0.3475394827 0.1251544976
0.2930342565 0.3398184176 0.0807812619
0.5258106355 0.3583123522 0.0638132296
0.8087434195 0.4082093538 0.0880140383
1.0000000000 0.4778515297 0.1218585489
1.0000000000 0.5192187381 0.1626001373
0.0000000000 0.6012817578 0.2892805371
0.0000000000 0.5903562982 0.2661783780
0.0591439689 0.5573052567 0.2287632563
0.2088960098 0.5489433127 0.1774624247
0.4612497139 0.5345693141 0.1203936828
0.7432211795 0.5728999771 0.1118181125
1.0000000000 0.6294804303 0.1151140612
1.0000000000 0.6734874495 0.1588769360
0.0000000000 0.8353551537 0.3614251926
0.0000000000 0.8261997406 0.3494316014
0.0697947662 0.8157625696 0.3272755016
0.1949797818 0.8024261845 0.2803997864
0.4027161059 0.7958342870 0.2251621271
0.6841992828 0.7797512779 0.1597009232
0.9696650645 0.8193026627 0.1356221866
1.0000000000 0.8583047227 0.1518272679
0.0937819486 0.8300144961 0.3239185168
0.1147173266 0.8363317311 0.3184863050
0.1688258183 0.8540016785 0.3051804379
0.2584267948 0.8874189364 0.2852216373
0.3744258793 0.9368886854 0.2589456016
0.6463874266 1.0000000000 0.2255588617
0.9229419394 1.0000000000 0.1787441825
1.0000000000 1.0000000000 0.1904020752
0.1921110857 0.8619974060 0.2999008164
0.2097199969 0.8684672313 0.2958724346
0.2527199207 0.8846112764 0.2864118410
0.3196154726 0.9143663691 0.2706645304
0.4596017395 0.9566948959 0.2477759976
0.6763256275 1.0000000000 0.2199740597
0.8931868467 1.0000000000 0.1772487984
1.0000000000 1.0000000000 0.2645609216
0.0391851682 0.0023804074 0.1790798810
0.0955825132 0.0000000000 0.1745937285
0.2208590829 0.0000000000 0.1300984207
0.4250553140 0.0000000000 0.1455100328
0.6480354009 0.0211184863 0.1698329137
0.9312733654 0.0980544747 0.2235141527
1.0000000000 0.1623559930 0.2676737621
1.0000000000 0.1784390021 0.2942854963
0.0000000000 0.0555428397 0.1921416037
0.0661326009 0.0417181659 0.1628137636
0.1892729076 0.0044556344 0.1242389563
0.4086671244 0.0299076829 0.1476157778
0.6386968795 0.0617685206 0.1668421454
0.9262378882 0.1226825360 0.2187533379
1.0000000000 0.1936980240 0.2660257877
1.0000000000 0.2558632792 0.2996871901
0.0000000000 0.1975127794 0.2091706722
0.0000000000 0.1705958648 0.1808499275
0.1813076982 0.1818570230 0.1818570230
0.3542839704 0.1790798810 0.1681849393
0.5859616999 0.2028229191 0.1826810101
0.8805828946 0.2657206073 0.2263828489
1.0000000000 0.3360036622 0.2725871672
1.0000000000 0.3775692378 0.3093003738
0.0000000000 0.3720759899 0.2426794842
0.0000000000 0.3640192264 0.2305027848
0.1018997482 0.3298390173 0.2002899214
0.2935835813 0.3221789883 0.1766384375
0.5260547799 0.3440604257 0.1788967727
0.8131074998 0.3978637369 0.2088044556
1.0000000000 0.4674143587 0.2509193561
1.0000000000 0.5079575799 0.2945601587
0.0000000000 0.5926451514 0.3001449607
0.0000000000 0.5918516823 0.2789959564
0.0565804532 0.5508659495 0.2505226215
0.2205844205 0.5354238193 0.2179293507
0.4674753948 0.5202258335 0.1905546654
0.7491721981 0.5631952392 0.2114595254
1.0000000000 0.6190432593 0.2426794842
1.0000000000 0.6621652552 0.3002365148
0.0000000000 0.8355992981 0.3631952392
0.0000000000 0.8252536812 0.3502861067
0.0701304646 0.8151827268 0.3306630045
0.1966277562 0.8020904860 0.2936446174
0.4159304189 0.7847562371 0.2598916609
0.6888075074 0.7676661326 0.2441443503
0.9743343252 0.8061188678 0.2660868238
1.0000000000 0.8476844434 0.3105210956
0.1025406271 0.8324254215 0.3239795529
0.1241474022 0.8387121386 0.3197985809
0.1769130999 0.8556801709 0.3156481270
0.2620889601 0.8856183719 0.3129930571
0.3822079805 0.9313649195 0.3230945296
0.6527351797 0.9944151980 0.3293812467
0.9226062409 1.0000000000 0.3161974517
1.0000000000 1.0000000000 0.3599908446
0.2036469062 0.8663614862 0.2973983368
0.2213473716 0.8727092393 0.2931258106
0.2621499962 0.8889143206 0.2844281682
0.3306019684 0.9190966659 0.2679179065
0.4855420768 0.9603265431 0.2479896239
0.6887159533 1.0000000000 0.2490577554
0.9014572366 1.0000000000 0.3231860838
1.0000000000 1.0000000000 0.4099794003
0.1101701381 0.0529182879 0.3015182727
0.1397116045 0.0484321355 0.3159533074
0.2509193561 0.0171206226 0.2919356069
0.3963378347 0.0000000000 0.2659952697
0.6346074617 0.0000000000 0.2867170214
0.9297474632 0.0419012741 0.3376211185
1.0000000000 0.0724193179 0.3877927825
1.0000000000 0.1069657435 0.4014648661
0.0957656214 0.1000076295 0.3292896925
0.1447775998 0.0813916228 0.3415579461
0.2522926680 0.0425726711 0.3169298848
0.4093080034 0.0000000000 0.2708781567
0.6495307851 0.0174563210 0.2846723125
0.9282520790 0.0685130083 0.3277332723
1.0000000000 0.1310139620 0.3718013275
1.0000000000 0.1909208820 0.3905699245
0.0000000000 0.2054779889 0.3672846571
0.0552071412 0.1990997177 0.3617914092
0.2135652705 0.1862211032 0.3300221256
0.3586785687 0.1465171283 0.2833295186
0.5981689174 0.1684901198 0.3036545357
0.8818341344 0.2218966964 0.3441214618
1.0000000000 0.2877241169 0.3870908675
1.0000000000 0.3277332723 0.4114442664
0.0000000000 0.3648126955 0.3788509957
0.0000000000 0.3565728237 0.3726863508
0.1359884031 0.3284657053 0.3417410544
0.3368276493 0.3370107576 0.3383840696
0.5432974746 0.3391775387 0.3271839475
0.8258335241 0.3893797208 0.3644464790
1.0000000000 0.4564888991 0.4048523690
1.0000000000 0.4953078508 0.4355840391
0.0000000000 0.5790341039 0.4384832532
0.0000000000 0.5810482948 0.4329289693
0.0539253834 0.5426260777 0.4015259022
0.2642862593 0.5199206531 0.3703059434
0.4815747311 0.5093003738 0.3453421836
0.7584802014 0.5526054780 0.3693904021
1.0000000000 0.6078736553 0.4018310826
1.0000000000 0.6532845045 0.4449530785
0.0000000000 0.8393530175 0.5102159152
0.0000000000 0.8252841993 0.4996108949
0.0636301213 0.7985198749 0.4748912795
0.2000762951 0.7811245899 0.4501106279
0.4436713207 0.7632410163 0.4236209659
0.6979934386 0.7516136416 0.4015259022
0.9810177768 0.7933928435 0.4267032883
1.0000000000 0.8390173190 0.4682993820
0.0973220417 0.8280918593 0.4540474556
0.1203021286 0.8332188907 0.4540169375
0.1755092699 0.8481422141 0.4556038758
0.2592202640 0.8770733196 0.4612497139
0.3865110246 0.9259021897 0.4703135729
0.6677195392 0.9913633936 0.4822156100
0.9288319219 1.0000000000 0.4832227054
1.0000000000 1.0000000000 0.5225757229
0.2149385824 0.8639810788 0.3723201343
0.2305943389 0.8690470741 0.3732661936
0.2688639658 0.8837872892 0.3778439002
0.3375295644 0.9127183948 0.3853208209
0.5116807813 0.9512932021 0.4082398718
0.6981460288 1.0000000000 0.4416571298
0.9143663691 1.0000000000 0.4947890440
1.0000000000 1.0000000000 0.5770809491
0.1639734493 0.1099870298 0.4640878920
0.1947051194 0.1050125887 0.4840772107
0.3082322423 0.0715953307 0.4686045624
0.4489814603 0.0293583581 0.4432135500
0.6156252384 0.0000000000 0.4065613794
0.9091477836 0.0000000000 0.4602426184
1.0000000000 0.0148928054 0.4986953536
1.0000000000 0.0827954528 0.5119554437
0.1539940490 0.1474021515 0.5035324636
0.2019989319 0.1271076524 0.5311207752
0.3138170443 0.0893873503 0.5081406882
0.4659494926 0.0348821241 0.4629282063
0.6357061112 0.0000000000 0.4148928054
0.9118028534 0.0276188296 0.4576791028
1.0000000000 0.0879224842 0.4977798123
1.0000000000 0.1528343633 0.5039291981
0.0395208667 0.2441138323 0.5806515602
0.1202105745 0.2338902876 0.5830319677
0.2834210727 0.2242771038 0.5583123522
0.4409552148 0.1775234607 0.5030746929
0.6105897612 0.1326009003 0.4498970016
0.8818646525 0.1747768368 0.4771190967
1.0000000000 0.2374303807 0.5107042039
1.0000000000 0.2834821088 0.5239795529
0.0000000000 0.3830624857 0.5660944533
0.0409857328 0.3832455940 0.5810177768
0.2025787747 0.3684748608 0.5521782254
0.3912718395 0.3557793545 0.5242236973
0.5598687724 0.3151903563 0.4719615473
0.8286717021 0.3546501869 0.5008163577
1.0000000000 0.4117799649 0.5331044480
1.0000000000 0.4479743648 0.5520561532
0.0000000000 0.5706111238 0.5894407568
0.0000000000 0.5681391623 0.5962462806
0.0844434272 0.5354238193 0.5635309377
0.3019150072 0.5178454261 0.5352407111
0.5219653620 0.5181811246 0.5196765087
0.7811245899 0.5488822766 0.5358510719
1.0000000000 0.6011902037 0.5683833066
1.0000000000 0.6433661402 0.5994506752
0.0000000000 0.8186923018 0.6681162737
0.0000000000 0.8298619059 0.6682078279
0.0600289921 0.7847867552 0.6386358434
0.2043793393 0.7694666972 0.6152590219
0.4749828336 0.7488670176 0.5890745403
0.7186541543 0.7441367208 0.5694209201
0.9909056229 0.7833218891 0.5928587778
1.0000000000 0.8308384833 0.6271610590
0.0984512093 0.8326695659 0.6067750057
0.1209430076 0.8372472724 0.6067444877
0.1791103990 0.8527504387 0.6090638590
0.2657206073 0.8824750134 0.6160219730
0.4541084916 0.9278248264 0.6305485618
0.6913099870 0.9875181201 0.6474860761
0.9455252918 1.0000000000 0.6467841611
1.0000000000 1.0000000000 0.6849622339
0.2164034485 0.8619058518 0.5411001755
0.2321202411 0.8672770275 0.5429312581
0.2736858167 0.8833905547 0.5488517586
0.3467154955 0.9116807813 0.5603875792
0.5350576028 0.9489127947 0.5811093309
0.7254291600 1.0000000000 0.6132448310
0.9385671778 1.0000000000 0.6651560235
1.0000000000 1.0000000000 0.7432211795
0.1855191882 0.1838712139 0.6130922408
0.2550392920 0.1800259403 0.6032959487
0.3425955596 0.1517051957 0.5715877012
0.4491950866 0.1175860227 0.5315785458
0.5745174334 0.0763561456 0.4833142596
0.7374227512 0.0728160525 0.4619211109
0.9655451286 0.1303730831 0.4928664073
1.0000000000 0.1899137865 0.5225757229
0.1837796597 0.2085908293 0.6336003662
0.2429236286 0.2047455558 0.6236820020
0.3386587320 0.1841458762 0.5942931258
0.4491950866 0.1486228733 0.5511406119
0.5765621424 0.1106889448 0.5037460899
0.7401998932 0.1004348821 0.4760814832
0.9687495232 0.1582360571 0.5074692912
1.0000000000 0.2195773251 0.5378042267
0.1448386358 0.2784466316 0.6993667506
0.2098115511 0.2731364920 0.6834973678
0.3310597391 0.2653543908 0.6570992599
0.4543831540 0.2285496300 0.6061341268
0.5854123751 0.1918669413 0.5541618982
0.7546654459 0.1757228962 0.5196459907
0.9921263447 0.2348668650 0.5462882429
1.0000000000 0.2975814450 0.5772945754
0.0000000000 0.4183108263 0.8042572671
0.1255207141 0.4176394293 0.8282139315
0.2847943847 0.4033875029 0.7897306783
0.4671091783 0.3922789349 0.7448691539
0.6237125200 0.3457694362 0.6620737011
0.8070038911 0.3221484703 0.6075989929
1.0000000000 0.3792172122 0.6270084688
1.0000000000 0.4269169146 0.6468757153
0.0000000000 0.5938658732 0.8117647059
0.0210269322 0.5919127184 0.8446631571
0.1992828260 0.5738155184 0.8086518654
0.3874570840 0.5601129168 0.7742275120
0.5927672236 0.5514457923 0.7455100328
0.7765468833 0.5114976730 0.6816357671
1.0000000000 0.5614862287 0.7094071870
1.0000000000 0.6024414435 0.7272602426
0.0000000000 0.8058136873 0.8458838788
0.0000000000 0.8052948806 0.8556801709
0.0641794461 0.7737087053 0.8207064927
0.2859845884 0.7534447242 0.7972075990
0.5163805600 0.7419394217 0.7672999161
0.7480430304 0.7412680247 0.7473411154
1.0000000000 0.7800869764 0.7678492409
1.0000000000 0.8208896010 0.7988555734
0.0972610056 0.8451209277 0.7688258183
0.1201190204 0.8495155261 0.7706874189
0.1773403525 0.8626077668 0.7767299916
0.2908369574 0.8913862821 0.7892423896
0.4964370184 0.9389944305 0.8110627909
0.7245136187 0.9869077592 0.8252841993
0.9678339818 0.9892881666 0.8193331807
1.0000000000 1.0000000000 0.8589761196
0.2197909514 0.8706645304 0.7065690089
0.2383764401 0.8776226444 0.7091325246
0.2838483253 0.8928511482 0.7143816281
0.4207827878 0.9194628824 0.7287251087
0.5761043717 0.9605096513 0.7481651026
0.7627222095 1.0000000000 0.7850614176
0.9727779049 1.0000000000 0.8413977264
1.0000000000 1.0000000000 0.9152513924
0.2237277790 0.2432898451 0.6549935149
0.2623636225 0.2408178836 0.6477607385
0.3411001755 0.2298619059 0.6274357214
0.4283817807 0.1993743801 0.5894712749
0.5301136797 0.1640955215 0.5461356527
0.6394293126 0.1328755627 0.5039291981
0.8175020981 0.1446555276 0.5021896696
1.0000000000 0.2060273136 0.5310292210
0.2271763180 0.2596169986 0.6689402609
0.2654459449 0.2571145190 0.6610360876
0.3426565957 0.2500038148 0.6425726711
0.4292668040 0.2216220340 0.6058289464
0.5303883421 0.1878995956 0.5622186618
0.6434882124 0.1543602655 0.5173876555
0.8131685359 0.1671778439 0.5139696345
1.0000000000 0.2298619059 0.5433890288
0.2204013123 0.3068589303 0.7128252079
0.2602273594 0.3034409094 0.7027542535
0.3382009613 0.2985275044 0.6850537881
0.4316777295 0.2787212940 0.6487678340
0.5362172885 0.2445716030 0.6015259022
0.6528877699 0.2120088502 0.5545586328
0.8261692226 0.2331273365 0.5503166247
1.0000000000 0.3024643320 0.5816891737
0.1912870985 0.4071412222 0.8108491646
0.2337071794 0.4007324331 0.7981231403
0.3208667124 0.3918211643 0.7734035248
0.4481879911 0.3842221714 0.7410849165
0.5655451286 0.3641107805 0.6935683223
0.6991531243 0.3505302510 0.6469672694
0.8725261311 0.3674067292 0.6324711986
1.0000000000 0.4306401160 0.6570077058
0.0823071641 0.5927367056 0.9992675669
0.1539024949 0.5875486381 0.9898374914
0.2832990005 0.5784542611 0.9605401694
0.4554818036 0.5677729458 0.9125963226
0.6350652323 0.5601434348 0.8597695888
0.7814602884 0.5267261769 0.7776150149
0.9459830625 0.5413443198 0.7538109407
1.0000000000 0.5989013504 0.7694056611
0.0000000000 0.7823758297 1.0000000000
0.0111390860 0.7884489204 1.0000000000
0.2150301366 0.7710536355 1.0000000000
0.4006408789 0.7681239033 1.0000000000
0.5975890745 0.7665369650 1.0000000000
0.8123140307 0.7655603876 0.9772945754
1.0000000000 0.7440146487 0.9038376440
1.0000000000 0.7984283207 0.9132677195
0.1027542535 0.8659037156 0.9680476081
0.1284809644 0.8710307469 0.9703974975
0.2195162890 0.8839703975 0.9839780270
0.3687495232 0.9097581445 1.0000000000
0.5501640345 0.9480888075 1.0000000000
0.7757839322 0.9785458152 1.0000000000
1.0000000000 0.9828793774 1.0000000000
1.0000000000 1.0000000000 1.0000000000
0.2530251011 0.8840314336 0.8825055314
0.2845197223 0.8888227665 0.8852216373
0.3619134813 0.9036545357 0.8919356069
0.4682078279 0.9302052338 0.9047226673
0.6171206226 0.9788204776 0.9211413748
0.8089265278 1.0000000000 0.9718013275
1.0000000000 1.0000000000 1.0000000000
1.0000000000 1.0000000000 1.0000000000
0.2287632563 0.2825970855 0.6887159533
0.2629739834 0.2793011368 0.6805371176
0.3337148089 0.2750591287 0.6649729152
0.4105287251 0.2526283665 0.6326543069
0.4968642710 0.2240939956 0.5946593423
0.5915770199 0.1924773022 0.5533379110
0.7045853361 0.1656519417 0.5147325856
0.8820172427 0.2060273136 0.5333180743
0.2380712596 0.2939497978 0.6975356680
0.2690165560 0.2912947280 0.6900892653
0.3338063630 0.2873273823 0.6755321584
0.4117799649 0.2676737621 0.6439459831
0.4986037995 0.2386511025 0.6046692607
0.5925841154 0.2114290074 0.5662165255
0.7043106737 0.1814602884 0.5241321431
0.8920881971 0.2305027848 0.5463797971
0.2460669871 0.3289234760 0.7291218433
0.2747844663 0.3259021897 0.7210650797
0.3361562524 0.3212329290 0.7061112383
0.4177309834 0.3087815671 0.6794384680
0.5017929351 0.2826886397 0.6374151217
0.5965819791 0.2534523537 0.5952086671
0.7177386130 0.2435950256 0.5627069505
0.9117112993 0.3034409094 0.5877012284
0.2448767834 0.4003356985 0.7961089494
0.2706950484 0.3960326543 0.7871671626
0.3359731441 0.3869687953 0.7658350500
0.4266422522 0.3814145113 0.7428244450
0.5244068055 0.3735408560 0.7131914244
0.6391546502 0.3717708095 0.6812085145
0.7684596017 0.3728084230 0.6482185092
0.9540398260 0.4298466468 0.6685435264
0.2509803922 0.5354238193 0.9268177310
0.2868085756 0.5339284352 0.9172045472
0.3672236210 0.5329213397 0.9002365148
0.4748302434 0.5347524224 0.8765545129
0.6039978637 0.5433585107 0.8527504387
0.7187457084 0.5404287785 0.8117952239
0.8452124819 0.5424429694 0.7728847181
1.0000000000 0.5877927825 0.7793545434
0.2232394903 0.7498741131 1.0000000000
0.2698405432 0.7461509117 1.0000000000
0.3702449073 0.7377889677 1.0000000000
0.5052109560 0.7362630655 1.0000000000
0.6533760586 0.7487754635 1.0000000000
0.8203402762 0.7541771572 0.9791866941
0.9361562524 0.7436789502 0.9255054551
1.0000000000 0.7818570230 0.9205615320
0.2269016556 0.8995345998 1.0000000000
0.2578469520 0.9062790875 1.0000000000
0.3317616541 0.9250476844 1.0000000000
0.4524605173 0.9598687724 1.0000000000
0.6246890974 0.9907530327 1.0000000000
0.8340733959 0.9944762341 1.0000000000
1.0000000000 0.9909361410 1.0000000000
1.0000000000 1.0000000000 1.0000000000
0.3613336385 0.8986190585 1.0000000000
0.3808346685 0.9038986801 1.0000000000
0.4442511635 0.9221484703 1.0000000000
0.5446707866 0.9554741741 1.0000000000
0.6862134737 1.0000000000 1.0000000000
0.8606851301 1.0000000000 1.0000000000
1.0000000000 1.0000000000 1.0000000000
1.0000000000 1.0000000000 1.0000000000
