LUTs/SPK Cube Block1 S64/TheBrim_SPK_Type-K_Block1_S64.cube
TITLE "TheBrim® SPK Block 1"
# TheBrim® d.o.o. Croatia
# Copyright: (C) Copyright 2020 TheBrim® d.o.o. Croatia
LUT_3D_SIZE 64
0.0022280000 0.0019840000 0.0018310000
0.0037540000 0.0030210000 0.0028380000
0.0050660000 0.0040280000 0.0038450000
0.0056760000 0.0046080000 0.0043950000
0.0062260000 0.0051270000 0.0049130000
0.0066530000 0.0054320000 0.0051570000
0.0072330000 0.0057370000 0.0054630000
0.0078740000 0.0058590000 0.0055850000
0.0085450000 0.0060120000 0.0057680000
0.0095210000 0.0064090000 0.0061650000
0.0104680000 0.0067140000 0.0065000000
0.0115660000 0.0070500000 0.0068360000
0.0128480000 0.0074160000 0.0072020000
0.0140080000 0.0076900000 0.0075070000
0.0162050000 0.0080570000 0.0079650000
0.0201420000 0.0086980000 0.0086670000
0.0263670000 0.0097050000 0.0097660000
0.0335690000 0.0105900000 0.0112000000
0.0451660000 0.0124820000 0.0135800000
0.0550540000 0.0135800000 0.0153500000
0.0697940000 0.0156860000 0.0180970000
0.0870060000 0.0177310000 0.0208740000
0.1038510000 0.0192870000 0.0239560000
0.1223750000 0.0210270000 0.0273740000
0.1427000000 0.0230100000 0.0312500000
0.1639100000 0.0252380000 0.0351560000
0.1854550000 0.0275270000 0.0391240000
0.2089230000 0.0303340000 0.0435490000
0.2322690000 0.0331120000 0.0480960000
0.2553710000 0.0358580000 0.0526730000
0.2776790000 0.0379940000 0.0569760000
0.3013610000 0.0399480000 0.0613100000
0.3276060000 0.0420230000 0.0660400000
0.3546750000 0.0435790000 0.0708310000
0.3846740000 0.0442200000 0.0755000000
0.4137880000 0.0434570000 0.0798340000
0.4403080000 0.0418090000 0.0834660000
0.4646910000 0.0400390000 0.0869450000
0.4864200000 0.0375370000 0.0900570000
0.5059200000 0.0348510000 0.0927120000
0.5280460000 0.0320130000 0.0959780000
0.5515440000 0.0278630000 0.0993350000
0.5747680000 0.0239560000 0.1032100000
0.5970760000 0.0191650000 0.1079100000
0.6123350000 0.0158080000 0.1110840000
0.6258850000 0.0120540000 0.1140440000
0.6406560000 0.0075070000 0.1178890000
0.6553340000 0.0021060000 0.1219180000
0.6680300000 0.0000000000 0.1255800000
0.6781010000 0.0000000000 0.1297300000
0.6861880000 0.0000000000 0.1330570000
0.6926570000 0.0000000000 0.1359560000
0.6984250000 0.0000000000 0.1407780000
0.7035830000 0.0000000000 0.1448670000
0.7080080000 0.0000000000 0.1486210000
0.7112730000 0.0000000000 0.1509700000
0.7145080000 0.0000000000 0.1534730000
0.7154540000 0.0000000000 0.1543880000
0.7155460000 0.0000000000 0.1546330000
0.7155760000 0.0000000000 0.1547550000
0.7156070000 0.0000000000 0.1547850000
0.7156370000 0.0000000000 0.1548160000
0.7162170000 0.0000000000 0.1549070000
0.7167360000 0.0000000000 0.1548160000
0.0045470000 0.0041200000 0.0033570000
0.0048220000 0.0040590000 0.0033260000
0.0059510000 0.0050350000 0.0042720000
0.0061950000 0.0051880000 0.0043950000
0.0067750000 0.0056760000 0.0048520000
0.0069890000 0.0057370000 0.0048220000
0.0075990000 0.0060420000 0.0051570000
0.0081790000 0.0061040000 0.0052800000
0.0088810000 0.0062260000 0.0054320000
0.0097350000 0.0064700000 0.0057680000
0.0106810000 0.0068050000 0.0061340000
0.0119630000 0.0071110000 0.0064390000
0.0132140000 0.0074460000 0.0068050000
0.0143740000 0.0077510000 0.0072020000
0.0169680000 0.0082090000 0.0078120000
0.0222470000 0.0092160000 0.0088200000
0.0281070000 0.0098880000 0.0097050000
0.0348510000 0.0104060000 0.0107120000
0.0467220000 0.0123290000 0.0130620000
0.0561220000 0.0135800000 0.0149540000
0.0712280000 0.0156250000 0.0176090000
0.0884090000 0.0175170000 0.0204160000
0.1056210000 0.0195620000 0.0234380000
0.1229550000 0.0212400000 0.0266720000
0.1435240000 0.0232240000 0.0305180000
0.1643980000 0.0252990000 0.0343930000
0.1858520000 0.0276180000 0.0386350000
0.2090450000 0.0304570000 0.0431820000
0.2324220000 0.0331420000 0.0479130000
0.2555850000 0.0359190000 0.0525510000
0.2779850000 0.0380250000 0.0569460000
0.3017880000 0.0399780000 0.0613400000
0.3277590000 0.0419920000 0.0661010000
0.3545530000 0.0436100000 0.0708620000
0.3843990000 0.0442200000 0.0754390000
0.4135130000 0.0435180000 0.0798340000
0.4400330000 0.0418700000 0.0834660000
0.4643550000 0.0401610000 0.0869450000
0.4865720000 0.0374760000 0.0900570000
0.5065310000 0.0349120000 0.0928340000
0.5280150000 0.0320430000 0.0960080000
0.5510860000 0.0279240000 0.0993040000
0.5747680000 0.0239560000 0.1032100000
0.5972900000 0.0191350000 0.1079710000
0.6123050000 0.0159300000 0.1110840000
0.6256710000 0.0120850000 0.1140140000
0.6404720000 0.0076290000 0.1178590000
0.6551820000 0.0021970000 0.1218570000
0.6679690000 0.0000000000 0.1255490000
0.6780400000 0.0000000000 0.1297300000
0.6862180000 0.0000000000 0.1330870000
0.6926880000 0.0000000000 0.1359560000
0.6983640000 0.0000000000 0.1407170000
0.7035220000 0.0000000000 0.1448060000
0.7080080000 0.0000000000 0.1486210000
0.7112430000 0.0000000000 0.1509700000
0.7144780000 0.0000000000 0.1534420000
0.7153930000 0.0000000000 0.1543270000
0.7155150000 0.0000000000 0.1545720000
0.7155760000 0.0000000000 0.1547550000
0.7156070000 0.0000000000 0.1547850000
0.7156370000 0.0000000000 0.1548160000
0.7167050000 0.0000000000 0.1547850000
0.7174990000 0.0000000000 0.1549070000
0.0066830000 0.0062260000 0.0048830000
0.0067440000 0.0061340000 0.0047910000
0.0067750000 0.0060120000 0.0046690000
0.0070500000 0.0061340000 0.0047300000
0.0072630000 0.0062560000 0.0048520000
0.0074770000 0.0062870000 0.0048220000
0.0079650000 0.0063170000 0.0048220000
0.0085750000 0.0064090000 0.0049740000
0.0091860000 0.0064700000 0.0050960000
0.0100400000 0.0067140000 0.0054320000
0.0109250000 0.0069580000 0.0057980000
0.0122380000 0.0072630000 0.0061040000
0.0136410000 0.0075380000 0.0064700000
0.0151370000 0.0079040000 0.0068970000
0.0177610000 0.0084230000 0.0075380000
0.0238040000 0.0095830000 0.0086980000
0.0299070000 0.0102540000 0.0097660000
0.0374760000 0.0107120000 0.0106200000
0.0484920000 0.0121150000 0.0125430000
0.0587460000 0.0138240000 0.0146180000
0.0726320000 0.0155640000 0.0171510000
0.0897520000 0.0173950000 0.0199580000
0.1077270000 0.0197140000 0.0229190000
0.1247250000 0.0214540000 0.0260930000
0.1444400000 0.0234990000 0.0298770000
0.1650090000 0.0254820000 0.0336000000
0.1863710000 0.0276490000 0.0378420000
0.2096560000 0.0304260000 0.0427250000
0.2325130000 0.0332640000 0.0475160000
0.2557370000 0.0359800000 0.0523070000
0.2783200000 0.0381770000 0.0569150000
0.3022460000 0.0401000000 0.0613400000
0.3282780000 0.0421140000 0.0662230000
0.3547060000 0.0435790000 0.0708620000
0.3842470000 0.0442500000 0.0754700000
0.4132690000 0.0434880000 0.0798030000
0.4397890000 0.0418700000 0.0834350000
0.4639590000 0.0401920000 0.0869140000
0.4862370000 0.0375670000 0.0900570000
0.5067750000 0.0348820000 0.0928650000
0.5285950000 0.0319520000 0.0961000000
0.5510560000 0.0279240000 0.0992740000
0.5743710000 0.0240480000 0.1032100000
0.5973210000 0.0192260000 0.1080020000
0.6123960000 0.0158690000 0.1111450000
0.6255800000 0.0120240000 0.1141970000
0.6402890000 0.0076600000 0.1178590000
0.6550290000 0.0021970000 0.1218570000
0.6678470000 0.0000000000 0.1255190000
0.6779790000 0.0000000000 0.1297300000
0.6861570000 0.0000000000 0.1330570000
0.6926880000 0.0000000000 0.1359560000
0.6983950000 0.0000000000 0.1407470000
0.7034300000 0.0000000000 0.1447450000
0.7079160000 0.0000000000 0.1485600000
0.7112430000 0.0000000000 0.1509700000
0.7144470000 0.0000000000 0.1533810000
0.7153930000 0.0000000000 0.1543270000
0.7155150000 0.0000000000 0.1545720000
0.7155760000 0.0000000000 0.1547550000
0.7156070000 0.0000000000 0.1547850000
0.7156370000 0.0000000000 0.1548160000
0.7167360000 0.0000000000 0.1548160000
0.7174680000 0.0000000000 0.1535030000
0.0068660000 0.0068660000 0.0053100000
0.0072330000 0.0068970000 0.0050660000
0.0075680000 0.0069270000 0.0049130000
0.0077210000 0.0068970000 0.0047910000
0.0079650000 0.0069890000 0.0048830000
0.0081180000 0.0070190000 0.0048830000
0.0086060000 0.0070800000 0.0049740000
0.0090940000 0.0070500000 0.0050050000
0.0097660000 0.0071410000 0.0051880000
0.0105900000 0.0073240000 0.0054320000
0.0114440000 0.0075380000 0.0057370000
0.0126340000 0.0076900000 0.0059510000
0.0140380000 0.0079650000 0.0062870000
0.0159910000 0.0083310000 0.0068050000
0.0186460000 0.0087890000 0.0073850000
0.0252990000 0.0099790000 0.0083920000
0.0313110000 0.0106810000 0.0095830000
0.0391240000 0.0117190000 0.0110470000
0.0493770000 0.0124510000 0.0123290000
0.0600280000 0.0139770000 0.0140690000
0.0737000000 0.0155940000 0.0165100000
0.0904850000 0.0173340000 0.0191350000
0.1082150000 0.0197140000 0.0221860000
0.1238710000 0.0215760000 0.0252080000
0.1441040000 0.0236510000 0.0291440000
0.1657100000 0.0256960000 0.0332340000
0.1868900000 0.0278630000 0.0373840000
0.2099300000 0.0305790000 0.0420840000
0.2328490000 0.0334170000 0.0469060000
0.2560420000 0.0361630000 0.0518190000
0.2786870000 0.0382690000 0.0564580000
0.3029170000 0.0401920000 0.0612490000
0.3286440000 0.0421750000 0.0662230000
0.3546140000 0.0436100000 0.0709230000
0.3840940000 0.0442810000 0.0754700000
0.4130550000 0.0435180000 0.0798340000
0.4393920000 0.0418700000 0.0834350000
0.4634090000 0.0401920000 0.0868840000
0.4863590000 0.0375370000 0.0901180000
0.5074770000 0.0349430000 0.0930180000
0.5288390000 0.0319210000 0.0961910000
0.5509340000 0.0279850000 0.0992430000
0.5741580000 0.0241390000 0.1032100000
0.5970460000 0.0193480000 0.1080020000
0.6124270000 0.0159300000 0.1111760000
0.6256710000 0.0121460000 0.1140140000
0.6401060000 0.0078740000 0.1178280000
0.6546630000 0.0023500000 0.1217040000
0.6677860000 0.0000000000 0.1255190000
0.6780400000 0.0000000000 0.1297300000
0.6861570000 0.0000000000 0.1330870000
0.6926880000 0.0000000000 0.1359860000
0.6983340000 0.0000000000 0.1407170000
0.7033690000 0.0000000000 0.1447140000
0.7079470000 0.0000000000 0.1482850000
0.7112430000 0.0000000000 0.1509700000
0.7144170000 0.0000000000 0.1533510000
0.7153930000 0.0000000000 0.1543270000
0.7155150000 0.0000000000 0.1545720000
0.7155760000 0.0000000000 0.1547240000
0.7160950000 0.0000000000 0.1547550000
0.7161250000 0.0000000000 0.1548160000
0.7174070000 0.0000000000 0.1547850000
0.7174070000 0.0000000000 0.1519780000
0.0069890000 0.0075380000 0.0056760000
0.0073850000 0.0075680000 0.0054630000
0.0077510000 0.0075990000 0.0052800000
0.0081180000 0.0076900000 0.0051570000
0.0084530000 0.0077820000 0.0050350000
0.0089110000 0.0079040000 0.0050050000
0.0093690000 0.0079040000 0.0050350000
0.0098570000 0.0078740000 0.0051270000
0.0104060000 0.0079040000 0.0052490000
0.0112300000 0.0080260000 0.0054930000
0.0120240000 0.0081790000 0.0056760000
0.0131840000 0.0083010000 0.0059200000
0.0144650000 0.0084530000 0.0061650000
0.0164180000 0.0087890000 0.0066830000
0.0198670000 0.0093380000 0.0073850000
0.0268860000 0.0105590000 0.0083010000
0.0327150000 0.0110170000 0.0092470000
0.0414430000 0.0124820000 0.0111690000
0.0509030000 0.0134280000 0.0126340000
0.0616460000 0.0147090000 0.0140990000
0.0747070000 0.0155940000 0.0158690000
0.0913390000 0.0173340000 0.0184330000
0.1091610000 0.0196840000 0.0215150000
0.1244810000 0.0217290000 0.0244450000
0.1431270000 0.0238040000 0.0281980000
0.1654360000 0.0259090000 0.0325010000
0.1877440000 0.0281070000 0.0370480000
0.2106930000 0.0307920000 0.0415650000
0.2331850000 0.0336000000 0.0461730000
0.2563480000 0.0363160000 0.0510560000
0.2789610000 0.0384520000 0.0557860000
0.3032840000 0.0403140000 0.0607600000
0.3293460000 0.0422670000 0.0661320000
0.3549800000 0.0436400000 0.0708310000
0.3840940000 0.0442810000 0.0755000000
0.4129330000 0.0435490000 0.0798650000
0.4391480000 0.0419010000 0.0834350000
0.4629520000 0.0402220000 0.0868230000
0.4859010000 0.0375980000 0.0900880000
0.5077210000 0.0349730000 0.0930790000
0.5295410000 0.0317990000 0.0962830000
0.5511470000 0.0279850000 0.0993650000
0.5740360000 0.0241090000 0.1031490000
0.5968320000 0.0194700000 0.1079710000
0.6123050000 0.0160220000 0.1111450000
0.6257020000 0.0120540000 0.1142580000
0.6401370000 0.0078430000 0.1178280000
0.6544190000 0.0025020000 0.1216740000
0.6674800000 0.0000000000 0.1253660000
0.6780400000 0.0000000000 0.1297300000
0.6861880000 0.0000000000 0.1330870000
0.6926270000 0.0000000000 0.1359250000
0.6982730000 0.0000000000 0.1406860000
0.7033690000 0.0000000000 0.1446840000
0.7079160000 0.0000000000 0.1482540000
0.7113040000 0.0000000000 0.1510010000
0.7144170000 0.0000000000 0.1534120000
0.7154240000 0.0000000000 0.1543580000
0.7155760000 0.0000000000 0.1546330000
0.7155760000 0.0000000000 0.1547240000
0.7160950000 0.0000000000 0.1547850000
0.7166440000 0.0000000000 0.1549680000
0.7174680000 0.0000000000 0.1537480000
0.7173460000 0.0000000000 0.1503910000
0.0071110000 0.0082400000 0.0059510000
0.0074460000 0.0083310000 0.0059200000
0.0077510000 0.0083010000 0.0057680000
0.0081180000 0.0084530000 0.0057070000
0.0084530000 0.0084840000 0.0055850000
0.0090940000 0.0086670000 0.0055240000
0.0104370000 0.0090940000 0.0054630000
0.0108340000 0.0090330000 0.0054630000
0.0113220000 0.0089420000 0.0055540000
0.0119630000 0.0089110000 0.0056460000
0.0127870000 0.0090640000 0.0058590000
0.0138550000 0.0091550000 0.0061040000
0.0151060000 0.0092770000 0.0063170000
0.0170590000 0.0094910000 0.0065610000
0.0204470000 0.0100400000 0.0072940000
0.0275570000 0.0113830000 0.0083620000
0.0336300000 0.0119320000 0.0092770000
0.0423890000 0.0133670000 0.0110780000
0.0522160000 0.0145570000 0.0128170000
0.0642700000 0.0161130000 0.0144960000
0.0765990000 0.0166630000 0.0159300000
0.0909420000 0.0177310000 0.0177920000
0.1084290000 0.0199580000 0.0205990000
0.1231380000 0.0217900000 0.0231320000
0.1418460000 0.0239260000 0.0269470000
0.1649780000 0.0262450000 0.0315550000
0.1873170000 0.0284420000 0.0361940000
0.2100830000 0.0310970000 0.0404360000
0.2332760000 0.0337520000 0.0452580000
0.2568360000 0.0365600000 0.0502930000
0.2792360000 0.0386350000 0.0549320000
0.3033140000 0.0404970000 0.0597840000
0.3296510000 0.0424500000 0.0652470000
0.3557130000 0.0438540000 0.0700680000
0.3846740000 0.0443730000 0.0748600000
0.4135440000 0.0436100000 0.0794680000
0.4391170000 0.0419620000 0.0831600000
0.4622800000 0.0402220000 0.0862730000
0.4857480000 0.0376890000 0.0899050000
0.5078120000 0.0349430000 0.0930790000
0.5299990000 0.0317690000 0.0963440000
0.5518490000 0.0279240000 0.0994570000
0.5737920000 0.0242310000 0.1031490000
0.5960390000 0.0198360000 0.1076660000
0.6123350000 0.0161740000 0.1112060000
0.6259770000 0.0119930000 0.1143490000
0.6398010000 0.0079960000 0.1177980000
0.6538700000 0.0027770000 0.1215820000
0.6673580000 0.0000000000 0.1253360000
0.6781310000 0.0000000000 0.1297610000
0.6861270000 0.0000000000 0.1331180000
0.6926270000 0.0000000000 0.1359560000
0.6983640000 0.0000000000 0.1407780000
0.7034000000 0.0000000000 0.1447450000
0.7081600000 0.0000000000 0.1483150000
0.7115780000 0.0000000000 0.1510310000
0.7147830000 0.0000000000 0.1535950000
0.7158510000 0.0000000000 0.1542970000
0.7162480000 0.0000000000 0.1546020000
0.7163390000 0.0000000000 0.1545100000
0.7170410000 0.0000000000 0.1547240000
0.7174680000 0.0000000000 0.1542660000
0.7174070000 0.0000000000 0.1516110000
0.7172240000 0.0000000000 0.1481020000
0.0071720000 0.0092470000 0.0063170000
0.0074770000 0.0093380000 0.0062560000
0.0077820000 0.0094300000 0.0062260000
0.0081180000 0.0095520000 0.0061650000
0.0083920000 0.0096440000 0.0061650000
0.0092160000 0.0098880000 0.0061040000
0.0105290000 0.0103150000 0.0059810000
0.0119320000 0.0107420000 0.0058590000
0.0130620000 0.0109560000 0.0057680000
0.0136410000 0.0108340000 0.0058590000
0.0142210000 0.0107120000 0.0059200000
0.0152280000 0.0107420000 0.0061650000
0.0163270000 0.0107120000 0.0063780000
0.0181270000 0.0108030000 0.0065610000
0.0214540000 0.0111690000 0.0071720000
0.0284730000 0.0124510000 0.0082400000
0.0349730000 0.0131840000 0.0092770000
0.0436400000 0.0146180000 0.0110170000
0.0539550000 0.0159910000 0.0126650000
0.0659480000 0.0173950000 0.0144960000
0.0794070000 0.0181580000 0.0163270000
0.0929870000 0.0191350000 0.0180970000
0.1083980000 0.0206910000 0.0202030000
0.1222530000 0.0219730000 0.0222170000
0.1402280000 0.0240480000 0.0256650000
0.1636960000 0.0264280000 0.0303340000
0.1866460000 0.0287480000 0.0351260000
0.2094420000 0.0314330000 0.0393370000
0.2333980000 0.0339660000 0.0442200000
0.2571110000 0.0367130000 0.0492250000
0.2795100000 0.0388180000 0.0538640000
0.3034670000 0.0407100000 0.0587460000
0.3298030000 0.0426330000 0.0640560000
0.3560790000 0.0440370000 0.0689390000
0.3850400000 0.0444030000 0.0737610000
0.4140320000 0.0437320000 0.0784910000
0.4395140000 0.0420530000 0.0825500000
0.4621890000 0.0402830000 0.0857850000
0.4851990000 0.0377810000 0.0892940000
0.5076900000 0.0350340000 0.0927120000
0.5303340000 0.0317990000 0.0962520000
0.5523680000 0.0279240000 0.0993040000
0.5743100000 0.0242310000 0.1030880000
0.5957340000 0.0199890000 0.1073910000
0.6120910000 0.0167850000 0.1112060000
0.6260680000 0.0122990000 0.1142880000
0.6401060000 0.0081790000 0.1177060000
0.6536250000 0.0031430000 0.1213990000
0.6669310000 0.0000000000 0.1253050000
0.6781920000 0.0000000000 0.1298830000
0.6864320000 0.0000000000 0.1331180000
0.6928410000 0.0000000000 0.1359860000
0.6985470000 0.0000000000 0.1405640000
0.7035520000 0.0000000000 0.1447140000
0.7084050000 0.0000000000 0.1483760000
0.7120970000 0.0000000000 0.1511230000
0.7153320000 0.0000000000 0.1535030000
0.7165220000 0.0000000000 0.1544190000
0.7168580000 0.0000000000 0.1546940000
0.7171330000 0.0000000000 0.1546020000
0.7174070000 0.0000000000 0.1536250000
0.7173770000 0.0000000000 0.1516110000
0.7172550000 0.0000000000 0.1487120000
0.7170720000 0.0000000000 0.1442870000
0.0072940000 0.0102840000 0.0067750000
0.0075380000 0.0103760000 0.0067140000
0.0078430000 0.0104370000 0.0066530000
0.0080870000 0.0105290000 0.0065920000
0.0084230000 0.0106510000 0.0065920000
0.0091250000 0.0108950000 0.0065000000
0.0104680000 0.0113220000 0.0063780000
0.0118410000 0.0117490000 0.0062560000
0.0134280000 0.0122380000 0.0061040000
0.0154110000 0.0128480000 0.0058900000
0.0158080000 0.0126040000 0.0059200000
0.0167540000 0.0125430000 0.0061040000
0.0178530000 0.0125430000 0.0063170000
0.0195010000 0.0126650000 0.0066220000
0.0226140000 0.0130000000 0.0071720000
0.0297850000 0.0143430000 0.0083310000
0.0373840000 0.0154420000 0.0092770000
0.0458680000 0.0165100000 0.0107420000
0.0566710000 0.0181880000 0.0123600000
0.0678410000 0.0195310000 0.0142520000
0.0814210000 0.0206600000 0.0161440000
0.0954900000 0.0223080000 0.0184940000
0.1105960000 0.0238040000 0.0209050000
0.1246950000 0.0243840000 0.0224610000
0.1407470000 0.0254520000 0.0247190000
0.1611630000 0.0267640000 0.0282590000
0.1846310000 0.0291440000 0.0333860000
0.2086180000 0.0318600000 0.0380250000
0.2338560000 0.0341800000 0.0432130000
0.2588810000 0.0371090000 0.0484920000
0.2801510000 0.0390320000 0.0528260000
0.3021850000 0.0407710000 0.0570370000
0.3297120000 0.0428770000 0.0625920000
0.3577880000 0.0442810000 0.0680540000
0.3858640000 0.0445250000 0.0725710000
0.4140010000 0.0438840000 0.0770570000
0.4393920000 0.0422360000 0.0809630000
0.4620060000 0.0404660000 0.0844420000
0.4849850000 0.0379940000 0.0878910000
0.5074460000 0.0351870000 0.0913700000
0.5309450000 0.0318910000 0.0951230000
0.5538640000 0.0279850000 0.0985110000
0.5746770000 0.0243840000 0.1019900000
0.5953980000 0.0202940000 0.1056210000
0.6118770000 0.0171200000 0.1091610000
0.6262210000 0.0134890000 0.1126710000
0.6407170000 0.0098570000 0.1164860000
0.6546020000 0.0054020000 0.1205140000
0.6678770000 0.0009460000 0.1240840000
0.6793520000 0.0000000000 0.1289670000
0.6879270000 0.0000000000 0.1323850000
0.6945800000 0.0000000000 0.1354680000
0.7001950000 0.0000000000 0.1399540000
0.7052310000 0.0000000000 0.1440120000
0.7099910000 0.0000000000 0.1478270000
0.7134090000 0.0000000000 0.1502690000
0.7162480000 0.0000000000 0.1522220000
0.7171940000 0.0000000000 0.1527400000
0.7172850000 0.0000000000 0.1526180000
0.7172850000 0.0000000000 0.1523130000
0.7172550000 0.0000000000 0.1505130000
0.7172240000 0.0000000000 0.1483460000
0.7170720000 0.0000000000 0.1445310000
0.7168580000 0.0000000000 0.1397710000
0.0073550000 0.0116270000 0.0072630000
0.0075990000 0.0117490000 0.0072020000
0.0078740000 0.0118410000 0.0071410000
0.0081180000 0.0119320000 0.0071110000
0.0083620000 0.0120240000 0.0070190000
0.0092470000 0.0123290000 0.0069580000
0.0103450000 0.0126950000 0.0068360000
0.0116580000 0.0130920000 0.0066830000
0.0132750000 0.0135800000 0.0065000000
0.0152280000 0.0141600000 0.0063170000
0.0172120000 0.0147090000 0.0061340000
0.0187070000 0.0147710000 0.0060730000
0.0197450000 0.0147090000 0.0062560000
0.0212710000 0.0147710000 0.0065610000
0.0241390000 0.0150150000 0.0071110000
0.0309750000 0.0162660000 0.0083310000
0.0401310000 0.0179440000 0.0092470000
0.0482790000 0.0188290000 0.0106510000
0.0594180000 0.0204160000 0.0120240000
0.0703120000 0.0217290000 0.0138850000
0.0835570000 0.0230100000 0.0157780000
0.0981750000 0.0249940000 0.0181580000
0.1126400000 0.0265200000 0.0205690000
0.1271670000 0.0275570000 0.0227660000
0.1439820000 0.0285950000 0.0252690000
0.1632080000 0.0294490000 0.0281680000
0.1830440000 0.0302730000 0.0311580000
0.2064820000 0.0325620000 0.0351870000
0.2324520000 0.0346980000 0.0404970000
0.2592470000 0.0374450000 0.0464170000
0.2818600000 0.0395510000 0.0510250000
0.3028560000 0.0411990000 0.0548400000
0.3287660000 0.0431520000 0.0600280000
0.3579410000 0.0445860000 0.0660100000
0.3871150000 0.0446780000 0.0708620000
0.4146120000 0.0440980000 0.0752870000
0.4393920000 0.0425110000 0.0787050000
0.4619750000 0.0407410000 0.0822450000
0.4847410000 0.0383000000 0.0856320000
0.5071720000 0.0354610000 0.0892030000
0.5306400000 0.0321960000 0.0928040000
0.5544740000 0.0282900000 0.0962520000
0.5759280000 0.0246280000 0.0997010000
0.5957950000 0.0207520000 0.1027830000
0.6115720000 0.0176700000 0.1059880000
0.6259460000 0.0140690000 0.1097720000
0.6405940000 0.0103760000 0.1136780000
0.6546330000 0.0059200000 0.1174010000
0.6679080000 0.0015260000 0.1212460000
0.6791690000 0.0000000000 0.1259770000
0.6877440000 0.0000000000 0.1296390000
0.6945800000 0.0000000000 0.1325380000
0.7001950000 0.0000000000 0.1370240000
0.7051390000 0.0000000000 0.1407470000
0.7099000000 0.0000000000 0.1445920000
0.7134700000 0.0000000000 0.1474300000
0.7162480000 0.0000000000 0.1492920000
0.7171020000 0.0000000000 0.1499630000
0.7171630000 0.0000000000 0.1495060000
0.7171330000 0.0000000000 0.1491700000
0.7171330000 0.0000000000 0.1473390000
0.7170100000 0.0000000000 0.1435850000
0.7167970000 0.0000000000 0.1390990000
0.7166440000 0.0000000000 0.1349490000
0.0072940000 0.0130920000 0.0076600000
0.0075070000 0.0131840000 0.0075990000
0.0077510000 0.0132750000 0.0075380000
0.0080260000 0.0133360000 0.0074770000
0.0082700000 0.0134580000 0.0074160000
0.0091860000 0.0137630000 0.0073240000
0.0102540000 0.0141300000 0.0072330000
0.0114440000 0.0146180000 0.0071110000
0.0130620000 0.0151060000 0.0068660000
0.0150150000 0.0158080000 0.0067140000
0.0169980000 0.0163880000 0.0065000000
0.0201720000 0.0174260000 0.0062260000
0.0226750000 0.0179750000 0.0060730000
0.0243230000 0.0180970000 0.0063480000
0.0271610000 0.0183110000 0.0068660000
0.0340270000 0.0195310000 0.0079650000
0.0447080000 0.0217900000 0.0088200000
0.0525210000 0.0227360000 0.0103150000
0.0647580000 0.0248410000 0.0115970000
0.0746150000 0.0259700000 0.0132450000
0.0884090000 0.0275570000 0.0150760000
0.1031490000 0.0290530000 0.0171510000
0.1168520000 0.0302120000 0.0197450000
0.1306460000 0.0311280000 0.0221560000
0.1474000000 0.0323490000 0.0250240000
0.1665040000 0.0336300000 0.0287480000
0.1864010000 0.0339660000 0.0317690000
0.2095030000 0.0346680000 0.0347600000
0.2320560000 0.0355530000 0.0379330000
0.2580870000 0.0376890000 0.0431820000
0.2813420000 0.0398560000 0.0479430000
0.3036500000 0.0416260000 0.0520940000
0.3296200000 0.0435790000 0.0571290000
0.3589170000 0.0450740000 0.0629580000
0.3873600000 0.0449220000 0.0675660000
0.4146730000 0.0444950000 0.0715940000
