LUTs/SPK Cube Block1 S64/TheBrim_SPK_Type-D_Block1_S64.cube
TITLE "TheBrim® SPK Block 1"
# TheBrim® d.o.o. Croatia
# Copyright: (C) Copyright 2020 TheBrim® d.o.o. Croatia
LUT_3D_SIZE 8
0.0066220000 0.0100400000 0.0125730000
0.0405270000 0.0169680000 0.0081180000
0.0956120000 0.0256350000 0.0000000000
0.2366940000 0.0422970000 0.0000000000
0.4166560000 0.0839540000 0.0000000000
0.5253300000 0.1070860000 0.0000000000
0.5694270000 0.1170040000 0.0035400000
0.5883480000 0.1204830000 0.0037230000
0.0000000000 0.0322880000 0.0192570000
0.0417790000 0.0372310000 0.0079650000
0.1120610000 0.0448000000 0.0000000000
0.2896730000 0.0748600000 0.0000000000
0.4859620000 0.1241760000 0.0000000000
0.5890810000 0.1519470000 0.0085750000
0.6273500000 0.1600040000 0.0000000000
0.6549070000 0.1765440000 0.0072940000
0.0000000000 0.0661620000 0.0160220000
0.0181270000 0.0717470000 0.0000000000
0.1258240000 0.0913390000 0.0000000000
0.3506470000 0.1418150000 0.0000000000
0.5586850000 0.2023620000 0.0002140000
0.6666870000 0.2337040000 0.0050960000
0.7073060000 0.2579650000 0.0188290000
0.7249450000 0.2735290000 0.0156560000
0.0000000000 0.1550600000 0.0479740000
0.0000000000 0.1671140000 0.0083920000
0.1447140000 0.2088930000 0.0000000000
0.4182740000 0.2830510000 0.0000000000
0.6450810000 0.3565060000 0.0120540000
0.7569270000 0.3996280000 0.0000000000
0.7954410000 0.4293520000 0.0129090000
0.8169860000 0.4550480000 0.0063170000
0.0000000000 0.3474120000 0.1572570000
0.0000000000 0.3659360000 0.1098940000
0.1606750000 0.4185790000 0.0000000000
0.5156860000 0.5354310000 0.0000000000
0.7481990000 0.5879820000 0.0075070000
0.8559570000 0.6196290000 0.0141910000
0.8925170000 0.6462400000 0.0000000000
0.9059750000 0.6613770000 0.0285950000
0.0064090000 0.4484860000 0.1946410000
0.0000000000 0.4845580000 0.1537780000
0.1939700000 0.5564580000 0.0000000000
0.5695800000 0.6870420000 0.0087280000
0.8129880000 0.7464900000 0.0059810000
0.9096680000 0.7536010000 0.0165410000
0.9410100000 0.7634890000 0.0208440000
0.9486690000 0.7669370000 0.0099490000
0.0000000000 0.4871220000 0.2034000000
0.0000000000 0.5281680000 0.1317750000
0.2203670000 0.5987850000 0.0000000000
0.5725400000 0.7178650000 0.0009460000
0.8147890000 0.7867740000 0.0010990000
0.9237370000 0.7970280000 0.0036930000
0.9561160000 0.8007510000 0.0061950000
0.9656070000 0.8029480000 0.0191650000
0.0000000000 0.5433650000 0.2090450000
0.0000000000 0.5720520000 0.0000000000
0.2822570000 0.6391300000 0.0000000000
0.5779420000 0.7324520000 0.0000000000
0.8062130000 0.7969360000 0.0003660000
0.9197390000 0.8081970000 0.0193790000
0.9653320000 0.8139340000 0.0113830000
0.9773250000 0.8161320000 0.0066530000
0.0000000000 0.0153500000 0.0414430000
0.0384830000 0.0164490000 0.0393980000
0.0981140000 0.0178830000 0.0119020000
0.2337340000 0.0007320000 0.0000000000
0.4237370000 0.0473020000 0.0000000000
0.5395810000 0.0745540000 0.0101010000
0.5854800000 0.0791020000 0.0000000000
0.6034850000 0.0892640000 0.0101620000
0.0000000000 0.0352480000 0.0467830000
0.0371090000 0.0380550000 0.0396730000
0.1142880000 0.0416870000 0.0043640000
0.2996220000 0.0599060000 0.0000000000
0.4987790000 0.1008300000 0.0000000000
0.6056210000 0.1372070000 0.0109860000
0.6363220000 0.1358640000 0.0000000000
0.6601870000 0.1477970000 0.0222780000
0.0000000000 0.0737920000 0.0488280000
0.0119020000 0.0764160000 0.0291750000
0.1238400000 0.0925900000 0.0025940000
0.3509830000 0.1411440000 0.0000000000
0.5812070000 0.1979680000 0.0000000000
0.6853940000 0.2370000000 0.0103450000
0.7163390000 0.2432560000 0.0058290000
0.7403870000 0.2608030000 0.0002140000
0.0000000000 0.1752320000 0.0842590000
0.0000000000 0.1988220000 0.0505980000
0.1405640000 0.2305300000 0.0000000000
0.4324040000 0.3109740000 0.0000000000
0.6722720000 0.3947140000 0.0078430000
0.7759700000 0.4231870000 0.0144960000
0.8102110000 0.4332580000 0.0034480000
0.8294370000 0.4512630000 0.0047910000
0.0151370000 0.3729860000 0.1880190000
0.0014040000 0.4185790000 0.1580810000
0.1190800000 0.4517820000 0.0000000000
0.5222170000 0.5722960000 0.0000000000
0.7724300000 0.6308290000 0.0095830000
0.8736570000 0.6487730000 0.0000000000
0.9045100000 0.6539920000 0.0020140000
0.9196170000 0.6682130000 0.0218510000
0.0134890000 0.4694520000 0.2292180000
0.0039370000 0.5113220000 0.1987920000
0.0778810000 0.5576480000 0.0009460000
0.5498050000 0.6919860000 0.0004880000
0.8086240000 0.7595830000 0.0007630000
0.9188230000 0.7691350000 0.0168760000
0.9510190000 0.7715150000 0.0042110000
0.9621890000 0.7774350000 0.0097050000
0.0018620000 0.5087280000 0.2582700000
0.0268550000 0.5467830000 0.2254640000
0.0614010000 0.5862430000 0.0367130000
0.4903260000 0.7021180000 0.0000000000
0.7871090000 0.7890010000 0.0063780000
0.9231570000 0.8044740000 0.0034180000
0.9678040000 0.8104250000 0.0081790000
0.9803770000 0.8133240000 0.0159610000
0.0308230000 0.5745540000 0.3287350000
0.0446470000 0.6205140000 0.2939450000
0.0541990000 0.6425170000 0.1358950000
0.4657900000 0.7261960000 0.0388180000
0.7567440000 0.7976680000 0.0364070000
0.9365230000 0.8307190000 0.0178220000
1.0000000000 0.8422850000 0.0303040000
1.0000000000 0.8446960000 0.0598450000
0.0000000000 0.0314640000 0.0931400000
0.0066530000 0.0075990000 0.0898440000
0.0889890000 0.0000000000 0.0870060000
0.2266540000 0.0000000000 0.0603330000
0.4244080000 0.0000000000 0.0585630000
0.5468440000 0.0000000000 0.0609440000
0.5956730000 0.0000000000 0.0782780000
0.6140140000 0.0000000000 0.0804440000
0.0000000000 0.0493160000 0.1069030000
0.0102230000 0.0373230000 0.0947880000
0.1041560000 0.0383910000 0.0883180000
0.2858280000 0.0202330000 0.0745240000
0.4986880000 0.0000000000 0.0557860000
0.6217960000 0.0000000000 0.0406800000
0.6586610000 0.0000000000 0.0358890000
0.6821590000 0.0000000000 0.0435490000
0.0000000000 0.0996090000 0.1342470000
0.0000000000 0.0861210000 0.1034240000
0.1217040000 0.1108400000 0.0965580000
0.3645020000 0.1561580000 0.0983280000
0.5810240000 0.1654360000 0.0539250000
0.6978150000 0.1520690000 0.0419310000
0.7468260000 0.1528930000 0.0468750000
0.7821960000 0.1932980000 0.1022030000
0.0000000000 0.2178650000 0.1797790000
0.0000000000 0.2346500000 0.1583860000
0.0850520000 0.2780150000 0.1206670000
0.4271240000 0.3417050000 0.0850220000
0.6802060000 0.3851320000 0.0428160000
0.8060610000 0.3951110000 0.0346680000
0.8538510000 0.4009090000 0.0378110000
0.8847350000 0.4306030000 0.0928340000
0.0019530000 0.4083860000 0.2747190000
0.0264280000 0.4646300000 0.2726750000
0.0000000000 0.4824220000 0.1318050000
0.4631650000 0.5777590000 0.0402220000
0.7663570000 0.6374210000 0.0045470000
0.9002080000 0.6571960000 0.0000000000
0.9493410000 0.6641540000 0.0000000000
0.9768370000 0.6856990000 0.0166930000
0.0137940000 0.5028380000 0.3180240000
0.0317080000 0.5564270000 0.3210750000
0.0000000000 0.5854490000 0.2203980000
0.4023740000 0.6747130000 0.0544740000
0.7729800000 0.7635800000 0.0411680000
0.9390260000 0.7898860000 0.0057980000
0.9865720000 0.7989200000 0.0303340000
0.9956360000 0.8099980000 0.1181950000
0.0043950000 0.5557250000 0.3901980000
0.0059200000 0.5916440000 0.3726500000
0.0122680000 0.6313480000 0.3260500000
0.3457950000 0.7065120000 0.1782230000
0.7258300000 0.7947080000 0.1092830000
0.9471130000 0.8379210000 0.0923460000
1.0000000000 0.8491210000 0.1074520000
1.0000000000 0.8521420000 0.2222900000
0.0000310000 0.6309200000 0.4886170000
0.0316470000 0.6669310000 0.4707340000
0.0000000000 0.6979980000 0.4317630000
0.3950810000 0.7674560000 0.3956600000
0.7195130000 0.8358460000 0.3869630000
0.9223630000 0.8729250000 0.3672180000
0.9994810000 0.8860470000 0.3592220000
1.0000000000 0.8863530000 0.4000550000
0.0000000000 0.0852970000 0.1985170000
0.0000000000 0.0471800000 0.1845090000
0.0815120000 0.0000000000 0.1821290000
0.2450560000 0.0000000000 0.1988220000
0.4391170000 0.0000000000 0.2133180000
0.5644530000 0.0000000000 0.2253720000
0.6098020000 0.0000000000 0.2413640000
0.6313480000 0.0000000000 0.2602230000
0.0000000000 0.1152650000 0.2301030000
0.0000000000 0.0941160000 0.2272340000
0.0971680000 0.0230410000 0.2195740000
0.2943420000 0.0067140000 0.2371830000
0.5070800000 0.0000000000 0.2516170000
0.6293330000 0.0000000000 0.2590640000
0.6723940000 0.0000000000 0.2613220000
0.6954040000 0.0000000000 0.2873230000
0.0000000000 0.1853940000 0.2929690000
0.0000000000 0.1717220000 0.2850340000
0.0972600000 0.1399540000 0.2676700000
0.3565370000 0.1702580000 0.2913820000
0.5870360000 0.1844180000 0.2960820000
0.7040710000 0.1699830000 0.2957760000
0.7529600000 0.1679690000 0.3108220000
0.7828670000 0.2030640000 0.3525390000
0.0016170000 0.3072810000 0.3709720000
0.0000000000 0.3250730000 0.3694460000
0.0115660000 0.3187870000 0.3275760000
0.3976140000 0.3902280000 0.3417660000
0.6431880000 0.4163210000 0.3396300000
0.7961430000 0.4267580000 0.3392640000
0.8584290000 0.4302980000 0.3771360000
0.8894040000 0.4766240000 0.4440310000
0.0000000000 0.4779660000 0.4476930000
0.0000000000 0.5332030000 0.4653020000
0.0000000000 0.5609740000 0.4166560000
0.3393250000 0.6112980000 0.3797000000
0.7060850000 0.6727290000 0.3656010000
0.8871460000 0.6907350000 0.3638310000
0.9556270000 0.7081600000 0.4120790000
0.9763490000 0.7346500000 0.4718930000
0.0049740000 0.5717770000 0.4998470000
0.0028990000 0.6199040000 0.5162660000
0.0068050000 0.6572880000 0.4856260000
0.2046810000 0.7099910000 0.4146120000
0.6989440000 0.7996520000 0.4082030000
0.9216920000 0.8364560000 0.3898320000
0.9970700000 0.8541260000 0.4331360000
1.0000000000 0.8698730000 0.5005190000
0.0000000000 0.6164860000 0.5600280000
0.0037230000 0.6553650000 0.5615230000
0.0000000000 0.6954350000 0.5542300000
0.1747130000 0.7588500000 0.5142820000
0.6857910000 0.8491210000 0.5191960000
0.9192200000 0.8896480000 0.5039670000
0.9998170000 0.9056700000 0.5228880000
1.0000000000 0.9107360000 0.5585020000
0.0000000000 0.6787720000 0.6334530000
0.0000000000 0.7169800000 0.6347050000
0.0000000000 0.7479860000 0.6296690000
0.2953190000 0.8108830000 0.6359560000
0.6927190000 0.8813170000 0.6423030000
0.9046020000 0.9184880000 0.6405940000
0.9920650000 0.9306640000 0.6368710000
1.0000000000 0.9360350000 0.6489870000
0.0047910000 0.1574400000 0.3201290000
0.0009770000 0.1419370000 0.3269040000
0.0869750000 0.0000000000 0.3124390000
0.2687070000 0.0000000000 0.3493350000
0.4587100000 0.0000000000 0.3706670000
0.5816350000 0.0000000000 0.3881530000
0.6278080000 0.0000000000 0.4019470000
0.6485900000 0.0000000000 0.4159550000
0.0000000000 0.2001040000 0.3787230000
0.0000000000 0.1945500000 0.3959960000
0.0947880000 0.0032350000 0.3850100000
0.3103640000 0.0025020000 0.4170530000
0.5276180000 0.0000000000 0.4349370000
0.6453860000 0.0000000000 0.4490660000
0.6856080000 0.0000000000 0.4507450000
0.7090760000 0.0000000000 0.4707340000
0.0000000000 0.2620240000 0.4392090000
0.0000000000 0.2738950000 0.4660640000
0.0022890000 0.1714780000 0.4555360000
0.3473510000 0.1987300000 0.4961550000
0.5873110000 0.1980590000 0.5100710000
0.7117610000 0.1875610000 0.5112000000
0.7626040000 0.1832280000 0.5214840000
0.7919920000 0.2180480000 0.5618290000
0.0263980000 0.3823850000 0.5224610000
0.0105290000 0.4170840000 0.5550540000
0.0000000000 0.4218440000 0.5625920000
0.3157040000 0.4156800000 0.5682980000
0.6330570000 0.4496770000 0.5817260000
0.7923890000 0.4594120000 0.5871890000
0.8610230000 0.4653930000 0.6233830000
0.8879700000 0.4970700000 0.6664120000
0.0065000000 0.5285950000 0.6027530000
0.0057680000 0.5883790000 0.6391600000
0.0000000000 0.6358950000 0.6534730000
0.2548830000 0.6539920000 0.6196590000
0.6553650000 0.7122500000 0.6372070000
0.8696590000 0.7479550000 0.6724850000
0.9436950000 0.7516170000 0.7018740000
0.9610600000 0.7486570000 0.7190550000
0.0024410000 0.6261600000 0.6579590000
0.0000000000 0.6755680000 0.6854250000
0.0000000000 0.7181400000 0.6925960000
0.1593930000 0.7636410000 0.6621090000
0.6581730000 0.8510130000 0.7042850000
0.8910220000 0.8881530000 0.7123720000
0.9794310000 0.9028930000 0.7347720000
0.9982910000 0.9044490000 0.7518920000
0.0000000000 0.6584780000 0.6921080000
0.0000000000 0.7042850000 0.7167360000
0.0000000000 0.7485960000 0.7328190000
0.1552430000 0.8089900000 0.7379760000
0.6487730000 0.8946230000 0.7740480000
0.8919680000 0.9354250000 0.7754820000
0.9850770000 0.9493410000 0.7804260000
1.0000000000 0.9526370000 0.7857060000
0.0000000000 0.7092900000 0.7448430000
0.0000000000 0.7532040000 0.7669680000
0.0000000000 0.7897340000 0.7831120000
0.1788640000 0.8433840000 0.8022460000
0.6613160000 0.9123230000 0.8217160000
0.8867190000 0.9507450000 0.8269960000
0.9800110000 0.9644470000 0.8251040000
1.0000000000 0.9686890000 0.8306580000
0.0022280000 0.1998290000 0.4089970000
0.0000000000 0.1939090000 0.4271550000
0.1000370000 0.0000000000 0.4261470000
0.2813420000 0.0000000000 0.4668270000
0.4779050000 0.0000000000 0.4949950000
0.5999150000 0.0000000000 0.5074160000
0.6456600000 0.0000000000 0.5220340000
0.6651000000 0.0000000000 0.5346680000
0.0000000000 0.2549440000 0.4812930000
0.0000000000 0.2604370000 0.5094600000
0.0757750000 0.0065610000 0.5101320000
0.3044130000 0.0000000000 0.5530400000
0.5289610000 0.0000000000 0.5766600000
0.6549680000 0.0000000000 0.5820920000
0.6970210000 0.0000000000 0.5899350000
0.7211910000 0.0000000000 0.6095890000
0.0000000000 0.3177800000 0.5405270000
0.0000000000 0.3299870000 0.5715330000
0.0000000000 0.2440490000 0.5888060000
0.2926330000 0.1991880000 0.6343080000
0.5657650000 0.2037050000 0.6623840000
0.7167660000 0.1884460000 0.6701350000
0.7705080000 0.1838070000 0.6784360000
0.7997740000 0.2243040000 0.7080990000
0.0000000000 0.4366760000 0.6270750000
0.0145260000 0.4620060000 0.6569520000
0.0000000000 0.4617000000 0.6788330000
0.1810610000 0.4297180000 0.7236940000
0.5955510000 0.4657900000 0.7549130000
0.7923280000 0.4736630000 0.7670900000
0.8609620000 0.4769900000 0.7825620000
0.8906560000 0.5195010000 0.8121640000
0.0000000000 0.5618900000 0.6882930000
0.0195620000 0.6126710000 0.7304380000
0.0037840000 0.6458130000 0.7569890000
0.1262210000 0.6755980000 0.7881770000
0.6178890000 0.7399900000 0.8323970000
0.8545230000 0.7601010000 0.8446350000
0.9355470000 0.7686770000 0.8635250000
0.9562070000 0.7705080000 0.8719480000
0.0176390000 0.6474910000 0.7422790000
0.0000000000 0.6915280000 0.7719730000
0.0336910000 0.7406310000 0.8009640000
0.0965880000 0.7979130000 0.8284610000
0.6235350000 0.8788150000 0.8717350000
0.8771970000 0.9160160000 0.8913570000
0.9658510000 0.9186100000 0.8974610000
0.9891970000 0.9154050000 0.8978580000
0.0344850000 0.6766660000 0.7679140000
0.0251460000 0.7184750000 0.7946780000
0.0050960000 0.7617190000 0.8226620000
0.0979310000 0.8334660000 0.8673710000
0.6170650000 0.9162600000 0.9049380000
0.8760680000 0.9569400000 0.9143370000
0.9742430000 0.9714050000 0.9221500000
0.9991460000 0.9729310000 0.9188540000
0.0000000000 0.7180790000 0.8022460000
0.0410460000 0.7628170000 0.8310550000
0.0023190000 0.8015440000 0.8601380000
0.1556400000 0.8613590000 0.9002690000
0.6332700000 0.9289250000 0.9257510000
0.8726500000 0.9674680000 0.9309080000
0.9720460000 0.9829410000 0.9354860000
0.9989010000 0.9878850000 0.9386600000
0.0000000000 0.2260440000 0.4584050000
0.0010070000 0.2234500000 0.4785460000
0.0873720000 0.0058900000 0.4899900000
0.2773130000 0.0000000000 0.5376890000
0.4831240000 0.0000000000 0.5690310000
0.6111760000 0.0000000000 0.5821840000
0.6586910000 0.0000000000 0.5904850000
0.6785890000 0.0000000000 0.6026000000
0.0000000000 0.2823490000 0.5305790000
0.0000000000 0.2856750000 0.5526430000
0.0441890000 0.0985410000 0.5700680000
0.2702330000 0.0000000000 0.6185910000
0.5048220000 0.0000000000 0.6520690000
0.6551510000 0.0000000000 0.6646120000
0.7092900000 0.0000000000 0.6723020000
0.7348020000 0.0000000000 0.6892400000
0.0000000000 0.3482360000 0.5908810000
0.0000000000 0.3496090000 0.6108090000
0.0083310000 0.3258970000 0.6362920000
0.2438660000 0.2025150000 0.7050480000
0.5338440000 0.2074890000 0.7406920000
0.7092900000 0.1922610000 0.7535400000
0.7746280000 0.1840820000 0.7594910000
0.8041690000 0.2278440000 0.7793270000
0.0000000000 0.4654240000 0.6759030000
0.0000000000 0.4742740000 0.6963810000
0.0000000000 0.4754940000 0.7161870000
0.1537480000 0.4325260000 0.8012700000
0.5780640000 0.4703980000 0.8397520000
0.7829590000 0.4786990000 0.8522340000
0.8595580000 0.4809570000 0.8592220000
0.8888240000 0.5177610000 0.8757630000
0.0068970000 0.5798950000 0.7293700000
0.0207210000 0.6158450000 0.7641600000
0.0145260000 0.6469730000 0.7966610000
0.1104740000 0.6901250000 0.8642880000
0.6055300000 0.7481380000 0.9159550000
0.8501280000 0.7738340000 0.9313660000
0.9338380000 0.7805790000 0.9347230000
0.9541930000 0.7770390000 0.9378050000
0.0000000000 0.6579900000 0.7807010000
0.0230410000 0.6928410000 0.8065190000
0.0142520000 0.7378230000 0.8404540000
0.0217900000 0.8060300000 0.8986510000
0.6076970000 0.8883060000 0.9473880000
0.8625790000 0.9166870000 0.9584960000
0.9628600000 0.9263000000 0.9645690000
0.9853820000 0.9238590000 0.9634700000
0.0000000000 0.6838380000 0.7964170000
0.0069270000 0.7237240000 0.8255310000
0.0112920000 0.7680970000 0.8570560000
0.0595090000 0.8399960000 0.9139400000
0.6018070000 0.9247130000 0.9574890000
0.8736570000 0.9666440000 0.9723510000
0.9691770000 0.9776000000 0.9751280000
0.9961240000 0.9797970000 0.9752810000
0.0112610000 0.7239990000 0.8269040000
0.0032960000 0.7674260000 0.8575130000
0.0253300000 0.8052980000 0.8869320000
0.1549680000 0.8681640000 0.9367980000
0.6128540000 0.9340210000 0.9634700000
0.8689880000 0.9757080000 0.9765320000
0.9688720000 0.9904790000 0.9808960000
0.9974980000 0.9951480000 0.9821780000
0.0000000000 0.2549440000 0.5023500000
0.0000000000 0.2491760000 0.5093690000
0.0604860000 0.0669560000 0.5365600000
0.2560730000 0.0000000000 0.5799870000
0.4737850000 0.0000000000 0.6158750000
0.6194760000 0.0000000000 0.6316830000
0.6771850000 0.0000000000 0.6420900000
0.7016910000 0.0000000000 0.6580510000
0.0000000000 0.3061830000 0.5581360000
0.0000000000 0.3045040000 0.5747380000
0.0027160000 0.2085880000 0.5971980000
0.2325130000 0.0180970000 0.6543270000
0.4835820000 0.0086670000 0.6947940000
0.6502080000 0.0000000000 0.7067570000
0.7221980000 0.0007630000 0.7188720000
0.7492680000 0.0058290000 0.7322080000
0.0000000000 0.3616330000 0.6083980000
0.0000000000 0.3675540000 0.6275020000
0.0000000000 0.3465880000 0.6628720000
0.2304990000 0.2312320000 0.7401120000
0.5318300000 0.2458800000 0.7800600000
0.7161250000 0.2339780000 0.7961730000
0.7877500000 0.2346800000 0.8041690000
0.8159480000 0.2648010000 0.8162230000
0.0000000000 0.4674380000 0.6857600000
0.0000000000 0.4832150000 0.7098080000
0.0000000000 0.4860840000 0.7337950000
0.1353760000 0.4545900000 0.8292850000
0.5777890000 0.4974980000 0.8717350000
0.7874150000 0.5034180000 0.8864140000
0.8652040000 0.5112610000 0.8923650000
0.8919680000 0.5322880000 0.8995970000
0.0074160000 0.5810850000 0.7392580000
0.0124820000 0.6052250000 0.7610780000
0.0000000000 0.6500240000 0.8097530000
0.0534970000 0.6914670000 0.8828740000
0.5932620000 0.7308960000 0.9331970000
0.8363950000 0.7530520000 0.9477540000
0.9254150000 0.7586980000 0.9529110000
0.9522400000 0.7757570000 0.9572450000
0.0014950000 0.6449890000 0.7758480000
0.0215760000 0.6910100000 0.8146360000
0.0085750000 0.7386780000 0.8520810000
0.0051270000 0.8060610000 0.9150090000
0.5872190000 0.8771670000 0.9625550000
0.8570860000 0.9057010000 0.9771730000
0.9570620000 0.9153140000 0.9818420000
0.9829410000 0.9234620000 0.9843140000
0.0000000000 0.6787410000 0.8007810000
0.0254210000 0.7224730000 0.8327640000
0.0247500000 0.7694700000 0.8679810000
0.0417790000 0.8406370000 0.9279790000
0.5908200000 0.9239200000 0.9723510000
0.8620300000 0.9644470000 0.9875180000
0.9673770000 0.9764100000 0.9925540000
0.9942020000 0.9813540000 0.9941410000
0.0063780000 0.7248540000 0.8344730000
0.0110170000 0.7670900000 0.8647160000
0.0000000000 0.8039250000 0.8938600000
0.1435240000 0.8680730000 0.9465940000
0.6121520000 0.9355770000 0.9763180000
0.8519900000 0.9753420000 0.9906620000
0.9682920000 0.9927060000 0.9963380000
0.9974370000 0.9978330000 0.9984130000
