LUTs/SPK Cube Block1 S64/TheBrim_SPK_Type-R_Block1_S64.cube
TITLE "TheBrim® SPK Block 1"
# © Copyright 2021 - TheBrim® d.o.o. Croatia
LUT_3D_SIZE 64
DOMAIN_MIN 0.000000 0.000000 0.000000
DOMAIN_MAX 1.000000 1.000000 1.000000
0.001068 0.004303 0.006806
0.000793 0.005035 0.008606
0.001495 0.005432 0.009613
0.002014 0.005707 0.010346
0.003326 0.006165 0.011353
0.004486 0.006531 0.011933
0.006012 0.006989 0.012665
0.007630 0.007446 0.013031
0.008972 0.007935 0.013581
0.010101 0.008392 0.014466
0.012146 0.009003 0.015442
0.013703 0.009400 0.016083
0.015167 0.009796 0.016724
0.016602 0.010193 0.017487
0.018250 0.010590 0.018280
0.020935 0.011048 0.019135
0.026764 0.011994 0.020569
0.034638 0.013062 0.021942
0.052461 0.015015 0.023865
0.074769 0.016632 0.025544
0.108186 0.018463 0.027588
0.140291 0.020478 0.029114
0.186404 0.021332 0.027588
0.251774 0.012787 0.021027
0.317174 0.000000 0.010132
0.355810 0.000000 0.006775
0.380652 0.000000 0.007355
0.407904 0.000000 0.004608
0.434974 0.000000 0.000336
0.458991 0.000000 0.000885
0.481605 0.000000 0.005615
0.501610 0.000000 0.007202
0.518975 0.000000 0.010132
0.533928 0.000000 0.011841
0.548943 0.000000 0.013214
0.564782 0.000000 0.014313
0.578393 0.000000 0.016724
0.592584 0.000000 0.017884
0.603418 0.000000 0.019471
0.611658 0.000000 0.020600
0.620478 0.000000 0.022248
0.622736 0.000000 0.026673
0.626001 0.000000 0.027619
0.629541 0.000000 0.027466
0.634150 0.000000 0.029603
0.637385 0.000000 0.031525
0.640436 0.000000 0.032746
0.644251 0.000000 0.032441
0.646021 0.000000 0.033204
0.645686 0.000000 0.034241
0.645502 0.000000 0.035645
0.646754 0.000000 0.037049
0.648646 0.000000 0.038056
0.650690 0.000000 0.038605
0.652979 0.000000 0.038972
0.655421 0.000000 0.039429
0.657771 0.000000 0.041535
0.659907 0.000000 0.047059
0.661128 0.000000 0.049348
0.663783 0.000000 0.051270
0.664057 0.000000 0.051453
0.664179 0.000000 0.051606
0.664179 0.000000 0.051606
0.664179 0.000000 0.051606
0.000763 0.005005 0.008911
0.000977 0.005158 0.009155
0.001648 0.005524 0.010193
0.002014 0.005737 0.010590
0.003326 0.006165 0.011566
0.004578 0.006531 0.011749
0.006165 0.006989 0.012451
0.007813 0.007477 0.012787
0.009186 0.007965 0.013367
0.010651 0.008484 0.014191
0.012787 0.009094 0.015045
0.014679 0.009522 0.015625
0.016114 0.009918 0.016297
0.017548 0.010315 0.017029
0.019287 0.010681 0.017853
0.023499 0.011414 0.019043
0.029328 0.012360 0.020447
0.038087 0.013367 0.021515
0.056733 0.015473 0.023468
0.079591 0.016938 0.025422
0.113619 0.018769 0.027222
0.145724 0.020630 0.028229
0.192142 0.020813 0.026093
0.254643 0.012268 0.019928
0.320928 0.000000 0.009339
0.356878 0.000000 0.006378
0.381140 0.000000 0.007111
0.408209 0.000000 0.004639
0.435279 0.000000 0.000366
0.459449 0.000000 0.000946
0.482063 0.000000 0.005737
0.502037 0.000000 0.007263
0.519127 0.000000 0.010163
0.533837 0.000000 0.011902
0.548913 0.000000 0.013397
0.564660 0.000000 0.014252
0.578210 0.000000 0.016724
0.592370 0.000000 0.017945
0.603540 0.000000 0.019562
0.611933 0.000000 0.020600
0.620447 0.000000 0.022309
0.622705 0.000000 0.026612
0.626032 0.000000 0.027802
0.629572 0.000000 0.027527
0.634119 0.000000 0.029572
0.637324 0.000000 0.031495
0.640375 0.000000 0.032715
0.644251 0.000000 0.032502
0.646052 0.000000 0.033204
0.645686 0.000000 0.034241
0.645533 0.000000 0.035584
0.646754 0.000000 0.037049
0.648615 0.000000 0.037995
0.650629 0.000000 0.038544
0.652979 0.000000 0.038972
0.655421 0.000000 0.039368
0.657710 0.000000 0.041474
0.659907 0.000000 0.047059
0.661067 0.000000 0.049256
0.663752 0.000000 0.051270
0.664057 0.000000 0.051453
0.664179 0.000000 0.051606
0.664179 0.000000 0.051606
0.664179 0.000000 0.051606
0.001099 0.005402 0.010620
0.001312 0.005554 0.010895
0.001526 0.005676 0.011017
0.002289 0.005890 0.011383
0.003326 0.006195 0.011780
0.004578 0.006561 0.011933
0.006317 0.006989 0.012268
0.007935 0.007477 0.012604
0.009369 0.007965 0.013153
0.011017 0.008515 0.014008
0.013245 0.009125 0.014649
0.015198 0.009583 0.015259
0.017060 0.010040 0.015869
0.018494 0.010437 0.016632
0.020233 0.010834 0.017365
0.025391 0.011658 0.018860
0.031495 0.012634 0.020111
0.043854 0.013947 0.021271
0.061341 0.015869 0.022827
0.086671 0.017426 0.025025
0.118044 0.019135 0.026978
0.150820 0.020783 0.027436
0.199832 0.019959 0.024353
0.260685 0.011170 0.017304
0.324254 0.000000 0.008484
0.357763 0.000000 0.006073
0.381781 0.000000 0.006714
0.408789 0.000000 0.004150
0.435554 0.000000 0.000397
0.459693 0.000000 0.001007
0.482490 0.000000 0.005798
0.502403 0.000000 0.007355
0.519402 0.000000 0.010193
0.534020 0.000000 0.012024
0.548882 0.000000 0.013458
0.564630 0.000000 0.014313
0.578119 0.000000 0.016754
0.592218 0.000000 0.017914
0.603418 0.000000 0.019501
0.612024 0.000000 0.020600
0.620630 0.000000 0.022400
0.622675 0.000000 0.026673
0.625940 0.000000 0.027893
0.629541 0.000000 0.027558
0.634150 0.000000 0.029633
0.637293 0.000000 0.031556
0.640314 0.000000 0.032715
0.644190 0.000000 0.032441
0.646082 0.000000 0.033173
0.645686 0.000000 0.034241
0.645533 0.000000 0.035584
0.646815 0.000000 0.037110
0.648646 0.000000 0.038056
0.650568 0.000000 0.038575
0.652918 0.000000 0.038941
0.655390 0.000000 0.039429
0.657679 0.000000 0.041444
0.659815 0.000000 0.046906
0.661036 0.000000 0.049134
0.663691 0.000000 0.051179
0.663996 0.000000 0.051423
0.664179 0.000000 0.051606
0.664179 0.000000 0.051606
0.664179 0.000000 0.051606
0.001007 0.005524 0.010468
0.001312 0.005676 0.010773
0.001678 0.005829 0.010834
0.002655 0.006012 0.010986
0.003693 0.006348 0.011353
0.004700 0.006622 0.011810
0.006531 0.007019 0.012085
0.007691 0.007446 0.012970
0.009155 0.007965 0.013458
0.010803 0.008515 0.014221
0.013092 0.009125 0.014832
0.015320 0.009613 0.015167
0.017243 0.010071 0.015778
0.019196 0.010559 0.016510
0.021637 0.011017 0.017304
0.027405 0.011902 0.018372
0.033112 0.012818 0.019684
0.045899 0.014160 0.021210
0.063416 0.016022 0.022644
0.090486 0.017609 0.024628
0.121920 0.019440 0.026612
0.155093 0.020966 0.026429
0.203494 0.019623 0.023133
0.260014 0.011292 0.017334
0.324926 0.000000 0.008392
0.359014 0.000000 0.006104
0.382818 0.000000 0.006775
0.409125 0.000000 0.004150
0.435798 0.000000 0.000458
0.459907 0.000000 0.001038
0.482856 0.000000 0.005890
0.502953 0.000000 0.007446
0.519677 0.000000 0.010254
0.534020 0.000000 0.012116
0.548852 0.000000 0.013611
0.564569 0.000000 0.014282
0.577905 0.000000 0.016724
0.591913 0.000000 0.017884
0.603449 0.000000 0.019623
0.612299 0.000000 0.020691
0.620661 0.000000 0.022522
0.622675 0.000000 0.026673
0.625940 0.000000 0.028016
0.629450 0.000000 0.027588
0.634089 0.000000 0.029633
0.637293 0.000000 0.031556
0.640192 0.000000 0.032776
0.644160 0.000000 0.032441
0.646052 0.000000 0.033173
0.645686 0.000000 0.034241
0.645563 0.000000 0.035645
0.646845 0.000000 0.037140
0.648524 0.000000 0.038056
0.650599 0.000000 0.038514
0.652857 0.000000 0.038941
0.655390 0.000000 0.039429
0.657649 0.000000 0.041260
0.659815 0.000000 0.046784
0.661036 0.000000 0.049073
0.663661 0.000000 0.051179
0.663996 0.000000 0.051484
0.664179 0.000000 0.051606
0.664179 0.000000 0.051606
0.664179 0.000000 0.051606
0.000641 0.006683 0.010925
0.000977 0.006683 0.010834
0.001556 0.006531 0.010559
0.002777 0.006622 0.010651
0.004059 0.006653 0.010803
0.005219 0.006867 0.011505
0.006775 0.007050 0.011963
0.007996 0.007507 0.012696
0.008972 0.007965 0.013733
0.010498 0.008484 0.014435
0.012940 0.009125 0.015076
0.015198 0.009613 0.015351
0.017395 0.010101 0.015717
0.019409 0.010590 0.016419
0.022827 0.011170 0.017304
0.028901 0.012146 0.018219
0.035248 0.013001 0.019196
0.049012 0.014527 0.020813
0.065553 0.016083 0.022492
0.093507 0.017731 0.024323
0.125460 0.019776 0.026093
0.159091 0.021118 0.025422
0.208408 0.019104 0.021363
0.263462 0.010681 0.015717
0.324468 0.000000 0.008423
0.359380 0.000000 0.006134
0.384161 0.000000 0.006775
0.410071 0.000000 0.004028
0.436194 0.000000 0.000488
0.460182 0.000000 0.001099
0.483070 0.000000 0.005951
0.503258 0.000000 0.007538
0.520104 0.000000 0.010285
0.534234 0.000000 0.012207
0.548852 0.000000 0.013672
0.564569 0.000000 0.014313
0.577874 0.000000 0.016754
0.591669 0.000000 0.017853
0.603265 0.000000 0.019623
0.612390 0.000000 0.020783
0.620844 0.000000 0.022797
0.622705 0.000000 0.026764
0.625910 0.000000 0.028046
0.629358 0.000000 0.027588
0.634028 0.000000 0.029664
0.637293 0.000000 0.031556
0.640192 0.000000 0.032776
0.644038 0.000000 0.032471
0.646113 0.000000 0.033204
0.645686 0.000000 0.034241
0.645594 0.000000 0.035584
0.646815 0.000000 0.037140
0.648524 0.000000 0.037995
0.650538 0.000000 0.038575
0.652857 0.000000 0.038941
0.655390 0.000000 0.039429
0.657649 0.000000 0.041260
0.659754 0.000000 0.046632
0.661006 0.000000 0.049042
0.663630 0.000000 0.051118
0.663966 0.000000 0.051423
0.664179 0.000000 0.051606
0.664179 0.000000 0.051606
0.664179 0.000000 0.051606
0.000061 0.007843 0.011261
0.000336 0.007965 0.011414
0.001221 0.007599 0.010712
0.002075 0.007416 0.010468
0.003540 0.007446 0.010681
0.005249 0.007324 0.010742
0.007141 0.007446 0.011200
0.008820 0.007599 0.011749
0.010010 0.008087 0.012696
0.012024 0.008698 0.013611
0.014313 0.009339 0.014496
0.015351 0.009674 0.015595
0.017548 0.010163 0.015930
0.019562 0.010620 0.016480
0.023041 0.011200 0.017426
0.029145 0.012177 0.018372
0.035523 0.013031 0.019257
0.049653 0.014588 0.020752
0.066987 0.016144 0.022370
0.097536 0.017945 0.023835
0.128237 0.019989 0.025635
0.159823 0.021149 0.025635
0.209171 0.019043 0.021332
0.262669 0.010864 0.015564
0.323980 0.000000 0.008331
0.359869 0.000000 0.006195
0.384527 0.000000 0.006836
0.410224 0.000000 0.004059
0.436500 0.000000 0.000580
0.460456 0.000000 0.001160
0.483162 0.000000 0.005982
0.503105 0.000000 0.007568
0.520104 0.000000 0.010346
0.534386 0.000000 0.012299
0.549096 0.000000 0.013733
0.564782 0.000000 0.014405
0.577783 0.000000 0.016785
0.591211 0.000000 0.017823
0.603174 0.000000 0.019623
0.612451 0.000000 0.020813
0.620935 0.000000 0.022919
0.622766 0.000000 0.026947
0.625818 0.000000 0.028229
0.629084 0.000000 0.027558
0.633997 0.000000 0.029725
0.637324 0.000000 0.031586
0.640162 0.000000 0.032837
0.643915 0.000000 0.032471
0.646113 0.000000 0.033173
0.645655 0.000000 0.034180
0.645594 0.000000 0.035645
0.646845 0.000000 0.037140
0.648493 0.000000 0.038117
0.650538 0.000000 0.038575
0.652827 0.000000 0.039002
0.655390 0.000000 0.039490
0.657588 0.000000 0.041138
0.659663 0.000000 0.046418
0.661006 0.000000 0.048920
0.663600 0.000000 0.051087
0.663935 0.000000 0.051362
0.664118 0.000000 0.051575
0.664179 0.000000 0.051606
0.664179 0.000000 0.051606
0.000000 0.009888 0.012146
0.000000 0.009583 0.011841
0.000458 0.009277 0.011139
0.001190 0.009003 0.010773
0.002502 0.008789 0.010590
0.004547 0.008392 0.010254
0.007080 0.008362 0.010468
0.009155 0.008179 0.010834
0.011383 0.008240 0.011231
0.013642 0.008911 0.012634
0.015747 0.009583 0.013794
0.016938 0.009949 0.015106
0.017914 0.010254 0.016083
0.019898 0.010681 0.016602
0.023499 0.011261 0.017517
0.029694 0.012268 0.018433
0.035920 0.013092 0.019409
0.050446 0.014679 0.020874
0.067964 0.016236 0.022400
0.099184 0.018006 0.023713
0.131197 0.020142 0.025116
0.162936 0.021332 0.024872
0.210361 0.018891 0.021454
0.263432 0.010742 0.015473
0.323064 0.000000 0.008209
0.359503 0.000000 0.006073
0.385077 0.000000 0.006897
0.410620 0.000000 0.004120
0.436835 0.000000 0.000702
0.460822 0.000000 0.001221
0.483406 0.000000 0.006073
0.503166 0.000000 0.007599
0.520073 0.000000 0.010346
0.534478 0.000000 0.012421
0.549187 0.000000 0.013825
0.564935 0.000000 0.014435
0.577935 0.000000 0.016815
0.591028 0.000000 0.017792
0.602899 0.000000 0.019654
0.612329 0.000000 0.020844
0.621027 0.000000 0.023011
0.622827 0.000000 0.027039
0.625910 0.000000 0.028229
0.629053 0.000000 0.027680
0.633814 0.000000 0.029694
0.637293 0.000000 0.031617
0.640162 0.000000 0.032776
0.643793 0.000000 0.032471
0.646113 0.000000 0.033204
0.645686 0.000000 0.034241
0.645624 0.000000 0.035615
0.646876 0.000000 0.037140
0.648463 0.000000 0.038117
0.650477 0.000000 0.038575
0.652827 0.000000 0.039002
0.655390 0.000000 0.039490
0.657588 0.000000 0.041138
0.659632 0.000000 0.046265
0.661006 0.000000 0.048798
0.663569 0.000000 0.051087
0.663874 0.000000 0.051362
0.664088 0.000000 0.051575
0.664118 0.000000 0.051575
0.664179 0.000000 0.051606
0.000000 0.012268 0.013550
0.000000 0.012146 0.013214
0.000000 0.011566 0.012238
0.000610 0.011139 0.011566
0.001801 0.010651 0.011170
0.003479 0.010132 0.010895
0.005615 0.009613 0.010590
0.008637 0.009430 0.010559
0.011109 0.009430 0.011078
0.014923 0.009613 0.011627
0.017395 0.009827 0.012665
0.019196 0.010437 0.013977
0.021363 0.010925 0.015259
0.024628 0.011383 0.016175
0.028016 0.011902 0.016907
0.032471 0.012634 0.018280
0.039368 0.013428 0.019104
0.051911 0.014862 0.020874
0.070069 0.016358 0.022492
0.099672 0.018036 0.023957
0.131533 0.020111 0.025330
0.162264 0.021302 0.025147
0.210300 0.018921 0.021454
0.266545 0.009979 0.014771
0.324651 0.000000 0.007630
0.358556 0.000000 0.006165
0.384466 0.000000 0.007050
0.410864 0.000000 0.004181
0.437568 0.000000 0.000793
0.462593 0.000000 0.001373
0.483986 0.000000 0.006165
0.502220 0.000000 0.007538
0.519829 0.000000 0.010407
0.535149 0.000000 0.012573
0.549554 0.000000 0.013916
0.564721 0.000000 0.014405
0.577691 0.000000 0.016785
0.590661 0.000000 0.017792
0.602655 0.000000 0.019593
0.611994 0.000000 0.020813
0.621027 0.000000 0.023194
0.622919 0.000000 0.027283
0.625910 0.000000 0.028290
0.628901 0.000000 0.027680
0.633692 0.000000 0.029633
0.637171 0.000000 0.031556
0.640101 0.000000 0.032868
0.643793 0.000000 0.032471
0.646174 0.000000 0.033173
0.645655 0.000000 0.034150
0.645594 0.000000 0.035645
0.646845 0.000000 0.037201
0.648432 0.000000 0.038117
0.650416 0.000000 0.038575
0.652796 0.000000 0.039063
0.655390 0.000000 0.039521
0.657527 0.000000 0.040955
0.659571 0.000000 0.046113
0.661006 0.000000 0.048737
0.663569 0.000000 0.051087
0.663874 0.000000 0.051331
0.664088 0.000000 0.051514
0.664118 0.000000 0.051575
0.664179 0.000000 0.051606
0.000000 0.014862 0.015290
0.000000 0.014740 0.015015
0.000000 0.014527 0.014466
0.000000 0.014099 0.013611
0.000427 0.013703 0.012879
0.002350 0.013428 0.012116
0.004059 0.012696 0.011902
0.006989 0.011994 0.011688
0.010193 0.011627 0.011688
0.014282 0.011475 0.012024
0.018189 0.011688 0.012573
0.021698 0.011627 0.013001
0.026642 0.012207 0.014069
0.030732 0.012451 0.015015
0.033845 0.012787 0.015900
0.037446 0.013214 0.017365
0.046815 0.014221 0.018860
0.057557 0.015442 0.020264
0.073854 0.016571 0.022400
0.102632 0.018189 0.023804
0.132326 0.020142 0.025544
0.163180 0.021332 0.025299
0.209720 0.018982 0.021851
0.266758 0.009918 0.014801
0.327001 0.000000 0.006958
0.358648 0.000000 0.006012
0.383978 0.000000 0.007141
0.410651 0.000000 0.004364
0.437659 0.000000 0.000977
0.463081 0.000000 0.001465
0.485481 0.000000 0.006256
0.502525 0.000000 0.007630
0.519158 0.000000 0.010437
0.535088 0.000000 0.012665
0.550103 0.000000 0.013916
0.564904 0.000000 0.014466
0.577569 0.000000 0.016815
0.590417 0.000000 0.017823
0.602411 0.000000 0.019623
0.611719 0.000000 0.020905
0.620874 0.000000 0.023102
0.622919 0.000000 0.027375
0.626062 0.000000 0.028321
0.628901 0.000000 0.027680
0.633570 0.000000 0.029541
0.637018 0.000000 0.031525
0.639948 0.000000 0.032929
0.643702 0.000000 0.032502
0.646204 0.000000 0.033173
0.645686 0.000000 0.034089
0.645533 0.000000 0.035584
0.646845 0.000000 0.037140
0.648432 0.000000 0.038056
0.650355 0.000000 0.038605
0.652735 0.000000 0.039033
0.655421 0.000000 0.039582
0.657527 0.000000 0.041016
0.659510 0.000000 0.045960
0.661006 0.000000 0.048646
0.663539 0.000000 0.051087
0.663874 0.000000 0.051331
0.664088 0.000000 0.051514
0.664118 0.000000 0.051575
0.664179 0.000000 0.051606
0.000000 0.018311 0.017273
0.000000 0.018158 0.017060
0.000000 0.017975 0.016846
0.000000 0.017517 0.016358
0.000000 0.016785 0.015625
0.000061 0.016602 0.015045
0.002411 0.016602 0.014374
0.004730 0.016297 0.013550
0.008453 0.015686 0.013275
0.012757 0.015442 0.013031
0.018219 0.014557 0.013001
0.023011 0.014374 0.013184
0.029572 0.013916 0.013642
0.036408 0.014313 0.014466
0.041077 0.014313 0.015198
0.052430 0.015015 0.015839
0.060914 0.015656 0.017212
0.074006 0.016663 0.018860
0.092226 0.017731 0.020081
0.116060 0.018982 0.022004
0.139284 0.020417 0.023926
0.167361 0.021607 0.024231
0.214420 0.018494 0.020844
0.268437 0.009461 0.014923
0.327794 0.000000 0.007263
0.358556 0.000000 0.006134
0.384710 0.000000 0.007324
0.413092 0.000000 0.004089
0.439002 0.000000 0.001129
0.462135 0.000000 0.001465
0.485115 0.000000 0.006378
0.503075 0.000000 0.007752
0.519585 0.000000 0.010529
0.535241 0.000000 0.012818
0.550225 0.000000 0.014038
0.564874 0.000000 0.014466
0.577569 0.000000 0.016846
0.590509 0.000000 0.017762
0.602289 0.000000 0.019654
0.611109 0.000000 0.020874
0.620569 0.000000 0.023041
0.622858 0.000000 0.027314
0.626093 0.000000 0.028382
0.629023 0.000000 0.027680
0.633478 0.000000 0.029572
0.636805 0.000000 0.031434
0.639887 0.000000 0.032929
0.643793 0.000000 0.032532
0.646235 0.000000 0.033204
0.645777 0.000000 0.034058
0.645441 0.000000 0.035462
0.646784 0.000000 0.037079
0.648341 0.000000 0.038087
0.650233 0.000000 0.038575
0.652674 0.000000 0.039033
0.655390 0.000000 0.039643
0.657496 0.000000 0.040925
0.659449 0.000000 0.045869
0.661006 0.000000 0.048585
0.663539 0.000000 0.051087
0.663844 0.000000 0.051331
0.664057 0.000000 0.051453
0.664088 0.000000 0.051575
0.664179 0.000000 0.051606
0.000000 0.023255 0.019165
0.000000 0.023041 0.018982
0.000000 0.022827 0.018769
0.000000 0.022522 0.018524
0.000000 0.022095 0.018219
0.000000 0.021424 0.017487
0.000000 0.021515 0.017426
0.002228 0.021332 0.016876
0.005798 0.020691 0.016144
0.010071 0.019532 0.014984
0.016480 0.019684 0.014588
0.022553 0.018982 0.014069
0.032166 0.018830 0.014160
0.040406 0.017700 0.014282
0.050843 0.017578 0.015045
0.064698 0.017578 0.015381
0.079744 0.017578 0.015290
0.092683 0.018677 0.016999
0.112123 0.019379 0.017975
0.131991 0.020050 0.018921
0.149844 0.020813 0.021729
0.178012 0.022034 0.021393
0.220676 0.017853 0.019318
0.272892 0.008362 0.014221
0.330053 0.000000 0.007446
0.359442 0.000000 0.006470
0.384588 0.000000 0.007477
0.413703 0.000000 0.004395
0.440955 0.000000 0.001373
0.462898 0.000000 0.001740
0.484565 0.000000 0.006470
0.503166 0.000000 0.007813
0.519768 0.000000 0.010620
0.535424 0.000000 0.013001
0.550378 0.000000 0.014099
0.564904 0.000000 0.014466
0.577478 0.000000 0.016846
0.590539 0.000000 0.017792
0.602289 0.000000 0.019715
0.610864 0.000000 0.020935
0.620142 0.000000 0.023011
0.622797 0.000000 0.027131
0.625940 0.000000 0.028534
0.629084 0.000000 0.027710
0.633600 0.000000 0.029603
0.636713 0.000000 0.031342
0.639551 0.000000 0.032990
0.643641 0.000000 0.032563
0.646235 0.000000 0.033204
0.645808 0.000000 0.034089
0.645380 0.000000 0.035370
0.646723 0.000000 0.036927
0.648280 0.000000 0.038025
0.650111 0.000000 0.038575
0.652522 0.000000 0.039002
0.655299 0.000000 0.039612
0.657435 0.000000 0.040803
0.659358 0.000000 0.045655
0.661036 0.000000 0.048524
0.663539 0.000000 0.051087
0.663844 0.000000 0.051331
0.664057 0.000000 0.051453
0.664057 0.000000 0.051575
0.664179 0.000000 0.051606
0.000000 0.029328 0.021149
0.000000 0.029450 0.021088
0.000000 0.029358 0.020996
0.000000 0.029206 0.020905
0.000000 0.028016 0.020478
0.000000 0.027375 0.020050
0.000000 0.027253 0.019684
0.000000 0.027619 0.019562
0.002564 0.027558 0.018982
0.006897 0.027344 0.018738
0.012360 0.026001 0.018097
0.020081 0.025574 0.016541
0.030457 0.024048 0.015930
0.040497 0.024414 0.016480
0.053315 0.023682 0.016388
0.068879 0.023468 0.016327
0.087678 0.023041 0.016144
0.105592 0.023072 0.016175
0.124971 0.022309 0.016846
0.143954 0.022431 0.017182
0.164645 0.023133 0.018097
0.193851 0.022736 0.017670
0.237980 0.016236 0.016022
0.277867 0.007874 0.013489
0.332708 0.000000 0.007385
0.362737 0.000000 0.006867
0.386999 0.000000 0.007721
0.412604 0.000000 0.005127
0.440406 0.000000 0.002014
0.463081 0.000000 0.002228
0.485176 0.000000 0.006714
0.504265 0.000000 0.008118
0.519951 0.000000 0.010773
0.534295 0.000000 0.013153
0.549523 0.000000 0.014557
0.564721 0.000000 0.014435
0.577386 0.000000 0.016876
0.590478 0.000000 0.017823
0.602197 0.000000 0.019776
0.610590 0.000000 0.021241
0.619806 0.000000 0.023224
0.622705 0.000000 0.026825
0.625879 0.000000 0.028748
0.629023 0.000000 0.027771
0.633631 0.000000 0.029694
0.636774 0.000000 0.031434
0.639429 0.000000 0.033051
0.643336 0.000000 0.032624
0.646265 0.000000 0.033234
0.645869 0.000000 0.034150
0.645319 0.000000 0.035370
0.646571 0.000000 0.036744
0.648219 0.000000 0.037995
0.650141 0.000000 0.038575
0.652369 0.000000 0.039033
0.655116 0.000000 0.039582
0.657404 0.000000 0.040711
0.659297 0.000000 0.045563
0.661006 0.000000 0.048524
0.663508 0.000000 0.051026
0.663874 0.000000 0.051331
0.664057 0.000000 0.051453
0.664088 0.000000 0.051575
0.664179 0.000000 0.051606
0.000000 0.039857 0.025299
0.000000 0.039948 0.025147
0.000000 0.040040 0.025025
0.000000 0.040040 0.024811
0.000000 0.039857 0.024506
0.000000 0.039246 0.023590
0.000000 0.037110 0.022339
0.000000 0.035309 0.021515
0.000000 0.035096 0.021454
0.002991 0.035096 0.021210
0.008179 0.034180 0.020905
0.015747 0.033661 0.020447
0.023651 0.033783 0.019684
0.038239 0.033967 0.019013
0.051240 0.033051 0.018769
0.067140 0.031342 0.018769
0.085206 0.031037 0.018769
0.108980 0.031495 0.018219
0.131044 0.032044 0.017578
0.154879 0.029603 0.016632
0.179446 0.028504 0.016754
0.210697 0.025116 0.015625
0.254002 0.016968 0.012512
0.283574 0.010559 0.011963
0.330571 0.000000 0.008026
0.363561 0.000000 0.006989
0.390051 0.000000 0.007935
0.414588 0.000000 0.005554
0.439734 0.000000 0.002655
0.462623 0.000000 0.002838
0.485145 0.000000 0.006989
0.504570 0.000000 0.008453
0.520684 0.000000 0.011048
0.534264 0.000000 0.013397
0.548486 0.000000 0.015015
0.564019 0.000000 0.014343
0.577142 0.000000 0.016907
0.590265 0.000000 0.017823
0.602167 0.000000 0.019837
0.610529 0.000000 0.021454
0.619715 0.000000 0.023529
0.622614 0.000000 0.026764
0.625635 0.000000 0.028962
0.628962 0.000000 0.027893
0.633570 0.000000 0.029664
0.636805 0.000000 0.031495
0.639582 0.000000 0.033082
0.643214 0.000000 0.032715
0.646265 0.000000 0.033143
0.645899 0.000000 0.034180
0.645350 0.000000 0.035401
0.646509 0.000000 0.036713
0.648066 0.000000 0.037964
0.650111 0.000000 0.038575
0.652369 0.000000 0.039033
0.654963 0.000000 0.039551
0.657252 0.000000 0.040314
0.659266 0.000000 0.045411
0.661067 0.000000 0.048524
0.663478 0.000000 0.051026
0.663844 0.000000 0.051331
0.664057 0.000000 0.051453
0.664088 0.000000 0.051575
0.664179 0.000000 0.051606
0.000000 0.053529 0.031159
0.000000 0.053376 0.030884
0.000000 0.053315 0.030701
0.000000 0.053132 0.030426
0.000000 0.052979 0.030091
0.000000 0.052277 0.029358
0.000000 0.051209 0.028168
0.000000 0.049866 0.026673
0.000000 0.046693 0.024384
0.000000 0.045441 0.023560
0.003510 0.046082 0.022919
0.010620 0.045197 0.022583
0.020417 0.043702 0.021973
0.032990 0.043946 0.022217
0.048249 0.044038 0.022400
0.066835 0.044465 0.021942
0.083864 0.043305 0.021820
0.104677 0.043153 0.021454
0.130465 0.042176 0.019837
0.154330 0.040314 0.018647
0.183261 0.037049 0.017609
0.217197 0.034150 0.015717
0.257389 0.026551 0.012940
0.285466 0.019654 0.012116
0.322698 0.004944 0.009247
0.358465 0.000000 0.007416
0.388830 0.000000 0.006989
0.415442 0.000000 0.006043
0.440436 0.000000 0.003174
0.462989 0.000000 0.003967
0.484901 0.000000 0.007324
0.503807 0.000000 0.008881
0.520134 0.000000 0.011719
0.534020 0.000000 0.013733
0.548211 0.000000 0.015503
0.563684 0.000000 0.014374
0.576867 0.000000 0.016938
0.589837 0.000000 0.017823
0.601953 0.000000 0.019837
0.610468 0.000000 0.021942
0.619654 0.000000 0.023926
0.622614 0.000000 0.026886
0.625605 0.000000 0.029175
0.628809 0.000000 0.027924
0.633539 0.000000 0.029725
0.636835 0.000000 0.031556
0.639582 0.000000 0.033082
0.643305 0.000000 0.032685
0.646296 0.000000 0.033173
0.645930 0.000000 0.034119
