LUTs/SPK Cube Block1 S64/TheBrim_SPK_Type-S_Block1_S64.cube
TITLE "TheBrim® Industrial Imaging Burau"
# © Copyright 2022 - TheBrim® d.o.o. Croatia
LUT_3D_SIZE 4
DOMAIN_MIN 0.000000 0.000000 0.000000
DOMAIN_MAX 1.000000 1.000000 1.000000
0.000061 0.000061 0.000031
0.217590 0.000061 0.000031
0.797211 0.000061 0.000031
0.999878 0.000061 0.000031
0.000061 0.241425 0.000031
0.217590 0.241425 0.000031
0.797211 0.241425 0.000031
0.999878 0.241425 0.000031
0.000061 0.783600 0.000031
0.217590 0.783600 0.000031
0.797211 0.783600 0.000031
0.999878 0.783600 0.000031
0.000061 0.997498 0.000031
0.217590 0.997498 0.000031
0.797211 0.997498 0.000031
0.999878 0.997498 0.000031
0.000061 0.000061 0.260193
0.217590 0.000061 0.260193
0.797211 0.000061 0.260193
0.999878 0.000061 0.260193
0.000061 0.241425 0.260193
0.217590 0.241425 0.260193
0.797211 0.241425 0.260193
0.999878 0.241425 0.260193
0.000061 0.783600 0.260193
0.217590 0.783600 0.260193
0.797211 0.783600 0.260193
0.999878 0.783600 0.260193
0.000061 0.997498 0.260193
0.217590 0.997498 0.260193
0.797211 0.997498 0.260193
0.999878 0.997498 0.260193
0.000061 0.000061 0.722229
0.217590 0.000061 0.722229
0.797211 0.000061 0.722229
0.999878 0.000061 0.722229
0.000061 0.241425 0.722229
0.217590 0.241425 0.722229
0.797211 0.241425 0.722229
0.999878 0.241425 0.722229
0.000061 0.783600 0.722229
0.217590 0.783600 0.722229
0.797211 0.783600 0.722229
0.999878 0.783600 0.722229
0.000061 0.997498 0.722229
0.217590 0.997498 0.722229
0.797211 0.997498 0.722229
0.999878 0.997498 0.722229
0.000061 0.000061 0.986267
0.217590 0.000061 0.986267
0.797211 0.000061 0.986267
0.999878 0.000061 0.986267
0.000061 0.241425 0.986267
0.217590 0.241425 0.986267
0.797211 0.241425 0.986267
0.999878 0.241425 0.986267
0.000061 0.783600 0.986267
0.217590 0.783600 0.986267
0.797211 0.783600 0.986267
0.999878 0.783600 0.986267
0.000061 0.997498 0.986267
0.217590 0.997498 0.986267
0.797211 0.997498 0.986267
0.999878 0.997498 0.986267
