LUTs/SPK Cube Block1 S64/TheBrim_SPK_Type-M_Block1_S64.cube
TITLE "TheBrim® SPK Block 1"
# © Copyright 2021 - TheBrim® d.o.o. Croatia
LUT_3D_SIZE 64
DOMAIN_MIN 0.000000 0.000000 0.000000
DOMAIN_MAX 1.000000 1.000000 1.000000
0.011200 0.001984 0.018219
0.014374 0.002106 0.018219
0.017456 0.002228 0.018311
0.020996 0.002197 0.018341
0.024689 0.002167 0.018433
0.027832 0.002502 0.018555
0.031281 0.002564 0.018402
0.034791 0.002686 0.018555
0.038911 0.002564 0.018555
0.042939 0.002716 0.018647
0.047120 0.002777 0.018524
0.051179 0.003113 0.018433
0.055970 0.003235 0.018524
0.060792 0.003449 0.018433
0.066651 0.003449 0.018585
0.073091 0.003967 0.018555
0.079835 0.004181 0.018433
0.089967 0.004303 0.018433
0.099245 0.004608 0.018311
0.110903 0.004730 0.018097
0.123171 0.004852 0.018006
0.135561 0.005035 0.017731
0.149111 0.004974 0.017487
0.162661 0.004822 0.017182
0.177737 0.004547 0.016785
0.191745 0.004303 0.016449
0.209934 0.003540 0.015839
0.229160 0.002747 0.015839
0.248020 0.001801 0.015900
0.265537 0.002167 0.015839
0.282536 0.002655 0.015839
0.301518 0.002502 0.015961
0.316625 0.002838 0.015961
0.335302 0.002747 0.015991
0.353063 0.003143 0.015961
0.371893 0.003296 0.015961
0.391760 0.003449 0.016083
0.411231 0.003693 0.016052
0.425879 0.003967 0.016052
0.440131 0.004028 0.016114
0.453986 0.004364 0.016052
0.468482 0.004456 0.016236
0.481849 0.004730 0.016266
0.496040 0.005097 0.016297
0.508934 0.005524 0.016327
0.522637 0.005707 0.016571
0.533562 0.006134 0.016693
0.543328 0.006806 0.016876
0.552819 0.007172 0.017273
0.560082 0.007843 0.017578
0.568933 0.008453 0.018128
0.575860 0.009339 0.018677
0.582940 0.010163 0.019226
0.591119 0.010834 0.020081
0.596887 0.011963 0.020752
0.602197 0.012940 0.021515
0.607752 0.013825 0.022370
0.613123 0.014832 0.023224
0.617609 0.015808 0.023987
0.622370 0.016876 0.024903
0.626551 0.017792 0.025696
0.630426 0.018860 0.026429
0.633845 0.019806 0.027161
0.637385 0.020722 0.027955
0.011444 0.005585 0.018402
0.014130 0.005829 0.018494
0.017578 0.005737 0.018585
0.020935 0.005859 0.018677
0.024323 0.005982 0.018738
0.028077 0.005921 0.018799
0.031373 0.006073 0.018830
0.034882 0.006165 0.018799
0.038941 0.006378 0.018860
0.043000 0.006256 0.018860
0.047211 0.006500 0.018738
0.051392 0.006683 0.018830
0.056153 0.006867 0.018738
0.061006 0.006928 0.018677
0.066896 0.007202 0.018769
0.073487 0.007385 0.018616
0.080751 0.007630 0.018647
0.090333 0.007904 0.018524
0.099886 0.008240 0.018402
0.111910 0.008270 0.018311
0.123384 0.008545 0.018036
0.136110 0.008759 0.017823
0.149325 0.008820 0.017578
0.162692 0.008667 0.017273
0.178225 0.008148 0.016846
0.193454 0.007843 0.016449
0.210788 0.007263 0.015869
0.229953 0.006317 0.015839
0.248753 0.005097 0.015869
0.266514 0.005310 0.015900
0.285985 0.005585 0.015930
0.302525 0.005646 0.015961
0.320256 0.005707 0.015991
0.337377 0.006073 0.015961
0.353521 0.006317 0.015991
0.374609 0.006378 0.016022
0.395727 0.006409 0.016022
0.414710 0.006744 0.016083
0.429297 0.006806 0.016052
0.441474 0.007202 0.016114
0.456855 0.007385 0.016205
0.469734 0.007721 0.016205
0.485328 0.007752 0.016266
0.499550 0.008057 0.016266
0.511711 0.008515 0.016388
0.524743 0.008759 0.016541
0.535027 0.009094 0.016663
0.545953 0.009491 0.016907
0.553643 0.010071 0.017273
0.561669 0.010590 0.017639
0.569665 0.011292 0.018158
0.577203 0.011872 0.018585
0.584253 0.012726 0.019165
0.591730 0.013367 0.019959
0.597498 0.014405 0.020600
0.603937 0.015198 0.021515
0.610437 0.016175 0.022370
0.615686 0.017151 0.023224
0.619989 0.018067 0.023987
0.624659 0.019074 0.024903
0.628809 0.020111 0.025666
0.632532 0.020966 0.026520
0.636225 0.021942 0.027253
0.639979 0.022766 0.028107
0.011505 0.009216 0.018524
0.014405 0.009430 0.018647
0.017762 0.009308 0.018830
0.020722 0.009613 0.018982
0.024323 0.009613 0.018982
0.027863 0.009552 0.019104
0.031342 0.009644 0.019165
0.034943 0.009796 0.019104
0.039094 0.009705 0.019196
0.043091 0.009918 0.019074
0.047150 0.010315 0.019043
0.051728 0.010254 0.019165
0.056397 0.010437 0.018952
0.061219 0.010651 0.018860
0.067109 0.010681 0.018891
0.073579 0.011109 0.018738
0.081025 0.011322 0.018769
0.090852 0.011475 0.018647
0.100404 0.011749 0.018494
0.111849 0.011963 0.018280
0.123751 0.012177 0.018128
0.136385 0.012299 0.017914
0.149935 0.012207 0.017731
0.162966 0.012421 0.017334
0.178531 0.012024 0.016938
0.193820 0.011658 0.016602
0.211551 0.010803 0.015869
0.229831 0.010101 0.015839
0.247471 0.008484 0.015900
0.267247 0.008667 0.015869
0.285374 0.008759 0.015930
0.304082 0.008820 0.015961
0.321172 0.008881 0.015961
0.337469 0.009186 0.015961
0.355505 0.009461 0.015991
0.375921 0.009583 0.016022
0.395972 0.009766 0.016052
0.414923 0.009979 0.016022
0.431098 0.009827 0.016114
0.443488 0.010224 0.016144
0.456916 0.010437 0.016205
0.471290 0.010620 0.016236
0.486183 0.010773 0.016266
0.499977 0.010986 0.016266
0.515282 0.011170 0.016480
0.526543 0.011597 0.016510
0.536950 0.011933 0.016693
0.547539 0.012329 0.016938
0.555962 0.012696 0.017273
0.564721 0.013153 0.017700
0.571862 0.013794 0.018158
0.579797 0.014496 0.018647
0.587396 0.015106 0.019318
0.595270 0.015961 0.020050
0.601526 0.016724 0.020844
0.608057 0.017639 0.021698
0.614160 0.018524 0.022614
0.618952 0.019501 0.023407
0.623224 0.020447 0.024231
0.628016 0.021332 0.025177
0.632044 0.022217 0.025971
0.635767 0.023133 0.026764
0.639429 0.024079 0.027558
0.643091 0.024933 0.028382
0.011749 0.012879 0.018708
0.014588 0.013031 0.018982
0.017670 0.013031 0.019318
0.020722 0.013245 0.019196
0.024445 0.013214 0.019471
0.027802 0.013336 0.019501
0.031464 0.013275 0.019654
0.034760 0.013397 0.019501
0.038880 0.013611 0.019562
0.043061 0.013733 0.019379
0.047456 0.013733 0.019318
0.051728 0.013977 0.019348
0.056489 0.014069 0.019165
0.061677 0.014069 0.019135
0.067292 0.014374 0.018982
0.073945 0.014710 0.018860
0.081239 0.014832 0.018860
0.091188 0.015167 0.018799
0.101015 0.015351 0.018647
0.112703 0.015656 0.018463
0.124269 0.015869 0.018219
0.136934 0.016052 0.018128
0.150301 0.016052 0.017823
0.164187 0.015930 0.017487
0.179324 0.015412 0.017121
0.194553 0.015137 0.016663
0.212802 0.014557 0.016083
0.231235 0.013703 0.015900
0.250767 0.011566 0.015900
0.271061 0.011536 0.016022
0.289342 0.011749 0.015961
0.306645 0.011841 0.015961
0.323888 0.011841 0.015961
0.341588 0.012055 0.016022
0.361151 0.012116 0.016052
0.380652 0.012421 0.016022
0.401862 0.012573 0.016022
0.419409 0.012634 0.016052
0.433814 0.012665 0.016114
0.448341 0.012909 0.016175
0.462593 0.013062 0.016175
0.476051 0.013306 0.016205
0.490700 0.013428 0.016236
0.505150 0.013642 0.016419
0.519921 0.013886 0.016419
0.530816 0.014130 0.016602
0.542290 0.014374 0.016785
0.551354 0.014801 0.016999
0.560113 0.015198 0.017365
0.568811 0.015564 0.017823
0.576806 0.016297 0.018250
0.585351 0.016785 0.018860
0.592676 0.017670 0.019501
0.599847 0.018311 0.020264
0.606592 0.019104 0.021180
0.612634 0.020020 0.021942
0.617975 0.020844 0.022919
0.622797 0.021759 0.023774
0.627192 0.022614 0.024628
0.631983 0.023499 0.025605
0.635798 0.024445 0.026368
0.639612 0.025177 0.027283
0.643183 0.026093 0.028016
0.646632 0.026856 0.028840
0.011780 0.016632 0.019104
0.014527 0.016724 0.019379
0.017700 0.016815 0.019532
0.021027 0.016846 0.019593
0.024201 0.016968 0.019745
0.027710 0.017060 0.019959
0.031342 0.017029 0.019898
0.034638 0.017182 0.019928
0.038788 0.017304 0.019837
0.043061 0.017334 0.019715
0.047578 0.017334 0.019654
0.051759 0.017639 0.019501
0.056855 0.017517 0.019409
0.061738 0.017823 0.019379
0.067506 0.017975 0.019318
0.074434 0.018250 0.019196
0.081483 0.018524 0.018982
0.091646 0.018677 0.018952
0.101411 0.019013 0.018860
0.113161 0.019196 0.018708
0.124971 0.019532 0.018524
0.137972 0.019532 0.018311
0.150942 0.019654 0.018006
0.165072 0.019593 0.017700
0.179812 0.019287 0.017243
0.195224 0.018769 0.016724
0.213962 0.018158 0.016144
0.232029 0.017487 0.016022
0.252049 0.015015 0.016175
0.271763 0.014862 0.016144
0.290562 0.014893 0.016236
0.307622 0.014984 0.016175
0.325109 0.015015 0.016144
0.344396 0.015106 0.016205
0.363561 0.015259 0.016266
0.384619 0.015351 0.016144
0.406195 0.015412 0.016114
0.422766 0.015625 0.016114
0.437476 0.015625 0.016175
0.452369 0.015778 0.016236
0.467323 0.015930 0.016175
0.480720 0.016114 0.016266
0.495064 0.016266 0.016327
0.510735 0.016419 0.016358
0.524468 0.016510 0.016480
0.535698 0.016815 0.016602
0.547356 0.017121 0.016846
0.556207 0.017456 0.017090
0.564111 0.017914 0.017365
0.573205 0.018189 0.017914
0.581476 0.018769 0.018402
0.589380 0.019409 0.018982
0.597162 0.020111 0.019654
0.603815 0.020813 0.020478
0.610559 0.021515 0.021332
0.616510 0.022309 0.022278
0.621546 0.023163 0.023072
0.626490 0.024018 0.024018
0.631159 0.024842 0.024933
0.635004 0.025727 0.025696
0.639033 0.026551 0.026581
0.642908 0.027405 0.027527
0.646479 0.028168 0.028351
0.649561 0.028931 0.029053
0.012055 0.020508 0.019348
0.014740 0.020722 0.019684
0.017792 0.020783 0.019959
0.020752 0.020905 0.020081
0.024170 0.020966 0.020203
0.027710 0.021027 0.020325
0.031220 0.020935 0.020447
0.034638 0.021118 0.020294
0.038849 0.021210 0.020264
0.043030 0.021302 0.020172
0.047669 0.021332 0.020020
0.052003 0.021454 0.019959
0.056855 0.021668 0.019776
0.062165 0.021759 0.019684
0.068116 0.021912 0.019593
0.074861 0.022339 0.019501
0.082216 0.022522 0.019348
0.092317 0.022858 0.019287
0.102266 0.023102 0.019196
0.114168 0.023377 0.018952
0.126253 0.023560 0.018860
0.138552 0.023896 0.018524
0.152255 0.023957 0.018311
0.166293 0.023835 0.017853
0.181247 0.023713 0.017456
0.196262 0.023407 0.016938
0.214633 0.023163 0.016449
0.233707 0.022339 0.016449
0.252934 0.020081 0.016419
0.273198 0.018128 0.016449
0.291783 0.018128 0.016419
0.309239 0.018219 0.016480
0.326818 0.018372 0.016510
0.346044 0.018433 0.016541
0.365270 0.018494 0.016510
0.386542 0.018585 0.016541
0.407416 0.018708 0.016480
0.424872 0.018860 0.016571
0.439979 0.018799 0.016602
0.454749 0.018921 0.016602
0.469337 0.019043 0.016571
0.483772 0.019135 0.016541
0.499367 0.019287 0.016602
0.514672 0.019379 0.016663
0.527947 0.019532 0.016754
0.539605 0.019715 0.016938
0.550439 0.020111 0.017060
0.559167 0.020386 0.017365
0.568231 0.020630 0.017731
0.576593 0.021057 0.018158
0.585138 0.021515 0.018708
0.593011 0.022187 0.019257
0.600214 0.022766 0.019898
0.607202 0.023438 0.020691
0.613703 0.024170 0.021546
0.619745 0.024842 0.022553
0.624567 0.025666 0.023438
0.629450 0.026429 0.024292
0.634089 0.027253 0.025238
0.637934 0.028077 0.026062
0.641749 0.028870 0.026886
0.645624 0.029603 0.027771
0.649104 0.030426 0.028534
0.652552 0.031159 0.029419
0.012390 0.024598 0.019562
0.014862 0.024811 0.019898
0.018128 0.024842 0.020172
0.020935 0.025025 0.020386
0.024018 0.025116 0.020691
0.027497 0.025116 0.021088
0.030793 0.025238 0.021118
0.034455 0.025177 0.021149
0.038605 0.025269 0.021027
0.042817 0.025391 0.020996
0.047456 0.025422 0.020844
0.051972 0.025513 0.020661
0.056764 0.025757 0.020569
0.062074 0.025940 0.020386
0.067994 0.026062 0.020294
0.074983 0.026398 0.020020
0.082429 0.026642 0.020020
0.092836 0.026886 0.019867
0.102876 0.027253 0.019715
0.114565 0.027649 0.019471
0.126436 0.028077 0.019196
0.139315 0.028260 0.018921
0.152895 0.028290 0.018647
0.166567 0.028412 0.018280
0.181613 0.028260 0.017823
0.197055 0.027985 0.017426
0.215702 0.027558 0.016846
0.233616 0.027497 0.016785
0.253605 0.025086 0.016876
0.274266 0.022034 0.016907
0.292882 0.021576 0.016846
0.310552 0.021576 0.016938
0.327977 0.021698 0.016907
0.347326 0.021729 0.016907
0.366125 0.021881 0.016815
0.387427 0.021881 0.016907
0.408881 0.021942 0.016968
0.426307 0.022034 0.016999
0.441535 0.022095 0.017029
0.456489 0.022187 0.017029
0.471351 0.022309 0.016968
0.485847 0.022431 0.016999
0.501244 0.022553 0.017060
0.516350 0.022614 0.017060
0.529625 0.022766 0.017151
0.541619 0.022980 0.017243
0.553277 0.023133 0.017456
0.562066 0.023346 0.017639
0.570703 0.023713 0.017975
0.579522 0.024048 0.018372
0.588006 0.024506 0.018891
0.596551 0.024933 0.019440
0.603540 0.025544 0.020142
0.610742 0.026062 0.020966
0.617243 0.026764 0.021851
0.622309 0.027527 0.022675
0.627405 0.028199 0.023621
0.632197 0.028992 0.024475
0.636683 0.029725 0.025360
0.640833 0.030457 0.026337
0.644923 0.031189 0.027192
0.648646 0.031952 0.028077
0.652125 0.032685 0.028809
0.655390 0.033295 0.029694
0.012360 0.028931 0.019806
0.015106 0.029084 0.020203
0.018006 0.029114 0.020569
0.021149 0.029114 0.020874
0.024262 0.029145 0.021332
0.027070 0.029511 0.021790
0.030610 0.029480 0.022034
0.034028 0.029603 0.022004
0.038117 0.029603 0.022095
0.042603 0.029633 0.021881
0.046998 0.029816 0.021790
0.051667 0.029969 0.021515
0.056672 0.030060 0.021332
0.061982 0.030304 0.021118
0.067872 0.030396 0.020966
0.075227 0.030732 0.020691
0.082338 0.031006 0.020600
0.093019 0.031373 0.020386
0.102968 0.031739 0.020142
0.114839 0.032227 0.019928
0.127077 0.032593 0.019715
0.139925 0.032837 0.019471
0.153506 0.033082 0.019104
0.167208 0.033265 0.018677
0.182620 0.033173 0.018250
0.197543 0.033021 0.017731
0.216342 0.032685 0.017182
0.234867 0.032441 0.017212
0.254765 0.030549 0.017151
0.274846 0.027832 0.017334
0.293858 0.025055 0.017273
0.311803 0.024964 0.017334
0.329473 0.025086 0.017243
0.348638 0.025147 0.017243
0.367742 0.025208 0.017212
0.389227 0.025269 0.017365
0.410590 0.025330 0.017426
0.428016 0.025422 0.017395
0.443305 0.025513 0.017426
0.458564 0.025544 0.017395
0.473335 0.025666 0.017426
0.488045 0.025757 0.017456
0.503380 0.025849 0.017456
0.518700 0.025910 0.017578
0.532219 0.026032 0.017639
0.544182 0.026184 0.017670
0.555505 0.026368 0.017884
0.564202 0.026612 0.018006
0.572992 0.026795 0.018341
0.581689 0.027131 0.018738
0.590356 0.027466 0.019135
0.598596 0.027955 0.019654
0.605890 0.028382 0.020356
0.612818 0.028962 0.021057
0.619654 0.029572 0.021912
0.625025 0.030152 0.022858
0.630213 0.030854 0.023743
0.635035 0.031495 0.024659
0.639582 0.032288 0.025452
0.643763 0.032959 0.026459
0.647608 0.033631 0.027283
0.651240 0.034363 0.028138
0.654719 0.035065 0.028962
0.657832 0.035615 0.029786
0.012726 0.033051 0.020050
0.015106 0.033326 0.020539
0.018006 0.033417 0.021027
0.020813 0.033478 0.021363
0.024079 0.033509 0.021729
0.027161 0.033631 0.022248
0.030457 0.033814 0.022644
0.033814 0.033906 0.022950
0.037690 0.034028 0.022827
0.042115 0.034089 0.022858
0.046540 0.034211 0.022644
0.051301 0.034333 0.022431
0.056580 0.034333 0.022278
0.061830 0.034668 0.022004
0.067475 0.034791 0.021698
0.075196 0.035065 0.021454
0.082582 0.035370 0.021241
0.092622 0.035859 0.020966
0.103334 0.036255 0.020752
0.115145 0.036683 0.020600
0.127413 0.037171 0.020172
0.140627 0.037446 0.019928
0.154025 0.037873 0.019501
0.167788 0.038148 0.019135
0.183322 0.038087 0.018585
0.198215 0.038087 0.018128
0.216739 0.037873 0.017487
0.235508 0.037568 0.017517
0.255253 0.035859 0.017670
0.275883 0.033326 0.017639
0.295232 0.030701 0.017639
0.312902 0.028443 0.017639
0.330541 0.028504 0.017609
0.349981 0.028595 0.017731
0.369207 0.028626 0.017700
0.390295 0.028717 0.017792
0.411963 0.028717 0.017792
0.429633 0.028809 0.017762
0.444953 0.028901 0.017762
0.460365 0.028992 0.017731
0.475227 0.029023 0.017792
0.490211 0.029053 0.017853
0.505333 0.029206 0.017914
0.520775 0.029236 0.017975
0.534142 0.029358 0.017914
0.546288 0.029450 0.018158
0.557794 0.029572 0.018219
0.566766 0.029816 0.018372
0.575341 0.030030 0.018738
0.584009 0.030274 0.018952
0.592645 0.030610 0.019440
0.600977 0.030976 0.019959
0.608362 0.031403 0.020569
0.615351 0.031891 0.021210
0.622156 0.032441 0.022065
0.627558 0.032959 0.022980
0.632624 0.033539 0.023804
0.637476 0.034272 0.024659
0.641993 0.034882 0.025574
0.646143 0.035554 0.026551
0.650019 0.036133 0.027405
0.653986 0.036866 0.028229
0.657557 0.037446 0.029114
0.660761 0.038025 0.029847
0.012573 0.037690 0.020325
0.015045 0.037934 0.020996
0.017853 0.038117 0.021515
0.020783 0.038178 0.021820
0.024231 0.038025 0.022156
0.027161 0.038300 0.022705
0.030121 0.038575 0.023224
0.033631 0.038636 0.023590
0.037385 0.038849 0.024018
0.041871 0.038972 0.023804
0.046265 0.039185 0.023835
0.051179 0.039277 0.023468
0.055940 0.039460 0.023255
0.061830 0.039643 0.022950
0.067384 0.039826 0.022705
0.075380 0.040101 0.022370
0.082765 0.040528 0.022065
0.093355 0.041047 0.021607
0.103792 0.041535 0.021332
0.115877 0.042054 0.021027
0.128145 0.042634 0.020691
0.141421 0.043061 0.020386
0.155276 0.043427 0.019928
0.168978 0.043885 0.019532
0.184512 0.043946 0.018952
0.199741 0.044038 0.018494
0.218112 0.043946 0.017975
0.237034 0.043641 0.017914
0.257023 0.042359 0.017975
0.277440 0.040009 0.017945
0.297063 0.037568 0.017945
0.314702 0.034943 0.018097
0.332372 0.032197 0.018036
0.351873 0.031952 0.018067
0.371221 0.031983 0.018097
0.392157 0.032074 0.018128
0.413611 0.032136 0.018158
0.432136 0.032227 0.018128
0.447303 0.032319 0.018189
0.462776 0.032349 0.018189
0.477638 0.032380 0.018280
0.492653 0.032441 0.018280
0.507744 0.032532 0.018372
0.523095 0.032654 0.018250
0.536645 0.032715 0.018433
0.548974 0.032776 0.018494
0.560540 0.032929 0.018555
0.569268 0.033082 0.018830
0.577935 0.033265 0.019013
0.586572 0.033478 0.019318
0.595209 0.033753 0.019715
0.603540 0.034058 0.020142
0.610895 0.034485 0.020691
0.617914 0.034913 0.021393
0.624750 0.035309 0.022248
0.630060 0.035828 0.023102
0.635187 0.036439 0.023896
0.640162 0.036988 0.024781
0.644862 0.037598 0.025696
0.649042 0.038178 0.026612
0.653101 0.038788 0.027466
0.656947 0.039429 0.028260
0.660487 0.039948 0.029145
0.663722 0.040497 0.029999
0.012665 0.042756 0.020752
0.015015 0.043030 0.021302
0.017914 0.043153 0.021912
0.020783 0.043122 0.022400
0.023896 0.043183 0.022644
0.027070 0.043305 0.023285
0.030121 0.043519 0.023926
0.033539 0.043549 0.024445
0.037110 0.043885 0.024781
0.041321 0.044251 0.024964
0.046021 0.044312 0.024903
0.050690 0.044587 0.024689
0.055909 0.044617 0.024231
0.061738 0.044800 0.023957
0.067536 0.045136 0.023560
0.075257 0.045441 0.023224
0.083436 0.045777 0.022889
0.093416 0.046357 0.022461
0.104433 0.047059 0.022065
0.116396 0.047639 0.021668
0.129122 0.048310 0.021241
0.142306 0.048798 0.020905
0.156313 0.049317 0.020447
0.170321 0.049775 0.019959
0.185733 0.050141 0.019348
0.200931 0.050385 0.018769
0.219333 0.050233 0.018311
0.238254 0.050172 0.018311
0.258488 0.048798 0.018311
0.278935 0.046754 0.018433
0.298863 0.044373 0.018372
0.316625 0.041871 0.018433
0.334356 0.039399 0.018463
0.353826 0.035401 0.018463
0.373114 0.035431 0.018585
0.394018 0.035523 0.018494
0.415686 0.035554 0.018555
0.434150 0.035615 0.018524
0.449592 0.035706 0.018585
0.465126 0.035737 0.018647
0.480049 0.035767 0.018677
0.494820 0.035859 0.018677
0.510124 0.035950 0.018677
0.525444 0.035981 0.018769
0.539086 0.036103 0.018799
0.551354 0.036133 0.018860
0.563195 0.036255 0.019104
0.572015 0.036408 0.019135
0.580682 0.036561 0.019287
0.589258 0.036774 0.019623
0.598016 0.036957 0.019959
0.606378 0.037263 0.020294
0.613825 0.037598 0.020935
0.620905 0.037903 0.021546
0.627955 0.038331 0.022309
0.633387 0.038788 0.023163
0.638483 0.039277 0.024018
0.643458 0.039857 0.024811
0.648035 0.040345 0.025757
0.652216 0.040955 0.026581
0.656184 0.041474 0.027466
0.659968 0.042023 0.028351
0.663508 0.042573 0.029175
0.666682 0.043061 0.029938
0.012696 0.048035 0.020905
0.014832 0.048524 0.021668
0.017762 0.048585 0.022309
0.020569 0.048585 0.022705
0.024018 0.048402 0.023041
0.026886 0.048676 0.023774
0.030091 0.048829 0.024353
0.033112 0.049165 0.024933
0.036866 0.049348 0.025513
0.041321 0.049683 0.025727
0.045594 0.050019 0.026001
0.050599 0.050355 0.025727
0.055390 0.050568 0.025574
0.061585 0.050690 0.025147
0.067445 0.050935 0.024811
0.075471 0.051362 0.024323
0.083650 0.051881 0.023865
0.093782 0.052491 0.023377
0.105074 0.053101 0.022950
0.117067 0.053986 0.022461
0.129976 0.054719 0.022004
0.143282 0.055482 0.021424
0.157473 0.056245 0.020874
0.171572 0.056794 0.020417
0.187259 0.057374 0.019501
0.202731 0.057649 0.018921
0.221286 0.057649 0.018677
0.240269 0.057435 0.018769
0.260136 0.056886 0.018738
0.281041 0.054932 0.018769
0.301030 0.052796 0.018799
0.319036 0.050660 0.018769
0.336736 0.048127 0.018799
0.356451 0.044404 0.018860
0.375677 0.040345 0.018921
0.396735 0.038941 0.018921
0.418555 0.038972 0.018891
0.437354 0.039033 0.018982
0.452979 0.039033 0.019013
0.468482 0.039124 0.019074
0.483558 0.039185 0.019074
0.498177 0.039216 0.019074
0.513634 0.039338 0.019135
0.528893 0.039368 0.019196
0.542626 0.039460 0.019196
0.555108 0.039521 0.019348
0.567041 0.039643 0.019318
0.575738 0.039734 0.019532
0.584405 0.039857 0.019684
0.593072 0.040009 0.019928
0.601648 0.040284 0.020203
0.610040 0.040467 0.020630
0.617426 0.040711 0.021118
0.624506 0.041016 0.021759
0.631403 0.041444 0.022431
0.636835 0.041871 0.023133
0.641932 0.042298 0.024048
0.646845 0.042725 0.024994
0.651331 0.043183 0.025757
0.655543 0.043732 0.026581
0.659632 0.044251 0.027497
0.663508 0.044709 0.028382
0.667079 0.045197 0.029175
0.670283 0.045655 0.029938
0.012634 0.054017 0.021118
0.014679 0.054536 0.022004
0.017578 0.054566 0.022644
0.020447 0.054597 0.023133
0.023621 0.054566 0.023590
0.026734 0.054505 0.024262
0.029786 0.054841 0.025025
0.033143 0.054902 0.025574
0.036500 0.055177 0.026184
0.040955 0.055634 0.026551
0.045258 0.056092 0.026825
0.049989 0.056458 0.027070
0.055360 0.056764 0.026642
0.060945 0.057008 0.026459
0.067506 0.057282 0.025910
0.074739 0.057740 0.025513
0.084016 0.058289 0.024872
0.093935 0.058869 0.024384
0.105470 0.059846 0.023774
0.117617 0.060609 0.023255
0.130922 0.061646 0.022675
0.144381 0.062501 0.022004
0.158572 0.063447 0.021271
0.172976 0.064210 0.020722
0.188724 0.064881 0.020020
0.204471 0.065492 0.019318
0.222568 0.065522 0.019104
0.242100 0.065339 0.019135
0.262119 0.064698 0.019135
0.282902 0.063447 0.019074
0.303349 0.061738 0.019226
0.321386 0.059571 0.019226
0.339483 0.057374 0.019226
0.358862 0.053651 0.019226
0.378180 0.050019 0.019196
0.398932 0.044923 0.019257
0.420935 0.042420 0.019409
0.440192 0.042451 0.019348
0.455940 0.042512 0.019440
0.471778 0.042573 0.019471
0.486732 0.042603 0.019501
0.501549 0.042664 0.019501
0.517052 0.042695 0.019562
0.532311 0.042756 0.019684
0.546258 0.042878 0.019593
0.558648 0.042939 0.019593
0.570825 0.043030 0.019715
0.579522 0.043091 0.019928
0.588159 0.043214 0.020081
0.596674 0.043366 0.020172
0.605280 0.043549 0.020478
0.613733 0.043671 0.020905
0.621241 0.043977 0.021363
0.628321 0.044282 0.021851
0.635248 0.044556 0.022553
0.640833 0.044892 0.023316
0.645930 0.045258 0.024201
0.650935 0.045686 0.024933
0.655512 0.046143 0.025788
0.659632 0.046601 0.026581
0.663661 0.047059 0.027497
0.667445 0.047486 0.028260
0.670954 0.047944 0.029084
0.674159 0.048341 0.029877
0.012573 0.059937 0.021424
0.014527 0.060761 0.022339
0.017182 0.060853 0.023041
0.020172 0.060853 0.023560
0.023255 0.060853 0.024079
0.026642 0.060670 0.024689
0.029694 0.060945 0.025513
0.032868 0.061158 0.026154
0.036194 0.061524 0.026917
0.040497 0.062043 0.027405
0.044800 0.062623 0.027771
0.049928 0.063050 0.027985
0.054688 0.063691 0.028168
0.060578 0.064088 0.027802
0.066865 0.064454 0.027466
0.074495 0.064820 0.026642
0.083528 0.065492 0.026154
0.093538 0.066285 0.025452
0.105715 0.067170 0.024720
0.117952 0.068208 0.024018
0.131624 0.069337 0.023346
0.145357 0.070436 0.022705
0.160067 0.071565 0.021881
0.174228 0.072572 0.021180
0.190311 0.073548 0.020356
0.206332 0.074098 0.019684
0.224399 0.074647 0.019562
0.243931 0.074525 0.019562
0.264073 0.074464 0.019623
0.285649 0.073213 0.019532
0.306035 0.072206 0.019593
0.324407 0.070314 0.019654
0.342412 0.068269 0.019593
0.361913 0.065187 0.019654
0.381262 0.061463 0.019715
0.402441 0.056825 0.019776
0.424170 0.051209 0.019837
0.443824 0.045930 0.019684
0.459968 0.045960 0.019837
0.475563 0.046021 0.019806
0.490608 0.046082 0.019837
0.505455 0.046113 0.019989
0.520897 0.046174 0.020050
0.536431 0.046235 0.019928
0.550500 0.046296 0.020020
0.563073 0.046296 0.020081
0.575311 0.046448 0.020142
0.584070 0.046509 0.020264
0.592737 0.046571 0.020417
0.601373 0.046662 0.020661
