LUTs/SPK Cube Block1 S64/TheBrim_SPK_Type-F_Block1_S64.cube
TITLE "TheBrim® SPK Block 1"
# © Copyright 2021 - TheBrim® d.o.o. Croatia
LUT_3D_SIZE 64
DOMAIN_MIN 0.000000 0.000000 0.000000
DOMAIN_MAX 1.000000 1.000000 1.000000
0.005615 0.006592 0.005554
0.006226 0.006348 0.005249
0.006744 0.006195 0.005005
0.008240 0.006104 0.004730
0.009583 0.006043 0.004456
0.012238 0.006073 0.004211
0.015198 0.006134 0.003967
0.019532 0.006256 0.003693
0.025635 0.006531 0.003449
0.034089 0.006958 0.003143
0.045289 0.007294 0.002808
0.057404 0.007660 0.002472
0.071015 0.007904 0.002106
0.086183 0.008057 0.001587
0.103212 0.007843 0.001007
0.122347 0.007446 0.000183
0.144686 0.006439 0.000000
0.167239 0.005066 0.000000
0.188754 0.003296 0.000000
0.210758 0.000031 0.000000
0.233097 0.000000 0.000000
0.258213 0.000000 0.000000
0.284489 0.000000 0.000000
0.310094 0.000000 0.000000
0.334356 0.000000 0.000000
0.355749 0.000000 0.000000
0.375006 0.000000 0.000000
0.395453 0.000000 0.000000
0.416663 0.000000 0.000000
0.437079 0.000000 0.000000
0.456245 0.000000 0.000000
0.471473 0.000000 0.000000
0.481605 0.000000 0.000000
0.491585 0.000000 0.000000
0.501213 0.000000 0.000000
0.510491 0.000000 0.000000
0.518975 0.000000 0.000000
0.527001 0.000000 0.000000
0.534661 0.000000 0.000000
0.541863 0.000000 0.000000
0.548730 0.000000 0.000000
0.553277 0.000000 0.000000
0.557916 0.000000 0.000000
0.560998 0.000000 0.000000
0.563592 0.000000 0.000000
0.565881 0.000000 0.000000
0.567834 0.000000 0.000000
0.569512 0.000000 0.000000
0.571160 0.000000 0.000000
0.572717 0.000000 0.000000
0.574243 0.000000 0.000000
0.575769 0.000000 0.000000
0.577142 0.000000 0.000000
0.578546 0.000000 0.000000
0.579736 0.000000 0.000000
0.580865 0.000000 0.000000
0.581964 0.000000 0.000000
0.583154 0.000000 0.000000
0.584375 0.000000 0.000000
0.585077 0.000000 0.000000
0.585718 0.000000 0.000000
0.586694 0.000000 0.000000
0.587701 0.000000 0.000000
0.588708 0.000000 0.000000
0.005768 0.008270 0.005798
0.006409 0.007843 0.005402
0.007019 0.007630 0.005158
0.008484 0.007568 0.004822
0.010040 0.007507 0.004578
0.012573 0.007568 0.004303
0.015930 0.007691 0.004028
0.019928 0.007782 0.003784
0.026459 0.008057 0.003449
0.032959 0.008240 0.003235
0.044709 0.008698 0.002869
0.056123 0.009064 0.002594
0.070069 0.009461 0.002167
0.084291 0.009644 0.001740
0.101717 0.009705 0.001068
0.119539 0.009400 0.000366
0.141085 0.008667 0.000000
0.163119 0.007507 0.000000
0.184970 0.005921 0.000000
0.206516 0.003540 0.000000
0.229191 0.000000 0.000000
0.253086 0.000000 0.000000
0.279728 0.000000 0.000000
0.305821 0.000000 0.000000
0.330358 0.000000 0.000000
0.353094 0.000000 0.000000
0.372473 0.000000 0.000000
0.392035 0.000000 0.000000
0.413336 0.000000 0.000000
0.434333 0.000000 0.000000
0.453590 0.000000 0.000000
0.471504 0.000000 0.000000
0.482429 0.000000 0.000000
0.492256 0.000000 0.000000
0.501915 0.000000 0.000000
0.511406 0.000000 0.000000
0.520775 0.000000 0.000000
0.528893 0.000000 0.000000
0.536736 0.000000 0.000000
0.544640 0.000000 0.000000
0.551812 0.000000 0.000000
0.556512 0.000000 0.000000
0.561303 0.000000 0.000000
0.565423 0.000000 0.000000
0.568048 0.000000 0.000000
0.570153 0.000000 0.000000
0.572168 0.000000 0.000000
0.573938 0.000000 0.000000
0.575586 0.000000 0.000000
0.577142 0.000000 0.000000
0.578698 0.000000 0.000000
0.580163 0.000000 0.000000
0.581506 0.000000 0.000000
0.582849 0.000000 0.000000
0.584222 0.000000 0.000000
0.585382 0.000000 0.000000
0.586511 0.000000 0.000000
0.587640 0.000000 0.000000
0.588556 0.000000 0.000000
0.589044 0.000000 0.000000
0.589593 0.000000 0.000000
0.590173 0.000000 0.000000
0.590173 0.000000 0.000000
0.591211 0.000000 0.000000
0.005921 0.010498 0.006012
0.006592 0.009857 0.005585
0.007233 0.009277 0.005219
0.008667 0.009094 0.004883
0.010346 0.008972 0.004639
0.012787 0.008911 0.004334
0.016297 0.009094 0.004059
0.020172 0.009247 0.003784
0.026856 0.009552 0.003510
0.033356 0.009796 0.003326
0.043946 0.010163 0.003021
0.055451 0.010681 0.002716
0.069245 0.011139 0.002289
0.083192 0.011536 0.001862
0.100496 0.011688 0.001160
0.117830 0.011719 0.000488
0.138949 0.011139 0.000000
0.160098 0.010376 0.000000
0.181704 0.008850 0.000000
0.202823 0.007355 0.000000
0.225589 0.003296 0.000000
0.248264 0.000000 0.000000
0.275181 0.000000 0.000000
0.301762 0.000000 0.000000
0.326452 0.000000 0.000000
0.350469 0.000000 0.000000
0.369879 0.000000 0.000000
0.388800 0.000000 0.000000
0.410040 0.000000 0.000000
0.431434 0.000000 0.000000
0.451301 0.000000 0.000000
0.469459 0.000000 0.000000
0.482856 0.000000 0.000000
0.493446 0.000000 0.000000
0.503105 0.000000 0.000000
0.512688 0.000000 0.000000
0.522148 0.000000 0.000000
0.531395 0.000000 0.000000
0.539452 0.000000 0.000000
0.547570 0.000000 0.000000
0.555291 0.000000 0.000000
0.560113 0.000000 0.000000
0.564904 0.000000 0.000000
0.569665 0.000000 0.000000
0.572320 0.000000 0.000000
0.574426 0.000000 0.000000
0.576440 0.000000 0.000000
0.578332 0.000000 0.000000
0.580041 0.000000 0.000000
0.581598 0.000000 0.000000
0.583154 0.000000 0.000000
0.584558 0.000000 0.000000
0.585901 0.000000 0.000000
0.587243 0.000000 0.000000
0.588556 0.000000 0.000000
0.589868 0.000000 0.000000
0.591028 0.000000 0.000000
0.592157 0.000000 0.000000
0.592767 0.000000 0.000000
0.593286 0.000000 0.000000
0.593805 0.000000 0.000000
0.594293 0.000000 0.000000
0.594446 0.000000 0.000000
0.595483 0.000000 0.000000
0.006012 0.013184 0.006195
0.006775 0.012543 0.005768
0.007446 0.011933 0.005402
0.008820 0.011505 0.005035
0.010742 0.011444 0.004761
0.013062 0.011414 0.004486
0.017060 0.011597 0.004120
0.020569 0.011688 0.003876
0.028016 0.012116 0.003662
0.034546 0.012238 0.003479
0.044312 0.012573 0.003174
0.054963 0.012879 0.002869
0.068513 0.013611 0.002441
0.082643 0.014099 0.001984
0.099336 0.014618 0.001312
0.116823 0.014740 0.000610
0.137118 0.014649 0.000000
0.157992 0.013947 0.000000
0.178744 0.012512 0.000000
0.199527 0.011109 0.000000
0.221958 0.008392 0.000000
0.244724 0.004456 0.000000
0.270542 0.000000 0.000000
0.297246 0.000000 0.000000
0.322667 0.000000 0.000000
0.346777 0.000000 0.000000
0.367468 0.000000 0.000000
0.386389 0.000000 0.000000
0.407019 0.000000 0.000000
0.428504 0.000000 0.000000
0.449012 0.000000 0.000000
0.467445 0.000000 0.000000
0.483070 0.000000 0.000000
0.494362 0.000000 0.000000
0.504570 0.000000 0.000000
0.514122 0.000000 0.000000
0.523613 0.000000 0.000000
0.533104 0.000000 0.000000
0.541741 0.000000 0.000000
0.550042 0.000000 0.000000
0.558282 0.000000 0.000000
0.563531 0.000000 0.000000
0.568414 0.000000 0.000000
0.573205 0.000000 0.000000
0.576593 0.000000 0.000000
0.578698 0.000000 0.000000
0.580743 0.000000 0.000000
0.582666 0.000000 0.000000
0.584588 0.000000 0.000000
0.586267 0.000000 0.000000
0.587732 0.000000 0.000000
0.589075 0.000000 0.000000
0.590387 0.000000 0.000000
0.591730 0.000000 0.000000
0.593042 0.000000 0.000000
0.594324 0.000000 0.000000
0.595575 0.000000 0.000000
0.596521 0.000000 0.000000
0.597040 0.000000 0.000000
0.597559 0.000000 0.000000
0.598077 0.000000 0.000000
0.598566 0.000000 0.000000
0.598688 0.000000 0.000000
0.599695 0.000000 0.000000
0.006012 0.016693 0.006409
0.006867 0.015717 0.005951
0.007660 0.014740 0.005554
0.009155 0.014038 0.005158
0.010925 0.013764 0.004913
0.013153 0.013733 0.004608
0.017365 0.013977 0.004242
0.021424 0.014252 0.004028
0.028565 0.014679 0.003815
0.036072 0.015015 0.003601
0.045319 0.015381 0.003296
0.055726 0.015839 0.002960
0.067659 0.016327 0.002564
0.082277 0.017182 0.002014
0.098085 0.017762 0.001404
0.115816 0.018280 0.000580
0.135042 0.018372 0.000000
0.156283 0.018189 0.000000
0.176883 0.016999 0.000000
0.196628 0.015320 0.000000
0.217990 0.013367 0.000000
0.241093 0.010163 0.000000
0.265385 0.005707 0.000000
0.292485 0.000183 0.000000
0.318517 0.000000 0.000000
0.342870 0.000000 0.000000
0.364935 0.000000 0.000000
0.383673 0.000000 0.000000
0.403235 0.000000 0.000000
0.424964 0.000000 0.000000
0.446235 0.000000 0.000000
0.464881 0.000000 0.000000
0.482246 0.000000 0.000000
0.494301 0.000000 0.000000
0.505119 0.000000 0.000000
0.515099 0.000000 0.000000
0.524681 0.000000 0.000000
0.534112 0.000000 0.000000
0.543114 0.000000 0.000000
0.552026 0.000000 0.000000
0.560571 0.000000 0.000000
0.566613 0.000000 0.000000
0.572015 0.000000 0.000000
0.577050 0.000000 0.000000
0.581353 0.000000 0.000000
0.583703 0.000000 0.000000
0.585809 0.000000 0.000000
0.587762 0.000000 0.000000
0.589654 0.000000 0.000000
0.591516 0.000000 0.000000
0.593042 0.000000 0.000000
0.594385 0.000000 0.000000
0.595727 0.000000 0.000000
0.597040 0.000000 0.000000
0.598352 0.000000 0.000000
0.599634 0.000000 0.000000
0.600916 0.000000 0.000000
0.601648 0.000000 0.000000
0.602106 0.000000 0.000000
0.602502 0.000000 0.000000
0.602991 0.000000 0.000000
0.603418 0.000000 0.000000
0.603357 0.000000 0.000000
0.604425 0.000000 0.000000
0.005829 0.021027 0.006561
0.006867 0.019989 0.006104
0.007691 0.019043 0.005707
0.009461 0.018341 0.005310
0.011414 0.017823 0.005035
0.013153 0.017243 0.004791
0.017884 0.017548 0.004395
0.022004 0.017762 0.004242
0.029358 0.018280 0.003998
0.036988 0.018402 0.003784
0.046448 0.018708 0.003418
0.056794 0.018952 0.003082
0.067689 0.019257 0.002686
0.081361 0.019928 0.002167
0.096590 0.020813 0.001556
0.114504 0.021454 0.000671
0.132784 0.021912 0.000000
0.154147 0.021942 0.000000
0.175051 0.021668 0.000000
0.194644 0.019867 0.000000
0.214359 0.018189 0.000000
0.237064 0.015106 0.000000
0.260075 0.011994 0.000000
0.287175 0.006531 0.000000
0.313909 0.001038 0.000000
0.338720 0.000000 0.000000
0.362188 0.000000 0.000000
0.381079 0.000000 0.000000
0.399847 0.000000 0.000000
0.421149 0.000000 0.000000
0.442817 0.000000 0.000000
0.462257 0.000000 0.000000
0.479744 0.000000 0.000000
0.494270 0.000000 0.000000
0.505303 0.000000 0.000000
0.515923 0.000000 0.000000
0.526024 0.000000 0.000000
0.535668 0.000000 0.000000
0.545037 0.000000 0.000000
0.554131 0.000000 0.000000
0.563256 0.000000 0.000000
0.570214 0.000000 0.000000
0.575769 0.000000 0.000000
0.581109 0.000000 0.000000
0.585626 0.000000 0.000000
0.588861 0.000000 0.000000
0.590967 0.000000 0.000000
0.592889 0.000000 0.000000
0.594842 0.000000 0.000000
0.596674 0.000000 0.000000
0.598322 0.000000 0.000000
0.599786 0.000000 0.000000
0.601099 0.000000 0.000000
0.602411 0.000000 0.000000
0.603723 0.000000 0.000000
0.605005 0.000000 0.000000
0.606165 0.000000 0.000000
0.606775 0.000000 0.000000
0.607355 0.000000 0.000000
0.607782 0.000000 0.000000
0.608209 0.000000 0.000000
0.608637 0.000000 0.000000
0.608606 0.000000 0.000000
0.609583 0.000000 0.000000
0.005524 0.026581 0.006714
0.006653 0.025055 0.006226
0.007752 0.023529 0.005798
0.009674 0.022461 0.005402
0.011810 0.022004 0.005097
0.013794 0.021454 0.004822
0.017914 0.021393 0.004578
0.022827 0.021820 0.004364
0.029725 0.022339 0.004120
0.038453 0.022858 0.003815
0.047547 0.023255 0.003510
0.058473 0.023926 0.003082
0.068940 0.024262 0.002747
0.081849 0.024964 0.002167
0.095460 0.025574 0.001648
0.113222 0.027039 0.000641
0.130739 0.027558 0.000000
0.152621 0.027893 0.000000
0.173465 0.027802 0.000000
0.193515 0.026551 0.000000
0.212955 0.024781 0.000000
0.233860 0.022644 0.000000
0.256474 0.019654 0.000000
0.282536 0.015595 0.000000
0.309361 0.010224 0.000000
0.335119 0.003693 0.000000
0.358709 0.000000 0.000000
0.379278 0.000000 0.000000
0.397925 0.000000 0.000000
0.417945 0.000000 0.000000
0.439826 0.000000 0.000000
0.459998 0.000000 0.000000
0.477852 0.000000 0.000000
0.494728 0.000000 0.000000
0.505791 0.000000 0.000000
0.516655 0.000000 0.000000
0.527367 0.000000 0.000000
0.537438 0.000000 0.000000
0.547112 0.000000 0.000000
0.556298 0.000000 0.000000
0.565454 0.000000 0.000000
0.573693 0.000000 0.000000
0.579339 0.000000 0.000000
0.584863 0.000000 0.000000
0.589746 0.000000 0.000000
0.593835 0.000000 0.000000
0.596094 0.000000 0.000000
0.598047 0.000000 0.000000
0.599969 0.000000 0.000000
0.601740 0.000000 0.000000
0.603418 0.000000 0.000000
0.605035 0.000000 0.000000
0.606470 0.000000 0.000000
0.607843 0.000000 0.000000
0.609125 0.000000 0.000000
0.610376 0.000000 0.000000
0.611261 0.000000 0.000000
0.611872 0.000000 0.000000
0.612482 0.000000 0.000000
0.613092 0.000000 0.000000
0.613519 0.000000 0.000000
0.613947 0.000000 0.000000
0.613825 0.000000 0.000000
0.614649 0.000000 0.000000
0.004883 0.033539 0.006714
0.006256 0.031922 0.006226
0.007355 0.030426 0.005829
0.009674 0.029358 0.005402
0.012055 0.028473 0.005097
0.014130 0.027588 0.004974
0.018799 0.027283 0.004761
0.022980 0.026734 0.004547
0.030121 0.027192 0.004242
0.039002 0.027344 0.003937
0.048402 0.027619 0.003571
0.059571 0.028412 0.003143
0.070436 0.029114 0.002716
0.083162 0.029816 0.002136
0.095979 0.030518 0.001556
0.111818 0.031586 0.000702
0.129580 0.033021 0.000000
0.150240 0.033387 0.000000
0.172061 0.033783 0.000000
0.192172 0.032959 0.000000
0.211948 0.031556 0.000000
0.231998 0.029541 0.000000
0.253391 0.027253 0.000000
0.277317 0.023865 0.000000
0.304662 0.019165 0.000000
0.330968 0.013397 0.000000
0.355016 0.006500 0.000000
0.377142 0.000000 0.000000
0.396124 0.000000 0.000000
0.414893 0.000000 0.000000
0.436591 0.000000 0.000000
0.457435 0.000000 0.000000
0.475563 0.000000 0.000000
0.492805 0.000000 0.000000
0.506218 0.000000 0.000000
0.517144 0.000000 0.000000
0.527977 0.000000 0.000000
0.538750 0.000000 0.000000
0.548913 0.000000 0.000000
0.558465 0.000000 0.000000
0.567712 0.000000 0.000000
0.576928 0.000000 0.000000
0.582788 0.000000 0.000000
0.588495 0.000000 0.000000
0.593835 0.000000 0.000000
0.598291 0.000000 0.000000
0.601648 0.000000 0.000000
0.603662 0.000000 0.000000
0.605615 0.000000 0.000000
0.607355 0.000000 0.000000
0.609003 0.000000 0.000000
0.610681 0.000000 0.000000
0.612360 0.000000 0.000000
0.613825 0.000000 0.000000
0.615076 0.000000 0.000000
0.616327 0.000000 0.000000
0.616938 0.000000 0.000000
0.617487 0.000000 0.000000
0.618097 0.000000 0.000000
0.618677 0.000000 0.000000
0.619287 0.000000 0.000000
0.619654 0.000000 0.000000
0.619440 0.000000 0.000000
0.620050 0.000000 0.000000
0.004028 0.041413 0.006683
0.005493 0.039521 0.006195
0.006958 0.037476 0.005768
0.009491 0.036133 0.005310
0.012085 0.035401 0.005097
0.014496 0.034638 0.004974
0.019532 0.034485 0.004730
0.024414 0.034272 0.004517
0.030091 0.033936 0.004273
0.040284 0.034730 0.003876
0.049317 0.035004 0.003571
0.061097 0.035859 0.003052
0.071992 0.036286 0.002655
0.084932 0.037018 0.001984
0.097597 0.037385 0.001434
0.111818 0.038117 0.000580
0.128328 0.039002 0.000000
0.148104 0.039887 0.000000
0.170077 0.040223 0.000000
0.190921 0.040375 0.000000
0.210788 0.038880 0.000000
0.230716 0.037354 0.000000
0.251804 0.035035 0.000000
0.273106 0.032624 0.000000
0.299809 0.028290 0.000000
0.326879 0.023651 0.000000
0.351476 0.017090 0.000000
0.374426 0.010498 0.000000
0.394293 0.003265 0.000000
0.413214 0.000000 0.000000
0.433783 0.000000 0.000000
0.454505 0.000000 0.000000
0.473640 0.000000 0.000000
0.491127 0.000000 0.000000
0.507073 0.000000 0.000000
0.518059 0.000000 0.000000
0.528985 0.000000 0.000000
0.539879 0.000000 0.000000
0.550744 0.000000 0.000000
0.561028 0.000000 0.000000
0.570397 0.000000 0.000000
0.579828 0.000000 0.000000
0.586877 0.000000 0.000000
0.592615 0.000000 0.000000
0.598260 0.000000 0.000000
0.602777 0.000000 0.000000
0.607050 0.000000 0.000000
0.609461 0.000000 0.000000
0.611383 0.000000 0.000000
0.613092 0.000000 0.000000
0.614710 0.000000 0.000000
0.616419 0.000000 0.000000
0.618067 0.000000 0.000000
0.619745 0.000000 0.000000
0.621149 0.000000 0.000000
0.622095 0.000000 0.000000
0.622705 0.000000 0.000000
0.623285 0.000000 0.000000
0.623835 0.000000 0.000000
0.624445 0.000000 0.000000
0.625055 0.000000 0.000000
0.625635 0.000000 0.000000
0.625238 0.000000 0.000000
0.625849 0.000000 0.000000
0.002777 0.050782 0.006531
0.004181 0.049714 0.006165
0.005676 0.047852 0.005737
0.008637 0.046418 0.005280
0.011597 0.045380 0.005097
0.014191 0.044251 0.004944
0.020020 0.043824 0.004669
0.024994 0.043183 0.004486
0.031434 0.042542 0.004211
0.040101 0.041779 0.003876
0.050324 0.042634 0.003449
0.061891 0.043488 0.002930
0.073610 0.044495 0.002411
0.086152 0.045167 0.001770
0.099519 0.046052 0.001007
0.113069 0.046662 0.000275
0.128573 0.047791 0.000000
0.145541 0.048524 0.000000
0.168978 0.048798 0.000000
0.190005 0.049134 0.000000
0.210422 0.048890 0.000000
0.230228 0.047700 0.000000
0.251469 0.046326 0.000000
0.272496 0.044160 0.000000
0.296513 0.040986 0.000000
0.323278 0.036896 0.000000
0.348608 0.031647 0.000000
0.372015 0.025452 0.000000
0.393469 0.018708 0.000000
0.412634 0.011475 0.000000
0.432197 0.003388 0.000000
0.453376 0.000000 0.000000
0.473365 0.000000 0.000000
0.491096 0.000000 0.000000
0.507744 0.000000 0.000000
0.520256 0.000000 0.000000
0.531273 0.000000 0.000000
0.542168 0.000000 0.000000
0.553277 0.000000 0.000000
0.564111 0.000000 0.000000
0.573724 0.000000 0.000000
0.583246 0.000000 0.000000
0.591455 0.000000 0.000000
0.597223 0.000000 0.000000
0.602960 0.000000 0.000000
0.607599 0.000000 0.000000
0.612085 0.000000 0.000000
0.615625 0.000000 0.000000
0.617487 0.000000 0.000000
0.619196 0.000000 0.000000
0.620844 0.000000 0.000000
0.622522 0.000000 0.000000
0.624201 0.000000 0.000000
0.625879 0.000000 0.000000
0.627375 0.000000 0.000000
0.628107 0.000000 0.000000
0.628717 0.000000 0.000000
0.629297 0.000000 0.000000
0.629877 0.000000 0.000000
0.630457 0.000000 0.000000
0.631037 0.000000 0.000000
0.631647 0.000000 0.000000
0.631189 0.000000 0.000000
0.631830 0.000000 0.000000
0.001068 0.060792 0.006256
0.002594 0.059632 0.005921
0.004089 0.058442 0.005585
0.007416 0.056977 0.005127
0.010773 0.055726 0.004944
0.013916 0.054719 0.004761
0.019989 0.054353 0.004456
0.026154 0.054017 0.004150
0.032441 0.053407 0.003937
0.042206 0.052705 0.003540
0.050752 0.051972 0.003265
0.062989 0.052949 0.002625
0.074708 0.053742 0.002106
0.087373 0.054658 0.001434
0.100862 0.055360 0.000671
0.114595 0.055940 0.000000
0.130220 0.056672 0.000000
0.145357 0.057465 0.000000
0.166476 0.057435 0.000000
0.188724 0.057740 0.000000
0.209842 0.057649 0.000000
0.229984 0.057465 0.000000
0.250767 0.056580 0.000000
0.272190 0.055177 0.000000
0.294621 0.052674 0.000000
0.320104 0.049104 0.000000
0.345708 0.045106 0.000000
0.369543 0.039429 0.000000
0.392554 0.033509 0.000000
0.411872 0.026429 0.000000
0.431037 0.019440 0.000000
0.451972 0.009491 0.000000
0.472541 0.000000 0.000000
0.490913 0.000000 0.000000
0.507927 0.000000 0.000000
0.522545 0.000000 0.000000
0.533623 0.000000 0.000000
0.544579 0.000000 0.000000
0.555566 0.000000 0.000000
0.566674 0.000000 0.000000
0.576989 0.000000 0.000000
0.586633 0.000000 0.000000
0.596063 0.000000 0.000000
0.601862 0.000000 0.000000
0.607721 0.000000 0.000000
0.612757 0.000000 0.000000
0.617182 0.000000 0.000000
0.621729 0.000000 0.000000
0.624048 0.000000 0.000000
0.625727 0.000000 0.000000
0.627405 0.000000 0.000000
0.629114 0.000000 0.000000
0.630793 0.000000 0.000000
0.632502 0.000000 0.000000
0.633753 0.000000 0.000000
0.634546 0.000000 0.000000
0.635218 0.000000 0.000000
0.635737 0.000000 0.000000
0.636286 0.000000 0.000000
0.636896 0.000000 0.000000
0.637446 0.000000 0.000000
0.637812 0.000000 0.000000
0.637507 0.000000 0.000000
0.638117 0.000000 0.000000
0.000000 0.071412 0.005859
0.000641 0.070161 0.005524
0.002136 0.069001 0.005188
0.005585 0.068513 0.004761
0.009308 0.067628 0.004517
0.012573 0.066407 0.004395
0.019837 0.065919 0.004028
0.025879 0.065278 0.003845
0.033631 0.064637 0.003510
0.043610 0.063478 0.003143
0.053101 0.062623 0.002808
0.063294 0.062287 0.002289
0.076112 0.063447 0.001587
0.088624 0.064393 0.000916
0.102510 0.065553 0.000000
0.115938 0.066316 0.000000
0.132631 0.066773 0.000000
0.148104 0.067353 0.000000
0.167208 0.067994 0.000000
0.188388 0.068269 0.000000
0.210208 0.068635 0.000000
0.230686 0.068727 0.000000
0.251194 0.068421 0.000000
0.273014 0.067475 0.000000
0.294408 0.065644 0.000000
0.319860 0.062898 0.000000
0.344213 0.059205 0.000000
0.368109 0.055360 0.000000
0.391547 0.049744 0.000000
0.412299 0.044770 0.000000
0.431586 0.037751 0.000000
0.451820 0.030335 0.000000
0.472419 0.019806 0.000000
0.491737 0.009613 0.000000
0.508995 0.000000 0.000000
0.525505 0.000000 0.000000
0.536828 0.000000 0.000000
0.547875 0.000000 0.000000
0.558862 0.000000 0.000000
0.570062 0.000000 0.000000
0.580896 0.000000 0.000000
0.590661 0.000000 0.000000
0.600397 0.000000 0.000000
0.607172 0.000000 0.000000
0.613001 0.000000 0.000000
0.618433 0.000000 0.000000
0.622797 0.000000 0.000000
0.627131 0.000000 0.000000
0.630915 0.000000 0.000000
0.632563 0.000000 0.000000
0.634180 0.000000 0.000000
0.635859 0.000000 0.000000
0.637568 0.000000 0.000000
0.639246 0.000000 0.000000
0.640253 0.000000 0.000000
0.641016 0.000000 0.000000
0.641718 0.000000 0.000000
0.642298 0.000000 0.000000
0.642847 0.000000 0.000000
0.643427 0.000000 0.000000
0.644007 0.000000 0.000000
0.644160 0.000000 0.000000
0.643854 0.000000 0.000000
0.644465 0.000000 0.000000
0.000000 0.082612 0.005341
0.000000 0.081178 0.005035
0.000458 0.079927 0.004669
0.004150 0.079347 0.004273
0.007630 0.078950 0.003998
0.011597 0.077974 0.003815
0.018921 0.077546 0.003449
0.026276 0.077058 0.003113
0.034150 0.076448 0.002777
0.045502 0.075593 0.002319
0.055146 0.074647 0.002014
0.066041 0.073915 0.001587
0.076905 0.073457 0.001068
0.089876 0.074525 0.000336
0.104067 0.075563 0.000000
0.117800 0.076600 0.000000
0.134249 0.077119 0.000000
0.150637 0.077302 0.000000
0.169162 0.077760 0.000000
0.189487 0.078431 0.000000
0.210575 0.079011 0.000000
0.231449 0.079500 0.000000
0.251926 0.079774 0.000000
0.273899 0.079225 0.000000
0.295537 0.078218 0.000000
0.320195 0.076173 0.000000
0.344732 0.073762 0.000000
0.367681 0.070222 0.000000
0.391119 0.066835 0.000000
0.413153 0.061738 0.000000
0.432807 0.057404 0.000000
0.452125 0.050416 0.000000
0.472999 0.042451 0.000000
0.493141 0.032868 0.000000
0.510430 0.022553 0.000000
0.527337 0.012879 0.000000
0.540459 0.004822 0.000000
0.551537 0.000000 0.000000
0.562554 0.000000 0.000000
0.573816 0.000000 0.000000
0.584924 0.000000 0.000000
0.594873 0.000000 0.000000
0.604669 0.000000 0.000000
0.612573 0.000000 0.000000
0.618341 0.000000 0.000000
0.624109 0.000000 0.000000
0.628565 0.000000 0.000000
0.632776 0.000000 0.000000
0.636744 0.000000 0.000000
0.639338 0.000000 0.000000
0.641016 0.000000 0.000000
0.642664 0.000000 0.000000
0.644343 0.000000 0.000000
0.645869 0.000000 0.000000
0.646723 0.000000 0.000000
0.647517 0.000000 0.000000
0.648188 0.000000 0.000000
0.648829 0.000000 0.000000
0.649409 0.000000 0.000000
0.649958 0.000000 0.000000
0.650355 0.000000 0.000000
0.650477 0.000000 0.000000
0.650202 0.000000 0.000000
0.650813 0.000000 0.000000
0.000000 0.095125 0.004517
0.000000 0.093751 0.004181
0.000000 0.092714 0.003754
0.001556 0.092195 0.003296
0.005188 0.091859 0.002991
0.009003 0.091676 0.002808
0.017670 0.091279 0.002441
0.025116 0.090455 0.002228
0.034668 0.089509 0.001862
0.046540 0.088045 0.001434
0.057252 0.086732 0.001068
0.068605 0.086030 0.000549
0.080018 0.085481 0.000000
0.090913 0.085084 0.000000
0.105623 0.086305 0.000000
0.119692 0.087434 0.000000
0.136263 0.088472 0.000000
0.153262 0.088991 0.000000
0.171389 0.089570 0.000000
0.192020 0.090425 0.000000
0.212161 0.090791 0.000000
0.232303 0.091066 0.000000
0.252903 0.091554 0.000000
0.274937 0.091646 0.000000
0.296727 0.090761 0.000000
0.320653 0.089601 0.000000
0.345434 0.087465 0.000000
0.368719 0.085237 0.000000
0.390997 0.081514 0.000000
0.414038 0.078340 0.000000
0.433692 0.074220 0.000000
0.452705 0.069612 0.000000
0.473396 0.062593 0.000000
0.493721 0.054719 0.000000
0.511925 0.045808 0.000000
0.528985 0.035492 0.000000
0.544030 0.026337 0.000000
0.555230 0.018769 0.000000
0.566339 0.011322 0.000000
0.577539 0.002655 0.000000
0.588739 0.000000 0.000000
0.599176 0.000000 0.000000
0.609003 0.000000 0.000000
0.618280 0.000000 0.000000
0.624018 0.000000 0.000000
0.629847 0.000000 0.000000
0.634760 0.000000 0.000000
0.639063 0.000000 0.000000
0.643183 0.000000 0.000000
0.646845 0.000000 0.000000
