LUTs/SPK Cube Block1 S64/TheBrim_SPK_Type-J_Block 1_S64.cube
TITLE "TheBrim® Industrial Imaging Burau"
# © Copyright 2022 - TheBrim® d.o.o. Croatia
LUT_3D_SIZE 8
0.0000000000 0.0000000000 0.0000000000
0.1191424430 0.0000000000 0.0000000000
0.3176012818 0.0000000000 0.0000000000
0.5160448615 0.0000000000 0.0000305180
0.7144426642 0.0000000000 0.0000305180
0.9128404669 0.0000000000 0.0000610361
1.0000000000 0.0000000000 0.0000915541
1.0000000000 0.0000000000 0.0000915541
0.0000000000 0.1193560693 0.0127870603
0.1166399634 0.1193255512 0.0091554131
0.3173876555 0.1190508888 0.0032043946
0.5159227893 0.1191119249 0.0002746624
0.7144121462 0.1190814069 0.0000305180
0.9128404669 0.1190508888 0.0000610361
1.0000000000 0.1190203708 0.0000915541
1.0000000000 0.1190203708 0.0000915541
0.0000000000 0.3181506065 0.0337834745
0.1096513313 0.3182726787 0.0288700694
0.3122911421 0.3180285344 0.0224917983
0.5145799954 0.3175707637 0.0164187076
0.7138933394 0.3175097276 0.0119020371
0.9125658045 0.3174792096 0.0083314260
0.9998779278 0.3174792096 0.0066529335
0.9998779278 0.3174792096 0.0066529335
0.0000000000 0.5168383307 0.0537727932
0.1085831998 0.5169909209 0.0484626535
0.2947432670 0.5167772946 0.0433051041
0.5077439536 0.5165331502 0.0362554360
0.7111772335 0.5161364157 0.0299382010
0.9112230106 0.5160143435 0.0246890974
0.9988708324 0.5159533074 0.0227054246
0.9988708324 0.5159533074 0.0227054246
0.0000000000 0.7156023499 0.0706187533
0.1074845502 0.7156939040 0.0657663844
0.2942549783 0.7155413138 0.0642710002
0.4792858778 0.7152971695 0.0579537652
0.7032120241 0.7150835431 0.0508125429
0.9073472190 0.7147478447 0.0439765011
0.9958800641 0.7146562905 0.0411993591
0.9958800641 0.7146562905 0.0411993591
0.0000000000 0.9143358511 0.0706187533
0.1074235142 0.9143358511 0.0657053483
0.2941023880 0.9142137789 0.0657053483
0.4790722515 0.9140306706 0.0657053483
0.6760509651 0.9138170443 0.0657053483
0.8987106126 0.9136034180 0.0650644694
0.9893186847 0.9134508278 0.0622873274
0.9893186847 0.9134508278 0.0622873274
0.0000000000 1.0000000000 0.0706187533
0.1074235142 1.0000000000 0.0657053483
0.2940718700 1.0000000000 0.0657053483
0.4790112154 1.0000000000 0.0657053483
0.6636911574 1.0000000000 0.0657053483
0.8921187152 1.0000000000 0.0657053483
0.9846494240 1.0000000000 0.0657053483
0.9846494240 1.0000000000 0.0657053483
0.0000000000 1.0000000000 0.0706187533
0.1074235142 1.0000000000 0.0657053483
0.2940718700 1.0000000000 0.0657053483
0.4790112154 1.0000000000 0.0657053483
0.6636911574 1.0000000000 0.0657053483
0.8921187152 1.0000000000 0.0657053483
0.9846494240 1.0000000000 0.0657053483
0.9846494240 1.0000000000 0.0657053483
0.0032654307 0.0000000000 0.0947890440
0.1035477226 0.0000000000 0.0948500801
0.2890363928 0.0000000000 0.0970473793
0.4805981537 0.0000000000 0.0995193408
0.6778820478 0.0000000000 0.1021438926
0.8808880751 0.0000000000 0.1047074083
1.0000000000 0.0000000000 0.1073929961
1.0000000000 0.0000000000 0.1098954757
0.0000000000 0.1020828565 0.1042496376
0.1020218204 0.1020218204 0.1020218204
0.2981307698 0.0955519951 0.0896009766
0.4944838636 0.0924696727 0.0853894865
0.6926527810 0.0920729381 0.0849622339
0.8925764858 0.0933852140 0.0862439918
1.0000000000 0.0966201266 0.0892652781
1.0000000000 0.1015335317 0.0938124666
0.0000000000 0.2893110552 0.1273517967
0.0839856565 0.2950179294 0.1145952544
0.2871137560 0.2916914626 0.1029983978
0.4867627985 0.2880903334 0.0949416342
0.6855420768 0.2875715267 0.0898146029
0.8857404440 0.2890669108 0.0874036774
1.0000000000 0.2923933776 0.0881055924
1.0000000000 0.2973373007 0.0931105516
0.0000000000 0.4818493935 0.1496299687
0.0804760815 0.4901197833 0.1323262379
0.2650797284 0.4868848707 0.1208209354
0.4769970245 0.4849317159 0.1121232929
0.6797741665 0.4838025483 0.1055313954
0.8812542916 0.4850537881 0.1014724956
0.9992065309 0.4882887007 0.1020523384
0.9991760128 0.4932936599 0.1069657435
0.0000000000 0.6800488289 0.1722438392
0.0802929732 0.6886854353 0.1529869535
0.2635843442 0.6854505226 0.1415732052
0.4488899062 0.6834668498 0.1337300679
0.6721751736 0.6832837415 0.1265583276
0.8775310903 0.6841077287 0.1214007782
0.9965819791 0.6872205692 0.1210955978
0.9964904250 0.6922560464 0.1262226291
0.0000000000 0.8839703975 0.1756618601
0.0831616693 0.8906538491 0.1562829023
0.2660257877 0.8872663462 0.1483176928
0.4511787594 0.8854047456 0.1468528267
0.6467536431 0.8851911192 0.1468833448
0.8723735409 0.8866865034 0.1459983215
0.9904783703 0.8896467536 0.1452964065
0.9902952621 0.8947432670 0.1503624018
0.0000000000 1.0000000000 0.1783169299
0.0892042420 1.0000000000 0.1623559930
0.2719768063 1.0000000000 0.1542381933
0.4571297780 1.0000000000 0.1527428092
0.6425421530 1.0000000000 0.1527428092
0.8702677958 1.0000000000 0.1542687114
0.9848325322 1.0000000000 0.1574120699
0.9848325322 1.0000000000 0.1619287404
0.0000000000 1.0000000000 0.1809414817
0.0981460288 1.0000000000 0.1712672618
0.2809796292 1.0000000000 0.1632410163
0.4662241550 1.0000000000 0.1616540780
0.6516670481 1.0000000000 0.1616845960
0.8810406653 1.0000000000 0.1632410163
0.9848630503 1.0000000000 0.1662928206
0.9848630503 1.0000000000 0.1708400092
0.0104371710 0.0000000000 0.2393224994
0.0921034562 0.0000000000 0.2330357824
0.2606546120 0.0000000000 0.2394750896
0.4425116350 0.0000000000 0.2484168765
0.6364995804 0.0000000000 0.2583352407
0.8423743038 0.0000000000 0.2685587854
1.0000000000 0.0000000000 0.2791790646
1.0000000000 0.0000000000 0.2898908980
0.0086976425 0.0838330663 0.2348058289
0.0843518730 0.0754406043 0.2612039368
0.2755474174 0.0684214542 0.2529335470
0.4686961166 0.0644541085 0.2485999847
0.6663157092 0.0641489281 0.2482642863
0.8679484245 0.0675364309 0.2513466087
1.0000000000 0.0744640269 0.2578774701
1.0000000000 0.0849011978 0.2676432441
0.0000000000 0.2577859159 0.2633096818
0.0577401389 0.2655069810 0.2703898680
0.2576333257 0.2576333257 0.2576333257
0.4542915999 0.2513160906 0.2457923247
0.6524299992 0.2478675517 0.2380102235
0.8538185702 0.2496375982 0.2355687800
1.0000000000 0.2561379416 0.2382848859
1.0000000000 0.2666971847 0.2491493095
0.0000000000 0.4428168154 0.2932784009
0.0510261692 0.4570992599 0.2843060960
0.2257724880 0.4512092775 0.2686808576
0.4424200809 0.4476691844 0.2563210498
0.6433661402 0.4441596094 0.2505226215
0.8458533608 0.4458381018 0.2464637217
0.9999389639 0.4521858549 0.2493324178
0.9999084459 0.4628061341 0.2601968414
0.0000000000 0.6394903487 0.3243152514
0.0509651331 0.6557259480 0.3050583658
0.2236972610 0.6492866407 0.2892500191
0.4100709545 0.6459296559 0.2762188144
0.6364995804 0.6457160296 0.2690470741
0.8425268940 0.6466926070 0.2668802930
0.9977416648 0.6527962158 0.2684367132
0.9976195926 0.6635385672 0.2795147631
0.0000000000 0.8479896239 0.3411306935
0.0571908141 0.8615091173 0.3160143435
0.2292820630 0.8545510033 0.3030136568
0.4138857099 0.8510414282 0.2952620737
0.6147096971 0.8508278019 0.2952620737
0.8413672084 0.8541542687 0.2932173648
0.9924010071 0.8597695888 0.2952925917
0.9920653086 0.8705424582 0.3060349432
0.0000000000 1.0000000000 0.3520561532
0.0699473564 1.0000000000 0.3289845121
0.2417944610 1.0000000000 0.3154955367
0.4260013733 1.0000000000 0.3074998093
0.6142824445 1.0000000000 0.3075303273
0.8431677729 1.0000000000 0.3108262760
0.9857175555 1.0000000000 0.3173876555
0.9858091096 1.0000000000 0.3272144656
0.0000000000 1.0000000000 0.3629205768
0.0888075074 1.0000000000 0.3483024338
0.2609597925 1.0000000000 0.3346608682
0.4453803311 1.0000000000 0.3268482490
0.6338139925 1.0000000000 0.3268482490
0.8664225223 1.0000000000 0.3300831617
0.9859006638 1.0000000000 0.3366750591
0.9859922179 1.0000000000 0.3465323873
0.0168764782 0.0000000000 0.3719539178
0.0831616693 0.0000000000 0.3464408331
0.2347447929 0.0000000000 0.3546196689
0.4046692607 0.0000000000 0.3720454719
0.5936827649 0.0000000000 0.3931029221
0.8016327153 0.0000000000 0.4160830091
1.0000000000 0.0000000000 0.4401922637
1.0000000000 0.0000000000 0.4649118791
0.0138857099 0.0652475776 0.3376516365
0.0679026474 0.0476997024 0.4200808728
0.2496070802 0.0370794232 0.4093080034
0.4392462043 0.0318913558 0.4038147555
0.6359502556 0.0318303197 0.4035706111
0.8393224994 0.0369878691 0.4088197147
1.0000000000 0.0474860761 0.4194399939
1.0000000000 0.0638742657 0.4353704128
0.0109254597 0.2250095369 0.3678034638
0.0421759365 0.2295872435 0.4145876249
0.2200045777 0.2120393683 0.4018005646
0.4172426947 0.2066681926 0.3914854658
0.6136415656 0.2057221332 0.3851071946
0.8166781109 0.2101167315 0.3849851225
1.0000000000 0.2207980468 0.3945372702
1.0000000000 0.2377965972 0.4103761349
0.0000000000 0.4006103609 0.4086060883
0.0176394293 0.4180056458 0.4261844816
0.1946135653 0.4076600290 0.4131837949
0.4003051804 0.4003051804 0.4003051804
0.6007019150 0.3983520256 0.3926756695
0.8048676280 0.4001831083 0.3895628290
1.0000000000 0.4088807507 0.3943541619
1.0000000000 0.4264286259 0.4121766995
0.0000000000 0.5947508965 0.4530098421
0.0176394293 0.6168459602 0.4480354009
0.1847867552 0.6060425727 0.4329900053
0.3713435569 0.6013427939 0.4177004654
0.5956664378 0.6012817578 0.4093385214
0.8019989319 0.6030823224 0.4103456168
0.9994506752 0.6119935912 0.4133363851
0.9993591211 0.6294499123 0.4314641032
0.0000000000 0.8078583963 0.4910353246
0.0272526131 0.8270847639 0.4692149233
0.1944304570 0.8157625696 0.4561837186
0.3709468223 0.8105745022 0.4450446326
0.5803463798 0.8106660563 0.4395208667
0.8061799039 0.8161898222 0.4381780728
0.9949645228 0.8245212482 0.4452887770
0.9946288243 0.8418554971 0.4627450980
0.0000000000 1.0000000000 0.5164415961
0.0470588235 1.0000000000 0.4902723735
0.2147249561 1.0000000000 0.4764782177
0.3903562982 1.0000000000 0.4641794461
0.5793698024 1.0000000000 0.4607919432
0.8118562600 1.0000000000 0.4662241550
0.9875791562 1.0000000000 0.4770275425
0.9878233005 1.0000000000 0.4932326238
0.0000000000 1.0000000000 0.5421683070
0.0773327230 1.0000000000 0.5215686275
0.2454566262 1.0000000000 0.5075913634
0.4217898833 1.0000000000 0.4956435492
0.6111390860 1.0000000000 0.4925917449
0.8499427787 1.0000000000 0.4980239567
0.9880674449 1.0000000000 0.5089036393
0.9883115892 1.0000000000 0.5251697566
0.0236514839 0.0000000000 0.5100938430
0.0779125658 0.0000000000 0.4476691844
0.2136873426 0.0000000000 0.4506599527
0.3714961471 0.0000000000 0.4753795682
0.5545281147 0.0000000000 0.5100022889
0.7637903410 0.0000000000 0.5496452277
0.9963073167 0.0000000000 0.5925535973
1.0000000000 0.0000000000 0.6372625315
0.0176089113 0.0492866407 0.4219424735
0.0506599527 0.0229800870 0.5784847791
0.2240024414 0.0089417868 0.5630426490
0.4084840162 0.0019836728 0.5553826200
0.6038147555 0.0019836728 0.5553826200
0.8088044556 0.0089417868 0.5630426490
1.0000000000 0.0230411231 0.5784237430
1.0000000000 0.0443427176 0.6013427939
0.0171511406 0.1931486992 0.4456855116
0.0227969787 0.1906767376 0.5553521019
0.1847257191 0.1668726635 0.5384451057
0.3743648432 0.1587548638 0.5279468986
0.5715266651 0.1588769360 0.5257495995
0.7761806668 0.1667505913 0.5317921721
0.9876401923 0.1825894560 0.5465018692
1.0000000000 0.2069428550 0.5692072938
0.0114442664 0.3582818341 0.4976272221
0.0162661173 0.3746395056 0.5618829633
0.1630884260 0.3565728237 0.5444266423
0.3502555886 0.3426565957 0.5336537728
0.5553521019 0.3431448844 0.5282520790
0.7599450675 0.3503471427 0.5288624399
0.9725947967 0.3647516594 0.5393301289
1.0000000000 0.3894102388 0.5636224918
0.0000000000 0.5490348669 0.5596856641
0.0000000000 0.5738765545 0.5849546044
0.1417563134 0.5578240635 0.5674677653
0.3382314794 0.5507743954 0.5565728237
0.5487296864 0.5487296864 0.5487296864
0.7572594797 0.5555657282 0.5497978180
0.9720759899 0.5686579690 0.5576714733
1.0000000000 0.5935301747 0.5823910887
0.0000000000 0.7665369650 0.6251468681
0.0000000000 0.7890592813 0.6187991150
0.1559777218 0.7727931640 0.6028686961
0.3295643549 0.7651941711 0.5914549477
0.5428702220 0.7657434958 0.5821164263
0.7680018311 0.7738002594 0.5829709316
0.9847104601 0.7867704280 0.5954833295
0.9977721828 0.8116731518 0.6210269322
0.0000000000 1.0000000000 0.6719310292
0.0231326772 1.0000000000 0.6491340505
0.1851834897 1.0000000000 0.6323186084
0.3580071717 0.9947203784 0.6212100404
0.5427176318 0.9947203784 0.6164187076
0.7790798810 1.0000000000 0.6226138705
0.9904173342 1.0000000000 0.6385442893
0.9909361410 1.0000000000 0.6622568093
0.0000000000 1.0000000000 0.7197222858
0.0657663844 1.0000000000 0.6942702373
0.2291599908 1.0000000000 0.6773022049
0.4028076600 1.0000000000 0.6662851911
0.5888303960 1.0000000000 0.6624093996
0.8342870222 1.0000000000 0.6693064775
0.9914549477 1.0000000000 0.6852979324
0.9919737545 1.0000000000 0.7091020066
0.0319218738 0.0000000000 0.6783703365
0.0792248417 0.0000000000 0.5585259785
0.2023956664 0.0000000000 0.5451285573
0.3493705653 0.0000000000 0.5727168688
0.5268482490 0.0000000000 0.6198977646
0.7373617151 0.0000000000 0.6783398184
0.9776302739 0.0000000000 0.7434042878
1.0000000000 0.0000000000 0.8130769818
0.0212100404 0.0394903487 0.5028000305
0.0359197375 0.0010986496 0.7388265812
0.2011749447 0.0000000000 0.7184405280
0.3806820783 0.0000000000 0.7082169833
0.5743343252 0.0000000000 0.7082169833
0.7809109636 0.0000000000 0.7184405280
0.9938658732 0.0011596857 0.7388570993
1.0000000000 0.0289616236 0.7693751431
0.0209048600 0.1672388800 0.5101243610
0.0299076829 0.1509422446 0.6987258717
0.1530174716 0.1220111391 0.6785839628
0.3359426261 0.1110856794 0.6683299001
0.5304798962 0.1110551614 0.6683604181
0.7374532692 0.1220416571 0.6783093004
0.9537346456 0.1443198291 0.6981155108
1.0000000000 0.1769130999 0.7284809644
0.0200198367 0.3216296635 0.5706111238
0.0271305409 0.3313344015 0.6956740673
0.1285114824 0.3077744717 0.6755016403
0.3057602808 0.2890363928 0.6634470130
0.5066147860 0.2890363928 0.6605477989
0.7163653010 0.3001754788 0.6674143587
0.9336232547 0.3214770733 0.6831311513
1.0000000000 0.3539177539 0.7146257725
0.0104676890 0.5085374228 0.6514534218
0.0169985504 0.5307545586 0.7197833219
0.1194171054 0.5090562295 0.6987869078
0.2986495766 0.4957961395 0.6859693294
0.4986648356 0.4913099870 0.6823071641
0.7152971695 0.5028915846 0.6873121233
0.9333791104 0.5239795529 0.7007705806
1.0000000000 0.5566033417 0.7321126116
0.0000000000 0.7301899748 0.7440146487
0.0000000000 0.7521934844 0.7664148928
0.1183794919 0.7303730831 0.7435873960
0.2912031739 0.7200885023 0.7306172274
0.5091172656 0.7208209354 0.7267109178
0.7298542763 0.7298542763 0.7298542763
0.9517814908 0.7508506905 0.7450217441
1.0000000000 0.7835660334 0.7773098344
0.0000000000 0.9871519036 0.8224765393
0.0011596857 0.9936217288 0.8095063706
0.1571068894 0.9723811704 0.7886320287
0.3270008392 0.9615472648 0.7772182803
0.5115587091 0.9616083009 0.7753261616
0.7550621805 0.9722896162 0.7840543221
0.9880369268 0.9935912108 0.8048371099
0.9951781491 1.0000000000 0.8363927672
0.0000000000 1.0000000000 0.8989547570
0.0568856336 1.0000000000 0.8695658808
0.2152437629 1.0000000000 0.8485389487
0.3861448081 1.0000000000 0.8370336461
0.5901426719 1.0000000000 0.8352941176
0.8248264286 1.0000000000 0.8456092164
0.9960326543 1.0000000000 0.8670023651
0.9969176776 1.0000000000 0.8984969863
0.0430304417 0.0000000000 0.9041428244
0.0891126879 0.0000000000 0.7025101091
0.2035858701 0.0000000000 0.6580758373
0.3421377890 0.0000000000 0.6804760815
0.5154039826 0.0000000000 0.7373922332
0.7278706035 0.0000000000 0.8141145953
0.9747310597 0.0000000000 0.9041428244
1.0000000000 0.0000000000 0.9294117647
0.0255436027 0.0358281834 0.5999084459
0.0430304417 0.0000000000 0.9037460899
0.1832608530 0.0000000000 0.8778973068
0.3583123522 0.0000000000 0.8650186923
0.5502861067 0.0000000000 0.8650492103
0.7584191653 0.0000000000 0.8779278248
0.9744869154 0.0000000000 0.9038986801
1.0000000000 0.0185549706 0.9294117647
0.0242008087 0.1489890898 0.5744869154
0.0361638819 0.1142290379 0.8384374762
0.1255817502 0.0840161746 0.8272373541
0.3027389944 0.0716563668 0.8143892576
0.4949416342 0.0716563668 0.8143892576
0.7032730602 0.0840161746 0.8272373541
0.9237354086 0.1090409705 0.8530251011
1.0000000000 0.1479209583 0.8914168002
0.0250247959 0.2933699550 0.6384527352
0.0332341497 0.2887617304 0.8003204395
0.0962233921 0.2625467308 0.8103608759
0.2674296178 0.2402990768 0.7958953231
0.4644541085 0.2402685588 0.7939726864
0.6750743877 0.2539101244 0.8047760739
0.8986800946 0.2815289540 0.8282139315
1.0000000000 0.3225146868 0.8673990997
0.0234073396 0.4766308080 0.7377584497
0.0299382010 0.4859998474 0.8376440070
0.0925917449 0.4641489281 0.8328221561
0.2626993210 0.4464484627 0.8177157244
0.4553902495 0.4394903487 0.8154268711
0.6719615473 0.4533760586 0.8256504158
0.8987411307 0.4816662852 0.8482642863
1.0000000000 0.5232776379 0.8868085756
0.0075074388 0.7026016632 0.8574807355
0.0154726482 0.7168841077 0.9082932784
0.1031204700 0.6911573968 0.8839398795
0.2782635233 0.6760509651 0.8683756771
0.4747692073 0.6735790036 0.8651712825
0.6923476005 0.6852979324 0.8742656596
0.9237048905 0.7137712673 0.8958724346
1.0000000000 0.7557640955 0.9352101930
0.0000000000 0.9732661936 0.9747310597
0.0000000000 0.9731136034 0.9745784695
0.1331807431 0.9454032197 0.9488212406
0.3000839246 0.9316700999 0.9361562524
0.5109788663 0.9318532082 0.9364919509
0.7373006790 0.9454947738 0.9493095293
0.9728084230 0.9728084230 0.9728084230
1.0000000000 1.0000000000 1.0000000000
0.0000000000 1.0000000000 1.0000000000
0.0534370947 1.0000000000 1.0000000000
0.2065766384 1.0000000000 1.0000000000
0.3746089876 1.0000000000 1.0000000000
0.5947814145 1.0000000000 1.0000000000
0.8213168536 1.0000000000 1.0000000000
1.0000000000 1.0000000000 1.0000000000
1.0000000000 1.0000000000 1.0000000000
0.0441901274 0.0000000000 0.9294117647
0.1098344396 0.0000000000 0.9081101701
0.2204013123 0.0000000000 0.8136263066
0.3538261997 0.0000000000 0.8199130236
0.5248950942 0.0000000000 0.8802471962
0.7396810864 0.0000000000 0.9294117647
0.9928587778 0.0000000000 0.9294117647
1.0000000000 0.0000000000 0.9294117647
0.0316166934 0.0390325780 0.7391012436
0.0441901274 0.0000000000 0.9294117647
0.1681849393 0.0000000000 0.9294117647
0.3361257343 0.0000000000 0.9294117647
0.5242542153 0.0000000000 0.9294117647
0.7407186999 0.0000000000 0.9294117647
0.9628595407 0.0000000000 0.9294117647
1.0000000000 0.0159914549 0.9294117647
0.0281681544 0.1406576638 0.6594796674
0.0404364080 0.0935378042 0.9294117647
0.1025711452 0.0562752728 0.9294422827
0.2758220798 0.0411688411 0.9294117647
0.4663462272 0.0411688411 0.9294117647
0.6758983749 0.0562447547 0.9294422827
0.9005722133 0.0867627985 0.9294422827
1.0000000000 0.1324483101 0.9292896925
0.0293888762 0.2767071031 0.7158464942
0.0374456397 0.2553139544 0.8777752346
0.0690623331 0.2231174182 0.9304798962
0.2370641642 0.1973296712 0.9295338369
0.4310978866 0.1973296712 0.9295338369
0.6418097200 0.2146639200 0.9295643549
0.8694438087 0.2489967193 0.9296253910
1.0000000000 0.3000534066 0.9290150301
0.0307011521 0.4567940795 0.8303501946
0.0371404593 0.4484321355 0.9368581674
0.0673838407 0.4261234455 0.9523002976
0.2328221561 0.4047302968 0.9497367819
0.4214847028 0.3964599069 0.9480582895
0.6373540856 0.4134889754 0.9469596399
0.8687418936 0.4478217746 0.9467154955
1.0000000000 0.4997329671 0.9479972534
0.0278019379 0.6874952316 0.9783016709
0.0282291905 0.6876173037 0.9828793774
0.0886854353 0.6595407034 0.9794308385
0.2568398566 0.6404364080 0.9761959258
0.4471503777 0.6363164721 0.9733882658
0.6626535439 0.6499580377 0.9709773404
0.8991073472 0.6852979324 0.9693598840
1.0000000000 0.7384298466 0.9712520027
0.0000000000 0.9721675441 1.0000000000
0.0000000000 0.9605096513 1.0000000000
0.1162737469 0.9262073701 1.0000000000
0.2844586862 0.9086289769 1.0000000000
0.4962539101 0.9075608453 1.0000000000
0.7198443580 0.9241931792 0.9990234226
0.9609979400 0.9596856641 0.9966430152
1.0000000000 1.0000000000 1.0000000000
0.0000000000 1.0000000000 1.0000000000
0.0587472343 1.0000000000 1.0000000000
0.2062714580 1.0000000000 1.0000000000
0.3714351110 1.0000000000 1.0000000000
0.5910582132 1.0000000000 1.0000000000
0.8209811551 1.0000000000 1.0000000000
1.0000000000 1.0000000000 1.0000000000
1.0000000000 1.0000000000 1.0000000000
