LUTs/SPK Cube Block1 S64/TheBrim_SPK_Type-O_Block1_S64.cube
TITLE "TheBrim® SPK Block 1"
# © Copyright 2021 - TheBrim® d.o.o. Croatia
LUT_3D_SIZE 64
DOMAIN_MIN 0.000000 0.000000 0.000000
DOMAIN_MAX 1.000000 1.000000 1.000000
0.001770 0.000977 0.001221
0.002991 0.001709 0.001892
0.004181 0.002472 0.002594
0.005310 0.003174 0.003204
0.005921 0.003540 0.003540
0.006348 0.003815 0.003876
0.006744 0.003967 0.004028
0.007080 0.004028 0.004089
0.007904 0.004150 0.004120
0.008942 0.004334 0.004273
0.009918 0.004547 0.004425
0.011170 0.004761 0.004517
0.012390 0.004944 0.004608
0.013794 0.005158 0.004730
0.015869 0.005402 0.004883
0.018219 0.005676 0.005035
0.022553 0.006012 0.005066
0.028473 0.006287 0.005097
0.038422 0.006622 0.005005
0.049409 0.006928 0.004944
0.064118 0.007080 0.004639
0.080232 0.007111 0.004242
0.098207 0.006744 0.003601
0.118196 0.005676 0.002808
0.138491 0.004517 0.002014
0.161135 0.003571 0.000977
0.185397 0.002441 0.000092
0.212406 0.000000 0.000000
0.239078 0.000000 0.000000
0.261112 0.000000 0.000000
0.283787 0.000000 0.000000
0.309911 0.000000 0.000000
0.336767 0.000000 0.000000
0.366186 0.000000 0.000000
0.393133 0.000000 0.000000
0.412543 0.000000 0.000000
0.432288 0.000000 0.000000
0.452644 0.000000 0.000000
0.471839 0.000000 0.000000
0.490333 0.000000 0.000000
0.508568 0.000000 0.000000
0.523857 0.000000 0.000000
0.538048 0.000000 0.000000
0.549157 0.000000 0.000000
0.560052 0.000000 0.000000
0.570947 0.000000 0.000000
0.581506 0.000000 0.000000
0.590539 0.000000 0.000000
0.597528 0.000000 0.000000
0.602594 0.000000 0.000000
0.607324 0.000000 0.000000
0.611414 0.000000 0.000000
0.614984 0.000000 0.000000
0.618128 0.000000 0.000000
0.620356 0.000000 0.000000
0.621729 0.000000 0.000000
0.622919 0.000000 0.000000
0.623651 0.000000 0.000000
0.623560 0.000000 0.000000
0.623285 0.000000 0.000000
0.623346 0.000000 0.000000
0.623407 0.000000 0.000000
0.624598 0.000000 0.000000
0.625818 0.000000 0.000000
0.004120 0.002808 0.002716
0.004059 0.002655 0.002594
0.005249 0.003418 0.003265
0.005554 0.003571 0.003388
0.006104 0.003937 0.003815
0.006470 0.004059 0.003937
0.006867 0.004211 0.004120
0.007172 0.004211 0.004120
0.008026 0.004334 0.004150
0.009033 0.004486 0.004273
0.010101 0.004669 0.004425
0.011475 0.004852 0.004456
0.012696 0.005066 0.004547
0.014343 0.005341 0.004669
0.016510 0.005615 0.004852
0.019135 0.005859 0.004944
0.024201 0.006226 0.004974
0.030030 0.006378 0.004944
0.040894 0.006806 0.004883
0.051667 0.007355 0.004883
0.066560 0.007507 0.004547
0.082643 0.007233 0.004059
0.100191 0.006989 0.003479
0.119448 0.006195 0.002777
0.139742 0.005035 0.001953
0.162692 0.004028 0.000793
0.186435 0.002838 0.000000
0.212589 0.000000 0.000000
0.239322 0.000000 0.000000
0.261509 0.000000 0.000000
0.284276 0.000000 0.000000
0.310521 0.000000 0.000000
0.337133 0.000000 0.000000
0.366155 0.000000 0.000000
0.393072 0.000000 0.000000
0.412451 0.000000 0.000000
0.432105 0.000000 0.000000
0.452369 0.000000 0.000000
0.472084 0.000000 0.000000
0.490913 0.000000 0.000000
0.508568 0.000000 0.000000
0.523552 0.000000 0.000000
0.538079 0.000000 0.000000
0.549279 0.000000 0.000000
0.559991 0.000000 0.000000
0.570825 0.000000 0.000000
0.581415 0.000000 0.000000
0.590448 0.000000 0.000000
0.597467 0.000000 0.000000
0.602564 0.000000 0.000000
0.607324 0.000000 0.000000
0.611444 0.000000 0.000000
0.614954 0.000000 0.000000
0.618067 0.000000 0.000000
0.620356 0.000000 0.000000
0.621729 0.000000 0.000000
0.622889 0.000000 0.000000
0.623621 0.000000 0.000000
0.623529 0.000000 0.000000
0.623285 0.000000 0.000000
0.623346 0.000000 0.000000
0.623407 0.000000 0.000000
0.625757 0.000000 0.000000
0.627039 0.000000 0.000000
0.005646 0.004425 0.004211
0.005707 0.004303 0.004089
0.005798 0.004181 0.003967
0.005982 0.004242 0.003998
0.006287 0.004364 0.004120
0.006653 0.004456 0.004211
0.006989 0.004456 0.004211
0.007263 0.004456 0.004211
0.008118 0.004517 0.004211
0.009155 0.004669 0.004303
0.010224 0.004822 0.004425
0.011658 0.005005 0.004456
0.013062 0.005219 0.004517
0.014954 0.005554 0.004639
0.017121 0.005829 0.004791
0.020386 0.006134 0.004883
0.025818 0.006470 0.004913
0.032959 0.006622 0.004822
0.043580 0.006928 0.004700
0.054932 0.007568 0.004700
0.068940 0.007965 0.004486
0.085328 0.007630 0.003937
0.102480 0.007111 0.003357
0.121645 0.006378 0.002625
0.140902 0.005615 0.001892
0.164248 0.004517 0.000702
0.187930 0.003326 0.000000
0.213657 0.000000 0.000000
0.239536 0.000000 0.000000
0.261753 0.000000 0.000000
0.284794 0.000000 0.000000
0.311284 0.000000 0.000000
0.337804 0.000000 0.000000
0.366491 0.000000 0.000000
0.393072 0.000000 0.000000
0.412390 0.000000 0.000000
0.431983 0.000000 0.000000
0.452186 0.000000 0.000000
0.471778 0.000000 0.000000
0.491157 0.000000 0.000000
0.508995 0.000000 0.000000
0.523552 0.000000 0.000000
0.537896 0.000000 0.000000
0.549310 0.000000 0.000000
0.560113 0.000000 0.000000
0.570764 0.000000 0.000000
0.581323 0.000000 0.000000
0.590356 0.000000 0.000000
0.597436 0.000000 0.000000
0.602533 0.000000 0.000000
0.607294 0.000000 0.000000
0.611475 0.000000 0.000000
0.615015 0.000000 0.000000
0.618036 0.000000 0.000000
0.620325 0.000000 0.000000
0.621729 0.000000 0.000000
0.622919 0.000000 0.000000
0.623590 0.000000 0.000000
0.623499 0.000000 0.000000
0.623255 0.000000 0.000000
0.623346 0.000000 0.000000
0.623468 0.000000 0.000000
0.625788 0.000000 0.000000
0.628290 0.000000 0.000000
0.005951 0.005432 0.004852
0.006012 0.005280 0.004700
0.006104 0.005097 0.004578
0.006256 0.004974 0.004425
0.006531 0.005127 0.004517
0.006836 0.005158 0.004578
0.007141 0.005158 0.004547
0.007416 0.005066 0.004517
0.008331 0.005097 0.004486
0.009369 0.005219 0.004547
0.010498 0.005402 0.004639
0.011902 0.005493 0.004608
0.013367 0.005737 0.004669
0.015656 0.005982 0.004730
0.017853 0.006256 0.004883
0.021637 0.006470 0.004822
0.027070 0.006867 0.004883
0.034455 0.007263 0.004913
0.045319 0.007599 0.004791
0.057221 0.008118 0.004669
0.071260 0.008576 0.004456
0.087861 0.008392 0.003876
0.104585 0.008057 0.003357
0.122469 0.007691 0.002686
0.141878 0.006653 0.001923
0.166384 0.005676 0.000732
0.189944 0.004578 0.000000
0.215091 0.000000 0.000000
0.240757 0.000000 0.000000
0.263340 0.000000 0.000000
0.286442 0.000000 0.000000
0.312535 0.000000 0.000000
0.338567 0.000000 0.000000
0.366552 0.000000 0.000000
0.393072 0.000000 0.000000
0.412360 0.000000 0.000000
0.431769 0.000000 0.000000
0.451759 0.000000 0.000000
0.471962 0.000000 0.000000
0.491737 0.000000 0.000000
0.509148 0.000000 0.000000
0.523491 0.000000 0.000000
0.537835 0.000000 0.000000
0.549187 0.000000 0.000000
0.560113 0.000000 0.000000
0.570825 0.000000 0.000000
0.581170 0.000000 0.000000
0.590143 0.000000 0.000000
0.597436 0.000000 0.000000
0.602564 0.000000 0.000000
0.607324 0.000000 0.000000
0.611505 0.000000 0.000000
0.614984 0.000000 0.000000
0.618006 0.000000 0.000000
0.620356 0.000000 0.000000
0.621759 0.000000 0.000000
0.622889 0.000000 0.000000
0.623560 0.000000 0.000000
0.623468 0.000000 0.000000
0.623224 0.000000 0.000000
0.624292 0.000000 0.000000
0.624506 0.000000 0.000000
0.626917 0.000000 0.000000
0.629969 0.000000 0.000000
0.006226 0.006531 0.005493
0.006317 0.006378 0.005371
0.006439 0.006195 0.005188
0.006592 0.006043 0.005066
0.006775 0.005951 0.004974
0.007050 0.005982 0.004974
0.007324 0.005951 0.004944
0.007599 0.005859 0.004913
0.008515 0.005829 0.004852
0.009613 0.005951 0.004852
0.010742 0.006073 0.004883
0.012238 0.006134 0.004852
0.013642 0.006226 0.004822
0.015991 0.006500 0.004913
0.018555 0.006744 0.005005
0.022827 0.006928 0.004913
0.028321 0.007233 0.004852
0.036469 0.007752 0.004913
0.047028 0.008331 0.004883
0.059327 0.008820 0.004730
0.073548 0.009247 0.004425
0.090364 0.009064 0.003845
0.106996 0.008881 0.003296
0.124697 0.008728 0.002655
0.143160 0.008270 0.002075
0.168093 0.007538 0.000824
0.192477 0.006043 0.000000
0.217563 0.001495 0.000000
0.242802 0.000000 0.000000
0.265324 0.000000 0.000000
0.288457 0.000000 0.000000
0.314244 0.000000 0.000000
0.340002 0.000000 0.000000
0.367346 0.000000 0.000000
0.393225 0.000000 0.000000
0.412451 0.000000 0.000000
0.431739 0.000000 0.000000
0.451575 0.000000 0.000000
0.471504 0.000000 0.000000
0.491890 0.000000 0.000000
0.509606 0.000000 0.000000
0.523644 0.000000 0.000000
0.537804 0.000000 0.000000
0.549126 0.000000 0.000000
0.560021 0.000000 0.000000
0.570825 0.000000 0.000000
0.581201 0.000000 0.000000
0.589990 0.000000 0.000000
0.597314 0.000000 0.000000
0.602564 0.000000 0.000000
0.607355 0.000000 0.000000
0.611536 0.000000 0.000000
0.615015 0.000000 0.000000
0.617975 0.000000 0.000000
0.620386 0.000000 0.000000
0.621820 0.000000 0.000000
0.622950 0.000000 0.000000
0.623560 0.000000 0.000000
0.623560 0.000000 0.000000
0.623285 0.000000 0.000000
0.624384 0.000000 0.000000
0.625544 0.000000 0.000000
0.628046 0.000000 0.000000
0.631678 0.000000 0.000000
0.006378 0.007568 0.006165
0.006470 0.007507 0.006073
0.006653 0.007294 0.005829
0.006806 0.007233 0.005768
0.006989 0.007080 0.005615
0.007263 0.006989 0.005554
0.007538 0.006958 0.005524
0.007813 0.006928 0.005463
0.008820 0.006897 0.005402
0.009918 0.006867 0.005310
0.011139 0.006989 0.005341
0.012543 0.007019 0.005310
0.014069 0.007111 0.005280
0.016480 0.007263 0.005219
0.019104 0.007538 0.005310
0.023499 0.007813 0.005249
0.029084 0.008148 0.005188
0.037568 0.008759 0.005188
0.048432 0.009339 0.005097
0.062165 0.009796 0.004761
0.075959 0.010315 0.004517
0.091768 0.010437 0.004028
0.108370 0.010315 0.003418
0.125765 0.010254 0.002747
0.144503 0.009979 0.002258
0.170077 0.009155 0.001038
0.194461 0.008209 0.000000
0.219608 0.003937 0.000000
0.245121 0.000000 0.000000
0.267674 0.000000 0.000000
0.290806 0.000000 0.000000
0.316381 0.000000 0.000000
0.342290 0.000000 0.000000
0.369787 0.000000 0.000000
0.395026 0.000000 0.000000
0.413764 0.000000 0.000000
0.432807 0.000000 0.000000
0.452094 0.000000 0.000000
0.471809 0.000000 0.000000
0.492073 0.000000 0.000000
0.509972 0.000000 0.000000
0.524132 0.000000 0.000000
0.537987 0.000000 0.000000
0.549157 0.000000 0.000000
0.560143 0.000000 0.000000
0.571038 0.000000 0.000000
0.581018 0.000000 0.000000
0.589624 0.000000 0.000000
0.597253 0.000000 0.000000
0.602594 0.000000 0.000000
0.607416 0.000000 0.000000
0.611597 0.000000 0.000000
0.615229 0.000000 0.000000
0.618219 0.000000 0.000000
0.620935 0.000000 0.000000
0.622461 0.000000 0.000000
0.623896 0.000000 0.000000
0.624537 0.000000 0.000000
0.625086 0.000000 0.000000
0.624842 0.000000 0.000000
0.626337 0.000000 0.000000
0.627588 0.000000 0.000000
0.630549 0.000000 0.000000
0.634211 0.000000 0.000000
0.006470 0.008698 0.006897
0.006592 0.008637 0.006775
0.006775 0.008515 0.006622
0.006897 0.008453 0.006531
0.007050 0.008392 0.006470
0.007416 0.008270 0.006317
0.007752 0.008179 0.006256
0.008087 0.008179 0.006195
0.009186 0.008209 0.006104
0.010315 0.008179 0.006043
0.011536 0.008179 0.005921
0.013062 0.008209 0.005859
0.014496 0.008270 0.005829
0.017060 0.008423 0.005707
0.019715 0.008606 0.005676
0.024353 0.008942 0.005615
0.030060 0.009339 0.005524
0.038697 0.010010 0.005524
0.049714 0.010651 0.005402
0.063874 0.011170 0.004974
0.078676 0.011597 0.004608
0.094453 0.011963 0.004089
0.110079 0.012146 0.003601
0.127565 0.012329 0.002960
0.145937 0.012146 0.002441
0.171908 0.011261 0.001221
0.196994 0.010254 0.000183
0.222293 0.006744 0.000000
0.248020 0.002167 0.000000
0.270756 0.000000 0.000000
0.293736 0.000000 0.000000
0.319280 0.000000 0.000000
0.345190 0.000000 0.000000
0.372869 0.000000 0.000000
0.397955 0.000000 0.000000
0.416358 0.000000 0.000000
0.434760 0.000000 0.000000
0.453437 0.000000 0.000000
0.472572 0.000000 0.000000
0.492622 0.000000 0.000000
0.510430 0.000000 0.000000
0.524834 0.000000 0.000000
0.538659 0.000000 0.000000
0.549584 0.000000 0.000000
0.560388 0.000000 0.000000
0.571405 0.000000 0.000000
0.581415 0.000000 0.000000
0.589685 0.000000 0.000000
0.597284 0.000000 0.000000
0.602808 0.000000 0.000000
0.607721 0.000000 0.000000
0.611933 0.000000 0.000000
0.615564 0.000000 0.000000
0.618708 0.000000 0.000000
0.621424 0.000000 0.000000
0.623285 0.000000 0.000000
0.624689 0.000000 0.000000
0.625635 0.000000 0.000000
0.626184 0.000000 0.000000
0.626459 0.000000 0.000000
0.628016 0.000000 0.000000
0.630274 0.000000 0.000000
0.633478 0.000000 0.000000
0.636805 0.000000 0.000000
0.006561 0.009979 0.007691
0.006714 0.009918 0.007599
0.006867 0.009796 0.007416
0.006989 0.009766 0.007355
0.007172 0.009705 0.007263
0.007477 0.009674 0.007141
0.007843 0.009522 0.006989
0.008331 0.009461 0.006928
0.009430 0.009491 0.006806
0.010590 0.009461 0.006714
0.011872 0.009369 0.006592
0.013397 0.009400 0.006439
0.014923 0.009461 0.006378
0.017456 0.009644 0.006287
0.020294 0.009857 0.006195
0.025116 0.010224 0.006104
0.031067 0.010651 0.005982
0.040009 0.011170 0.005798
0.051087 0.011933 0.005707
0.064942 0.012634 0.005371
0.079866 0.013214 0.004913
0.095338 0.013764 0.004517
0.111513 0.014099 0.003998
0.130007 0.014008 0.003082
0.148165 0.014252 0.002625
0.172824 0.013672 0.001648
0.198398 0.012665 0.000519
0.224643 0.008972 0.000000
0.251041 0.004883 0.000000
0.274754 0.000000 0.000000
0.297276 0.000000 0.000000
0.321477 0.000000 0.000000
0.348211 0.000000 0.000000
0.377203 0.000000 0.000000
0.401495 0.000000 0.000000
0.419715 0.000000 0.000000
0.438178 0.000000 0.000000
0.456733 0.000000 0.000000
0.475746 0.000000 0.000000
0.495766 0.000000 0.000000
0.513848 0.000000 0.000000
0.528527 0.000000 0.000000
0.541985 0.000000 0.000000
0.552850 0.000000 0.000000
0.563470 0.000000 0.000000
0.574395 0.000000 0.000000
0.584436 0.000000 0.000000
0.592798 0.000000 0.000000
0.600214 0.000000 0.000000
0.605646 0.000000 0.000000
0.610834 0.000000 0.000000
0.615167 0.000000 0.000000
0.618891 0.000000 0.000000
0.622065 0.000000 0.000000
0.624659 0.000000 0.000000
0.626490 0.000000 0.000000
0.627649 0.000000 0.000000
0.628504 0.000000 0.000000
0.628992 0.000000 0.000000
0.629145 0.000000 0.000000
0.631403 0.000000 0.000000
0.633722 0.000000 0.000000
0.636561 0.000000 0.000000
0.640558 0.000000 0.000000
0.006622 0.011963 0.008545
0.006775 0.011902 0.008453
0.006897 0.011841 0.008331
0.007019 0.011810 0.008240
0.007233 0.011780 0.008148
0.007599 0.011688 0.008026
0.007904 0.011658 0.007904
0.008453 0.011597 0.007782
0.009796 0.011658 0.007599
0.010986 0.011627 0.007477
0.012390 0.011658 0.007324
0.014069 0.011688 0.007202
0.015595 0.011688 0.007050
0.018433 0.011902 0.006928
0.021210 0.012085 0.006806
0.026459 0.012634 0.006714
0.032746 0.013184 0.006561
0.042176 0.013825 0.006256
0.053407 0.014527 0.005982
0.067506 0.015564 0.005768
0.082216 0.016388 0.005493
0.097993 0.017365 0.005127
0.113954 0.017945 0.004669
0.132662 0.018006 0.003540
0.151522 0.017853 0.002777
0.176120 0.017609 0.001831
0.200778 0.017090 0.000885
0.227726 0.013886 0.000000
0.254490 0.009674 0.000000
0.278721 0.004364 0.000000
0.302434 0.000000 0.000000
0.325963 0.000000 0.000000
0.351415 0.000000 0.000000
0.381109 0.000000 0.000000
0.405982 0.000000 0.000000
0.423987 0.000000 0.000000
0.442267 0.000000 0.000000
0.460883 0.000000 0.000000
0.479683 0.000000 0.000000
0.499519 0.000000 0.000000
0.517632 0.000000 0.000000
0.532586 0.000000 0.000000
0.546075 0.000000 0.000000
0.556603 0.000000 0.000000
0.567071 0.000000 0.000000
0.577752 0.000000 0.000000
0.587793 0.000000 0.000000
0.596246 0.000000 0.000000
0.603632 0.000000 0.000000
0.608850 0.000000 0.000000
0.613916 0.000000 0.000000
0.618524 0.000000 0.000000
0.622400 0.000000 0.000000
0.625727 0.000000 0.000000
0.628351 0.000000 0.000000
0.630121 0.000000 0.000000
0.631220 0.000000 0.000000
0.631891 0.000000 0.000000
0.632380 0.000000 0.000000
0.632532 0.000000 0.000000
0.634760 0.000000 0.000000
0.637293 0.000000 0.000000
0.640803 0.000000 0.000000
0.644404 0.000000 0.000000
0.006500 0.014099 0.009888
0.006653 0.014008 0.009766
0.006806 0.013947 0.009644
0.006958 0.013855 0.009491
0.007202 0.013794 0.009369
0.007507 0.013733 0.009216
0.007874 0.013642 0.009094
0.008484 0.013733 0.008972
0.009857 0.013794 0.008789
0.011322 0.013977 0.008637
0.012848 0.014008 0.008423
0.014679 0.014130 0.008240
0.016388 0.014191 0.008118
0.019409 0.014496 0.007996
0.022461 0.014740 0.007904
0.027985 0.015167 0.007599
0.034699 0.015839 0.007538
0.044465 0.016724 0.007416
0.055940 0.017639 0.007080
0.069520 0.018738 0.006806
0.084688 0.019776 0.006348
0.101259 0.020447 0.005493
0.117372 0.021393 0.005066
0.135683 0.021851 0.004242
0.154574 0.022095 0.003326
0.178958 0.021851 0.002258
0.204562 0.021271 0.001221
0.233249 0.017517 0.000000
0.259251 0.014282 0.000000
0.282048 0.010193 0.000000
0.306157 0.004761 0.000000
0.330510 0.000000 0.000000
0.356146 0.000000 0.000000
0.385931 0.000000 0.000000
0.410529 0.000000 0.000000
0.428717 0.000000 0.000000
0.447150 0.000000 0.000000
0.465797 0.000000 0.000000
0.484260 0.000000 0.000000
0.503624 0.000000 0.000000
0.521843 0.000000 0.000000
0.536797 0.000000 0.000000
0.550317 0.000000 0.000000
0.560754 0.000000 0.000000
0.571283 0.000000 0.000000
0.581903 0.000000 0.000000
0.591852 0.000000 0.000000
0.600336 0.000000 0.000000
0.607874 0.000000 0.000000
0.613214 0.000000 0.000000
0.617975 0.000000 0.000000
0.622461 0.000000 0.000000
0.626795 0.000000 0.000000
0.630304 0.000000 0.000000
0.632685 0.000000 0.000000
0.634302 0.000000 0.000000
0.635279 0.000000 0.000000
0.635889 0.000000 0.000000
0.636561 0.000000 0.000000
0.636713 0.000000 0.000000
0.639002 0.000000 0.000000
0.641901 0.000000 0.000000
0.645106 0.000000 0.000000
0.648920 0.000000 0.000000
0.006195 0.016938 0.011475
0.006348 0.016907 0.011353
0.006470 0.016846 0.011231
0.006714 0.016724 0.011078
0.006989 0.016632 0.010895
0.007294 0.016602 0.010742
0.007599 0.016541 0.010590
0.008453 0.016724 0.010468
0.009796 0.016999 0.010346
0.011261 0.017243 0.010193
0.013153 0.017517 0.009979
0.015137 0.017670 0.009766
0.017212 0.017853 0.009583
0.020539 0.018311 0.009461
0.023621 0.018677 0.009339
0.030243 0.019287 0.008942
0.036805 0.019837 0.008637
0.047486 0.021149 0.008453
0.058900 0.022248 0.008240
0.072969 0.023926 0.007843
0.087373 0.025208 0.007416
0.104402 0.026123 0.006378
0.121157 0.026703 0.005524
0.139651 0.027863 0.004639
0.158389 0.028443 0.003967
0.183261 0.028412 0.002716
0.208225 0.028016 0.001587
0.237827 0.024720 0.000000
0.265171 0.020935 0.000000
0.287510 0.017853 0.000000
0.310582 0.013397 0.000000
0.335546 0.006836 0.000000
0.361425 0.000000 0.000000
0.391058 0.000000 0.000000
0.415900 0.000000 0.000000
0.434272 0.000000 0.000000
0.452857 0.000000 0.000000
0.471687 0.000000 0.000000
0.490242 0.000000 0.000000
0.509178 0.000000 0.000000
0.527245 0.000000 0.000000
0.542229 0.000000 0.000000
0.555932 0.000000 0.000000
0.566308 0.000000 0.000000
0.576837 0.000000 0.000000
0.587579 0.000000 0.000000
0.597711 0.000000 0.000000
0.606043 0.000000 0.000000
0.613367 0.000000 0.000000
0.618830 0.000000 0.000000
0.623682 0.000000 0.000000
0.627710 0.000000 0.000000
0.631800 0.000000 0.000000
0.635676 0.000000 0.000000
0.638270 0.000000 0.000000
0.639612 0.000000 0.000000
0.640375 0.000000 0.000000
0.640833 0.000000 0.000000
0.641535 0.000000 0.000000
0.641962 0.000000 0.000000
0.644190 0.000000 0.000000
0.646601 0.000000 0.000000
0.650141 0.000000 0.000000
0.654170 0.000000 0.000000
0.005768 0.020600 0.013153
0.005859 0.020600 0.013092
0.006073 0.020569 0.012970
0.006317 0.020539 0.012818
0.006622 0.020447 0.012665
0.006958 0.020417 0.012482
0.007263 0.020386 0.012329
0.008362 0.020539 0.012146
0.009796 0.020813 0.011994
0.011231 0.020966 0.011780
0.013214 0.021241 0.011566
0.015473 0.021546 0.011261
0.017762 0.021729 0.011048
0.021515 0.022217 0.010773
0.024872 0.022705 0.010651
0.031739 0.023651 0.010407
0.039155 0.024384 0.010010
0.050019 0.025574 0.009552
0.062074 0.027039 0.009216
0.076722 0.028504 0.008545
0.091402 0.030304 0.008087
0.107424 0.031739 0.007446
0.124575 0.032776 0.006439
0.143313 0.033845 0.005402
0.162570 0.034974 0.004578
0.189029 0.034424 0.003174
0.213870 0.034272 0.002014
0.240848 0.032502 0.000519
0.269200 0.029511 0.000000
0.292668 0.026001 0.000000
0.316228 0.021485 0.000000
0.342016 0.014374 0.000000
0.367102 0.007630 0.000000
0.394781 0.000000 0.000000
0.420722 0.000000 0.000000
0.439887 0.000000 0.000000
0.458564 0.000000 0.000000
0.477302 0.000000 0.000000
0.495888 0.000000 0.000000
0.514855 0.000000 0.000000
0.532860 0.000000 0.000000
0.547845 0.000000 0.000000
0.561975 0.000000 0.000000
0.572473 0.000000 0.000000
0.583001 0.000000 0.000000
0.593744 0.000000 0.000000
0.604150 0.000000 0.000000
0.612665 0.000000 0.000000
0.619745 0.000000 0.000000
0.625025 0.000000 0.000000
0.630060 0.000000 0.000000
0.634211 0.000000 0.000000
0.637659 0.000000 0.000000
0.641352 0.000000 0.000000
0.644648 0.000000 0.000000
0.646204 0.000000 0.000000
0.646296 0.000000 0.000000
0.646418 0.000000 0.000000
0.647150 0.000000 0.000000
0.647608 0.000000 0.000000
0.649897 0.000000 0.000000
0.652796 0.000000 0.000000
0.655360 0.000000 0.000000
0.659083 0.000000 0.000000
0.005127 0.024842 0.015076
0.005310 0.024811 0.014923
0.005585 0.024811 0.014771
0.005859 0.024842 0.014649
0.006134 0.024842 0.014466
0.006470 0.024872 0.014282
0.006989 0.024933 0.014069
0.008392 0.025177 0.013855
0.009735 0.025452 0.013642
0.011261 0.025696 0.013397
0.013336 0.026001 0.013153
0.015595 0.026368 0.012848
0.018280 0.026856 0.012543
0.022278 0.027466 0.012238
0.026123 0.028046 0.011963
0.033906 0.029450 0.011719
0.041230 0.030579 0.011444
0.053040 0.032288 0.010864
0.064942 0.033692 0.010346
0.080293 0.035615 0.009522
0.095460 0.037324 0.008820
0.111635 0.039643 0.008057
0.127962 0.041291 0.007416
0.147524 0.042542 0.006195
0.166873 0.043641 0.005219
0.194064 0.043702 0.003815
0.220432 0.043153 0.002625
0.247013 0.042939 0.000946
0.273686 0.041260 0.000000
0.297856 0.038300 0.000000
0.322118 0.033692 0.000000
0.348150 0.026123 0.000000
0.374334 0.018524 0.000000
0.401038 0.011139 0.000000
0.426368 0.002808 0.000000
0.445960 0.000000 0.000000
0.465095 0.000000 0.000000
0.483833 0.000000 0.000000
0.502403 0.000000 0.000000
0.521447 0.000000 0.000000
0.539666 0.000000 0.000000
0.554711 0.000000 0.000000
0.568994 0.000000 0.000000
0.579553 0.000000 0.000000
0.590143 0.000000 0.000000
0.601038 0.000000 0.000000
0.611322 0.000000 0.000000
0.620294 0.000000 0.000000
0.627802 0.000000 0.000000
0.632624 0.000000 0.000000
0.637354 0.000000 0.000000
0.641657 0.000000 0.000000
0.645319 0.000000 0.000000
0.648280 0.000000 0.000000
0.651118 0.000000 0.000000
0.653468 0.000000 0.000000
0.654017 0.000000 0.000000
0.653559 0.000000 0.000000
0.653986 0.000000 0.000000
0.654536 0.000000 0.000000
0.656703 0.000000 0.000000
0.659113 0.000000 0.000000
0.661585 0.000000 0.000000
0.664637 0.000000 0.000000
0.003723 0.031861 0.018402
0.004028 0.031769 0.018128
0.004364 0.031739 0.017884
0.004700 0.031617 0.017700
0.005035 0.031586 0.017517
0.005402 0.031464 0.017243
0.006409 0.031586 0.016938
0.007935 0.031800 0.016541
0.009430 0.032044 0.016266
0.011139 0.032349 0.015930
0.013458 0.032624 0.015503
0.015900 0.033112 0.015137
0.019043 0.033600 0.014679
0.023133 0.034302 0.014282
0.027893 0.035004 0.013886
0.035920 0.036225 0.013397
0.043732 0.037568 0.013123
0.055604 0.039399 0.012482
0.067994 0.041169 0.011841
0.082429 0.042969 0.011048
0.098238 0.045075 0.010132
0.115206 0.047395 0.009186
0.131655 0.049775 0.008576
0.151278 0.051209 0.007721
0.171328 0.052613 0.006683
0.197696 0.053285 0.005188
0.224430 0.053437 0.003723
0.251774 0.052888 0.001678
0.278874 0.052277 0.000000
0.303105 0.049592 0.000000
0.327428 0.046357 0.000000
0.353307 0.040772 0.000000
0.379858 0.033417 0.000000
0.407385 0.025544 0.000000
0.432898 0.017609 0.000000
0.452857 0.008972 0.000000
0.472145 0.000031 0.000000
0.490822 0.000000 0.000000
0.509392 0.000000 0.000000
0.528588 0.000000 0.000000
0.546929 0.000000 0.000000
0.562158 0.000000 0.000000
0.576440 0.000000 0.000000
0.586938 0.000000 0.000000
0.597345 0.000000 0.000000
0.608087 0.000000 0.000000
0.618311 0.000000 0.000000
0.627283 0.000000 0.000000
0.635248 0.000000 0.000000
0.640406 0.000000 0.000000
