LUTs/SPK Cube Block1 S64/TheBrim_SPK_Type-G_Block1_S64.cube
TITLE "TheBrim® SPK Block 1"
# © Copyright 2021 - TheBrim® d.o.o. Croatia
LUT_3D_SIZE 8
DOMAIN_MIN 0.000000 0.000000 0.000000
DOMAIN_MAX 1.000000 1.000000 1.000000
0.067048 0.020356 0.045258
0.085695 0.026032 0.046387
0.190860 0.033906 0.037201
0.481636 0.013489 0.016663
0.713527 0.020233 0.015442
0.833616 0.023774 0.015808
0.862974 0.024659 0.016144
0.878721 0.025116 0.016297
0.068879 0.063355 0.067689
0.086122 0.061860 0.055909
0.193179 0.071504 0.038514
0.439765 0.065339 0.017578
0.720424 0.020447 0.015412
0.849485 0.024231 0.015991
0.890349 0.025452 0.016419
0.920012 0.026856 0.017212
0.078920 0.178714 0.120974
0.091737 0.165743 0.100465
0.191226 0.175814 0.063752
0.417182 0.193729 0.020264
0.652277 0.188785 0.015412
0.840024 0.161776 0.018585
0.898344 0.149081 0.022644
0.905364 0.144106 0.022950
0.110048 0.380529 0.261967
0.107912 0.371221 0.241672
0.201083 0.342107 0.162051
0.414923 0.372381 0.077790
0.623224 0.387030 0.024475
0.789517 0.375219 0.032197
0.869963 0.348119 0.035523
0.881254 0.331304 0.034424
0.141451 0.504448 0.363348
0.141207 0.503777 0.359228
0.147158 0.530846 0.284428
0.443732 0.572656 0.184237
0.660456 0.610101 0.061372
0.815824 0.606592 0.066957
0.888884 0.582391 0.068025
0.900664 0.552697 0.065003
0.157778 0.566613 0.410956
0.158511 0.569635 0.409888
0.179263 0.654749 0.368963
0.503014 0.741451 0.288273
0.711666 0.812619 0.178988
0.865385 0.834134 0.096925
0.934661 0.810544 0.097230
0.936187 0.749905 0.091402
0.277531 0.675135 0.352300
0.349798 0.693050 0.341192
0.467292 0.744259 0.319799
0.616632 0.807828 0.283757
0.753475 0.868650 0.244602
0.880674 0.922637 0.115145
0.956664 0.911467 0.105440
0.967651 0.878599 0.103182
0.505791 0.761379 0.313146
0.536797 0.775143 0.306493
0.604913 0.802152 0.286290
0.689906 0.841032 0.262516
0.801205 0.884459 0.219272
0.893919 0.927459 0.105074
0.951965 0.925261 0.106386
0.970642 0.916655 0.106172
0.066316 0.030182 0.098970
0.074830 0.028779 0.082887
0.190402 0.034211 0.064393
0.511131 0.014008 0.023041
0.725246 0.020600 0.015381
0.838468 0.023926 0.015869
0.863890 0.024689 0.016144
0.880400 0.025177 0.016327
0.067903 0.063691 0.106905
0.076478 0.053925 0.080385
0.204654 0.065766 0.056764
0.453071 0.051209 0.025330
0.723934 0.020539 0.015381
0.845701 0.024140 0.015961
0.882444 0.025238 0.016358
0.922545 0.027039 0.017334
0.081147 0.204959 0.152743
0.078218 0.172000 0.121035
0.186923 0.170077 0.075868
0.423346 0.185672 0.031373
0.660792 0.178134 0.015381
0.845731 0.151064 0.018494
0.901854 0.135775 0.022217
0.909300 0.143679 0.023255
0.109865 0.379858 0.262608
0.108278 0.372778 0.244114
0.200687 0.340673 0.161624
0.418524 0.369665 0.074647
0.626429 0.381933 0.023682
0.793942 0.365515 0.031373
0.871946 0.341527 0.034882
0.884123 0.329381 0.034455
0.141390 0.504143 0.363226
0.141085 0.503349 0.358892
0.147097 0.530602 0.283238
0.445563 0.572168 0.182437
0.661891 0.608331 0.061067
0.816556 0.601099 0.066072
0.889921 0.578576 0.067597
0.901701 0.550439 0.064790
0.157870 0.566979 0.410956
0.158511 0.569665 0.409796
0.179355 0.655146 0.368841
0.503868 0.741421 0.287602
0.712612 0.812222 0.176181
0.866911 0.833524 0.096925
0.935088 0.809720 0.097169
0.938506 0.760128 0.092653
0.294896 0.679072 0.349676
0.363195 0.697383 0.338384
0.475166 0.747921 0.318303
0.620905 0.809903 0.282963
0.756435 0.869627 0.242863
0.883024 0.923552 0.113619
0.957122 0.916442 0.105837
0.967681 0.903532 0.105104
0.518608 0.767025 0.310613
0.548974 0.780606 0.304967
0.614038 0.806516 0.284245
0.696834 0.844511 0.261601
0.805570 0.886259 0.216129
0.897215 0.927825 0.105226
0.952972 0.924529 0.106355
0.969543 0.946777 0.108461
0.071778 0.033661 0.246098
0.074037 0.033753 0.260349
0.181643 0.042573 0.212009
0.457374 0.022278 0.175357
0.777096 0.015778 0.142458
0.890074 0.021332 0.098909
0.902251 0.023529 0.062074
0.917754 0.023896 0.064332
0.074281 0.074678 0.263310
0.073182 0.067597 0.242252
0.174655 0.071839 0.187961
0.434485 0.063447 0.158114
0.771298 0.016266 0.129213
0.893919 0.021759 0.092470
0.912840 0.024384 0.051484
0.957580 0.028656 0.073426
0.082704 0.210117 0.316747
0.079347 0.183200 0.264500
0.168154 0.175692 0.203128
0.397681 0.186801 0.168856
0.666499 0.179110 0.140475
0.873686 0.159670 0.109224
0.931426 0.134249 0.058503
0.942321 0.150973 0.075044
0.112459 0.388190 0.353979
0.109865 0.378729 0.343572
0.169680 0.348730 0.257298
0.398383 0.368994 0.206424
0.650233 0.381231 0.167117
0.831785 0.371252 0.127291
0.892393 0.355596 0.075471
0.909453 0.341924 0.087617
0.141482 0.504234 0.365881
0.141268 0.503655 0.363928
0.146487 0.528710 0.304112
0.439155 0.570367 0.232425
0.660060 0.604517 0.187106
0.817533 0.611048 0.122560
0.888579 0.595758 0.069795
0.900999 0.572229 0.076997
0.157992 0.567529 0.412421
0.159670 0.574365 0.409552
0.179355 0.655116 0.368780
0.507347 0.743679 0.295048
0.713222 0.810575 0.223728
0.867002 0.842283 0.175113
0.934386 0.837064 0.099245
0.941192 0.796353 0.096284
0.323613 0.686030 0.345708
0.388067 0.707118 0.334661
0.491188 0.755550 0.322637
0.626612 0.813443 0.308873
0.755367 0.873045 0.332616
0.884520 0.923125 0.316716
0.956359 0.934173 0.259464
0.967926 0.924620 0.225254
0.539178 0.776211 0.306188
0.567773 0.787869 0.300847
0.625360 0.811948 0.281621
0.710842 0.851774 0.258732
0.813993 0.889311 0.209751
0.901915 0.926940 0.149691
0.954437 0.940368 0.283177
0.971832 0.949615 0.351568
0.078645 0.077028 0.359472
0.080049 0.081178 0.382391
0.144076 0.081544 0.376013
0.374670 0.079286 0.349279
0.744594 0.014435 0.327916
0.959380 0.014557 0.282902
0.953887 0.017182 0.220218
0.975830 0.019135 0.216861
0.081666 0.106294 0.389685
0.081239 0.090669 0.396063
0.139590 0.085878 0.391211
0.400702 0.080659 0.348516
0.777371 0.011933 0.316930
0.962615 0.014954 0.273991
0.984527 0.019562 0.226688
1.000000 0.023529 0.235538
0.090883 0.222568 0.488746
0.088869 0.202426 0.451911
0.132021 0.196292 0.405249
0.380682 0.201450 0.350774
0.675105 0.191257 0.327825
0.922210 0.167666 0.299931
0.992615 0.149508 0.261753
0.994324 0.160739 0.253269
0.117739 0.402716 0.528557
0.115389 0.391974 0.515251
0.109224 0.368139 0.452247
0.382483 0.383215 0.384894
0.657343 0.387274 0.355901
0.852537 0.375311 0.332189
0.949096 0.359106 0.292485
0.958770 0.346563 0.276280
0.143771 0.525780 0.547021
0.143618 0.525170 0.547326
0.151095 0.549096 0.497749
0.440436 0.591730 0.435218
0.661097 0.620386 0.403418
0.827756 0.621790 0.375128
0.890532 0.600214 0.335058
0.912566 0.579950 0.323095
0.158419 0.586969 0.564355
0.158907 0.588769 0.563287
0.182650 0.677028 0.527703
0.492683 0.751369 0.481117
0.710414 0.806699 0.446143
0.864805 0.837858 0.423743
0.934630 0.837064 0.384283
0.942962 0.811063 0.352392
0.232120 0.712001 0.506737
0.346685 0.724636 0.490730
0.463447 0.762051 0.486854
0.614435 0.808896 0.477089
0.758206 0.867033 0.481636
0.886656 0.914733 0.484077
0.955474 0.933135 0.452949
0.967926 0.927001 0.418769
0.549615 0.778866 0.388037
0.575921 0.789242 0.387976
0.631037 0.812619 0.391608
0.714443 0.851987 0.400763
0.812345 0.890227 0.416510
0.900389 0.921172 0.436561
0.955596 0.941314 0.471778
0.971466 0.945739 0.499489
0.086091 0.114656 0.492317
0.086183 0.108614 0.503868
0.142855 0.108583 0.515190
0.354620 0.103456 0.503227
0.678614 0.050690 0.475685
0.972778 0.022126 0.455848
1.000000 0.016938 0.382910
1.000000 0.020142 0.383337
0.088075 0.141512 0.517632
0.087190 0.118013 0.522667
0.135836 0.112367 0.534234
0.371099 0.106630 0.511162
0.705531 0.058045 0.479316
0.988647 0.022065 0.454200
1.000000 0.022919 0.416632
1.000000 0.025544 0.410132
0.094087 0.227817 0.586633
0.093568 0.215518 0.587701
0.093660 0.217685 0.587335
0.354070 0.219242 0.547723
0.667964 0.211612 0.514702
0.958923 0.177707 0.488991
1.000000 0.170687 0.457801
1.000000 0.184939 0.437446
0.121859 0.405493 0.653834
0.121736 0.404883 0.653773
0.117464 0.386786 0.620569
0.368627 0.402350 0.582177
0.657435 0.409216 0.547478
0.868009 0.399420 0.526238
0.980835 0.379889 0.488960
0.989075 0.366369 0.467414
0.147005 0.538567 0.678248
0.146883 0.538109 0.677852
0.151736 0.567376 0.659388
0.421668 0.611841 0.614862
0.659052 0.640162 0.580957
0.842863 0.642298 0.558892
0.915373 0.621973 0.528344
0.921263 0.597742 0.510521
0.158419 0.597986 0.685328
0.160403 0.606348 0.687282
0.183597 0.697200 0.696590
0.491646 0.776913 0.663325
0.711360 0.824002 0.622217
0.876036 0.853910 0.605982
0.946227 0.845335 0.576165
0.954528 0.818997 0.541283
0.193606 0.743282 0.678584
0.274083 0.754482 0.664424
0.466896 0.787869 0.640650
0.622614 0.835477 0.638819
0.773648 0.889342 0.633143
0.892851 0.927367 0.636103
0.958526 0.937072 0.616571
0.971160 0.925139 0.587610
0.551690 0.802213 0.569207
0.582574 0.812619 0.569238
0.636500 0.832670 0.576623
0.718044 0.864591 0.586328
0.813382 0.900847 0.595941
0.908446 0.929686 0.607080
0.959716 0.947051 0.620050
0.974304 0.955535 0.638209
0.090974 0.166201 0.576257
0.091066 0.165072 0.581476
0.144167 0.160983 0.577722
0.325444 0.164187 0.560632
0.576959 0.152651 0.525261
0.827695 0.131868 0.502556
1.000000 0.111513 0.488930
1.000000 0.110872 0.470344
0.092561 0.188907 0.594629
0.092378 0.186007 0.593286
0.128450 0.184604 0.593011
0.324376 0.186648 0.573754
0.579889 0.181125 0.540276
0.831571 0.160952 0.519524
1.000000 0.147799 0.500847
1.000000 0.153964 0.480110
0.097200 0.255070 0.638911
0.096742 0.249943 0.637720
0.097505 0.255985 0.647211
0.325841 0.257755 0.617639
0.592401 0.259983 0.583276
0.837278 0.246708 0.557122
0.997131 0.242863 0.535302
1.000000 0.253819 0.523461
0.123445 0.402380 0.718135
0.122744 0.398993 0.715724
0.125154 0.406897 0.740871
0.366766 0.426032 0.720424
0.655024 0.430640 0.677699
0.849790 0.422950 0.637812
0.967132 0.417945 0.608820
0.993561 0.401587 0.583581
0.150546 0.539727 0.765743
0.150484 0.539391 0.765835
0.160769 0.586694 0.806943
0.408728 0.634638 0.784024
0.649744 0.661097 0.742641
0.842741 0.667048 0.705348
0.921416 0.645472 0.682826
0.929229 0.625666 0.664149
0.163821 0.606226 0.782956
0.164340 0.608423 0.784787
0.190555 0.706630 0.838499
0.495827 0.783841 0.808042
0.722255 0.834958 0.759976
0.875395 0.865446 0.741268
0.947173 0.861601 0.722316
0.958160 0.836027 0.701411
0.198764 0.754940 0.823880
0.239933 0.766842 0.821195
0.452827 0.797879 0.791348
0.617273 0.842130 0.787869
0.777157 0.902098 0.755184
0.891356 0.938231 0.758267
0.956115 0.946654 0.745510
0.968902 0.937072 0.726375
0.545495 0.820951 0.735256
0.581659 0.830472 0.735042
0.636469 0.844083 0.731655
0.732601 0.881468 0.710628
0.825010 0.915435 0.720790
0.913603 0.943664 0.735897
0.959289 0.961303 0.747341
0.971374 0.967041 0.762234
0.094759 0.221225 0.618769
0.094850 0.222019 0.620569
0.113649 0.225071 0.624506
0.273594 0.224735 0.599725
0.492226 0.219944 0.566400
0.677302 0.209964 0.542626
0.901366 0.187716 0.523156
1.000000 0.193698 0.511192
0.095766 0.237217 0.628290
0.095888 0.238560 0.630793
0.107210 0.243351 0.637873
0.271580 0.244175 0.616571
0.493172 0.242496 0.583734
0.686458 0.231571 0.556420
0.893492 0.218357 0.539513
1.000000 0.224033 0.521965
0.101808 0.286839 0.661646
0.102144 0.288273 0.665644
0.103212 0.293065 0.674891
0.290684 0.295445 0.646296
0.509911 0.298680 0.613062
0.692592 0.293919 0.585046
0.894347 0.296696 0.572351
0.994995 0.313268 0.558679
0.122255 0.394903 0.723079
0.121706 0.391485 0.724605
0.124361 0.402350 0.742153
0.338659 0.413916 0.719326
0.558618 0.435981 0.698665
0.753445 0.456062 0.665278
0.885191 0.467872 0.650446
0.955749 0.474311 0.633509
0.149966 0.529808 0.798001
0.154604 0.548241 0.819669
0.168765 0.599725 0.865293
0.440650 0.644465 0.831388
0.660700 0.670008 0.781949
0.826566 0.676875 0.732631
0.907469 0.687984 0.727596
0.936339 0.682338 0.711421
0.170016 0.616632 0.842802
0.171969 0.622675 0.847959
0.203220 0.728023 0.924712
0.501671 0.792416 0.889586
0.723384 0.839994 0.845548
0.876066 0.872496 0.805478
0.945495 0.871489 0.791470
0.957946 0.850889 0.770962
0.206546 0.761074 0.905455
0.209720 0.774990 0.912932
0.446509 0.803525 0.874907
0.618860 0.849973 0.869993
0.776181 0.905089 0.828519
0.894133 0.943175 0.819455
0.955077 0.950347 0.812589
0.966583 0.943328 0.803525
0.555901 0.830625 0.832120
0.584009 0.836912 0.830289
0.644526 0.853208 0.829648
0.735256 0.889189 0.803861
0.831632 0.924071 0.789792
0.917479 0.953246 0.803067
0.960113 0.968139 0.809354
0.970153 0.972198 0.818326
0.097780 0.259922 0.645289
0.097932 0.260929 0.647456
0.098604 0.266056 0.655634
0.245579 0.265263 0.637232
0.420203 0.265660 0.608637
0.601831 0.261723 0.582574
0.794003 0.246983 0.560357
0.949340 0.242435 0.544488
0.099428 0.273228 0.655940
0.099855 0.275120 0.659358
0.100587 0.278782 0.665003
0.250309 0.277714 0.643397
0.424872 0.279667 0.615595
0.606653 0.281193 0.590509
0.791928 0.266758 0.567926
0.946715 0.272770 0.554437
0.106722 0.314458 0.676295
0.106996 0.315373 0.679866
0.107973 0.319829 0.688685
0.271061 0.319951 0.670283
0.428473 0.325505 0.649104
0.616175 0.324437 0.620050
0.784573 0.338933 0.608118
0.938140 0.360937 0.598016
0.122194 0.393561 0.727901
0.122805 0.395850 0.732448
0.123934 0.400000 0.742031
0.308171 0.407813 0.722255
0.469368 0.430518 0.707790
0.672694 0.464912 0.687312
0.813657 0.495827 0.671595
0.898924 0.523919 0.669245
0.155062 0.546349 0.828794
0.158419 0.559411 0.839536
0.244083 0.587732 0.839506
0.457923 0.618402 0.809812
0.617060 0.642969 0.790951
0.769986 0.679408 0.740505
0.877562 0.707179 0.739071
0.928679 0.720089 0.732540
0.198550 0.703029 0.921141
0.203281 0.723110 0.932982
0.356451 0.753994 0.911223
0.591730 0.801114 0.886198
0.759731 0.844480 0.831113
0.877958 0.868711 0.805875
0.928069 0.873533 0.797513
0.955596 0.875547 0.790158
0.214420 0.778286 0.954253
0.287663 0.788815 0.940642
0.467048 0.816068 0.916594
0.627131 0.857908 0.908659
0.788540 0.912566 0.858824
0.902342 0.944305 0.838743
0.954711 0.949950 0.831479
0.965362 0.947326 0.826139
0.563317 0.839200 0.894499
0.582788 0.844450 0.894285
0.645991 0.860960 0.892485
0.752468 0.898070 0.855406
0.844663 0.933684 0.831998
0.921538 0.958343 0.838560
0.960021 0.972198 0.842557
0.969696 0.975280 0.844755
