LUTs/SPK Cube Block1 S64/TheBrim_SPK_Type-N_Block1_S64.cube
TITLE "TheBrim® SPK Block 1"
# TheBrim® d.o.o. Croatia
# Copyright: (C) Copyright 2020 TheBrim® d.o.o. Croatia
LUT_3D_SIZE 4
0.0000920000 0.0000310000 0.0002750000
0.0727840000 0.0014650000 0.0000000000
0.4320980000 0.0000000000 0.0000000000
0.6163330000 0.0000000000 0.0000000000
0.0000000000 0.0691220000 0.0069270000
0.1515200000 0.1316530000 0.0000000000
0.5904240000 0.1725460000 0.0000000000
0.7138980000 0.1770020000 0.0000000000
0.0000000000 0.3391420000 0.0001830000
0.0000000000 0.5134580000 0.0000000000
0.7792360000 0.6749270000 0.0000000000
0.8794250000 0.6552120000 0.0000000000
0.0000000000 0.3838810000 0.0000000000
0.0000000000 0.5777280000 0.0000000000
0.7626650000 0.7740170000 0.0000000000
0.9244080000 0.7876590000 0.0000000000
0.0000000000 0.0000000000 0.0447690000
0.1094060000 0.0152280000 0.1193540000
0.5277100000 0.0000000000 0.1639400000
0.6540530000 0.0000000000 0.1936950000
0.0000000000 0.0958250000 0.0887760000
0.1557920000 0.1616520000 0.1634520000
0.6536250000 0.1968690000 0.1911620000
0.7579040000 0.1914060000 0.2107850000
0.0000000000 0.3670350000 0.1053160000
0.0000000000 0.5449220000 0.1584780000
0.7856140000 0.7138060000 0.0351560000
0.9299620000 0.7301030000 0.0000000000
0.0000000000 0.4117740000 0.0852660000
0.0000000000 0.6096190000 0.1129760000
0.7622070000 0.8051450000 0.0000000000
0.9326780000 0.8279110000 0.0000000000
0.0035100000 0.0000000000 0.2076720000
0.1308900000 0.0000000000 0.3910520000
0.6382140000 0.0000000000 0.6013790000
0.7330930000 0.0000000000 0.6131590000
0.0000000000 0.1200260000 0.3842770000
0.1391910000 0.1555480000 0.5695190000
0.6983030000 0.2463990000 0.6627200000
0.8014830000 0.2410280000 0.6744690000
0.0000000000 0.4613950000 0.4768070000
0.0000000000 0.6443790000 0.6686400000
0.7787480000 0.7850950000 0.7732540000
0.9155270000 0.8019410000 0.7870790000
0.0000000000 0.5344850000 0.4958800000
0.0000000000 0.7224120000 0.6656800000
0.7673030000 0.8895870000 0.7716370000
0.9170840000 0.9112850000 0.7851560000
0.0065310000 0.0000000000 0.2379460000
0.1415100000 0.0000000000 0.4366460000
0.6430360000 0.0000000000 0.6869810000
0.7428890000 0.0000000000 0.6953430000
0.0000000000 0.1140140000 0.4458010000
0.1530460000 0.1339720000 0.6476440000
0.6999210000 0.2349550000 0.7579960000
0.8065490000 0.2390750000 0.7632750000
0.0000000000 0.4710390000 0.5608520000
0.0000000000 0.6553650000 0.7803960000
0.7792970000 0.7917480000 0.8945310000
0.9127500000 0.8109440000 0.9013060000
0.0000000000 0.5449220000 0.5856320000
0.0000000000 0.7395320000 0.7868350000
0.7714230000 0.9035030000 0.9032290000
0.9158330000 0.9228820000 0.9154970000
