LUTs/SPK Cube Block1 S64/TheBrim_SPK_Type-K_Block1_S64.cube
TITLE "TheBrim® SPK Block 1"
# TheBrim® d.o.o. Croatia
# Copyright: (C) Copyright 2020 TheBrim® d.o.o. Croatia
LUT_3D_SIZE 4
0.0022280000 0.0019840000 0.0018310000
0.0870060000 0.0177310000 0.0208740000
0.5747680000 0.0239560000 0.1032100000
0.7167360000 0.0000000000 0.1548160000
0.0000000000 0.0736690000 0.0086670000
0.1233520000 0.1246640000 0.0051880000
0.6508180000 0.1989140000 0.0317690000
0.8028560000 0.2112730000 0.0684200000
0.0000000000 0.3602290000 0.0000000000
0.0000000000 0.5436100000 0.0000000000
0.8161010000 0.6786190000 0.0000000000
0.9454650000 0.6821590000 0.0000000000
0.2916560000 0.6366580000 0.0000000000
0.5193180000 0.6919560000 0.0000000000
0.8865660000 0.7697450000 0.0000000000
0.9483030000 0.7495420000 0.0000000000
0.0101620000 0.0194400000 0.0748900000
0.0671390000 0.0094300000 0.1051030000
0.5902100000 0.0000000000 0.2498470000
0.7118230000 0.0000000000 0.3077090000
0.0000000000 0.0882570000 0.0804140000
0.1044620000 0.1422420000 0.1469730000
0.6837160000 0.2248540000 0.2576290000
0.8274840000 0.2477110000 0.3359070000
0.0000000000 0.3637390000 0.0426330000
0.0000000000 0.5412290000 0.0472720000
0.8247070000 0.7131650000 0.0000000000
0.9753420000 0.7474980000 0.1428220000
0.3806760000 0.6580510000 0.0000000000
0.5697630000 0.7039790000 0.0000000000
0.9028930000 0.7897950000 0.0000000000
0.9886170000 0.8358460000 0.0066830000
0.0000000000 0.0812380000 0.4099730000
0.1547240000 0.0467530000 0.4432370000
0.5510860000 0.0000000000 0.4858400000
0.7236330000 0.0000000000 0.5475160000
0.0000000000 0.2080080000 0.5143740000
0.1362610000 0.2249150000 0.5697630000
0.6964720000 0.1916810000 0.6207890000
0.8175050000 0.1993410000 0.6511540000
0.0000000000 0.4509280000 0.4180910000
0.0000000000 0.6335450000 0.5983580000
0.8151860000 0.8016970000 0.7248840000
0.9599910000 0.8162840000 0.7578430000
0.1262210000 0.7510990000 0.5416260000
0.4783630000 0.8030700000 0.5802000000
0.8666690000 0.8863220000 0.6600650000
0.9685360000 0.9147030000 0.7487790000
0.0000000000 0.1945190000 0.5155030000
0.1336980000 0.2065120000 0.5552060000
0.4695740000 0.1742250000 0.5740050000
0.7381900000 0.1567690000 0.6161190000
0.0000000000 0.2681270000 0.5671390000
0.1054990000 0.2840580000 0.6061400000
0.5175170000 0.2817080000 0.6368410000
0.8283080000 0.3803410000 0.7121280000
0.0000000000 0.6054690000 0.6868590000
0.0000000000 0.6979680000 0.7666930000
0.8162230000 0.8041690000 0.8216550000
0.9485780000 0.8443600000 0.8410640000
0.0000000000 0.7855830000 0.7623600000
0.4581910000 0.8359380000 0.7984620000
0.8697200000 0.9114380000 0.8488460000
0.9653020000 0.9309390000 0.8728640000
