LUTs/SPK Cube Block1 S64/TheBrim_SPK_Type-H_Block1_S64.cube
TITLE "TheBrim® SPK Block 1"
# © Copyright 2021 - TheBrim® d.o.o. Croatia
LUT_3D_SIZE 64
DOMAIN_MIN 0.000000 0.000000 0.000000
DOMAIN_MAX 1.000000 1.000000 1.000000
0.068330 0.020264 0.046204
0.068666 0.021088 0.047761
0.069093 0.021576 0.048493
0.069642 0.021546 0.048157
0.070771 0.021607 0.047913
0.073610 0.021881 0.047578
0.076173 0.021820 0.047028
0.078950 0.021515 0.046204
0.083162 0.021363 0.045411
0.086732 0.021332 0.044831
0.089784 0.021729 0.044862
0.093111 0.022248 0.044923
0.098177 0.022827 0.044831
0.103883 0.023194 0.044404
0.110140 0.023621 0.044038
0.117983 0.023682 0.043122
0.130556 0.023621 0.041444
0.146700 0.024018 0.040040
0.165774 0.024323 0.038087
0.183383 0.024048 0.035859
0.201968 0.023651 0.033600
0.223392 0.023377 0.030976
0.248722 0.023102 0.027863
0.277989 0.022309 0.024506
0.306645 0.020569 0.022522
0.340276 0.017792 0.020569
0.368200 0.014862 0.019501
0.392584 0.012207 0.018524
0.420447 0.012177 0.017487
0.448493 0.012512 0.016846
0.476509 0.013336 0.016693
0.498451 0.013947 0.016602
0.521752 0.014649 0.016449
0.546838 0.015381 0.016297
0.573236 0.016144 0.016175
0.596948 0.016846 0.016052
0.617884 0.017456 0.015930
0.638209 0.018036 0.015839
0.655512 0.018555 0.015747
0.670832 0.018982 0.015656
0.685756 0.019440 0.015595
0.701564 0.019898 0.015503
0.718410 0.020386 0.015412
0.735348 0.020874 0.015320
0.748745 0.021271 0.015259
0.759152 0.021576 0.015229
0.769863 0.021912 0.015167
0.777920 0.022126 0.015259
0.782589 0.022278 0.015290
0.785946 0.022370 0.015320
0.788479 0.022431 0.015351
0.791287 0.022522 0.015381
0.794064 0.022614 0.015412
0.796597 0.022675 0.015442
0.798642 0.022736 0.015473
0.799680 0.022766 0.015473
0.800778 0.022797 0.015503
0.801419 0.022827 0.015503
0.801694 0.022827 0.015503
0.802182 0.022827 0.015503
0.802213 0.022827 0.015503
0.802274 0.022827 0.015503
0.802884 0.022858 0.015503
0.803555 0.022889 0.015534
0.068666 0.022889 0.049500
0.068788 0.022950 0.049378
0.069337 0.022644 0.048463
0.069703 0.022278 0.047791
0.070497 0.022217 0.047456
0.073732 0.022309 0.046784
0.076600 0.022217 0.046052
0.079896 0.021729 0.045106
0.083833 0.021668 0.044617
0.087495 0.021637 0.044282
0.090761 0.022156 0.044404
0.095064 0.022827 0.044495
0.100252 0.023316 0.044282
0.106508 0.023560 0.043732
0.113436 0.023896 0.043122
0.122805 0.023896 0.042054
0.134493 0.024048 0.040681
0.151888 0.024170 0.038972
0.169802 0.024537 0.037171
0.186007 0.024353 0.035157
0.205264 0.023926 0.032837
0.227115 0.023713 0.030091
0.251804 0.023285 0.027161
0.280522 0.022614 0.024353
0.309636 0.020600 0.022309
0.337407 0.018006 0.020722
0.363287 0.015442 0.019684
0.389075 0.012451 0.018677
0.417487 0.012177 0.017609
0.447364 0.012482 0.016876
0.475837 0.013306 0.016693
0.498756 0.013977 0.016602
0.521813 0.014649 0.016449
0.546685 0.015381 0.016297
0.572778 0.016144 0.016175
0.596368 0.016815 0.016052
0.617487 0.017426 0.015930
0.637598 0.018036 0.015839
0.655512 0.018555 0.015747
0.671077 0.018982 0.015656
0.685664 0.019440 0.015595
0.701045 0.019867 0.015503
0.718227 0.020386 0.015412
0.735195 0.020874 0.015320
0.748623 0.021271 0.015259
0.759030 0.021576 0.015229
0.769741 0.021912 0.015167
0.777829 0.022126 0.015259
0.782589 0.022278 0.015290
0.785946 0.022370 0.015320
0.788479 0.022431 0.015351
0.791287 0.022522 0.015381
0.794003 0.022614 0.015412
0.796597 0.022675 0.015442
0.798642 0.022736 0.015473
0.799680 0.022766 0.015473
0.800778 0.022797 0.015503
0.801358 0.022827 0.015503
0.801633 0.022827 0.015503
0.802182 0.022827 0.015503
0.802213 0.022827 0.015503
0.802274 0.022827 0.015503
0.803464 0.022889 0.015534
0.804257 0.022889 0.015534
0.068666 0.026184 0.051179
0.069245 0.025727 0.050294
0.069856 0.025360 0.049439
0.070283 0.025055 0.048798
0.070832 0.024384 0.048005
0.073793 0.024323 0.047059
0.076875 0.023529 0.045777
0.080415 0.022400 0.044404
0.084413 0.022339 0.044099
0.088045 0.022522 0.044160
0.091829 0.022889 0.044129
0.096529 0.023529 0.044129
0.102388 0.023804 0.043702
0.109407 0.023926 0.042969
0.116060 0.024201 0.042451
0.126680 0.024109 0.041138
0.138979 0.024414 0.039979
0.156283 0.024445 0.038239
0.173037 0.024750 0.036530
0.189334 0.024598 0.034424
0.207980 0.024201 0.032288
0.229923 0.024079 0.029572
0.254704 0.023713 0.026551
0.282628 0.022980 0.024201
0.309758 0.020935 0.022278
0.334447 0.018372 0.020874
0.359777 0.015991 0.019837
0.385809 0.012879 0.018799
0.414069 0.012177 0.017731
0.444404 0.012451 0.016938
0.474403 0.013275 0.016724
0.498390 0.013947 0.016602
0.522148 0.014649 0.016449
0.546777 0.015381 0.016297
0.572564 0.016144 0.016175
0.595850 0.016815 0.016052
0.617029 0.017426 0.015930
0.637232 0.018006 0.015839
0.655116 0.018524 0.015747
0.671199 0.019013 0.015656
0.685969 0.019440 0.015595
0.700893 0.019867 0.015503
0.717800 0.020356 0.015412
0.734951 0.020874 0.015320
0.748531 0.021271 0.015259
0.758907 0.021576 0.015229
0.769528 0.021881 0.015167
0.777737 0.022126 0.015259
0.782589 0.022278 0.015290
0.785885 0.022370 0.015320
0.788479 0.022431 0.015351
0.791287 0.022522 0.015381
0.794003 0.022614 0.015412
0.796536 0.022675 0.015442
0.798611 0.022736 0.015473
0.799619 0.022766 0.015473
0.800778 0.022797 0.015503
0.801358 0.022827 0.015503
0.801602 0.022827 0.015503
0.802182 0.022827 0.015503
0.802213 0.022827 0.015503
0.802274 0.022827 0.015503
0.803525 0.022889 0.015534
0.804990 0.022919 0.015534
0.068910 0.028443 0.051972
0.069520 0.028107 0.051118
0.070161 0.027741 0.050294
0.070771 0.027466 0.049561
0.071565 0.026978 0.048737
0.072969 0.026276 0.047669
0.076173 0.025818 0.046448
0.078981 0.024750 0.045319
0.083925 0.024384 0.044678
0.087861 0.024201 0.044495
0.092226 0.024445 0.044282
0.097414 0.024872 0.043977
0.103456 0.025086 0.043519
0.112093 0.024567 0.042420
0.119509 0.024537 0.041749
0.130800 0.024445 0.040314
0.142336 0.024933 0.039460
0.158053 0.024994 0.037903
0.174899 0.025208 0.036103
0.192233 0.024994 0.033753
0.210697 0.024628 0.031708
0.232242 0.024872 0.029145
0.255589 0.024475 0.026093
0.280491 0.023743 0.024353
0.303868 0.022339 0.022705
0.330602 0.019196 0.021088
0.354650 0.016785 0.020020
0.380591 0.013642 0.019013
0.408362 0.012177 0.017945
0.438056 0.012390 0.017090
0.469306 0.013123 0.016754
0.496956 0.013916 0.016602
0.521294 0.014618 0.016449
0.546624 0.015381 0.016297
0.572107 0.016114 0.016175
0.595392 0.016785 0.016052
0.616510 0.017395 0.015961
0.636408 0.018006 0.015839
0.654902 0.018524 0.015747
0.671412 0.019013 0.015656
0.686061 0.019440 0.015595
0.700832 0.019867 0.015503
0.717464 0.020356 0.015412
0.734432 0.020844 0.015320
0.748440 0.021271 0.015259
0.758907 0.021576 0.015229
0.769284 0.021881 0.015167
0.777554 0.022126 0.015229
0.782498 0.022278 0.015290
0.785946 0.022370 0.015320
0.788479 0.022431 0.015351
0.791257 0.022522 0.015381
0.794003 0.022614 0.015412
0.796506 0.022675 0.015442
0.798611 0.022736 0.015473
0.799619 0.022766 0.015473
0.800748 0.022797 0.015503
0.801328 0.022827 0.015503
0.801541 0.022827 0.015503
0.802182 0.022827 0.015503
0.802762 0.022858 0.015503
0.802853 0.022858 0.015503
0.804227 0.022889 0.015534
0.805661 0.022950 0.015534
0.069368 0.031922 0.053010
0.069947 0.031403 0.052186
0.070497 0.030884 0.051423
0.071138 0.030396 0.050599
0.072236 0.029694 0.049592
0.073365 0.028717 0.048737
0.074891 0.028077 0.047761
0.077882 0.027222 0.046509
0.082124 0.026642 0.045624
0.087190 0.026581 0.045197
0.091890 0.026520 0.044770
0.097383 0.026551 0.044221
0.103944 0.026581 0.043458
0.113344 0.025696 0.042115
0.122194 0.025299 0.041199
0.132021 0.025177 0.040162
0.143435 0.025849 0.039246
0.159152 0.025940 0.037659
0.175937 0.026123 0.035859
0.193423 0.025910 0.033448
0.212375 0.025452 0.031342
0.233768 0.025940 0.028840
0.258000 0.024903 0.025940
0.280400 0.024445 0.024353
0.300908 0.023377 0.022919
0.323674 0.020539 0.021485
0.349187 0.017884 0.020233
0.376104 0.014588 0.019196
0.402533 0.012177 0.018158
0.431037 0.012299 0.017243
0.462409 0.012909 0.016785
0.492531 0.013794 0.016632
0.519402 0.014557 0.016480
0.544884 0.015320 0.016327
0.571405 0.016114 0.016175
0.594720 0.016785 0.016052
0.616144 0.017395 0.015961
0.635645 0.017975 0.015839
0.654353 0.018524 0.015747
0.671473 0.019013 0.015656
0.686397 0.019440 0.015595
0.700893 0.019867 0.015503
0.717311 0.020356 0.015412
0.733974 0.020844 0.015320
0.748165 0.021241 0.015259
0.758816 0.021576 0.015229
0.769253 0.021881 0.015167
0.777493 0.022126 0.015229
0.782376 0.022278 0.015290
0.785946 0.022370 0.015320
0.788479 0.022431 0.015351
0.791257 0.022522 0.015381
0.793973 0.022614 0.015412
0.796506 0.022675 0.015442
0.798611 0.022736 0.015473
0.799619 0.022766 0.015473
0.800748 0.022797 0.015503
0.801358 0.022827 0.015503
0.801602 0.022827 0.015503
0.802182 0.022827 0.015503
0.802853 0.022858 0.015503
0.803342 0.022858 0.015534
0.804807 0.022919 0.015534
0.806516 0.022980 0.015564
0.069306 0.035065 0.054566
0.069978 0.034577 0.053590
0.070619 0.034028 0.052857
0.071107 0.033845 0.052399
0.072114 0.033295 0.051423
0.073732 0.032532 0.050263
0.075166 0.031647 0.049287
0.076722 0.030854 0.048371
0.080415 0.029541 0.047089
0.085939 0.028840 0.045899
0.091890 0.028595 0.045045
0.096681 0.028321 0.044343
0.103639 0.028351 0.043671
0.113252 0.027955 0.042512
0.121736 0.027344 0.041596
0.132174 0.027192 0.040436
0.143191 0.027436 0.039429
0.157565 0.027893 0.037995
0.175143 0.028077 0.036072
0.192905 0.027863 0.033631
0.211673 0.027466 0.031342
0.232059 0.027283 0.028962
0.255222 0.026215 0.026123
0.276158 0.025422 0.024659
0.294652 0.024933 0.023377
0.316960 0.022644 0.021881
0.341985 0.019593 0.020539
0.367742 0.016571 0.019532
0.393652 0.013031 0.018494
0.422492 0.012207 0.017456
0.452125 0.012604 0.016846
0.484596 0.013550 0.016663
0.510185 0.014282 0.016541
0.533654 0.014984 0.016388
0.561822 0.015808 0.016236
0.589471 0.016632 0.016083
0.612726 0.017304 0.015961
0.632624 0.017884 0.015869
0.652918 0.018463 0.015747
0.671412 0.019013 0.015656
0.686488 0.019440 0.015595
0.701045 0.019867 0.015503
0.716396 0.020325 0.015412
0.732387 0.020783 0.015351
0.747768 0.021241 0.015259
0.758907 0.021576 0.015229
0.768856 0.021881 0.015167
0.777249 0.022126 0.015229
0.782315 0.022278 0.015290
0.785946 0.022370 0.015320
0.788510 0.022431 0.015351
0.791196 0.022522 0.015381
0.794003 0.022614 0.015412
0.796628 0.022675 0.015442
0.798917 0.022736 0.015473
0.799893 0.022766 0.015473
0.801053 0.022797 0.015503
0.801694 0.022827 0.015503
0.802365 0.022858 0.015503
0.803006 0.022858 0.015503
0.803861 0.022889 0.015534
0.804593 0.022919 0.015534
0.805966 0.022950 0.015534
0.808194 0.023011 0.015564
0.069001 0.038453 0.055970
0.069795 0.038148 0.055055
0.070466 0.037781 0.054170
0.071077 0.037568 0.053620
0.071748 0.037293 0.053101
0.073548 0.036591 0.051942
0.075441 0.035981 0.050874
0.077241 0.035035 0.049805
0.078737 0.033967 0.048859
0.084871 0.033112 0.047242
0.090974 0.031861 0.045747
0.096864 0.030549 0.044495
0.103456 0.030182 0.043641
0.110597 0.030335 0.043366
0.119905 0.029999 0.042359
0.130251 0.029694 0.041169
0.142092 0.029572 0.039734
0.155123 0.029969 0.038453
0.173312 0.030152 0.036194
0.190158 0.029969 0.034150
0.210666 0.029450 0.031312
0.230533 0.029206 0.029084
0.250370 0.028229 0.026490
0.269688 0.027253 0.025116
0.287633 0.026459 0.023865
0.309545 0.024720 0.022339
0.335241 0.021515 0.020874
0.360632 0.018463 0.019837
0.385718 0.015137 0.018830
0.413123 0.012177 0.017762
0.443061 0.012421 0.016968
0.475898 0.013306 0.016693
0.502434 0.014069 0.016571
0.525292 0.014740 0.016449
0.551446 0.015503 0.016297
0.582055 0.016419 0.016114
0.608301 0.017182 0.015991
0.628931 0.017762 0.015869
0.649439 0.018372 0.015778
0.670222 0.018982 0.015656
0.686183 0.019440 0.015595
0.700832 0.019867 0.015503
0.716060 0.020325 0.015412
0.730892 0.020752 0.015351
0.746304 0.021210 0.015259
0.758450 0.021576 0.015229
0.768734 0.021881 0.015167
0.777279 0.022126 0.015229
0.782284 0.022248 0.015290
0.786038 0.022370 0.015320
0.788602 0.022461 0.015351
0.791318 0.022522 0.015381
0.794186 0.022614 0.015412
0.796811 0.022675 0.015442
0.799222 0.022766 0.015473
0.800351 0.022797 0.015473
0.801541 0.022827 0.015503
0.802304 0.022858 0.015503
0.803006 0.022858 0.015503
0.803952 0.022889 0.015534
0.804837 0.022919 0.015534
0.805783 0.022950 0.015534
0.807706 0.023011 0.015564
0.809903 0.023072 0.015595
0.068940 0.042542 0.057252
0.069703 0.042206 0.056336
0.070466 0.041779 0.055390
0.071046 0.041535 0.054749
0.071809 0.040986 0.054047
0.073152 0.040620 0.053285
0.075074 0.039734 0.052186
0.077211 0.039399 0.051240
0.079042 0.038483 0.050172
0.082399 0.037629 0.048737
0.089631 0.036469 0.046998
0.095827 0.034913 0.045563
0.102724 0.033631 0.044251
0.110048 0.033356 0.043671
0.117433 0.033143 0.043397
0.127993 0.032654 0.042145
0.140230 0.032349 0.040650
0.153170 0.032197 0.038911
0.170382 0.032166 0.036774
0.187228 0.032166 0.034668
0.205112 0.031830 0.032502
0.225895 0.031617 0.029786
0.246311 0.030396 0.027008
0.263859 0.029328 0.025544
0.280827 0.028473 0.024353
0.302586 0.026673 0.022827
0.325902 0.024201 0.021393
0.350469 0.021241 0.020233
0.379339 0.017090 0.019104
0.406989 0.013275 0.018006
0.432624 0.012299 0.017212
0.461707 0.012879 0.016785
0.492317 0.013794 0.016632
0.518486 0.014527 0.016480
0.541802 0.015229 0.016327
0.570611 0.016083 0.016175
0.598749 0.016907 0.016052
0.621485 0.017548 0.015930
0.641993 0.018158 0.015808
0.662409 0.018738 0.015717
0.680568 0.019287 0.015625
0.695644 0.019715 0.015534
0.710384 0.020142 0.015442
0.725856 0.020600 0.015381
0.742245 0.021088 0.015290
0.755825 0.021485 0.015229
0.766873 0.021820 0.015198
0.777188 0.022126 0.015229
0.783719 0.022309 0.015320
0.787198 0.022400 0.015351
0.789944 0.022492 0.015381
0.792752 0.022553 0.015412
0.795712 0.022644 0.015442
0.798337 0.022736 0.015473
0.801022 0.022797 0.015503
0.801999 0.022827 0.015503
0.803006 0.022858 0.015503
0.803769 0.022889 0.015534
0.804410 0.022919 0.015534
0.805295 0.022919 0.015534
0.806363 0.022950 0.015564
0.807797 0.023011 0.015564
0.809781 0.023072 0.015595
0.812009 0.023133 0.015595
0.069154 0.047272 0.058564
0.069947 0.046937 0.057801
0.070527 0.046693 0.057160
0.071138 0.046357 0.056428
0.071748 0.045991 0.055665
0.072877 0.045472 0.054749
0.074708 0.045045 0.053681
0.076844 0.044099 0.052522
0.078767 0.043000 0.051606
0.081544 0.041505 0.050294
0.086030 0.040833 0.048890
0.093233 0.040162 0.047456
0.099641 0.039399 0.046174
0.108675 0.038911 0.044678
0.116762 0.038788 0.044038
0.127169 0.037598 0.042573
0.139956 0.037232 0.041077
0.151827 0.036286 0.039673
0.165774 0.035676 0.037812
0.183017 0.034913 0.035584
0.199069 0.034455 0.033570
0.218814 0.033997 0.030945
0.238499 0.033753 0.028565
0.258488 0.032197 0.026093
0.277470 0.030732 0.024598
0.297215 0.029084 0.023224
0.317693 0.026825 0.021881
0.339818 0.024537 0.020691
0.369665 0.020142 0.019501
0.399786 0.015717 0.018311
0.427100 0.012238 0.017334
0.452277 0.012604 0.016846
0.481941 0.013489 0.016663
0.508659 0.014252 0.016541
0.535332 0.015045 0.016388
0.560449 0.015778 0.016236
0.586542 0.016541 0.016114
0.612055 0.017273 0.015961
0.634730 0.017945 0.015839
0.656001 0.018555 0.015747
0.676081 0.019135 0.015625
0.691829 0.019623 0.015564
0.707210 0.020050 0.015473
0.722286 0.020508 0.015381
0.737392 0.020935 0.015320
0.752743 0.021393 0.015259
0.765164 0.021759 0.015198
0.776333 0.022095 0.015229
0.785489 0.022370 0.015320
0.788418 0.022431 0.015351
0.791196 0.022522 0.015381
0.794186 0.022614 0.015412
0.797086 0.022705 0.015442
0.799771 0.022766 0.015473
0.802701 0.022858 0.015503
0.803861 0.022889 0.015534
0.804593 0.022919 0.015534
0.805356 0.022919 0.015534
0.805936 0.022950 0.015534
0.807034 0.022980 0.015564
0.808560 0.023041 0.015564
0.810178 0.023072 0.015595
0.812131 0.023133 0.015595
0.814145 0.023194 0.015625
0.069306 0.052033 0.060212
0.069917 0.051728 0.059541
0.070619 0.051514 0.058900
0.071199 0.051179 0.058289
0.071748 0.050904 0.057557
0.072450 0.050477 0.056672
0.074311 0.050080 0.055390
0.076356 0.049744 0.054139
0.078584 0.048829 0.052888
0.080720 0.047852 0.051850
0.085267 0.046876 0.050294
0.090242 0.045808 0.048798
0.096834 0.044831 0.047669
0.105501 0.044617 0.046357
0.115633 0.043854 0.044709
0.126741 0.043122 0.043091
0.139712 0.042542 0.041321
0.151400 0.042115 0.040284
0.163149 0.041474 0.038849
0.177584 0.041413 0.036835
0.193240 0.040345 0.034852
0.213046 0.039063 0.031922
0.232700 0.038209 0.029511
0.253025 0.036896 0.027070
0.272923 0.033936 0.024933
0.292393 0.031891 0.023590
0.312902 0.029358 0.022156
0.334417 0.026978 0.020966
0.360204 0.023377 0.019928
0.389624 0.019135 0.018738
0.418189 0.015167 0.017609
0.444678 0.012451 0.016938
0.473732 0.013245 0.016724
0.500572 0.014008 0.016571
0.526268 0.014771 0.016419
0.549493 0.015442 0.016297
0.575586 0.016236 0.016175
0.601068 0.016968 0.016022
0.624170 0.017639 0.015900
0.648402 0.018341 0.015778
0.671595 0.019013 0.015656
0.687251 0.019471 0.015564
0.703304 0.019959 0.015503
0.719356 0.020417 0.015412
0.733883 0.020844 0.015320
0.748867 0.021271 0.015259
0.763577 0.021729 0.015198
0.777340 0.022126 0.015229
0.787625 0.022431 0.015351
0.790921 0.022522 0.015381
0.793332 0.022583 0.015412
0.796384 0.022675 0.015442
0.799527 0.022766 0.015473
0.802182 0.022827 0.015503
0.805112 0.022919 0.015534
0.806729 0.022980 0.015564
0.807431 0.022980 0.015564
0.807950 0.023011 0.015564
0.808774 0.023041 0.015564
0.809873 0.023072 0.015595
0.811154 0.023102 0.015595
0.812711 0.023163 0.015625
0.814694 0.023224 0.015625
0.816800 0.023285 0.015656
0.069306 0.057130 0.061738
0.069856 0.056825 0.061128
0.070436 0.056580 0.060639
0.071168 0.056153 0.059876
0.071809 0.055879 0.059144
0.072480 0.055543 0.058289
0.073945 0.055360 0.057160
0.075959 0.055055 0.055879
0.078157 0.054597 0.054414
0.080690 0.053651 0.052888
0.084321 0.053010 0.051514
0.089448 0.052369 0.049836
0.094911 0.051667 0.048371
0.102541 0.051240 0.047150
0.112581 0.050721 0.045686
0.123781 0.049561 0.044404
0.136568 0.047974 0.042512
0.150027 0.047303 0.040772
0.161532 0.046540 0.039429
0.175418 0.046571 0.037476
0.189487 0.046845 0.035615
0.207675 0.045045 0.033173
0.228519 0.044068 0.030304
0.248722 0.043153 0.027985
0.269810 0.040192 0.025452
0.288884 0.037232 0.023865
0.309209 0.034424 0.022431
0.331029 0.030976 0.021210
0.354101 0.028504 0.020203
0.382422 0.023957 0.019074
0.411200 0.019959 0.017945
0.437171 0.015595 0.017121
0.468574 0.013092 0.016754
0.496223 0.013886 0.016602
0.519371 0.014557 0.016480
0.541863 0.015229 0.016327
0.567163 0.015991 0.016205
0.593988 0.016754 0.016052
0.617578 0.017426 0.015930
0.640620 0.018128 0.015808
0.666468 0.018860 0.015686
0.684810 0.019409 0.015595
0.700038 0.019837 0.015503
0.716243 0.020325 0.015412
0.732418 0.020783 0.015351
0.747402 0.021241 0.015259
0.761868 0.021668 0.015198
0.777005 0.022095 0.015229
0.789090 0.022461 0.015381
0.793820 0.022583 0.015412
0.796323 0.022675 0.015442
0.799100 0.022736 0.015473
0.802304 0.022858 0.015503
0.805203 0.022919 0.015534
0.807950 0.023011 0.015564
0.809354 0.023041 0.015595
0.810452 0.023072 0.015595
0.810941 0.023102 0.015595
0.811704 0.023133 0.015595
0.812711 0.023163 0.015625
0.813962 0.023194 0.015625
0.815579 0.023224 0.015656
0.817411 0.023285 0.015656
0.819547 0.023346 0.015686
0.068818 0.063325 0.063416
0.069337 0.063050 0.062806
0.070069 0.062684 0.062165
0.070832 0.062409 0.061524
0.071595 0.062013 0.060731
0.072389 0.061646 0.059846
0.074006 0.061311 0.058686
0.075929 0.060914 0.057527
0.078218 0.060304 0.055940
0.080598 0.059693 0.054475
0.083680 0.058747 0.052888
0.088350 0.058350 0.051331
0.094026 0.057954 0.049500
0.099855 0.057404 0.048188
0.110018 0.057252 0.046754
0.120516 0.056947 0.045350
0.132631 0.056123 0.043977
0.146822 0.054994 0.041932
0.160342 0.053346 0.039948
0.174441 0.052003 0.037842
0.188022 0.052064 0.036103
0.202792 0.051820 0.034180
0.224094 0.050172 0.031373
0.244175 0.049348 0.028901
0.265812 0.046693 0.026215
0.287602 0.042908 0.023987
0.306981 0.040040 0.022614
0.326848 0.037018 0.021485
0.349096 0.033692 0.020478
0.374701 0.030426 0.019471
0.404730 0.025299 0.018250
0.433539 0.019532 0.017212
0.462409 0.015076 0.016785
0.491493 0.013764 0.016632
0.513848 0.014405 0.016510
0.535607 0.015045 0.016388
0.560540 0.015778 0.016236
0.588403 0.016602 0.016083
0.612390 0.017273 0.015961
0.634943 0.017945 0.015839
0.659876 0.018677 0.015717
0.682612 0.019348 0.015595
0.699245 0.019837 0.015503
0.714260 0.020264 0.015442
0.729885 0.020722 0.015351
0.745846 0.021180 0.015290
0.761471 0.021637 0.015198
0.775814 0.022065 0.015229
0.790494 0.022492 0.015381
0.797177 0.022705 0.015442
0.800076 0.022766 0.015473
0.802579 0.022858 0.015503
0.805417 0.022950 0.015534
0.808469 0.023011 0.015564
0.811734 0.023133 0.015595
0.812711 0.023163 0.015625
0.813657 0.023194 0.015625
0.814420 0.023194 0.015625
0.814908 0.023224 0.015625
0.816068 0.023255 0.015656
0.817227 0.023285 0.015656
0.818753 0.023346 0.015686
0.820188 0.023377 0.015686
0.822202 0.023438 0.015717
0.068513 0.070100 0.065675
0.068879 0.069398 0.064912
0.069764 0.069093 0.064210
0.070558 0.068635 0.063478
0.071290 0.068299 0.062745
0.072114 0.067903 0.061707
0.073884 0.067597 0.060548
0.076173 0.067292 0.059174
0.078126 0.066590 0.057832
0.080659 0.065827 0.056153
0.082979 0.065278 0.054994
0.088167 0.064698 0.052766
0.092897 0.064424 0.051301
0.098573 0.063996 0.049561
0.108156 0.063874 0.047608
0.119387 0.063661 0.045777
0.131075 0.063203 0.044160
0.144869 0.062715 0.042664
0.157961 0.061799 0.040742
0.171084 0.061128 0.038788
0.185763 0.060365 0.036469
0.199893 0.059754 0.034699
0.219944 0.058289 0.032197
0.239597 0.056611 0.029816
0.260319 0.054475 0.027161
0.284215 0.049744 0.024262
0.304356 0.046479 0.022827
0.322789 0.043946 0.021759
0.344030 0.040925 0.020752
0.367559 0.037324 0.019837
0.397375 0.031922 0.018616
0.427314 0.025422 0.017426
0.456184 0.019623 0.016785
0.485695 0.015229 0.016663
0.508659 0.014252 0.016541
0.530846 0.014893 0.016419
0.552972 0.015564 0.016266
0.581872 0.016419 0.016114
0.608728 0.017182 0.015991
0.631159 0.017853 0.015869
0.655756 0.018555 0.015747
0.679469 0.019257 0.015625
0.697566 0.019776 0.015534
0.713802 0.020264 0.015442
0.728969 0.020691 0.015351
0.744350 0.021149 0.015290
0.761196 0.021637 0.015198
0.775814 0.022065 0.015229
0.790707 0.022492 0.015381
0.801144 0.022797 0.015503
0.804166 0.022889 0.015534
0.807095 0.022980 0.015564
0.809720 0.023072 0.015595
0.812436 0.023133 0.015625
0.815274 0.023224 0.015625
0.816800 0.023285 0.015656
0.817563 0.023285 0.015656
0.818143 0.023316 0.015656
0.818662 0.023316 0.015686
0.819699 0.023346 0.015686
0.820829 0.023407 0.015686
0.822232 0.023438 0.015717
0.823392 0.023468 0.015717
0.824704 0.023499 0.015747
0.069306 0.078187 0.067262
0.069245 0.077394 0.066651
0.069184 0.076692 0.065980
0.069795 0.076081 0.065278
0.070680 0.075746 0.064485
0.071748 0.075135 0.063325
0.073274 0.074861 0.062318
0.075746 0.074617 0.060975
0.077943 0.074159 0.059693
0.080720 0.073579 0.058167
0.082979 0.072969 0.056825
0.088533 0.072938 0.054871
0.093690 0.072633 0.052766
0.098909 0.072267 0.050904
0.106294 0.071687 0.048432
0.117647 0.071443 0.046357
0.129732 0.070466 0.044465
0.142519 0.069459 0.042878
0.155612 0.068971 0.041321
0.166537 0.068360 0.039979
0.181979 0.067842 0.037385
0.196262 0.067384 0.035309
0.214939 0.066560 0.033204
0.236667 0.065309 0.030549
0.256199 0.063478 0.028321
0.276280 0.060395 0.025544
0.298039 0.055756 0.023316
0.317784 0.052369 0.022126
0.337530 0.048402 0.021118
0.360601 0.044953 0.020203
0.388769 0.039429 0.019043
0.418708 0.033539 0.017853
0.446784 0.026612 0.016968
0.475319 0.021942 0.016693
0.503655 0.017395 0.016541
0.528038 0.014832 0.016419
0.549950 0.015473 0.016297
0.574548 0.016205 0.016175
0.602136 0.016999 0.016022
0.628687 0.017762 0.015869
0.652613 0.018463 0.015747
0.676600 0.019165 0.015625
0.695979 0.019745 0.015534
0.713252 0.020233 0.015442
0.729122 0.020691 0.015351
0.744991 0.021149 0.015290
0.760311 0.021607 0.015198
0.775814 0.022065 0.015229
0.790921 0.022522 0.015381
0.803281 0.022858 0.015534
