LUTs/SPK Cube Block1 S64/TheBrim_SPK_Type-F_Block1_S64.cube
TITLE "TheBrim® SPK Block 1"
# © Copyright 2021 - TheBrim® d.o.o. Croatia
LUT_3D_SIZE 4
DOMAIN_MIN 0.000000 0.000000 0.000000
DOMAIN_MAX 1.000000 1.000000 1.000000
0.005615 0.006592 0.005554
0.258213 0.000000 0.000000
0.557916 0.000000 0.000000
0.588708 0.000000 0.000000
0.000000 0.241855 0.000000
0.262028 0.214450 0.000000
0.665644 0.181155 0.000000
0.721920 0.118532 0.000000
0.000000 0.440497 0.000000
0.375250 0.578332 0.000000
0.829282 0.646265 0.000000
0.939910 0.602564 0.000000
0.000000 0.461189 0.000000
0.406470 0.633417 0.000000
0.841337 0.756924 0.000000
0.997162 0.775082 0.000000
0.000000 0.000000 0.292119
0.251743 0.000000 0.258000
0.610101 0.000000 0.141390
0.630976 0.000000 0.028534
0.000000 0.272129 0.323522
0.221317 0.233829 0.237491
0.672816 0.204898 0.176425
0.766964 0.146609 0.068421
0.000000 0.534722 0.353826
0.262394 0.647822 0.298558
0.810910 0.701045 0.200076
0.955962 0.654932 0.000000
0.000000 0.597711 0.357061
0.365789 0.745388 0.406104
0.831327 0.836210 0.415930
0.988830 0.844144 0.307774
0.000000 0.000000 0.399023
0.159121 0.000000 0.459541
0.606531 0.000000 0.483131
0.667140 0.000000 0.405921
0.000000 0.278874 0.564294
0.162631 0.271672 0.589197
0.680598 0.252964 0.595697
0.796139 0.205234 0.537407
0.000000 0.572259 0.635279
0.000000 0.703120 0.683131
0.778378 0.763577 0.683192
0.940246 0.730404 0.621241
0.000000 0.680110 0.669825
0.342016 0.805509 0.719203
0.825772 0.884184 0.736294
0.964813 0.897063 0.694118
0.000000 0.000000 0.417121
0.146151 0.000000 0.482856
0.548730 0.000000 0.530846
0.667750 0.000000 0.503349
0.000000 0.246616 0.582910
0.153017 0.306462 0.658625
0.670130 0.307530 0.697749
0.805722 0.226627 0.682765
0.000000 0.580591 0.696681
0.000000 0.713497 0.772580
0.758022 0.794186 0.808072
0.932372 0.762356 0.805509
0.000000 0.679530 0.739651
0.272282 0.812253 0.799039
0.811307 0.894438 0.823819
0.954589 0.913756 0.826810
