LUTs/SPK Cube Block1 S64/TheBrim_SPK_Type-E_Block 1_S64.cube
TITLE "TheBrim® Industrial Imaging Burau"
# © Copyright 2022 - TheBrim® d.o.o. Croatia
LUT_3D_SIZE 8
0.0077821012 0.0134279393 0.0119020371
0.0621042191 0.0291142138 0.0202334630
0.1786831464 0.0368352789 0.0145876249
0.3735103380 0.0000000000 0.0000000000
0.5105821317 0.0000000000 0.0000000000
0.6085755703 0.0000000000 0.0000000000
0.6437628748 0.0000000000 0.0000000000
0.6502021820 0.0000000000 0.0000000000
0.0185244526 0.0759594110 0.0394293126
0.0666819257 0.0749828336 0.0296330205
0.1840238041 0.0767833982 0.0132143130
0.3471122301 0.0566109712 0.0000000000
0.4986343175 0.0000000000 0.0000000000
0.6108949416 0.0000000000 0.0000000000
0.6590218967 0.0000000000 0.0000000000
0.6781261921 0.0000000000 0.0000000000
0.0034790570 0.1618371862 0.0627450980
0.0679026474 0.1634241245 0.0517586023
0.1714503700 0.1618982223 0.0306706340
0.3256275273 0.1582665751 0.0008545052
0.4980849928 0.1437094682 0.0000000000
0.6410467689 0.1167925536 0.0000000000
0.7143816281 0.0960097658 0.0000000000
0.7232928969 0.0930189975 0.0000000000
0.0000000000 0.3346608682 0.1655603876
0.0000000000 0.2933394369 0.1238727398
0.1600976577 0.2949568933 0.0882581827
0.3421377890 0.2992599374 0.0269474327
0.5345998322 0.2961470970 0.0000000000
0.6935683223 0.2873884184 0.0000000000
0.7805752651 0.2724040589 0.0000000000
0.7974212253 0.2638590066 0.0000000000
0.0000000000 0.4714122225 0.2497596704
0.0000000000 0.4779125658 0.2004425116
0.1153582055 0.4846570535 0.1584496834
0.3819028000 0.4969253071 0.0826428626
0.5885557336 0.4917982757 0.0000000000
0.7609521630 0.4883802548 0.0000000000
0.8592813001 0.4770885786 0.0000000000
0.8855878538 0.4641489281 0.0000000000
0.0000000000 0.5668879225 0.2830548562
0.0000000000 0.5816891737 0.2533302815
0.1511558709 0.6183413443 0.2212863355
0.4157167926 0.6466926070 0.1395895323
0.6471503777 0.6762645914 0.0000000000
0.8202792401 0.6761120012 0.0000000000
0.9232776379 0.6690012970 0.0000000000
0.9553215839 0.6510566873 0.0000000000
0.2102693217 0.6286259251 0.2131380179
0.2638590066 0.6365911345 0.2025177386
0.3707637140 0.6564278630 0.1745021744
0.5320668345 0.6919203479 0.1235980774
0.6900892653 0.7264362554 0.0112306401
0.8482948043 0.7592431525 0.0000000000
0.9559319448 0.7730983444 0.0000000000
0.9901731899 0.7650720989 0.0000000000
0.4063172351 0.6637216754 0.1633020523
0.4394598306 0.6708934157 0.1560997940
0.5182726787 0.6886549172 0.1277180133
0.6213321126 0.7119401846 0.0700694285
0.7505455100 0.7388265812 0.0000000000
0.8626382849 0.7625085832 0.0000000000
0.9520256352 0.7821927214 0.0000000000
0.9909971771 0.7941863127 0.0000000000
0.0065918975 0.0329594873 0.0779430838
0.0507209888 0.0338445106 0.0700694285
0.1837186236 0.0352178225 0.0583810178
0.3875791562 0.0000000000 0.0162355993
0.5202868696 0.0000000000 0.0000000000
0.6136415656 0.0000000000 0.0000000000
0.6455939574 0.0000000000 0.0000000000
0.6528572519 0.0000000000 0.0000000000
0.0000000000 0.0737621118 0.0857251850
0.0494392309 0.0705271992 0.0690012970
0.1838712139 0.0714122225 0.0504463264
0.3454947738 0.0487067979 0.0193179217
0.5033798734 0.0000000000 0.0000000000
0.6134584573 0.0000000000 0.0000000000
0.6548714427 0.0000000000 0.0000000000
0.6815136950 0.0000000000 0.0000000000
0.0000000000 0.1923552300 0.1000381476
0.0259403372 0.1597924773 0.0672617685
0.1672693980 0.1587548638 0.0491645686
0.3278858625 0.1546959640 0.0192874037
0.5017624170 0.1367818723 0.0000000000
0.6447089342 0.1069657435 0.0000000000
0.7124284733 0.0852979324 0.0000000000
0.7276569772 0.0928664073 0.0000000000
0.0000000000 0.3313954376 0.1708400092
0.0000000000 0.2958419165 0.1265583276
0.1595788510 0.2937056535 0.0879224842
0.3455252918 0.2966659037 0.0235294118
0.5371938659 0.2921492332 0.0000000000
0.6936598764 0.2802166781 0.0000000000
0.7802700847 0.2677653162 0.0000000000
0.7992523079 0.2613870451 0.0000000000
0.0000000000 0.4706187533 0.2513466087
0.0000000000 0.4775463493 0.2010528725
0.1210040436 0.4841687648 0.1582970932
0.3832761120 0.4955214771 0.0810559243
0.5893797208 0.4889295796 0.0000000000
0.7611963073 0.4827954528 0.0000000000
0.8598306249 0.4743114366 0.0000000000
0.8862592508 0.4614633402 0.0000000000
0.0000000000 0.5685664149 0.2803997864
0.0000000000 0.5819638361 0.2527199207
0.1537499046 0.6183718624 0.2207370108
0.4165102617 0.6465094987 0.1389486534
0.6481269551 0.6756847486 0.0000000000
0.8217441062 0.6749217975 0.0000000000
0.9236133364 0.6679636835 0.0000000000
0.9577630274 0.6585030900 0.0000000000
0.2218356603 0.6303959716 0.2106965743
0.2731975280 0.6381475547 0.1998626688
0.3781795987 0.6580148013 0.1723353933
0.5381704433 0.6933852140 0.1220721752
0.6936598764 0.7272297246 0.0076905470
0.8507362478 0.7600061036 0.0000000000
0.9562066072 0.7768825818 0.0000000000
0.9900816358 0.7750820172 0.0000000000
0.4198672465 0.6666819257 0.1602807660
0.4533150225 0.6737926299 0.1522240024
0.5285877775 0.6910048066 0.1246356909
0.6279545281 0.7134050507 0.0634164950
0.7572289616 0.7402609293 0.0000000000
0.8658426795 0.7632410163 0.0000000000
0.9532768750 0.7824979019 0.0000000000
0.9887998779 0.8104829480 0.0024109255
0.0000000000 0.0332341497 0.2115510796
0.0256656748 0.0263675898 0.2093232624
0.1583276112 0.0325932708 0.1763332570
0.3500724804 0.0104371710 0.1535973144
0.5295338369 0.0000000000 0.1277790494
0.6304875257 0.0000000000 0.0948805982
0.6605783169 0.0000000000 0.0583504997
0.6679026474 0.0000000000 0.0510566873
0.0000000000 0.0740978103 0.2139009689
0.0116273747 0.0650644694 0.1733730068
0.1453879606 0.0696421759 0.1548180362
0.3280384527 0.0575570306 0.1381857023
0.5123826963 0.0000000000 0.1124284733
0.6304570077 0.0000000000 0.0833447776
0.6704661631 0.0000000000 0.0479133288
0.6965285725 0.0000000000 0.0505378805
0.0000000000 0.1905851835 0.2365758755
0.0000000000 0.1605859464 0.1750820172
0.1427023728 0.1651331350 0.1692835889
0.3134813458 0.1624780652 0.1459678035
0.4978408484 0.1487144274 0.1215838865
0.6522774090 0.1210955978 0.0920424201
0.7256733043 0.0872510872 0.0408331426
0.7408407721 0.1021744106 0.0416876478
0.0000000000 0.3299610895 0.2447241932
0.0000000000 0.3138170443 0.2036774243
0.1339436942 0.2996871901 0.1745937285
0.3334706645 0.3054245823 0.1565880827
0.5329518578 0.3026474403 0.1263447013
0.6967727169 0.2915083543 0.0886549172
0.7891508354 0.2792706188 0.0320134279
0.8101167315 0.2731364920 0.0187685969
0.0000000000 0.4681773098 0.2703288319
0.0000000000 0.4791332876 0.2192111086
0.0939955749 0.4868238346 0.1855191882
0.3739375906 0.4977798123 0.1503318837
0.5873655299 0.4982681010 0.1046158541
0.7588769360 0.4939040208 0.0404974441
0.8612344549 0.4846875715 0.0000000000
0.8918745708 0.4745250629 0.0000000000
0.0000000000 0.5703974975 0.2820477607
0.0000000000 0.5850766766 0.2527199207
0.1534142061 0.6191348135 0.2253452354
0.4157778286 0.6501106279 0.1608300908
0.6456855116 0.6803540093 0.0678110933
0.8159761959 0.6865491722 0.0000000000
0.9198290990 0.6833142596 0.0000000000
0.9572442206 0.6730907149 0.0000000000
0.2425574121 0.6341496910 0.2096894789
0.2920271611 0.6424200809 0.2001373312
0.3890440223 0.6635996033 0.1881132219
0.5381094072 0.6998550393 0.1707484550
0.6885023270 0.7407797360 0.1768520638
0.8444800488 0.7813687343 0.1636682689
0.9492790112 0.7970550088 0.0741893645
0.9867856870 0.7971160449 0.0617380026
0.4418707561 0.6714122225 0.1555504692
0.4739757382 0.6783398184 0.1437399863
0.5442435340 0.6947890440 0.1194781415
0.6417181659 0.7164263371 0.0496528573
0.7693751431 0.7434958419 0.0000000000
0.8699931334 0.7698023957 0.0000000000
0.9482108797 0.8072175174 0.1429159991
0.9837949187 0.8349584192 0.2810711833
0.0000000000 0.0597238117 0.2922102693
0.0101930266 0.0605477989 0.3096971084
0.1372396429 0.0642404822 0.3080796521
0.3124132143 0.0603341726 0.3088120851
0.5082627604 0.0000000000 0.2985885405
0.6451361868 0.0000000000 0.2753643091
0.6684519722 0.0000000000 0.2213778897
0.6800183108 0.0000000000 0.2002899214
0.0000000000 0.0963454643 0.3087205310
0.0054627298 0.0812085145 0.3175707637
0.1320515755 0.0794689860 0.3192797742
0.3259632258 0.0686961166 0.3103074693
0.5190356298 0.0030212863 0.2893720912
0.6454413672 0.0000000000 0.2628519112
0.6869459068 0.0000000000 0.2207675288
0.7067521172 0.0000000000 0.2070038911
0.0000000000 0.1932707713 0.3658503090
0.0000000000 0.1778286412 0.3292896925
0.1182879377 0.1785610742 0.3198290990
0.3127183948 0.1798733501 0.3086594949
0.5125658045 0.1689478904 0.2959945068
0.6660715648 0.1407797360 0.2758220798
0.7408407721 0.1124284733 0.2385290303
0.7529869535 0.1211261158 0.2227817197
0.0000000000 0.3459220264 0.3943846799
0.0000000000 0.3290150301 0.3610284581
0.0715037766 0.3243152514 0.3404287785
0.3225146868 0.3294422827 0.3298390173
0.5336537728 0.3263599603 0.3112230106
0.7028763256 0.3158922713 0.2946822309
0.7964751659 0.3009384298 0.2611429007
0.8184481575 0.2935530632 0.2372167544
0.0000000000 0.4957656214 0.4306401160
0.0000000000 0.5026474403 0.4017395285
0.0000000000 0.5114976730 0.3720759899
0.3433279927 0.5266651408 0.3537346456
0.5753719387 0.5271839475 0.3318226902
0.7542076753 0.5210803388 0.3083848325
0.8595559625 0.5098191806 0.2800030518
0.8938887617 0.4987258717 0.2545815213
0.0000000000 0.5909971771 0.4408331426
0.0000000000 0.6076905470 0.4184328985
0.0000000000 0.6433356222 0.3976195926
0.3716792554 0.6803845274 0.3813229572
0.6209658961 0.7092240787 0.3595635920
0.8021210040 0.7156633860 0.3339284352
0.9109788663 0.7113908598 0.3076218814
0.9525444419 0.7026932174 0.2716716258
0.1093156329 0.6602121004 0.3755550469
0.2182650492 0.6699168383 0.3759517815
0.3376516365 0.6922560464 0.3776913100
0.4998245212 0.7287861448 0.3829709316
0.6690318151 0.7712977798 0.3889524681
0.8326085298 0.8113679713 0.3945983062
0.9363393606 0.8265659571 0.3819028000
0.9786678874 0.8236972610 0.3457694362
0.4406805524 0.6920729381 0.2738078889
0.4692454414 0.6991531243 0.2746318761
0.5342946517 0.7168841077 0.2796673533
0.6308842603 0.7436484321 0.2870527199
0.7565270466 0.7778591592 0.3104600595
0.8545510033 0.8088044556 0.3471122301
0.9384451057 0.8385290303 0.3961242084
0.9762264439 0.8608682383 0.4573739223
0.0000000000 0.0998550393 0.4019226368
0.0000000000 0.0954299229 0.4141298543
0.1425803006 0.0950026703 0.4326543069
0.3098802167 0.0866407263 0.4426642252
0.4951857786 0.0237735561 0.4383306630
0.6489204242 0.0000000000 0.4293583581
0.6813000687 0.0000000000 0.3779049363
0.7031509880 0.0000000000 0.3593804837
0.0000000000 0.1306172274 0.4283207446
0.0000000000 0.1073624781 0.4370489052
0.1332722972 0.1044022278 0.4515144579
0.3221789883 0.0917067216 0.4539253834
0.5098802167 0.0361943999 0.4426337072
0.6473029679 0.0000000000 0.4239261463
0.7046463722 0.0000000000 0.3941405356
0.7243610285 0.0000000000 0.3753719387
0.0000000000 0.2163424125 0.4914625772
0.0000000000 0.2034637980 0.4829785611
0.0917067216 0.2037994965 0.4824597543
0.3230640116 0.2036774243 0.4828259709
0.5283131151 0.1892423896 0.4759594110
0.6763866636 0.1554589151 0.4579842832
0.7507286183 0.1330281529 0.4270695048
0.7652552071 0.1464866102 0.4011902037
0.0000000000 0.3651789120 0.5202563516
0.0000000000 0.3550774395 0.5106431678
0.0000000000 0.3584649424 0.5088426032
0.3222400244 0.3626764324 0.5076829175
0.5445487144 0.3598077363 0.5010605020
0.7112382696 0.3438467994 0.4874952316
0.8020294499 0.3251087205 0.4567635615
0.8242160678 0.3176928359 0.4302433814
0.0000000000 0.5113756008 0.5514763104
0.0000000000 0.5247119860 0.5486991684
0.0000000000 0.5364309148 0.5360341802
0.3128404669 0.5557488365 0.5339894713
0.5672236210 0.5576104372 0.5219043259
0.7505455100 0.5502250706 0.5075913634
0.8578469520 0.5384756237 0.4877088579
0.8926680400 0.5271839475 0.4637827115
0.0000000000 0.5897459373 0.5672236210
0.0000000000 0.6267032883 0.5700923171
0.0000000000 0.6675059129 0.5632562753
0.3291065843 0.7070267796 0.5619134813
0.5957885100 0.7339131762 0.5536430915
0.7891813535 0.7437094682 0.5401846342
0.9002670329 0.7386739910 0.5200122072
0.9439688716 0.7291218433 0.4887769894
0.0000000000 0.6909132525 0.5360341802
0.1199664302 0.6997634852 0.5374074922
0.2930952926 0.7219806210 0.5430838483
0.4788891432 0.7591821164 0.5542839704
0.6581063554 0.8014190890 0.5666437781
0.8198214694 0.8376134890 0.5777218280
0.9237659266 0.8513771267 0.5707331960
0.9674372473 0.8491798276 0.5432364385
0.3978332189 0.7249408713 0.4702830549
0.4298771649 0.7319905394 0.4723582818
0.5084153506 0.7502098116 0.4789806973
0.6071717403 0.7756618601 0.4920424201
0.7362630655 0.8087129015 0.5145494774
0.8454871443 0.8395361257 0.5471122301
0.9288014038 0.8663920043 0.5851987488
0.9668879225 0.8848859388 0.6224307622
0.0000000000 0.1528953994 0.4831616693
0.0028381781 0.1528343633 0.4879530022
0.1567101549 0.1525902190 0.4931410697
0.3007248035 0.1503929198 0.4938429847
0.4627145800 0.1333943694 0.4850232700
0.5958495460 0.1056534676 0.4688181888
0.6949111162 0.0859693294 0.4557259480
0.7419699397 0.0670786603 0.4359502556
0.0000000000 0.1746852827 0.4979629206
0.0000000000 0.1749599451 0.5016708629
0.1468223087 0.1759670405 0.5057907988
0.3012436103 0.1734645609 0.5055161364
0.4676585031 0.1607995727 0.4983291371
0.6060425727 0.1366292821 0.4823376822
0.7050125887 0.1186236362 0.4696116579
0.7525902190 0.1109941253 0.4498664836
0.0000000000 0.2377660792 0.5385671778
0.0000000000 0.2366063935 0.5401846342
0.1130388342 0.2397497520 0.5448844129
0.3071946288 0.2395971618 0.5421988251
0.4852063783 0.2326390478 0.5338368811
0.6366826886 0.2138704509 0.5196154726
0.7370565347 0.2019989319 0.5055466545
0.7827420462 0.2064850843 0.4892957961
0.0000000000 0.3768062867 0.5936217288
0.0000000000 0.3790341039 0.6083619440
0.0000000000 0.3822690166 0.6182803082
0.3114366369 0.3889829862 0.6251773861
0.5423208972 0.3803768978 0.6152285039
0.7065690089 0.3639581903 0.5938353552
0.7978179599 0.3535820554 0.5734798199
0.8314793622 0.3459525444 0.5520561532
0.0000000000 0.5164110780 0.6274052033
0.0000000000 0.5371328298 0.6459296559
0.0000000000 0.5580376898 0.6576180667
0.2845807584 0.5830319677 0.6670176242
0.5574273289 0.5859006638 0.6660105287
0.7474937057 0.5762264439 0.6563057908
0.8563515679 0.5640802625 0.6462958724
0.8912336919 0.5544670787 0.6288395514
0.0000000000 0.5981994354 0.6474555581
0.0000000000 0.6369878691 0.6661020829
0.0000000000 0.6824902724 0.6783093004
0.2948653391 0.7244220645 0.6869764248
0.5844968338 0.7542992294 0.6888685435
0.7800564584 0.7654993515 0.6847486076
0.8934004730 0.7625085832 0.6745555810
0.9354238193 0.7526512551 0.6617074846
0.0000000000 0.7128557259 0.6528267338
0.0000000000 0.7215533684 0.6559090562
0.2387731746 0.7427634089 0.6640268559
0.4545967803 0.7803311208 0.6784924086
0.6441596094 0.8224460212 0.6959792477
0.8113679713 0.8564736400 0.7108720531
0.9142748150 0.8676127260 0.7072404059
0.9572442206 0.8692301823 0.6960402838
0.3654230564 0.7512169070 0.6176089113
0.4083924620 0.7593041886 0.6205691615
0.4917067216 0.7764553292 0.6263675898
0.5992370489 0.8019073777 0.6387579156
0.7358052949 0.8335545892 0.6557564660
0.8445105669 0.8617227436 0.6818188754
0.9247119860 0.8867780575 0.7176775769
0.9595941100 0.9022507057 0.7473716335
0.0000000000 0.2093537804 0.5230640116
0.0000000000 0.2101167315 0.5251087205
0.1389791714 0.2116426337 0.5266041047
0.2746623941 0.2097505150 0.5243152514
0.4125429160 0.2008392462 0.5179064622
0.5368276493 0.1861295491 0.5080796521
0.6504768444 0.1613183795 0.4917372396
0.7315022507 0.1557030594 0.4839246204
0.0000000000 0.2252841993 0.5336232547
0.0000000000 0.2263828489 0.5356069276
0.1359884031 0.2281223774 0.5374074922
0.2761882963 0.2287937743 0.5363393606
0.4141908904 0.2204928664 0.5287708858
0.5428397040 0.2048065919 0.5171435111
0.6567025254 0.1863736934 0.5049057755
0.7413595789 0.1830472267 0.4959792477
0.0000000000 0.2710307469 0.5617303731
0.0000000000 0.2712138552 0.5644464790
0.1148393988 0.2735637446 0.5672236210
0.2775921263 0.2757305257 0.5659723812
0.4262455177 0.2709391928 0.5580071717
0.5609369039 0.2598611429 0.5460440986
0.6842603189 0.2592507820 0.5389639124
0.7703517205 0.2660257877 0.5311207752
0.0000000000 0.3735408560 0.6100099184
0.0000000000 0.3728999771 0.6119325551
0.0282597086 0.3745479515 0.6167849241
0.2881818875 0.3783932250 0.6206607156
0.4731822690 0.3882200351 0.6223697261
0.6307011521 0.3966124971 0.6185549706
0.7467307546 0.3979247730 0.6072632944
0.8218356603 0.4040588998 0.5954528115
0.0000000000 0.5321278706 0.6782787823
0.0000000000 0.5424124514 0.6848096437
0.0000000000 0.5659418631 0.6977492943
0.3028915846 0.5886472877 0.7062638285
0.5611810483 0.5958495460 0.7056534676
0.7312275883 0.5888914321 0.6990615702
0.8310826276 0.5934691386 0.6952773327
0.8863202869 0.5952697032 0.6851758602
0.0000000000 0.6043640803 0.6914625772
0.0000000000 0.6418402380 0.7153276875
0.0000000000 0.6947585260 0.7406576638
0.2704203861 0.7349813077 0.7544823377
0.5716487373 0.7698634318 0.7651636530
0.7736171511 0.7814602884 0.7655909056
0.8884870680 0.7794460975 0.7588464179
0.9324025330 0.7752651255 0.7483787289
0.0000000000 0.7259174487 0.7234454871
0.0000000000 0.7362630655 0.7274738689
0.1953154803 0.7574120699 0.7361104753
0.4431830320 0.7955291066 0.7511253529
0.6354009308 0.8350804913 0.7685816739
0.8086518654 0.8664835584 0.7826504921
0.9106736858 0.8778667887 0.7842069123
0.9508049134 0.8811627375 0.7831082628
0.3548027771 0.7712367437 0.7158159762
0.3926146334 0.7781643397 0.7182269017
0.4892957961 0.7963225757 0.7244220645
0.5905699245 0.8189364462 0.7328145266
0.7379720760 0.8507667659 0.7472190433
0.8522621500 0.8777141985 0.7655603876
0.9272755016 0.8994735637 0.7871976806
0.9563897154 0.9105210956 0.8035858701
0.0000000000 0.2470435645 0.5478751812
0.0000000000 0.2472571908 0.5491569390
0.1134355688 0.2494239719 0.5513237201
0.2505836576 0.2499122606 0.5503166247
0.3668879225 0.2452124819 0.5441214618
0.4918287938 0.2339208057 0.5343556878
0.6068665599 0.2161287861 0.5217517357
0.6940566110 0.2082551308 0.5127489128
0.0000000000 0.2588540475 0.5563286793
0.0000000000 0.2591592279 0.5573662928
0.1084916457 0.2613870451 0.5592584115
0.2512245365 0.2620584421 0.5581597620
0.3698786908 0.2578774701 0.5515983825
0.4960708019 0.2516212711 0.5438162814
0.6124208438 0.2346837568 0.5307850767
0.7064469368 0.2340123598 0.5243152514
0.0000000000 0.2968184939 0.5763179980
0.0000000000 0.2965438315 0.5778133822
0.1084611276 0.2981612879 0.5815976196
0.2534523537 0.2983749142 0.5810788128
0.3752498665 0.2961776150 0.5749446860
0.5053940642 0.2899824521 0.5655756466
0.6387579156 0.2966048676 0.5624322881
0.7376668956 0.3093003738 0.5603265431
0.0000000000 0.3739070726 0.6129701686
0.0000000000 0.3723811704 0.6134279393
0.0842603189 0.3709163043 0.6156557565
0.2604104677 0.3738155184 0.6187380789
0.4074769207 0.3876096742 0.6234988937
0.5620660716 0.4090333410 0.6285954070
0.7017471580 0.4295109483 0.6294804303
0.7997711147 0.4538338293 0.6300602731
0.0000000000 0.5170519570 0.6761120012
0.0000000000 0.5215991455 0.6791943236
0.1275349050 0.5362783246 0.6867933165
0.3375295644 0.5521477073 0.6924391547
0.5233691920 0.5722590982 0.6981765469
0.6690318151 0.5938963912 0.7026321813
0.7817959869 0.6134889754 0.7051346609
0.8614175631 0.6276493477 0.7036392767
0.0000000000 0.6766918441 0.7429159991
0.0000000000 0.6889906157 0.7480430304
0.0144045167 0.7106584268 0.7566796368
0.4039673457 0.7397421225 0.7656519417
0.6119020371 0.7651331350 0.7712062257
0.7757534142 0.7746242466 0.7668116274
0.8613565270 0.7803921569 0.7628442817
0.9134203098 0.7926909285 0.7612878614
0.0000000000 0.7435263600 0.7668116274
0.0000000000 0.7520714122 0.7704432746
0.1701075761 0.7730678264 0.7795681697
0.4431219959 0.8102082856 0.7936980240
0.6489204242 0.8456092164 0.8054779889
0.8164034485 0.8699626154 0.8094758526
0.9104905776 0.8803997864 0.8083772030
0.9450675212 0.8850690471 0.8062104219
0.3443350881 0.7850308995 0.7687037461
0.3765926604 0.7908293278 0.7707484550
0.4805676356 0.8096284428 0.7775234607
0.5970092317 0.8325780117 0.7861295491
0.7448996719 0.8632791638 0.7990997177
0.8626382849 0.8884565499 0.8107881285
0.9307240406 0.9071030747 0.8224765393
0.9545891508 0.9137560082 0.8268101015
