LUTs/SPK Cube Block1 S64/TheBrim_SPK_Type-E_Block 1_S64.cube
TITLE "TheBrim® Industrial Imaging Burau"
# © Copyright 2022 - TheBrim® d.o.o. Croatia
LUT_3D_SIZE 4
0.0077821012 0.0134279393 0.0119020371
0.2423743038 0.0271000229 0.0057679103
0.5747615778 0.0000000000 0.0000000000
0.6502021820 0.0000000000 0.0000000000
0.0000000000 0.2006561379 0.0878004120
0.2205539025 0.1996185245 0.0338139925
0.6183108263 0.1780422675 0.0000000000
0.7458152132 0.1500877394 0.0000000000
0.0000000000 0.5358815900 0.2871137560
0.2477759976 0.5944151980 0.1698023957
0.7509727626 0.6191958495 0.0000000000
0.9368276493 0.5982909895 0.0000000000
0.4063172351 0.6637216754 0.1633020523
0.5504386969 0.6962844282 0.1151140612
0.8267795834 0.7554283970 0.0000000000
0.9909971771 0.7941863127 0.0000000000
0.0000000000 0.0391241321 0.2356298161
0.1995574884 0.0431219959 0.2153658350
0.6033264668 0.0000000000 0.1597314412
0.6720836194 0.0000000000 0.0970473793
0.0000000000 0.2359960327 0.2859235523
0.1924467842 0.2107881285 0.2144502937
0.6264286259 0.1898832685 0.1623559930
0.7672693980 0.1680018311 0.1065384909
0.0000000000 0.5375600824 0.3425345235
0.2073090715 0.6032654307 0.2500343328
0.7427634089 0.6353398947 0.1493553063
0.9401235981 0.6248111696 0.0227054246
0.4534065766 0.6738231479 0.1521934844
0.5817807279 0.7032425422 0.0920119020
0.8336766613 0.7711146715 0.0914625772
0.9815365835 0.8440833143 0.3446707866
0.0000000000 0.1263141833 0.4606088350
0.2053864347 0.1244525826 0.4769970245
0.5696955825 0.0700083925 0.4553292134
0.7334859236 0.0052185855 0.4130006867
0.0000000000 0.2806134127 0.5540703441
0.1692225528 0.2662088960 0.5624628061
0.6437628748 0.2445716030 0.5346303502
0.7905546654 0.2213473716 0.4925307088
0.0000000000 0.5751277943 0.6263981079
0.0000000000 0.6547188525 0.6366216526
0.7242999924 0.7022964828 0.6309452964
0.9265735866 0.6907301442 0.6018921187
0.3751888304 0.7444113832 0.5788204776
0.5322499428 0.7774013886 0.5899290455
0.8079499504 0.8448157473 0.6266117342
0.9616388190 0.8978255894 0.7155718318
0.0000000000 0.2470435645 0.5478751812
0.1635461967 0.2503395132 0.5519035630
0.4551766232 0.2391393912 0.5385366598
0.6940566110 0.2082551308 0.5127489128
0.0000000000 0.3164721141 0.5863279164
0.1632715343 0.3172045472 0.5920958267
0.4737621118 0.3151598383 0.5824521248
0.7550316625 0.3485465782 0.5794613565
0.0000000000 0.6325627527 0.7256427863
0.2114290074 0.6629282063 0.7383382925
0.7197222858 0.7161211566 0.7466697185
0.8958419165 0.7382467384 0.7413900969
0.3443350881 0.7850308995 0.7687037461
0.5181200885 0.8172579538 0.7802090486
0.8223239490 0.8799420157 0.8065156023
0.9545891508 0.9137560082 0.8268101015
