LUTs/SPK Cube Block1 S64/TheBrim_SPK_Type-C_Block1_S64.cube
TITLE "TheBrim® SPK Block 1"
# TheBrim® d.o.o. Croatia
# Copyright: (C) Copyright 2020 TheBrim® d.o.o. Croatia
LUT_3D_SIZE 8
0.0000000000 0.0000000000 0.0000000000
0.0018920000 0.0000000000 0.0000000000
0.0192260000 0.0000000000 0.0000000000
0.1246950000 0.0000000000 0.0000000000
0.3479610000 0.0000920000 0.0000920000
0.6105040000 0.0005490000 0.0005490000
0.7991640000 0.0011290000 0.0011290000
0.8964230000 0.0017400000 0.0017400000
0.0000000000 0.0024410000 0.0000000000
0.0032960000 0.0032960000 0.0000000000
0.0340270000 0.0047910000 0.0000920000
0.1762700000 0.0070190000 0.0005190000
0.4216610000 0.0099490000 0.0011290000
0.6704710000 0.0136110000 0.0017400000
0.8338620000 0.0180050000 0.0023190000
0.9112850000 0.0236820000 0.0030820000
0.0000920000 0.0336910000 0.0000920000
0.0069270000 0.0451660000 0.0005190000
0.0593870000 0.0593870000 0.0010990000
0.2356870000 0.0763240000 0.0017090000
0.4945680000 0.0958250000 0.0022890000
0.7247310000 0.1178280000 0.0030520000
0.8617550000 0.1422420000 0.0043330000
0.9231260000 0.1689760000 0.0063780000
0.0010680000 0.2036130000 0.0010680000
0.0133360000 0.2346500000 0.0016780000
0.0951230000 0.2662960000 0.0022890000
0.3003850000 0.3003850000 0.0030210000
0.5652160000 0.3362430000 0.0042720000
0.7713930000 0.3732600000 0.0062870000
0.8838500000 0.4109800000 0.0090030000
0.9336240000 0.4483950000 0.0124510000
0.0022580000 0.4921570000 0.0022580000
0.0229490000 0.5284420000 0.0029910000
0.1404720000 0.5640560000 0.0042420000
0.3720400000 0.5985720000 0.0061950000
0.6307370000 0.6307370000 0.0089110000
0.8114010000 0.6610410000 0.0123290000
0.9019170000 0.6900630000 0.0164790000
0.9423830000 0.7173460000 0.0213930000
0.0041810000 0.7468870000 0.0041810000
0.0409550000 0.7699280000 0.0061340000
0.1951290000 0.7913510000 0.0087890000
0.4458620000 0.8107600000 0.0122070000
0.6891480000 0.8281860000 0.0162960000
0.8438720000 0.8438720000 0.0211790000
0.9153750000 0.8577880000 0.0284420000
0.9479980000 0.8700560000 0.0385130000
0.0086670000 0.8828430000 0.0086670000
0.0699160000 0.8927000000 0.0120540000
0.2562560000 0.9014280000 0.0161440000
0.5180970000 0.9088440000 0.0210270000
0.7409360000 0.9151610000 0.0281980000
0.8696900000 0.9211430000 0.0381770000
0.9267880000 0.9267880000 0.0509340000
0.9525150000 0.9320370000 0.0664060000
0.0159910000 0.9378660000 0.0159910000
0.1091610000 0.9420170000 0.0208740000
0.3237000000 0.9450990000 0.0279240000
0.5877080000 0.9478150000 0.0378420000
0.7855530000 0.9502870000 0.0505070000
0.8904420000 0.9524540000 0.0658870000
0.9368290000 0.9543760000 0.0838930000
0.9561160000 0.9561160000 0.1044620000
0.0000000000 0.0000000000 0.0014950000
0.0021060000 0.0000000000 0.0021060000
0.0210270000 0.0000000000 0.0027160000
0.1335750000 0.0000310000 0.0037230000
0.3615720000 0.0002140000 0.0054930000
0.6218870000 0.0007630000 0.0080260000
0.8062440000 0.0013730000 0.0112920000
0.8997190000 0.0019840000 0.0152590000
0.0000000000 0.0026550000 0.0026550000
0.0036620000 0.0036620000 0.0036620000
0.0378110000 0.0054320000 0.0054320000
0.1868290000 0.0079350000 0.0079350000
0.4353640000 0.0111690000 0.0111690000
0.6810910000 0.0151060000 0.0151060000
0.8397830000 0.0198060000 0.0198060000
0.9136050000 0.0263670000 0.0263670000
0.0001830000 0.0374760000 0.0053710000
0.0078740000 0.0500490000 0.0078740000
0.0653380000 0.0653380000 0.0110470000
0.2472230000 0.0832520000 0.0149840000
0.5079040000 0.1037600000 0.0196230000
0.7341610000 0.1267090000 0.0261230000
0.8663330000 0.1520390000 0.0352480000
0.9252010000 0.1796260000 0.0471800000
0.0013120000 0.2149350000 0.0109560000
0.0148320000 0.2461850000 0.0148320000
0.1030270000 0.2787480000 0.0194700000
0.3134460000 0.3134460000 0.0258790000
0.5780940000 0.3497620000 0.0349120000
0.7796020000 0.3870240000 0.0467530000
0.8875430000 0.4247130000 0.0613100000
0.9354250000 0.4619750000 0.0785220000
0.0024720000 0.5054630000 0.0193180000
0.0256350000 0.5415650000 0.0256350000
0.1502990000 0.5769650000 0.0345460000
0.3857730000 0.6110230000 0.0462650000
0.6421810000 0.6421810000 0.0607910000
0.8179930000 0.6719970000 0.0779110000
0.9046940000 0.7004700000 0.0976260000
0.9434810000 0.7269290000 0.1198430000
0.0048220000 0.7555850000 0.0342100000
0.0458370000 0.7781370000 0.0458370000
0.2061460000 0.7988280000 0.0602110000
0.4595640000 0.8174130000 0.0773010000
0.6995540000 0.8341370000 0.0969240000
0.8490910000 0.8490910000 0.1190490000
0.9175720000 0.8623660000 0.1435850000
0.9489140000 0.8740840000 0.1704710000
0.0098880000 0.8865660000 0.0596920000
0.0766300000 0.8959960000 0.0766300000
0.2679750000 0.9042050000 0.0961910000
0.5314030000 0.9111630000 0.1182560000
0.7496640000 0.9173580000 0.1427310000
0.8737180000 0.9232180000 0.1695250000
0.9287410000 0.9287410000 0.1984860000
0.9532780000 0.9338990000 0.2294010000
0.0177610000 0.9393920000 0.0954590000
0.1174320000 0.9432070000 0.1174320000
0.3368530000 0.9461360000 0.1417850000
0.6002200000 0.9487610000 0.1685790000
0.7930600000 0.9511110000 0.1975400000
0.8937380000 0.9532170000 0.2283940000
0.9385070000 0.9550780000 0.2599180000
0.9566960000 0.9566960000 0.2935490000
0.0000000000 0.0000000000 0.0135500000
0.0023190000 0.0000000000 0.0179440000
0.0235600000 0.0000000000 0.0235600000
0.1426700000 0.0000610000 0.0316160000
0.3751530000 0.0003970000 0.0425110000
0.6333310000 0.0009770000 0.0561520000
0.8128660000 0.0015870000 0.0725100000
0.9025570000 0.0021970000 0.0914920000
0.0000000000 0.0030210000 0.0233150000
0.0043030000 0.0043030000 0.0312810000
0.0420840000 0.0063170000 0.0420840000
0.1974790000 0.0090640000 0.0556340000
0.4490050000 0.0125120000 0.0718690000
0.6914980000 0.0166930000 0.0908200000
0.8450320000 0.0217290000 0.1123660000
0.9158630000 0.0290530000 0.1363830000
0.0003660000 0.0416260000 0.0416260000
0.0089720000 0.0551150000 0.0551150000
0.0712590000 0.0712590000 0.0712590000
0.2588200000 0.0902100000 0.0902100000
0.5211180000 0.1116640000 0.1116640000
0.7429200000 0.1355590000 0.1355590000
0.8706050000 0.1618040000 0.1618040000
0.9272770000 0.1902770000 0.1902770000
0.0015260000 0.2263180000 0.0707400000
0.0163880000 0.2578120000 0.0896000000
0.1109620000 0.2912600000 0.1109620000
0.3266300000 0.3266300000 0.1347660000
0.5905460000 0.3634030000 0.1609190000
0.7872620000 0.4008790000 0.1892700000
0.8911740000 0.4384160000 0.2196040000
0.9372250000 0.4754940000 0.2509770000
0.0027160000 0.5187680000 0.1102600000
0.0283200000 0.5545650000 0.1339720000
0.1600650000 0.5894470000 0.1600650000
0.3996580000 0.6224060000 0.1883240000
0.6531070000 0.6531070000 0.2185360000
0.8244320000 0.6825260000 0.2499390000
0.9074710000 0.7104190000 0.2827760000
0.9446110000 0.7361760000 0.3176880000
0.0054630000 0.7639470000 0.1591800000
0.0507200000 0.7858890000 0.1873780000
0.2175290000 0.8059390000 0.2175290000
0.4730830000 0.8238830000 0.2488400000
0.7095640000 0.8400270000 0.2816160000
0.8543700000 0.8543700000 0.3165280000
0.9197390000 0.8669740000 0.3528750000
0.9497990000 0.8781430000 0.3901670000
0.0111080000 0.8902590000 0.2165220000
0.0835880000 0.8992610000 0.2478030000
0.2804870000 0.9069520000 0.2804870000
0.5444340000 0.9135130000 0.3152770000
0.7583920000 0.9195560000 0.3516540000
0.8777770000 0.9252930000 0.3889470000
0.9306640000 0.9306640000 0.4266050000
0.9539490000 0.9356690000 0.4638670000
0.0195620000 0.9409180000 0.2793880000
0.1263120000 0.9443050000 0.3140870000
0.3503720000 0.9471130000 0.3503720000
0.6124880000 0.9496460000 0.3876340000
0.8005370000 0.9518740000 0.4253850000
0.8970340000 0.9538880000 0.4626460000
0.9400020000 0.9556580000 0.4994200000
0.9572450000 0.9572450000 0.5355830000
0.0000000000 0.0000000000 0.0835880000
0.0025020000 0.0000000000 0.1041260000
0.0262450000 0.0000000000 0.1271060000
0.1524660000 0.0001220000 0.1524660000
0.3889470000 0.0006100000 0.1801150000
0.6446530000 0.0011900000 0.2097470000
0.8195190000 0.0018010000 0.2409060000
0.9053040000 0.0023800000 0.2731320000
0.0000000000 0.0033870000 0.1262510000
0.0049740000 0.0049740000 0.1516110000
0.0469670000 0.0072630000 0.1791690000
0.2087400000 0.0102840000 0.2087400000
0.4626460000 0.0140380000 0.2398680000
0.7018740000 0.0184940000 0.2719420000
0.8503110000 0.0244140000 0.3062440000
0.9180600000 0.0328060000 0.3422850000
0.0005800000 0.0465090000 0.1782230000
0.0101620000 0.0610350000 0.2077330000
0.0782170000 0.0782170000 0.2388310000
0.2708130000 0.0979920000 0.2708130000
0.5344240000 0.1202390000 0.3050840000
0.7516170000 0.1448970000 0.3410640000
0.8746640000 0.1718750000 0.3781740000
0.9291690000 0.2009580000 0.4158940000
0.0017400000 0.2377930000 0.2377930000
0.0181880000 0.2697140000 0.2697140000
0.1194460000 0.3038940000 0.3038940000
0.3398440000 0.3398440000 0.3398440000
0.6030880000 0.3769530000 0.3769530000
0.7947080000 0.4146730000 0.4146730000
0.8944700000 0.4520570000 0.4520570000
0.9388430000 0.4889220000 0.4889220000
0.0030820000 0.5320430000 0.3027340000
0.0317990000 0.5675960000 0.3386840000
0.1699830000 0.6019900000 0.3757630000
0.4134520000 0.6338500000 0.4134520000
0.6640320000 0.6640320000 0.4508360000
0.8303220000 0.6929020000 0.4877320000
0.9099120000 0.7200010000 0.5241390000
0.9456790000 0.7449040000 0.5598750000
0.0063780000 0.7721560000 0.3745420000
0.0559390000 0.7933960000 0.4122010000
0.2289120000 0.8125920000 0.4496150000
0.4865420000 0.8298030000 0.4865420000
0.7190860000 0.8452760000 0.5228880000
0.8590090000 0.8590090000 0.5586240000
0.9219060000 0.8711550000 0.5934140000
0.9506840000 0.8819890000 0.6260380000
0.0124510000 0.8935850000 0.4483950000
0.0905460000 0.9021910000 0.4853210000
0.2929990000 0.9094850000 0.5217290000
0.5574650000 0.9157710000 0.5574650000
0.7665410000 0.9217220000 0.5922240000
0.8816530000 0.9273380000 0.6249390000
0.9325560000 0.9325560000 0.6555790000
0.9546200000 0.9374690000 0.6848450000
0.0213930000 0.9423830000 0.5205380000
0.1351930000 0.9454040000 0.5563050000
0.3640140000 0.9480900000 0.5910950000
0.6239320000 0.9505000000 0.6239320000
0.8074650000 0.9526670000 0.6545720000
0.9002990000 0.9545590000 0.6839290000
0.9415280000 0.9562680000 0.7117000000
0.9577640000 0.9577640000 0.7373350000
0.0000000000 0.0000000000 0.2593990000
0.0028080000 0.0000000000 0.2929990000
0.0289000000 0.0000310000 0.3284610000
0.1622920000 0.0002440000 0.3652950000
0.4028020000 0.0008240000 0.4028020000
0.6555790000 0.0014340000 0.4403080000
0.8257450000 0.0020450000 0.4773560000
0.9080810000 0.0025940000 0.5138850000
0.0000310000 0.0038450000 0.3273010000
0.0056460000 0.0056460000 0.3640140000
0.0518190000 0.0082090000 0.4015810000
0.2201230000 0.0115050000 0.4390870000
0.4761660000 0.0155330000 0.4761660000
0.7117000000 0.0202940000 0.5126950000
0.8554690000 0.0271000000 0.5486450000
0.9202580000 0.0366210000 0.5837400000
0.0007630000 0.0513920000 0.4002690000
0.0113830000 0.0669560000 0.4378050000
0.0851750000 0.0851750000 0.4749760000
0.2833250000 0.1059270000 0.5115360000
0.5474850000 0.1291200000 0.5474850000
0.7602230000 0.1547240000 0.5826110000
0.8786930000 0.1825260000 0.6161800000
0.9310910000 0.2123410000 0.6471560000
0.0019840000 0.2493590000 0.4736940000
0.0199580000 0.2821660000 0.5102840000
0.1283260000 0.3171080000 0.5463260000
0.3534850000 0.3534850000 0.5815120000
0.6151730000 0.3907780000 0.6151730000
0.8021850000 0.4284360000 0.6461790000
0.8977660000 0.4656680000 0.6758730000
0.9403690000 0.5023800000 0.7042240000
0.0034480000 0.5451660000 0.5451660000
0.0355830000 0.5803830000 0.5803830000
0.1806340000 0.6141360000 0.6141360000
0.4272160000 0.6452030000 0.6452030000
0.6749570000 0.6749570000 0.6749570000
0.8362730000 0.7033080000 0.7033080000
0.9122310000 0.7295230000 0.7295230000
0.9466550000 0.7536010000 0.7536010000
0.0072940000 0.7803650000 0.6131290000
0.0618290000 0.8008730000 0.6442260000
0.2404480000 0.8192140000 0.6739810000
0.5000000000 0.8357540000 0.7023930000
0.7286680000 0.8505250000 0.7286680000
0.8636170000 0.8636170000 0.7528380000
0.9239810000 0.8751830000 0.7754820000
0.9514770000 0.8857120000 0.7964170000
0.0139470000 0.8968810000 0.6730350000
0.0983280000 0.9049380000 0.7014470000
0.3057250000 0.9118040000 0.7278140000
0.5704960000 0.9179690000 0.7520450000
0.7747800000 0.9237980000 0.7747800000
0.8853450000 0.9292600000 0.7957460000
0.9343570000 0.9343570000 0.8146970000
0.9552920000 0.9390560000 0.8317260000
0.0240480000 0.9434810000 0.7269290000
0.1444700000 0.9463810000 0.7512820000
0.3776550000 0.9490050000 0.7740480000
0.6353760000 0.9513240000 0.7950740000
0.8140870000 0.9534000000 0.8140870000
0.9030460000 0.9552310000 0.8311460000
0.9428410000 0.9568790000 0.8464660000
0.9582820000 0.9582820000 0.8600770000
0.0000000000 0.0000000000 0.4988400000
0.0031740000 0.0000000000 0.5350040000
0.0326540000 0.0000920000 0.5704960000
0.1723630000 0.0004580000 0.6047670000
0.4166870000 0.0010380000 0.6364440000
0.6665340000 0.0016480000 0.6665340000
0.8316960000 0.0022280000 0.6952820000
0.9104310000 0.0029600000 0.7221370000
0.0000920000 0.0044860000 0.5693360000
0.0065920000 0.0065920000 0.6036380000
0.0572510000 0.0093990000 0.6353760000
0.2314150000 0.0129390000 0.6654970000
0.4896850000 0.0171810000 0.6943360000
0.7212830000 0.0224610000 0.7212830000
0.8600770000 0.0300600000 0.7460630000
0.9223630000 0.0405270000 0.7691650000
0.0010070000 0.0567320000 0.6343690000
0.0127870000 0.0731510000 0.6645200000
0.0921940000 0.0921940000 0.6933590000
0.2957760000 0.1138310000 0.7204280000
0.5604250000 0.1379700000 0.7453000000
0.7684330000 0.1645200000 0.7684330000
0.8825070000 0.1931760000 0.7899780000
0.9329830000 0.2237240000 0.8095700000
0.0021970000 0.2609560000 0.6924440000
0.0220030000 0.2946780000 0.7195130000
0.1371770000 0.3302310000 0.7444760000
0.3671260000 0.3671260000 0.7677000000
0.6265260000 0.4046630000 0.7893070000
0.8089600000 0.4421390000 0.8089600000
0.9009090000 0.4791560000 0.8265690000
0.9418640000 0.5156560000 0.8424070000
0.0039370000 0.5581360000 0.7436830000
0.0393680000 0.5928650000 0.7669070000
0.1912230000 0.6255190000 0.7886350000
0.4409180000 0.6560670000 0.8083800000
0.6853640000 0.6853640000 0.8260500000
0.8419190000 0.7130130000 0.8419190000
0.9145510000 0.7385560000 0.8561100000
0.9476620000 0.7620850000 0.8685610000
0.0082400000 0.7879330000 0.7879330000
0.0677800000 0.8077700000 0.8077700000
0.2519840000 0.8255000000 0.8255000000
0.5133060000 0.8414610000 0.8414610000
0.7377620000 0.8556820000 0.8556820000
0.8682250000 0.8682250000 0.8682250000
0.9260250000 0.8792420000 0.8792420000
0.9522400000 0.8894040000 0.8894040000
0.0154720000 0.9001460000 0.8249510000
0.1062930000 0.9077150000 0.8410030000
0.3188780000 0.9141240000 0.8552860000
0.5831600000 0.9201660000 0.8677980000
0.7828670000 0.9258420000 0.8788760000
0.8890690000 0.9311830000 0.8890690000
0.9361570000 0.9361570000 0.8982240000
0.9558720000 0.9405520000 0.9060670000
0.0267330000 0.9446110000 0.8548280000
0.1542660000 0.9473880000 0.8674010000
0.3914180000 0.9498900000 0.8785100000
0.6466670000 0.9520870000 0.8887330000
0.8207400000 0.9540710000 0.8979190000
0.9058230000 0.9558410000 0.9058230000
0.9439390000 0.9573970000 0.9125370000
0.9587400000 0.9587400000 0.9186400000
0.0000000000 0.0000000000 0.7112730000
0.0035400000 0.0000000000 0.7369380000
0.0364380000 0.0001220000 0.7605900000
0.1829830000 0.0006710000 0.7828370000
0.4303280000 0.0012510000 0.8031920000
0.6773380000 0.0018620000 0.8213200000
0.8376160000 0.0024410000 0.8376160000
0.9127500000 0.0033260000 0.8522030000
0.0001220000 0.0051570000 0.7598570000
0.0075070000 0.0075070000 0.7821660000
0.0631710000 0.0106200000 0.8025210000
0.2430110000 0.0144350000 0.8207090000
0.5030210000 0.0189820000 0.8370670000
0.7308650000 0.0251460000 0.8517460000
0.8646550000 0.0338440000 0.8646550000
0.9244380000 0.0453800000 0.8760990000
0.0012210000 0.0626530000 0.8018490000
0.0142820000 0.0801090000 0.8200990000
0.1001590000 0.1001590000 0.8365480000
0.3086550000 0.1226500000 0.8512270000
0.5734560000 0.1475830000 0.8642270000
0.7766420000 0.1747740000 0.8757630000
0.8862000000 0.2040710000 0.8862000000
0.9347840000 0.2351680000 0.8956600000
0.0023800000 0.2731320000 0.8359990000
0.0246580000 0.3074950000 0.8507690000
0.1466980000 0.3435670000 0.8638310000
0.3807070000 0.3807070000 0.8753660000
0.6379700000 0.4184570000 0.8858640000
0.8155820000 0.4557800000 0.8953860000
0.9036870000 0.4926760000 0.9036870000
0.9430850000 0.5289610000 0.9107360000
0.0045780000 0.5711360000 0.8634030000
0.0440670000 0.6053770000 0.8750000000
0.2020570000 0.6369630000 0.8855290000
0.4545590000 0.6670230000 0.8950810000
0.6958010000 0.6958010000 0.9034420000
0.8471980000 0.7225950000 0.9105220000
0.9167790000 0.7472840000 0.9167790000
0.9486080000 0.7702940000 0.9226680000
0.0094600000 0.7954100000 0.8851930000
0.0741270000 0.8143920000 0.8947750000
0.2636110000 0.8314210000 0.9031680000
0.5265200000 0.8467100000 0.9103390000
0.7465210000 0.8602910000 0.9165650000
0.8722530000 0.8722530000 0.9224850000
0.9280400000 0.8829960000 0.9280400000
0.9530030000 0.8928220000 0.9332280000
0.0171200000 0.9029240000 0.9029240000
0.1142270000 0.9100950000 0.9100950000
0.3320620000 0.9163820000 0.9163820000
0.5956420000 0.9223020000 0.9223020000
0.7903440000 0.9278870000 0.9278870000
0.8925480000 0.9330750000 0.9330750000
0.9379580000 0.9379580000 0.9379580000
0.9564820000 0.9420780000 0.9420780000
0.0295410000 0.9456790000 0.9161680000
0.1640930000 0.9483640000 0.9220890000
0.4052730000 0.9507450000 0.9277040000
0.6575320000 0.9528810000 0.9329220000
0.8268430000 0.9547420000 0.9378050000
0.9085390000 0.9564210000 0.9419250000
0.9450380000 0.9579160000 0.9450380000
0.9591980000 0.9591980000 0.9477840000
0.0000000000 0.0000000000 0.8462220000
0.0040890000 0.0000610000 0.8598630000
0.0402830000 0.0003050000 0.8718870000
0.1936340000 0.0008850000 0.8826600000
0.4440610000 0.0014950000 0.8925170000
0.6876830000 0.0021060000 0.9013060000
0.8431400000 0.0026860000 0.9087520000
0.9150700000 0.0036930000 0.9150700000
0.0003050000 0.0059200000 0.8715210000
0.0085140000 0.0085140000 0.8823240000
0.0690920000 0.0118410000 0.8922420000
0.2546390000 0.0159300000 0.9010310000
0.5163270000 0.0207820000 0.9085080000
0.7397160000 0.0278320000 0.9148560000
0.8691410000 0.0376590000 0.9208370000
0.9265140000 0.0502620000 0.9265140000
0.0014340000 0.0685730000 0.8919370000
0.0157780000 0.0870360000 0.9007870000
0.1080320000 0.1080320000 0.9083250000
0.3218690000 0.1315610000 0.9146420000
0.5860290000 0.1573790000 0.9206540000
0.7845150000 0.1854250000 0.9263000000
0.8899230000 0.2154240000 0.9316100000
0.9365840000 0.2467040000 0.9365840000
0.0025940000 0.2856450000 0.9080810000
0.0273440000 0.3207090000 0.9144290000
0.1564640000 0.3572080000 0.9204410000
0.3945620000 0.3945620000 0.9261170000
0.6491390000 0.4321590000 0.9314270000
0.8222050000 0.4693300000 0.9364010000
0.9064640000 0.5059810000 0.9407650000
0.9441830000 0.5420530000 0.9441830000
0.0052490000 0.5837400000 0.9202580000
0.0489500000 0.6171880000 0.9259340000
0.2134090000 0.6481930000 0.9312740000
0.4681400000 0.6777950000 0.9362490000
0.7060550000 0.7060550000 0.9406430000
0.8524480000 0.7321170000 0.9440920000
0.9189450000 0.7559810000 0.9469300000
0.9494630000 0.7784730000 0.9494630000
0.0106810000 0.8029170000 0.9310910000
0.0810550000 0.8210450000 0.9360960000
0.2759700000 0.8373720000 0.9404910000
0.5397340000 0.8519590000 0.9440000000
0.7552190000 0.8648680000 0.9468380000
0.8763120000 0.8763120000 0.9494020000
0.9299620000 0.8867190000 0.9516910000
0.9537050000 0.8961180000 0.9537050000
0.0189210000 0.9057010000 0.9403690000
0.1230470000 0.9124450000 0.9438780000
0.3454590000 0.9185490000 0.9467470000
0.6081850000 0.9243470000 0.9493100000
0.7977910000 0.9297790000 0.9515990000
0.8958440000 0.9348750000 0.9536440000
0.9394530000 0.9394530000 0.9554440000
0.9570620000 0.9432370000 0.9570620000
0.0333560000 0.9466550000 0.9466550000
0.1743160000 0.9492490000 0.9492490000
0.4191280000 0.9515380000 0.9515380000
0.6684570000 0.9535830000 0.9535830000
0.8327640000 0.9553830000 0.9553830000
0.9108580000 0.9570010000 0.9570010000
0.9460750000 0.9584050000 0.9584050000
0.9596560000 0.9596560000 0.9596560000
