LUTs/SPK Cube Block1 S64/TheBrim_SPK_Type-A_Block1_S64.cube
TITLE "TheBrim® Industrial Imaging Burau"
# © Copyright 2022 - TheBrim® d.o.o. Croatia
LUT_3D_SIZE 8
DOMAIN_MIN 0.000000 0.000000 0.000000
DOMAIN_MAX 1.000000 1.000000 1.000000
0.004913 0.003448 0.003296
0.010986 0.006805 0.006256
0.084015 0.011902 0.007172
0.251007 0.000000 0.000427
0.478302 0.000000 0.000000
0.614166 0.000000 0.000000
0.663147 0.000000 0.000000
0.681183 0.000000 0.006104
0.005585 0.016235 0.012665
0.010406 0.018707 0.012482
0.086121 0.034546 0.012817
0.276062 0.042419 0.003693
0.502960 0.007843 0.000000
0.668701 0.000000 0.000000
0.714081 0.000000 0.000000
0.732941 0.063019 0.000000
0.000000 0.067413 0.041779
0.000000 0.070587 0.041107
0.048035 0.084808 0.036743
0.269470 0.131653 0.024353
0.546936 0.167603 0.000000
0.733063 0.194733 0.000000
0.791412 0.223999 0.000000
0.806274 0.255249 0.000000
0.000000 0.180481 0.139862
0.000000 0.182251 0.138977
0.000000 0.199219 0.131683
0.220917 0.250549 0.111267
0.589111 0.331909 0.048157
0.802002 0.389496 0.000000
0.869263 0.415527 0.000000
0.882080 0.435608 0.000000
0.000000 0.356018 0.278381
0.000000 0.358002 0.277466
0.000000 0.361755 0.263336
0.144440 0.477356 0.269012
0.603943 0.532959 0.168884
0.856903 0.593842 0.010193
0.943024 0.635223 0.000000
0.954712 0.644165 0.000000
0.000000 0.465088 0.358276
0.000000 0.470642 0.359222
0.000000 0.487183 0.358459
0.000000 0.616821 0.381226
0.656982 0.744843 0.320587
0.888458 0.757538 0.153198
0.972412 0.762543 0.000000
0.988464 0.762299 0.000000
0.000000 0.494995 0.360046
0.000000 0.517242 0.365143
0.000000 0.607147 0.392914
0.363708 0.717133 0.404388
0.703400 0.787323 0.353516
0.900574 0.817841 0.245850
0.980927 0.819641 0.000000
1.000000 0.810425 0.000000
0.000000 0.634583 0.398376
0.000000 0.658142 0.401764
0.326111 0.709625 0.404236
0.571045 0.759796 0.379364
0.783478 0.799225 0.318542
0.914490 0.818787 0.222992
0.975525 0.827850 0.118622
0.997650 0.829315 0.006134
0.005493 0.007141 0.011230
0.007111 0.006958 0.010712
0.051514 0.010284 0.013428
0.227081 0.000244 0.010498
0.460297 0.000000 0.008911
0.611176 0.000000 0.013763
0.656281 0.000000 0.036987
0.681396 0.000000 0.075104
0.004272 0.015472 0.017212
0.007446 0.016052 0.017090
0.085327 0.032715 0.022797
0.278717 0.038269 0.021088
0.509857 0.000000 0.018494
0.667175 0.000000 0.032562
0.720367 0.000000 0.072296
0.742157 0.073395 0.109222
0.000000 0.067902 0.046143
0.000000 0.068878 0.045013
0.047058 0.085052 0.044159
0.279633 0.133301 0.039886
0.555206 0.164032 0.020203
0.738800 0.193146 0.027313
0.796875 0.228058 0.070801
0.816132 0.270966 0.132172
0.000000 0.180145 0.140045
0.000000 0.182098 0.139374
0.000000 0.197968 0.130554
0.227600 0.248383 0.107513
0.594574 0.328491 0.044464
0.802643 0.382721 0.000885
0.872406 0.421509 0.057129
0.891022 0.463165 0.119781
0.000000 0.355743 0.278351
0.000000 0.357452 0.277283
0.000000 0.362640 0.263580
0.153076 0.477142 0.268341
0.606049 0.530060 0.165924
0.857635 0.588104 0.007050
0.944031 0.637848 0.000000
0.957550 0.667206 0.089478
0.000000 0.465485 0.358490
0.000000 0.470795 0.359192
0.000000 0.487213 0.358337
0.000000 0.617157 0.381073
0.659698 0.744537 0.318695
0.890411 0.757080 0.149780
0.972870 0.763184 0.000000
0.987640 0.777283 0.021393
0.000000 0.497314 0.360565
0.000000 0.525055 0.367554
0.000000 0.612976 0.394501
0.379517 0.720154 0.404144
0.707947 0.787842 0.351349
0.903259 0.818237 0.243652
0.981323 0.822327 0.044800
0.998047 0.824799 0.059021
0.000000 0.644104 0.399628
0.000000 0.667755 0.402283
0.354156 0.715240 0.404419
0.588928 0.764496 0.378021
0.792969 0.801117 0.314606
0.917389 0.819183 0.218201
0.976288 0.827820 0.115601
0.995270 0.841980 0.186951
0.003845 0.009369 0.045746
0.004547 0.008911 0.046997
0.021515 0.009552 0.041351
0.175232 0.013519 0.060181
0.454498 0.000000 0.081940
0.614166 0.000000 0.099579
0.658722 0.000000 0.114227
0.677185 0.000000 0.144104
0.000427 0.017975 0.057037
0.002594 0.016510 0.056580
0.028198 0.018677 0.052643
0.212799 0.034485 0.074677
0.492737 0.000000 0.096191
0.653748 0.000000 0.124451
0.716095 0.000000 0.156189
0.736786 0.039337 0.189117
0.000000 0.074463 0.099518
0.000000 0.075745 0.099823
0.024292 0.093109 0.108429
0.275909 0.148071 0.131409
0.584198 0.188416 0.157776
0.759155 0.218872 0.192200
0.810577 0.255402 0.219086
0.824005 0.289551 0.251556
0.000000 0.189484 0.179718
0.000000 0.190186 0.181274
0.000000 0.208191 0.183044
0.230164 0.270905 0.189117
0.616547 0.361267 0.195251
0.823029 0.419556 0.212921
0.882599 0.455139 0.232574
0.896637 0.490112 0.272491
0.000000 0.356689 0.280853
0.000000 0.357727 0.280640
0.000000 0.362457 0.279968
0.147675 0.478729 0.300476
0.622650 0.550720 0.252045
0.870392 0.626984 0.232361
0.948212 0.678131 0.255219
0.956909 0.694611 0.294312
0.000000 0.466156 0.359833
0.000000 0.472382 0.360657
0.000000 0.487793 0.360657
0.000000 0.620148 0.384766
0.671326 0.751129 0.346863
0.893402 0.778900 0.296570
0.970825 0.797089 0.273621
0.983368 0.805481 0.303436
0.000000 0.506897 0.364105
0.000000 0.539948 0.373810
0.000000 0.625336 0.401978
0.399078 0.728424 0.420135
0.716034 0.803253 0.421234
0.903687 0.840179 0.379944
0.976379 0.846222 0.309570
0.991272 0.852814 0.336182
0.000000 0.659790 0.402008
0.151276 0.682129 0.402466
0.392853 0.722473 0.402679
0.620544 0.772766 0.376038
0.810425 0.805267 0.310852
0.922821 0.826813 0.258331
0.973083 0.851898 0.331970
0.989166 0.865753 0.379028
0.000580 0.023376 0.126434
0.000000 0.027374 0.143402
0.023132 0.029907 0.151184
0.141022 0.035065 0.160339
0.456940 0.000000 0.194946
0.615417 0.000000 0.189056
0.653076 0.000000 0.185547
0.684967 0.000000 0.231506
0.000000 0.038513 0.151855
0.000000 0.034180 0.164734
0.023041 0.035034 0.170654
0.160370 0.037689 0.167694
0.479309 0.000000 0.193817
0.654022 0.000000 0.222870
0.710480 0.000000 0.248871
0.735199 0.008392 0.284790
0.000000 0.092499 0.200378
0.000000 0.094788 0.204376
0.000000 0.110657 0.219971
0.208527 0.135437 0.225433
0.565491 0.180237 0.274200
0.744476 0.201172 0.304169
0.797852 0.229004 0.329102
0.813812 0.265137 0.351807
0.000000 0.205750 0.271667
0.000000 0.207550 0.273010
0.000000 0.229919 0.285797
0.234772 0.304169 0.319061
0.643890 0.405304 0.359283
0.838318 0.460876 0.388336
0.889343 0.490631 0.402863
0.900391 0.520386 0.425690
0.000000 0.376068 0.377411
0.000000 0.377777 0.378754
0.000000 0.389404 0.379944
0.135071 0.512878 0.418701
0.646881 0.597931 0.409088
0.881073 0.672028 0.412079
0.947235 0.711304 0.428223
0.954651 0.723785 0.452057
0.000000 0.487885 0.448547
0.000000 0.494293 0.452911
0.000000 0.507050 0.455627
0.000000 0.656830 0.509125
0.687531 0.786285 0.509705
0.897095 0.807495 0.453857
0.966309 0.822510 0.441742
0.977539 0.829956 0.457336
0.000000 0.532928 0.457001
0.000000 0.566498 0.472504
0.000000 0.648285 0.512268
0.369324 0.750244 0.541565
0.727661 0.829193 0.542358
0.907715 0.864441 0.515228
0.969788 0.869995 0.476593
0.984650 0.872437 0.476990
0.000000 0.687897 0.468933
0.195831 0.707703 0.472748
0.420074 0.747559 0.481659
0.643311 0.800842 0.484802
0.828735 0.840271 0.479156
0.922913 0.861298 0.476379
0.968445 0.874939 0.484558
0.983398 0.884277 0.506592
0.000000 0.055542 0.248962
0.000000 0.053925 0.261353
0.033539 0.056488 0.274719
0.173248 0.055969 0.286438
0.415955 0.000000 0.278534
0.611053 0.000000 0.258850
0.684784 0.000000 0.283325
0.713593 0.000000 0.303192
0.000000 0.073425 0.273773
0.000000 0.060242 0.280487
0.032013 0.059631 0.292664
0.193726 0.058258 0.297119
0.454315 0.000000 0.286804
0.651581 0.000000 0.302917
0.717499 0.000000 0.320312
0.742157 0.031738 0.339966
0.000000 0.125977 0.324921
0.000000 0.123749 0.335541
0.000000 0.142944 0.362762
0.235443 0.168304 0.381683
0.541321 0.170715 0.379730
0.735107 0.178925 0.393494
0.788177 0.207092 0.407043
0.805206 0.241211 0.420197
0.000000 0.241791 0.391205
0.000000 0.243378 0.393524
0.000000 0.272552 0.419037
0.261688 0.349731 0.465546
0.620209 0.394958 0.469788
0.826599 0.448639 0.494080
0.875488 0.465485 0.501129
0.888336 0.495453 0.521057
0.000000 0.392426 0.464508
0.000000 0.395569 0.466675
0.000000 0.422211 0.479858
0.126617 0.543793 0.540222
0.651520 0.616180 0.541779
0.879181 0.688293 0.557770
0.939270 0.720367 0.573761
0.946960 0.731537 0.588257
0.000000 0.505646 0.517670
0.000000 0.512238 0.522400
0.000000 0.521393 0.525391
0.000000 0.694397 0.603668
0.670166 0.794342 0.616455
0.893524 0.825958 0.594421
0.956879 0.839081 0.590118
0.968781 0.845093 0.599548
0.000000 0.568176 0.538544
0.000000 0.599640 0.555359
0.000000 0.680420 0.591095
0.414368 0.781311 0.626434
0.729675 0.848633 0.640930
0.900879 0.880524 0.628265
0.961670 0.886322 0.608032
0.976440 0.887665 0.605072
0.000000 0.719177 0.575134
0.246704 0.739197 0.581268
0.443481 0.780396 0.597412
0.669586 0.829376 0.609283
0.820496 0.860718 0.610016
0.918579 0.881866 0.611206
0.961853 0.894196 0.613525
0.976227 0.900452 0.625427
0.000000 0.095062 0.329834
0.000000 0.099060 0.340363
0.044617 0.102936 0.348755
0.192719 0.109802 0.353027
0.400116 0.096680 0.342773
0.598602 0.048706 0.338745
0.707977 0.050812 0.350464
0.742645 0.087982 0.358490
0.000000 0.112610 0.348907
0.000000 0.115417 0.355682
0.023285 0.125183 0.371948
0.200500 0.133972 0.376434
0.424988 0.128937 0.368683
0.620453 0.097504 0.361237
0.729980 0.127563 0.375427
0.766296 0.159729 0.386505
0.000000 0.157440 0.391693
0.000000 0.162659 0.399445
0.000000 0.183441 0.421509
0.235229 0.206421 0.442017
0.494476 0.212494 0.433563
0.686066 0.206970 0.423126
0.782104 0.248322 0.438995
0.818695 0.296082 0.455658
0.000000 0.269073 0.474548
0.000000 0.270477 0.475433
0.000000 0.307831 0.507538
0.306946 0.386505 0.557861
0.637817 0.411438 0.555817
0.802704 0.420502 0.544495
0.864655 0.461823 0.551239
0.886597 0.496155 0.560486
0.000000 0.416473 0.537964
0.000000 0.419312 0.539551
0.000000 0.462738 0.568665
0.217468 0.588409 0.633392
0.672546 0.651245 0.648163
0.863312 0.667847 0.636047
0.927948 0.699158 0.644470
0.938141 0.712738 0.650299
0.000000 0.515839 0.575928
0.000000 0.522064 0.579193
0.000000 0.542755 0.592682
0.055878 0.727081 0.683807
0.707642 0.816284 0.704163
0.879089 0.821747 0.679474
0.948303 0.839233 0.680267
0.962769 0.847717 0.685486
0.000000 0.602142 0.611328
0.000000 0.634949 0.628143
0.000000 0.708527 0.662445
0.426056 0.798309 0.698761
0.739899 0.864929 0.725311
0.885254 0.885284 0.711884
0.951996 0.892578 0.696533
0.969025 0.895538 0.698151
0.186066 0.749115 0.651978
0.285339 0.766449 0.660675
0.468689 0.801666 0.672974
0.701477 0.852081 0.693298
0.835907 0.878998 0.700714
0.910400 0.894958 0.703979
0.954468 0.907135 0.711182
0.970703 0.910583 0.706390
0.000000 0.141876 0.383148
0.000000 0.146088 0.387939
0.000000 0.159760 0.403107
0.175323 0.169861 0.409088
0.366150 0.172089 0.401337
0.551605 0.163574 0.393433
0.681000 0.139099 0.380524
0.749695 0.168945 0.394928
0.000000 0.154053 0.393311
0.000000 0.158997 0.398834
0.000000 0.174988 0.415894
0.179413 0.189728 0.428619
0.378815 0.194336 0.422882
0.572601 0.186401 0.411011
0.697174 0.174255 0.402405
0.767578 0.210785 0.417572
0.000000 0.193573 0.425568
0.000000 0.199402 0.432556
0.000000 0.219940 0.451843
0.197571 0.246368 0.473267
0.418823 0.253540 0.467194
0.614899 0.255493 0.456360
0.748413 0.274170 0.459991
0.816833 0.332947 0.485168
0.000000 0.273895 0.480042
0.000000 0.282318 0.487732
0.000000 0.311737 0.512451
0.250458 0.365936 0.546967
0.535767 0.409515 0.561096
0.749908 0.449982 0.568542
0.840973 0.474274 0.564880
0.884430 0.522125 0.577911
0.000000 0.423065 0.574036
0.000000 0.430634 0.578735
0.000000 0.502502 0.623718
0.353699 0.616821 0.677765
0.698486 0.659210 0.678101
0.852814 0.671478 0.662354
0.909119 0.686676 0.655518
0.936646 0.726837 0.663879
0.000000 0.530457 0.621307
0.000000 0.535858 0.624756
0.000000 0.613098 0.673370
0.313690 0.760132 0.741089
0.746521 0.832031 0.760742
0.888428 0.837708 0.749603
0.942200 0.836792 0.734314
0.956329 0.838867 0.727905
0.000000 0.634430 0.666870
0.000000 0.666382 0.683716
0.000000 0.733887 0.717010
0.496765 0.822449 0.753540
0.757629 0.876007 0.775604
0.895630 0.896637 0.776550
0.943726 0.892853 0.759766
0.963715 0.900116 0.765625
0.237488 0.773743 0.716064
0.338837 0.787842 0.720459
0.537811 0.825928 0.734741
0.717743 0.864624 0.750610
0.844696 0.892059 0.763672
0.917511 0.907867 0.771484
0.948700 0.914948 0.773804
0.965851 0.917053 0.768005
0.000000 0.174072 0.409729
0.000000 0.178284 0.414978
0.000000 0.193390 0.430511
0.147919 0.210846 0.448242
0.330444 0.218292 0.448273
0.508911 0.214813 0.435028
0.653503 0.205017 0.423401
0.740875 0.211151 0.422302
0.000000 0.185364 0.419617
0.000000 0.190399 0.425812
0.000000 0.205261 0.440887
0.149719 0.225159 0.459717
0.339783 0.233978 0.459595
0.522217 0.236481 0.449341
0.665741 0.227814 0.437103
0.758911 0.247284 0.441956
0.000000 0.220367 0.445160
0.000000 0.225433 0.450775
0.000000 0.244385 0.468048
0.158752 0.270111 0.489197
0.364563 0.283630 0.494263
0.549805 0.286011 0.484406
0.719452 0.316772 0.491364
0.807861 0.355896 0.504425
0.000000 0.286133 0.490997
0.000000 0.293274 0.497528
0.000000 0.313049 0.514191
0.188782 0.351501 0.538910
0.439545 0.398438 0.559509
0.673096 0.452881 0.574829
0.814819 0.504974 0.584015
0.875458 0.541046 0.590820
0.000000 0.428619 0.584198
0.000000 0.449951 0.597229
0.000000 0.508087 0.627838
0.390961 0.586456 0.662201
0.638000 0.624268 0.666962
0.804962 0.671265 0.670715
0.892426 0.710419 0.673035
0.927704 0.727692 0.670380
0.000000 0.593353 0.668976
0.000000 0.631531 0.689880
0.000000 0.709900 0.725372
0.575012 0.798309 0.757324
0.804718 0.838623 0.761932
0.889282 0.831512 0.746338
0.931213 0.839081 0.740204
0.950012 0.839630 0.732422
0.000000 0.695282 0.728668
0.000000 0.720276 0.741516
0.159821 0.779694 0.768494
0.590271 0.848267 0.795807
0.813171 0.890930 0.810425
0.909088 0.900543 0.800659
0.945892 0.895630 0.779053
0.959900 0.896912 0.774628
0.350189 0.798828 0.757599
0.411652 0.810059 0.762909
0.587036 0.845062 0.778015
0.761292 0.879761 0.791168
0.871460 0.903625 0.805542
0.924286 0.915802 0.814270
0.949097 0.921478 0.819244
0.962372 0.919281 0.804932
