LUTs/SPK Cube Block1 S64/TheBrim_SPK_Type-N_Block1_S64.cube
TITLE "TheBrim® SPK Block 1"
# TheBrim® d.o.o. Croatia
# Copyright: (C) Copyright 2020 TheBrim® d.o.o. Croatia
LUT_3D_SIZE 64
0.0000920000 0.0000310000 0.0002750000
0.0006100000 0.0000610000 0.0004880000
0.0010990000 0.0000920000 0.0004880000
0.0016480000 0.0001220000 0.0004880000
0.0021970000 0.0001530000 0.0004880000
0.0025630000 0.0001830000 0.0005190000
0.0029300000 0.0002140000 0.0005190000
0.0033570000 0.0002440000 0.0005190000
0.0038760000 0.0002750000 0.0005190000
0.0049130000 0.0003360000 0.0005190000
0.0060730000 0.0004270000 0.0005190000
0.0077210000 0.0005490000 0.0005190000
0.0096440000 0.0007020000 0.0005800000
0.0126040000 0.0009460000 0.0006100000
0.0158690000 0.0011290000 0.0006100000
0.0204160000 0.0012820000 0.0004880000
0.0254520000 0.0014040000 0.0002750000
0.0328980000 0.0015260000 0.0001220000
0.0408630000 0.0016170000 0.0000000000
0.0508730000 0.0016480000 0.0000000000
0.0614010000 0.0016480000 0.0000000000
0.0727840000 0.0014650000 0.0000000000
0.0849300000 0.0013120000 0.0000000000
0.0986020000 0.0008850000 0.0000000000
0.1134340000 0.0003050000 0.0000000000
0.1300960000 0.0000000000 0.0000000000
0.1470640000 0.0000000000 0.0000000000
0.1647950000 0.0000000000 0.0000000000
0.1823120000 0.0000000000 0.0000000000
0.1993710000 0.0000000000 0.0000000000
0.2170410000 0.0000000000 0.0000000000
0.2356570000 0.0000000000 0.0000000000
0.2554630000 0.0000000000 0.0000000000
0.2763060000 0.0000000000 0.0000000000
0.2961430000 0.0000000000 0.0000000000
0.3151860000 0.0000000000 0.0000000000
0.3327640000 0.0000000000 0.0000000000
0.3488160000 0.0000000000 0.0000000000
0.3642270000 0.0000000000 0.0000000000
0.3809810000 0.0000000000 0.0000000000
0.3982240000 0.0000000000 0.0000000000
0.4165340000 0.0000000000 0.0000000000
0.4320980000 0.0000000000 0.0000000000
0.4487610000 0.0000000000 0.0000000000
0.4624330000 0.0000000000 0.0000000000
0.4772640000 0.0000000000 0.0000000000
0.4920350000 0.0000000000 0.0000000000
0.5079350000 0.0000000000 0.0000000000
0.5225830000 0.0000000000 0.0000000000
0.5365300000 0.0000000000 0.0000000000
0.5473330000 0.0000000000 0.0000000000
0.5585330000 0.0000000000 0.0000000000
0.5677490000 0.0000000000 0.0000000000
0.5769040000 0.0000000000 0.0000000000
0.5841370000 0.0000000000 0.0000000000
0.5910950000 0.0000000000 0.0000000000
0.5966190000 0.0000000000 0.0000000000
0.6018680000 0.0000000000 0.0000000000
0.6064150000 0.0000000000 0.0000000000
0.6104130000 0.0000000000 0.0000000000
0.6120910000 0.0000000000 0.0000000000
0.6137080000 0.0000000000 0.0000000000
0.6149900000 0.0000000000 0.0000000000
0.6163330000 0.0000000000 0.0000000000
0.0000000000 0.0006410000 0.0005190000
0.0012510000 0.0010990000 0.0008540000
0.0017400000 0.0011290000 0.0008240000
0.0022890000 0.0011600000 0.0008240000
0.0028690000 0.0011900000 0.0008240000
0.0032040000 0.0012210000 0.0008240000
0.0035710000 0.0012510000 0.0007930000
0.0039980000 0.0012820000 0.0007930000
0.0044860000 0.0013120000 0.0008240000
0.0055850000 0.0013730000 0.0008240000
0.0067440000 0.0014340000 0.0007930000
0.0083920000 0.0015260000 0.0007930000
0.0103150000 0.0016780000 0.0007930000
0.0132750000 0.0018920000 0.0007630000
0.0169680000 0.0021360000 0.0006710000
0.0215760000 0.0022580000 0.0005190000
0.0266110000 0.0023800000 0.0003050000
0.0343020000 0.0026550000 0.0000610000
0.0422060000 0.0027160000 0.0000000000
0.0524290000 0.0028690000 0.0000000000
0.0631100000 0.0029600000 0.0000000000
0.0744630000 0.0027770000 0.0000000000
0.0867610000 0.0027160000 0.0000000000
0.1005550000 0.0023800000 0.0000000000
0.1155090000 0.0018920000 0.0000000000
0.1322940000 0.0012820000 0.0000000000
0.1494140000 0.0006100000 0.0000000000
0.1672670000 0.0000000000 0.0000000000
0.1848750000 0.0000000000 0.0000000000
0.2021180000 0.0000000000 0.0000000000
0.2199100000 0.0000000000 0.0000000000
0.2386470000 0.0000000000 0.0000000000
0.2584530000 0.0000000000 0.0000000000
0.2795720000 0.0000000000 0.0000000000
0.2995300000 0.0000000000 0.0000000000
0.3187260000 0.0000000000 0.0000000000
0.3363040000 0.0000000000 0.0000000000
0.3523560000 0.0000000000 0.0000000000
0.3678590000 0.0000000000 0.0000000000
0.3847660000 0.0000000000 0.0000000000
0.4019780000 0.0000000000 0.0000000000
0.4203190000 0.0000000000 0.0000000000
0.4359740000 0.0000000000 0.0000000000
0.4527280000 0.0000000000 0.0000000000
0.4664310000 0.0000000000 0.0000000000
0.4812010000 0.0000000000 0.0000000000
0.4960020000 0.0000000000 0.0000000000
0.5119020000 0.0000000000 0.0000000000
0.5265500000 0.0000000000 0.0000000000
0.5406190000 0.0000000000 0.0000000000
0.5514220000 0.0000000000 0.0000000000
0.5625000000 0.0000000000 0.0000000000
0.5716860000 0.0000000000 0.0000000000
0.5808410000 0.0000000000 0.0000000000
0.5881040000 0.0000000000 0.0000000000
0.5951540000 0.0000000000 0.0000000000
0.6005860000 0.0000000000 0.0000000000
0.6055600000 0.0000000000 0.0000000000
0.6084900000 0.0000000000 0.0000000000
0.6113890000 0.0000000000 0.0000000000
0.6130680000 0.0000000000 0.0000000000
0.6146850000 0.0000000000 0.0000000000
0.6159670000 0.0000000000 0.0000000000
0.6173100000 0.0000000000 0.0000000000
0.0000000000 0.0010680000 0.0005490000
0.0012820000 0.0015560000 0.0008850000
0.0024720000 0.0019840000 0.0008540000
0.0030520000 0.0020140000 0.0008240000
0.0036010000 0.0020750000 0.0008540000
0.0039670000 0.0021060000 0.0008540000
0.0043330000 0.0021060000 0.0008240000
0.0047610000 0.0021360000 0.0008240000
0.0052490000 0.0021670000 0.0008240000
0.0063170000 0.0022280000 0.0008540000
0.0074770000 0.0023190000 0.0008240000
0.0091250000 0.0024110000 0.0008240000
0.0110470000 0.0025630000 0.0008240000
0.0140380000 0.0027470000 0.0007930000
0.0181580000 0.0031740000 0.0007020000
0.0227360000 0.0032960000 0.0004880000
0.0277710000 0.0034180000 0.0003050000
0.0357360000 0.0037540000 0.0000610000
0.0436710000 0.0038450000 0.0000000000
0.0540470000 0.0041200000 0.0000000000
0.0648800000 0.0043330000 0.0000000000
0.0762630000 0.0041500000 0.0000000000
0.0887150000 0.0041810000 0.0000000000
0.1025700000 0.0039370000 0.0000000000
0.1176150000 0.0035400000 0.0000000000
0.1345520000 0.0030210000 0.0000000000
0.1518550000 0.0024410000 0.0000000000
0.1698610000 0.0016780000 0.0000000000
0.1875920000 0.0004880000 0.0000000000
0.2048650000 0.0000000000 0.0000000000
0.2228090000 0.0000000000 0.0000000000
0.2416380000 0.0000000000 0.0000000000
0.2615660000 0.0000000000 0.0000000000
0.2829280000 0.0000000000 0.0000000000
0.3029480000 0.0000000000 0.0000000000
0.3222660000 0.0000000000 0.0000000000
0.3400270000 0.0000000000 0.0000000000
0.3559880000 0.0000000000 0.0000000000
0.3716130000 0.0000000000 0.0000000000
0.3885190000 0.0000000000 0.0000000000
0.4060060000 0.0000000000 0.0000000000
0.4243160000 0.0000000000 0.0000000000
0.4400020000 0.0000000000 0.0000000000
0.4567260000 0.0000000000 0.0000000000
0.4703980000 0.0000000000 0.0000000000
0.4851990000 0.0000000000 0.0000000000
0.5000610000 0.0000000000 0.0000000000
0.5160220000 0.0000000000 0.0000000000
0.5305180000 0.0000000000 0.0000000000
0.5445860000 0.0000000000 0.0000000000
0.5554810000 0.0000000000 0.0000000000
0.5665890000 0.0000000000 0.0000000000
0.5757450000 0.0000000000 0.0000000000
0.5849300000 0.0000000000 0.0000000000
0.5921940000 0.0000000000 0.0000000000
0.5992430000 0.0000000000 0.0000000000
0.6030880000 0.0000000000 0.0000000000
0.6065670000 0.0000000000 0.0000000000
0.6094670000 0.0000000000 0.0000000000
0.6123960000 0.0000000000 0.0000000000
0.6140140000 0.0000000000 0.0000000000
0.6156620000 0.0000000000 0.0000000000
0.6169430000 0.0000000000 0.0000000000
0.6182860000 0.0000000000 0.0000000000
0.0000000000 0.0015260000 0.0005800000
0.0011900000 0.0020450000 0.0009770000
0.0025020000 0.0025330000 0.0009460000
0.0039060000 0.0030210000 0.0008540000
0.0044560000 0.0030520000 0.0008850000
0.0048220000 0.0030820000 0.0008850000
0.0051880000 0.0030820000 0.0008540000
0.0056150000 0.0031130000 0.0008540000
0.0061040000 0.0031740000 0.0008850000
0.0071720000 0.0032350000 0.0008850000
0.0083310000 0.0032960000 0.0008540000
0.0099790000 0.0033870000 0.0008240000
0.0119020000 0.0035400000 0.0008540000
0.0148930000 0.0037230000 0.0008240000
0.0195010000 0.0043330000 0.0007020000
0.0240780000 0.0044560000 0.0004880000
0.0290830000 0.0045470000 0.0003050000
0.0373540000 0.0050660000 0.0000000000
0.0452880000 0.0051570000 0.0000000000
0.0558170000 0.0055240000 0.0000000000
0.0669250000 0.0059200000 0.0000000000
0.0782170000 0.0056760000 0.0000000000
0.0908510000 0.0058290000 0.0000000000
0.1049500000 0.0057370000 0.0000000000
0.1201170000 0.0054630000 0.0000000000
0.1371460000 0.0050350000 0.0000000000
0.1546330000 0.0045170000 0.0000000000
0.1727910000 0.0038150000 0.0000000000
0.1907040000 0.0027160000 0.0000000000
0.2081300000 0.0012510000 0.0000000000
0.2261660000 0.0000000000 0.0000000000
0.2450560000 0.0000000000 0.0000000000
0.2651060000 0.0000000000 0.0000000000
0.2866820000 0.0000000000 0.0000000000
0.3069460000 0.0000000000 0.0000000000
0.3263240000 0.0000000000 0.0000000000
0.3442080000 0.0000000000 0.0000000000
0.3601680000 0.0000000000 0.0000000000
0.3757930000 0.0000000000 0.0000000000
0.3930050000 0.0000000000 0.0000000000
0.4105220000 0.0000000000 0.0000000000
0.4288020000 0.0000000000 0.0000000000
0.4444890000 0.0000000000 0.0000000000
0.4613040000 0.0000000000 0.0000000000
0.4750370000 0.0000000000 0.0000000000
0.4898380000 0.0000000000 0.0000000000
0.5047910000 0.0000000000 0.0000000000
0.5206300000 0.0000000000 0.0000000000
0.5351260000 0.0000000000 0.0000000000
0.5491940000 0.0000000000 0.0000000000
0.5600890000 0.0000000000 0.0000000000
0.5713500000 0.0000000000 0.0000000000
0.5805360000 0.0000000000 0.0000000000
0.5895080000 0.0000000000 0.0000000000
0.5960690000 0.0000000000 0.0000000000
0.6006470000 0.0000000000 0.0000000000
0.6041560000 0.0000000000 0.0000000000
0.6076350000 0.0000000000 0.0000000000
0.6105960000 0.0000000000 0.0000000000
0.6134640000 0.0000000000 0.0000000000
0.6151730000 0.0000000000 0.0000000000
0.6168210000 0.0000000000 0.0000000000
0.6180420000 0.0000000000 0.0000000000
0.6194150000 0.0000000000 0.0000000000
0.0000000000 0.0020140000 0.0006410000
0.0010990000 0.0025330000 0.0010680000
0.0023800000 0.0029910000 0.0010380000
0.0039060000 0.0035400000 0.0009460000
0.0052800000 0.0039980000 0.0008850000
0.0056460000 0.0040280000 0.0009160000
0.0059810000 0.0040280000 0.0008850000
0.0064090000 0.0040590000 0.0008850000
0.0069270000 0.0040890000 0.0008850000
0.0079650000 0.0041500000 0.0008850000
0.0091250000 0.0042420000 0.0008850000
0.0108030000 0.0043640000 0.0008540000
0.0127260000 0.0045170000 0.0008850000
0.0157170000 0.0047000000 0.0008540000
0.0208130000 0.0054630000 0.0007020000
0.0253910000 0.0055850000 0.0004880000
0.0303960000 0.0056760000 0.0003050000
0.0389710000 0.0063480000 0.0000000000
0.0469060000 0.0064390000 0.0000000000
0.0576170000 0.0069270000 0.0000000000
0.0688480000 0.0074160000 0.0000000000
0.0802000000 0.0072330000 0.0000000000
0.0929570000 0.0074460000 0.0000000000
0.1072080000 0.0074460000 0.0000000000
0.1224980000 0.0072940000 0.0000000000
0.1397090000 0.0070190000 0.0000000000
0.1573180000 0.0065310000 0.0000000000
0.1755980000 0.0058290000 0.0000000000
0.1936650000 0.0048220000 0.0000000000
0.2112120000 0.0034480000 0.0000000000
0.2293700000 0.0019530000 0.0000000000
0.2484130000 0.0000000000 0.0000000000
0.2685550000 0.0000000000 0.0000000000
0.2903140000 0.0000000000 0.0000000000
0.3107600000 0.0000000000 0.0000000000
0.3303830000 0.0000000000 0.0000000000
0.3481450000 0.0000000000 0.0000000000
0.3641660000 0.0000000000 0.0000000000
0.3800050000 0.0000000000 0.0000000000
0.3972470000 0.0000000000 0.0000000000
0.4149170000 0.0000000000 0.0000000000
0.4331050000 0.0000000000 0.0000000000
0.4490360000 0.0000000000 0.0000000000
0.4658200000 0.0000000000 0.0000000000
0.4795530000 0.0000000000 0.0000000000
0.4943540000 0.0000000000 0.0000000000
0.5092770000 0.0000000000 0.0000000000
0.5251160000 0.0000000000 0.0000000000
0.5396120000 0.0000000000 0.0000000000
0.5536500000 0.0000000000 0.0000000000
0.5647280000 0.0000000000 0.0000000000
0.5758060000 0.0000000000 0.0000000000
0.5849610000 0.0000000000 0.0000000000
0.5923460000 0.0000000000 0.0000000000
0.5971680000 0.0000000000 0.0000000000
0.6017150000 0.0000000000 0.0000000000
0.6052550000 0.0000000000 0.0000000000
0.6087040000 0.0000000000 0.0000000000
0.6116640000 0.0000000000 0.0000000000
0.6145940000 0.0000000000 0.0000000000
0.6162110000 0.0000000000 0.0000000000
0.6178590000 0.0000000000 0.0000000000
0.6191410000 0.0000000000 0.0000000000
0.6204830000 0.0000000000 0.0000000000
0.0000000000 0.0023190000 0.0006710000
0.0010380000 0.0028690000 0.0011600000
0.0023190000 0.0033260000 0.0010680000
0.0038450000 0.0038760000 0.0010380000
0.0053410000 0.0043950000 0.0009460000
0.0061950000 0.0047000000 0.0009160000
0.0065610000 0.0047300000 0.0009160000
0.0069890000 0.0047300000 0.0008850000
0.0075070000 0.0047610000 0.0009160000
0.0085750000 0.0048220000 0.0009160000
0.0097350000 0.0049130000 0.0008850000
0.0114140000 0.0050350000 0.0009160000
0.0133060000 0.0051570000 0.0008850000
0.0162960000 0.0053710000 0.0008850000
0.0215150000 0.0061650000 0.0007020000
0.0263060000 0.0063780000 0.0005190000
0.0313110000 0.0064700000 0.0003050000
0.0401310000 0.0072330000 0.0000000000
0.0480040000 0.0072940000 0.0000000000
0.0588680000 0.0078740000 0.0000000000
0.0702210000 0.0084840000 0.0000000000
0.0816040000 0.0083010000 0.0000000000
0.0944520000 0.0086060000 0.0000000000
0.1087950000 0.0086670000 0.0000000000
0.1241460000 0.0085450000 0.0000000000
0.1414490000 0.0083620000 0.0000000000
0.1591800000 0.0079350000 0.0000000000
0.1776430000 0.0073240000 0.0000000000
0.1957700000 0.0063170000 0.0000000000
0.2134090000 0.0050050000 0.0000000000
0.2316590000 0.0035710000 0.0000000000
0.2507930000 0.0016780000 0.0000000000
0.2710270000 0.0000000000 0.0000000000
0.2927550000 0.0000000000 0.0000000000
0.3134460000 0.0000000000 0.0000000000
0.3331600000 0.0000000000 0.0000000000
0.3508300000 0.0000000000 0.0000000000
0.3670040000 0.0000000000 0.0000000000
0.3829350000 0.0000000000 0.0000000000
0.4002990000 0.0000000000 0.0000000000
0.4179380000 0.0000000000 0.0000000000
0.4362790000 0.0000000000 0.0000000000
0.4521480000 0.0000000000 0.0000000000
0.4688110000 0.0000000000 0.0000000000
0.4826350000 0.0000000000 0.0000000000
0.4974370000 0.0000000000 0.0000000000
0.5124510000 0.0000000000 0.0000000000
0.5282900000 0.0000000000 0.0000000000
0.5427550000 0.0000000000 0.0000000000
0.5567020000 0.0000000000 0.0000000000
0.5679930000 0.0000000000 0.0000000000
0.5790710000 0.0000000000 0.0000000000
0.5872190000 0.0000000000 0.0000000000
0.5931090000 0.0000000000 0.0000000000
0.5979000000 0.0000000000 0.0000000000
0.6024170000 0.0000000000 0.0000000000
0.6059880000 0.0000000000 0.0000000000
0.6094360000 0.0000000000 0.0000000000
0.6123660000 0.0000000000 0.0000000000
0.6153560000 0.0000000000 0.0000000000
0.6169740000 0.0000000000 0.0000000000
0.6186220000 0.0000000000 0.0000000000
0.6199040000 0.0000000000 0.0000000000
0.6212460000 0.0000000000 0.0000000000
0.0000000000 0.0026550000 0.0007320000
0.0009460000 0.0032040000 0.0012210000
0.0022580000 0.0036620000 0.0011600000
0.0037840000 0.0042110000 0.0010680000
0.0052800000 0.0047610000 0.0010380000
0.0062560000 0.0050960000 0.0009460000
0.0071720000 0.0054020000 0.0009160000
0.0075990000 0.0054320000 0.0009460000
0.0080870000 0.0054630000 0.0009160000
0.0091550000 0.0055240000 0.0009160000
0.0103150000 0.0056150000 0.0008850000
0.0120240000 0.0057370000 0.0009160000
0.0139160000 0.0058900000 0.0009160000
0.0169070000 0.0060730000 0.0008850000
0.0220950000 0.0068660000 0.0007630000
0.0272520000 0.0072020000 0.0005190000
0.0322570000 0.0072940000 0.0003050000
0.0412900000 0.0081790000 0.0000000000
0.0491640000 0.0082090000 0.0000000000
0.0601810000 0.0089110000 0.0000000000
0.0716550000 0.0096130000 0.0000000000
0.0829770000 0.0093690000 0.0000000000
0.0960080000 0.0097960000 0.0000000000
0.1104130000 0.0098880000 0.0000000000
0.1259160000 0.0099180000 0.0000000000
0.1432800000 0.0097350000 0.0000000000
0.1611940000 0.0094600000 0.0000000000
0.1797180000 0.0088200000 0.0000000000
0.1979370000 0.0078740000 0.0000000000
0.2156680000 0.0066530000 0.0000000000
0.2340390000 0.0052800000 0.0000000000
0.2532350000 0.0034480000 0.0000000000
0.2734680000 0.0014950000 0.0000000000
0.2953800000 0.0000000000 0.0000000000
0.3162540000 0.0000000000 0.0000000000
0.3359990000 0.0000000000 0.0000000000
0.3536990000 0.0000000000 0.0000000000
0.3699950000 0.0000000000 0.0000000000
0.3858950000 0.0000000000 0.0000000000
0.4033510000 0.0000000000 0.0000000000
0.4211120000 0.0000000000 0.0000000000
0.4394230000 0.0000000000 0.0000000000
0.4554140000 0.0000000000 0.0000000000
0.4720760000 0.0000000000 0.0000000000
0.4859920000 0.0000000000 0.0000000000
0.5006410000 0.0000000000 0.0000000000
0.5157780000 0.0000000000 0.0000000000
0.5315860000 0.0000000000 0.0000000000
0.5460510000 0.0000000000 0.0000000000
0.5599980000 0.0000000000 0.0000000000
0.5712590000 0.0000000000 0.0000000000
0.5819400000 0.0000000000 0.0000000000
0.5879820000 0.0000000000 0.0000000000
0.5939030000 0.0000000000 0.0000000000
0.5986940000 0.0000000000 0.0000000000
0.6032410000 0.0000000000 0.0000000000
0.6067500000 0.0000000000 0.0000000000
0.6101990000 0.0000000000 0.0000000000
0.6131590000 0.0000000000 0.0000000000
0.6161500000 0.0000000000 0.0000000000
0.6177980000 0.0000000000 0.0000000000
0.6194460000 0.0000000000 0.0000000000
0.6206970000 0.0000000000 0.0000000000
0.6220400000 0.0000000000 0.0000000000
0.0000000000 0.0030520000 0.0007630000
0.0008540000 0.0036010000 0.0013120000
0.0021670000 0.0040590000 0.0012510000
0.0036620000 0.0046080000 0.0011600000
0.0051880000 0.0051570000 0.0010990000
0.0061950000 0.0054930000 0.0010380000
0.0071410000 0.0058590000 0.0010070000
0.0083010000 0.0062560000 0.0009770000
0.0088200000 0.0062870000 0.0009460000
0.0098570000 0.0063480000 0.0009460000
0.0110170000 0.0064390000 0.0009460000
0.0126950000 0.0065310000 0.0009460000
0.0146180000 0.0066830000 0.0009160000
0.0175780000 0.0068970000 0.0009160000
0.0227970000 0.0076900000 0.0007930000
0.0283810000 0.0081790000 0.0005190000
0.0333560000 0.0082700000 0.0003050000
0.0426640000 0.0092470000 0.0000000000
0.0505370000 0.0092770000 0.0000000000
0.0616460000 0.0100710000 0.0000000000
0.0733030000 0.0108950000 0.0000000000
0.0846560000 0.0106810000 0.0000000000
0.0977780000 0.0111390000 0.0000000000
0.1123660000 0.0113830000 0.0000000000
0.1278990000 0.0114750000 0.0000000000
0.1454470000 0.0114440000 0.0000000000
0.1634830000 0.0111690000 0.0000000000
0.1821290000 0.0105590000 0.0000000000
0.2005000000 0.0097050000 0.0000000000
0.2183530000 0.0085750000 0.0000000000
0.2367250000 0.0072020000 0.0000000000
0.2560420000 0.0054630000 0.0000000000
0.2763980000 0.0035710000 0.0000000000
0.2983700000 0.0018010000 0.0000000000
0.3193360000 0.0000000000 0.0000000000
0.3392030000 0.0000000000 0.0000000000
0.3571470000 0.0000000000 0.0000000000
0.3734130000 0.0000000000 0.0000000000
0.3894040000 0.0000000000 0.0000000000
0.4070130000 0.0000000000 0.0000000000
0.4248660000 0.0000000000 0.0000000000
0.4430540000 0.0000000000 0.0000000000
0.4591670000 0.0000000000 0.0000000000
0.4758300000 0.0000000000 0.0000000000
0.4898380000 0.0000000000 0.0000000000
0.5045170000 0.0000000000 0.0000000000
0.5196840000 0.0000000000 0.0000000000
0.5354000000 0.0000000000 0.0000000000
0.5498660000 0.0000000000 0.0000000000
0.5638430000 0.0000000000 0.0000000000
0.5751650000 0.0000000000 0.0000000000
0.5828860000 0.0000000000 0.0000000000
0.5889280000 0.0000000000 0.0000000000
0.5947880000 0.0000000000 0.0000000000
0.5995480000 0.0000000000 0.0000000000
0.6041560000 0.0000000000 0.0000000000
0.6076660000 0.0000000000 0.0000000000
0.6111150000 0.0000000000 0.0000000000
0.6141050000 0.0000000000 0.0000000000
0.6170350000 0.0000000000 0.0000000000
0.6187440000 0.0000000000 0.0000000000
0.6203610000 0.0000000000 0.0000000000
0.6216430000 0.0000000000 0.0000000000
0.6229860000 0.0000000000 0.0000000000
0.0000000000 0.0035100000 0.0007930000
0.0007630000 0.0040590000 0.0014040000
0.0020750000 0.0045470000 0.0013430000
0.0035710000 0.0050660000 0.0012510000
0.0051270000 0.0056150000 0.0011900000
0.0060730000 0.0059510000 0.0011290000
0.0070500000 0.0063170000 0.0010990000
0.0082090000 0.0067140000 0.0010380000
0.0095830000 0.0072020000 0.0009770000
0.0106810000 0.0072940000 0.0009770000
0.0118410000 0.0073550000 0.0009770000
0.0135190000 0.0074770000 0.0009770000
0.0154420000 0.0076290000 0.0009460000
0.0184020000 0.0078430000 0.0009460000
0.0236210000 0.0086670000 0.0008240000
0.0296330000 0.0092770000 0.0005190000
0.0346370000 0.0093690000 0.0003050000
0.0442200000 0.0104980000 0.0000000000
0.0520940000 0.0105290000 0.0000000000
0.0634160000 0.0114140000 0.0000000000
0.0750730000 0.0122680000 0.0000000000
0.0865480000 0.0121150000 0.0000000000
0.0998540000 0.0127560000 0.0000000000
0.1145630000 0.0130620000 0.0000000000
0.1302190000 0.0132450000 0.0000000000
0.1478880000 0.0133360000 0.0000000000
0.1661070000 0.0131530000 0.0000000000
0.1849370000 0.0125730000 0.0000000000
0.2034300000 0.0118100000 0.0000000000
0.2213440000 0.0107120000 0.0000000000
0.2399290000 0.0094910000 0.0000000000
0.2593080000 0.0078120000 0.0000000000
0.2797550000 0.0059810000 0.0000000000
0.3017580000 0.0042110000 0.0000000000
0.3229680000 0.0016480000 0.0000000000
0.3430180000 0.0000000000 0.0000000000
0.3609920000 0.0000000000 0.0000000000
0.3773800000 0.0000000000 0.0000000000
0.3934940000 0.0000000000 0.0000000000
0.4112550000 0.0000000000 0.0000000000
0.4291080000 0.0000000000 0.0000000000
0.4473270000 0.0000000000 0.0000000000
0.4635310000 0.0000000000 0.0000000000
0.4801940000 0.0000000000 0.0000000000
0.4942320000 0.0000000000 0.0000000000
0.5089110000 0.0000000000 0.0000000000
0.5239260000 0.0000000000 0.0000000000
0.5398860000 0.0000000000 0.0000000000
0.5543520000 0.0000000000 0.0000000000
0.5681760000 0.0000000000 0.0000000000
0.5765690000 0.0000000000 0.0000000000
0.5838930000 0.0000000000 0.0000000000
0.5899960000 0.0000000000 0.0000000000
0.5958560000 0.0000000000 0.0000000000
0.6006160000 0.0000000000 0.0000000000
0.6051940000 0.0000000000 0.0000000000
0.6086730000 0.0000000000 0.0000000000
0.6121830000 0.0000000000 0.0000000000
0.6151430000 0.0000000000 0.0000000000
0.6180420000 0.0000000000 0.0000000000
0.6197810000 0.0000000000 0.0000000000
0.6213680000 0.0000000000 0.0000000000
0.6227110000 0.0000000000 0.0000000000
0.6240230000 0.0000000000 0.0000000000
0.0000000000 0.0044250000 0.0008850000
0.0005490000 0.0049740000 0.0015260000
0.0018920000 0.0054630000 0.0015260000
0.0033870000 0.0059810000 0.0014340000
0.0049130000 0.0065310000 0.0013730000
0.0058900000 0.0068970000 0.0013120000
0.0068970000 0.0072330000 0.0012820000
0.0080260000 0.0076290000 0.0012210000
0.0093990000 0.0081480000 0.0011600000
0.0122680000 0.0091550000 0.0010380000
0.0134580000 0.0092470000 0.0010070000
0.0151370000 0.0093380000 0.0010380000
0.0170290000 0.0094910000 0.0010070000
0.0200200000 0.0097350000 0.0010070000
0.0252380000 0.0105290000 0.0009160000
0.0321960000 0.0115050000 0.0005490000
0.0371700000 0.0115970000 0.0003360000
0.0473330000 0.0129390000 0.0000000000
0.0552060000 0.0129700000 0.0000000000
0.0668330000 0.0140990000 0.0000000000
0.0785220000 0.0149230000 0.0000000000
0.0903630000 0.0150760000 0.0000000000
0.1039730000 0.0159300000 0.0000000000
0.1189880000 0.0164490000 0.0000000000
0.1349180000 0.0168460000 0.0000000000
0.1528020000 0.0171200000 0.0000000000
0.1713870000 0.0171200000 0.0000000000
0.1904300000 0.0165710000 0.0000000000
0.2092590000 0.0159910000 0.0000000000
0.2274480000 0.0150760000 0.0000000000
0.2461850000 0.0139470000 0.0000000000
0.2658080000 0.0124510000 0.0000000000
0.2864990000 0.0107730000 0.0000000000
0.3087160000 0.0091250000 0.0000000000
0.3301700000 0.0066530000 0.0000000000
0.3504330000 0.0040590000 0.0000000000
