LUTs/SPK Cube Block1 S64/TheBrim_SPK_Type-T_Block1_S64.cube
TITLE "TheBrim® SPK Block 1"
# TheBrim® d.o.o. Croatia
# Copyright: (C) Copyright 2020 TheBrim® d.o.o. Croatia
LUT_3D_SIZE 8
0.0000000000 0.0000000000 0.0000000000
0.0321040000 0.0084530000 0.0042720000
0.0898130000 0.0105590000 0.0081790000
0.2538150000 0.0274350000 0.0105900000
0.4660640000 0.0303650000 0.0211790000
0.6359860000 0.0210570000 0.0270080000
0.7266850000 0.0162960000 0.0303650000
0.7700200000 0.0167850000 0.0353390000
0.0165100000 0.0298460000 0.0128480000
0.0308840000 0.0273130000 0.0104370000
0.0876770000 0.0253300000 0.0102540000
0.2524110000 0.0389710000 0.0110170000
0.4650570000 0.0408630000 0.0217590000
0.6392820000 0.0306700000 0.0272520000
0.7281490000 0.0274960000 0.0317380000
0.7737120000 0.0251460000 0.0376280000
0.0278930000 0.0969850000 0.0265810000
0.0455020000 0.0994870000 0.0274960000
0.0892640000 0.0883180000 0.0163570000
0.2478330000 0.0870670000 0.0112610000
0.4601440000 0.0816350000 0.0236510000
0.6346130000 0.0652160000 0.0260010000
0.7231750000 0.0623470000 0.0339970000
0.7693790000 0.0587460000 0.0379940000
0.0588680000 0.2318420000 0.0668330000
0.0732120000 0.2414550000 0.0712280000
0.1113890000 0.2344060000 0.0604860000
0.2475280000 0.2026060000 0.0287780000
0.4543760000 0.1998600000 0.0252690000
0.6240230000 0.1968690000 0.0335080000
0.7112120000 0.1966550000 0.0378420000
0.7569580000 0.1980290000 0.0361330000
0.0652470000 0.4073490000 0.1038510000
0.0772400000 0.4185490000 0.1072690000
0.1221010000 0.4314580000 0.1103210000
0.2709350000 0.3916630000 0.0624080000
0.4549870000 0.3548280000 0.0381770000
0.6151730000 0.3547060000 0.0335690000
0.6991270000 0.3571170000 0.0376280000
0.7435000000 0.3591610000 0.0406800000
0.0894780000 0.5465390000 0.1435240000
0.1116940000 0.5568240000 0.1474610000
0.1659850000 0.5737610000 0.1542970000
0.2999880000 0.5365600000 0.0960690000
0.4738160000 0.4936830000 0.0486150000
0.6145940000 0.4712220000 0.0408020000
0.6944580000 0.4721680000 0.0371400000
0.7369690000 0.4729310000 0.0351870000
0.1141360000 0.6115720000 0.1667480000
0.1357730000 0.6205440000 0.1709590000
0.1976930000 0.6391300000 0.1825260000
0.3206480000 0.6037600000 0.1219180000
0.4851680000 0.5603640000 0.0601500000
0.6209410000 0.5307920000 0.0443420000
0.6939090000 0.5252690000 0.0428770000
0.7356260000 0.5258790000 0.0431520000
0.1380920000 0.6480410000 0.1815800000
0.1643980000 0.6575930000 0.1869200000
0.2198790000 0.6737670000 0.1983640000
0.3320920000 0.6404420000 0.1385800000
0.4922490000 0.5968930000 0.0642400000
0.6252750000 0.5665590000 0.0471190000
0.6960750000 0.5557860000 0.0429080000
0.7355040000 0.5552670000 0.0421450000
0.0122990000 0.0058290000 0.0333860000
0.0248110000 0.0088500000 0.0240170000
0.0751650000 0.0116270000 0.0176390000
0.2443540000 0.0277710000 0.0161740000
0.4512630000 0.0304570000 0.0266720000
0.6217040000 0.0236210000 0.0333250000
0.7109070000 0.0176090000 0.0339970000
0.7552190000 0.0164490000 0.0387270000
0.0166930000 0.0269470000 0.0276180000
0.0405880000 0.0416870000 0.0395510000
0.0966190000 0.0397950000 0.0299990000
0.2581480000 0.0464780000 0.0202030000
0.4713440000 0.0460210000 0.0319820000
0.6411440000 0.0315250000 0.0362850000
0.7315370000 0.0297240000 0.0402220000
0.7753600000 0.0264280000 0.0449520000
0.0294490000 0.0912780000 0.0412600000
0.0519710000 0.1080320000 0.0554810000
0.1000980000 0.1087950000 0.0487670000
0.2561340000 0.1016240000 0.0260310000
0.4700620000 0.0916440000 0.0340580000
0.6444700000 0.0737300000 0.0381160000
0.7326660000 0.0715030000 0.0444340000
0.7786560000 0.0686040000 0.0477910000
0.0613710000 0.2247920000 0.0814210000
0.0785830000 0.2414250000 0.0941770000
0.1207280000 0.2539980000 0.0976560000
0.2592160000 0.2208860000 0.0522770000
0.4649960000 0.2147520000 0.0388490000
0.6336670000 0.2120970000 0.0421140000
0.7205810000 0.2128600000 0.0440980000
0.7660220000 0.2148440000 0.0429380000
0.0653380000 0.3992000000 0.1188050000
0.0786740000 0.4166260000 0.1299740000
0.1296390000 0.4428710000 0.1429440000
0.2848820000 0.4130860000 0.0973820000
0.4671630000 0.3739930000 0.0565490000
0.6260070000 0.3729250000 0.0488590000
0.7087100000 0.3737490000 0.0482180000
0.7526550000 0.3754580000 0.0480650000
0.0871280000 0.5389710000 0.1586910000
0.1142580000 0.5576170000 0.1729740000
0.1750790000 0.5797730000 0.1872560000
0.3174740000 0.5593260000 0.1452330000
0.4873350000 0.5148320000 0.0742800000
0.6259160000 0.4902340000 0.0544430000
0.7049560000 0.4904480000 0.0494690000
0.7470700000 0.4910580000 0.0489500000
0.1084290000 0.6035160000 0.1806640000
0.1349180000 0.6230470000 0.1966250000
0.2020870000 0.6424560000 0.2123410000
0.3380130000 0.6256100000 0.1741940000
0.4994200000 0.5820010000 0.0950620000
0.6328740000 0.5508120000 0.0656430000
0.7049260000 0.5441890000 0.0571590000
0.7460940000 0.5444340000 0.0541690000
0.1296080000 0.6414490000 0.1957700000
0.1648860000 0.6590580000 0.2112430000
0.2282710000 0.6779170000 0.2288820000
0.3502500000 0.6612850000 0.1911930000
0.5067440000 0.6186520000 0.1071170000
0.6375430000 0.5869140000 0.0653380000
0.7072450000 0.5749210000 0.0567020000
0.7461850000 0.5739140000 0.0536500000
0.0145570000 0.0111080000 0.1193540000
0.0197450000 0.0109860000 0.1077270000
0.0486450000 0.0119930000 0.0760500000
0.2134400000 0.0269470000 0.0491030000
0.4165040000 0.0371400000 0.0490720000
0.5817260000 0.0196230000 0.0534060000
0.6685490000 0.0196840000 0.0534670000
0.7185360000 0.0188600000 0.0563960000
0.0138850000 0.0278630000 0.1107480000
0.0317080000 0.0402530000 0.1232910000
0.0722960000 0.0446470000 0.0986940000
0.2302550000 0.0527340000 0.0673520000
0.4368290000 0.0519100000 0.0584720000
0.6049190000 0.0379940000 0.0607910000
0.6925050000 0.0295720000 0.0619810000
0.7397460000 0.0306400000 0.0647580000
0.0322270000 0.0801390000 0.0882260000
0.0556640000 0.0973510000 0.1016540000
0.1231380000 0.1351620000 0.1315920000
0.2829280000 0.1418760000 0.1169130000
0.4962460000 0.1250000000 0.0961000000
0.6647030000 0.1050720000 0.0881960000
0.7517400000 0.1017150000 0.0875850000
0.7968440000 0.1071170000 0.0874330000
0.0610050000 0.2090150000 0.1187440000
0.0834350000 0.2251890000 0.1317440000
0.1398620000 0.2626340000 0.1609190000
0.2932430000 0.2710570000 0.1474300000
0.4996030000 0.2621150000 0.1169740000
0.6628110000 0.2574770000 0.1008910000
0.7465520000 0.2575990000 0.0935670000
0.7905270000 0.2586060000 0.0915530000
0.0635990000 0.3805850000 0.1557310000
0.0812680000 0.3990780000 0.1681820000
0.1473690000 0.4403990000 0.2034910000
0.3244320000 0.4685360000 0.2110600000
0.5019840000 0.4270630000 0.1447140000
0.6568910000 0.4235530000 0.1194460000
0.7372740000 0.4233700000 0.1079410000
0.7797240000 0.4238590000 0.1032410000
0.0763850000 0.5174260000 0.1927190000
0.1033940000 0.5383910000 0.2086790000
0.1869510000 0.5806580000 0.2492980000
0.3597720000 0.6109310000 0.2687680000
0.5234380000 0.5692440000 0.1886600000
0.6575010000 0.5419010000 0.1441350000
0.7343440000 0.5408330000 0.1303710000
0.7753300000 0.5406800000 0.1233830000
0.0989990000 0.5850520000 0.2155460000
0.1241760000 0.6038210000 0.2307430000
0.2153020000 0.6437680000 0.2730410000
0.3797610000 0.6751400000 0.2962650000
0.5352780000 0.6344910000 0.2153930000
0.6646730000 0.6027220000 0.1644290000
0.7347110000 0.5943910000 0.1450810000
0.7748410000 0.5939640000 0.1384280000
0.1109310000 0.6228940000 0.2296140000
0.1432500000 0.6417850000 0.2452390000
0.2356260000 0.6792600000 0.2884220000
0.3916320000 0.7099000000 0.3116460000
0.5422970000 0.6696170000 0.2315060000
0.6695560000 0.6382750000 0.1781310000
0.7370910000 0.6247560000 0.1548770000
0.7750850000 0.6230470000 0.1473390000
0.0210570000 0.0118100000 0.2717900000
0.0267940000 0.0114140000 0.2568360000
0.0447080000 0.0109560000 0.2285160000
0.1610410000 0.0205080000 0.1536870000
0.3413700000 0.0372310000 0.1328740000
0.5054930000 0.0359500000 0.1246950000
0.5928040000 0.0221250000 0.1197810000
0.6382450000 0.0245360000 0.1171570000
0.0222470000 0.0281070000 0.2652590000
0.0305790000 0.0386350000 0.2774050000
0.0526430000 0.0445560000 0.2572630000
0.1817630000 0.0557560000 0.1733700000
0.3642880000 0.0637820000 0.1499630000
0.5274660000 0.0490110000 0.1381840000
0.6148380000 0.0402830000 0.1329960000
0.6604000000 0.0341490000 0.1301880000
0.0256040000 0.0809940000 0.2368770000
0.0365910000 0.0953060000 0.2497560000
0.0733950000 0.1282040000 0.2843320000
0.2357790000 0.1540830000 0.2307740000
0.4332580000 0.1481930000 0.1987920000
0.5970460000 0.1332700000 0.1825870000
0.6833800000 0.1243590000 0.1752620000
0.7296140000 0.1224370000 0.1719060000
0.0598450000 0.1880490000 0.1990970000
0.0812680000 0.2030640000 0.2128300000
0.1414790000 0.2398680000 0.2463380000
0.3521120000 0.3561400000 0.3521120000
0.5647280000 0.3538510000 0.3161620000
0.7245790000 0.3513180000 0.2917480000
0.8046570000 0.3512570000 0.2790530000
0.8463750000 0.3518680000 0.2726440000
0.0595700000 0.3458560000 0.2305910000
0.0759890000 0.3654480000 0.2464900000
0.1441040000 0.4101260000 0.2848210000
0.3814090000 0.5329590000 0.4020390000
0.5661930000 0.5242610000 0.3629150000
0.7171630000 0.5186160000 0.3301700000
0.7949830000 0.5169370000 0.3150940000
0.8357240000 0.5164180000 0.3075870000
0.0634770000 0.4844970000 0.2691960000
0.0859070000 0.5035400000 0.2846070000
0.1711730000 0.5471800000 0.3251650000
0.4094240000 0.6615300000 0.4430850000
0.5860600000 0.6624760000 0.4178770000
0.7155760000 0.6343990000 0.3643490000
0.7902530000 0.6322330000 0.3482670000
0.8299260000 0.6314090000 0.3402100000
0.0772400000 0.5531010000 0.2915340000
0.0982360000 0.5710450000 0.3065800000
0.2003170000 0.6138000000 0.3494870000
0.4257200000 0.7202450000 0.4628600000
0.5979610000 0.7243350000 0.4445800000
0.7218630000 0.6943050000 0.3876950000
0.7897340000 0.6842650000 0.3645940000
0.8284910000 0.6833800000 0.3563540000
0.0816960000 0.5862730000 0.3008120000
0.1148380000 0.6063840000 0.3179630000
0.2154850000 0.6484990000 0.3619080000
0.4356380000 0.7521670000 0.4739990000
0.6050720000 0.7575070000 0.4591370000
0.7261050000 0.7284550000 0.4018860000
0.7915340000 0.7137450000 0.3749690000
0.8280940000 0.7114260000 0.3655090000
0.0030210000 0.0095520000 0.4555970000
0.0090940000 0.0115660000 0.4433900000
0.0192870000 0.0140990000 0.4154050000
0.1213070000 0.0159000000 0.3058470000
0.2864990000 0.0331730000 0.2233890000
0.4353330000 0.0369260000 0.2073970000
0.5216060000 0.0343020000 0.2027890000
0.5673220000 0.0286560000 0.1996460000
0.0055540000 0.0264890000 0.4445500000
0.0070500000 0.0332340000 0.4566040000
0.0196840000 0.0423890000 0.4478450000
0.1342770000 0.0480350000 0.3364560000
0.3086240000 0.0632020000 0.2447510000
0.4617920000 0.0590210000 0.2259830000
0.5462340000 0.0476680000 0.2182620000
0.5928340000 0.0416560000 0.2151180000
0.0078120000 0.0764770000 0.4117130000
0.0110470000 0.0869750000 0.4235230000
0.0180360000 0.1159060000 0.4546510000
0.1759340000 0.1474300000 0.4191590000
0.3764040000 0.1558530000 0.3103330000
0.5351260000 0.1485290000 0.2857670000
0.6194460000 0.1426390000 0.2753600000
0.6645510000 0.1372680000 0.2698970000
0.0269170000 0.1826170000 0.3527530000
0.0393070000 0.1972350000 0.3698120000
0.0629880000 0.2260440000 0.4037170000
0.2937930000 0.3484190000 0.5317990000
0.5089420000 0.3700260000 0.4481200000
0.6683040000 0.3699950000 0.4222720000
0.7499080000 0.3703920000 0.4103700000
0.7928770000 0.3711240000 0.4042660000
0.0578610000 0.3147280000 0.3232730000
0.0744930000 0.3337400000 0.3406980000
0.1472470000 0.3799740000 0.3822630000
0.3834230000 0.5074160000 0.4969480000
0.6246640000 0.6177670000 0.5922240000
0.7720950000 0.6101070000 0.5601200000
0.8474430000 0.6075440000 0.5445560000
0.8866880000 0.6065670000 0.5365600000
0.0478520000 0.4457090000 0.3557740000
0.0722960000 0.4675600000 0.3746950000
0.1622920000 0.5170900000 0.4185790000
0.4080200000 0.6373600000 0.5316770000
0.6449890000 0.7456670000 0.6360470000
0.7686460000 0.7237240000 0.5906070000
0.8409730000 0.7207640000 0.5742190000
0.8792420000 0.7194820000 0.5659480000
0.0618590000 0.5157470000 0.3780520000
0.0839840000 0.5331120000 0.3932800000
0.1825560000 0.5820310000 0.4381100000
0.4229430000 0.6962890000 0.5494380000
0.6555480000 0.8015440000 0.6536560000
0.7746890000 0.7824400000 0.6121830000
0.8396300000 0.7712400000 0.5888370000
0.8769840000 0.7699890000 0.5804440000
0.0663150000 0.5522770000 0.3890380000
0.0991520000 0.5720210000 0.4064330000
0.1967770000 0.6186830000 0.4505920000
0.4320070000 0.7281190000 0.5592350000
0.6616820000 0.8311460000 0.6626590000
0.7789610000 0.8150020000 0.6249390000
0.8411870000 0.7998660000 0.5982970000
0.8763120000 0.7970280000 0.5884700000
0.0000000000 0.0124210000 0.5952760000
0.0047000000 0.0138240000 0.5921330000
0.0141600000 0.0144650000 0.5577390000
0.0554500000 0.0121460000 0.4578250000
0.2560730000 0.0300900000 0.3312380000
0.3873600000 0.0341800000 0.2785640000
0.4723210000 0.0347600000 0.2709960000
0.5153200000 0.0310670000 0.2647400000
0.0000000000 0.0234680000 0.5832820000
0.0047000000 0.0281370000 0.5977780000
0.0140990000 0.0360110000 0.5921940000
0.0574650000 0.0415040000 0.4897460000
0.2762450000 0.0593570000 0.3598330000
0.4131160000 0.0593870000 0.3022770000
0.4971620000 0.0558470000 0.2917480000
0.5419010000 0.0486760000 0.2855830000
0.0000310000 0.0637820000 0.5500490000
0.0048830000 0.0776370000 0.5645750000
0.0141910000 0.1050720000 0.5925900000
0.0841980000 0.1440730000 0.5700380000
0.3404850000 0.1536250000 0.4382630000
0.4879760000 0.1529240000 0.3742680000
0.5717470000 0.1489870000 0.3601070000
0.6169740000 0.1464230000 0.3536380000
0.0028690000 0.1767270000 0.4879460000
0.0106510000 0.1889340000 0.5024720000
0.0263060000 0.2199100000 0.5366820000
0.2337340000 0.3408810000 0.6618040000
0.4714360000 0.3685910000 0.5819700000
0.6226810000 0.3755490000 0.5162050000
0.7041020000 0.3773190000 0.5023800000
0.7468570000 0.3782960000 0.4957280000
0.0332640000 0.3100280000 0.4296570000
0.0488280000 0.3276670000 0.4468080000
0.0994260000 0.3707580000 0.4879460000
0.3551330000 0.5015260000 0.6064760000
0.6121220000 0.6313780000 0.7237850000
0.7593990000 0.6400760000 0.6734620000
0.8353880000 0.6395260000 0.6612850000
0.8752140000 0.6393430000 0.6549990000
0.0582280000 0.4216610000 0.4294430000
0.0798030000 0.4418640000 0.4475400000
0.1600340000 0.4906010000 0.4909360000
0.4084780000 0.6161500000 0.6025390000
0.6570430000 0.7425230000 0.7156070000
0.8078610000 0.7887270000 0.7479860000
0.8779600000 0.7851260000 0.7328490000
0.9151000000 0.7836000000 0.7252200000
0.0541080000 0.4854130000 0.4460750000
0.0851750000 0.5090640000 0.4668880000
0.1787720000 0.5584110000 0.5105900000
0.4204100000 0.6765750000 0.6172790000
0.6669010000 0.7980650000 0.7296140000
0.8143920000 0.8459170000 0.7677000000
0.8762210000 0.8346560000 0.7451780000
0.9125670000 0.8331300000 0.7372740000
0.0561520000 0.5231020000 0.4573360000
0.0801390000 0.5440370000 0.4758300000
0.1840820000 0.5927120000 0.5192260000
0.4285280000 0.7092290000 0.6257630000
0.6727600000 0.8277890000 0.7375790000
0.8192440000 0.8770140000 0.7789000000
0.8778380000 0.8632810000 0.7539670000
0.9117130000 0.8595890000 0.7441410000
0.0000000000 0.0017700000 0.6849370000
0.0047000000 0.0039060000 0.6770630000
0.0140990000 0.0083620000 0.6489870000
0.0422360000 0.0173340000 0.5614620000
0.2261050000 0.0237430000 0.4188840000
0.3590700000 0.0329900000 0.3390500000
0.4384160000 0.0355530000 0.3214720000
0.4825130000 0.0314640000 0.3145140000
0.0000000000 0.0104060000 0.6731570000
0.0047000000 0.0165710000 0.6872250000
0.0140990000 0.0256650000 0.6778560000
0.0455930000 0.0374760000 0.5875850000
0.2444460000 0.0497440000 0.4508670000
0.3825680000 0.0602110000 0.3645020000
0.4638670000 0.0565490000 0.3457640000
0.5076290000 0.0517580000 0.3373410000
0.0000000000 0.0584410000 0.6396480000
0.0047000000 0.0717770000 0.6535030000
0.0140990000 0.0988160000 0.6805730000
0.0507810000 0.1412050000 0.6651310000
0.3093260000 0.1458740000 0.5325010000
0.4566650000 0.1549380000 0.4418030000
0.5388790000 0.1502690000 0.4191890000
0.5841060000 0.1478580000 0.4109500000
0.0004580000 0.1725160000 0.5762940000
0.0050960000 0.1852110000 0.5909120000
0.0165410000 0.2152710000 0.6228940000
0.1889950000 0.3363650000 0.7407530000
0.4446410000 0.3656010000 0.6741940000
0.5920100000 0.3775630000 0.5841670000
0.6738280000 0.3791810000 0.5624690000
0.7171330000 0.3805850000 0.5546570000
0.0137630000 0.3052060000 0.5107420000
0.0214540000 0.3230590000 0.5278320000
0.0602110000 0.3681950000 0.5689090000
0.3259580000 0.4987490000 0.6871950000
0.5894780000 0.6285710000 0.8003230000
0.7330320000 0.6429440000 0.7351990000
0.8082580000 0.6442870000 0.7162170000
0.8478700000 0.6447450000 0.7096860000
0.0357060000 0.4064030000 0.4768370000
0.0627140000 0.4303890000 0.4983830000
0.1561890000 0.4837650000 0.5458370000
0.4051210000 0.6077270000 0.6542970000
0.6541140000 0.7344670000 0.7638240000
0.8241270000 0.8184810000 0.8320010000
0.8946230000 0.8191220000 0.8182370000
0.9318540000 0.8183900000 0.8124390000
0.0537410000 0.4676510000 0.4909360000
0.0785520000 0.4894710000 0.5102840000
0.1820070000 0.5412290000 0.5556640000
0.4237060000 0.6621400000 0.6616210000
0.6681210000 0.7866520000 0.7699580000
0.8356630000 0.8713380000 0.8438110000
0.9002990000 0.8740540000 0.8374630000
0.9359740000 0.8724370000 0.8301390000
0.0589600000 0.5071410000 0.5035400000
0.0908810000 0.5274660000 0.5215150000
0.1884460000 0.5776980000 0.5655210000
0.4292600000 0.6951900000 0.6691890000
0.6734920000 0.8172610000 0.7766110000
0.8397520000 0.8998410000 0.8508910000
0.9019170000 0.9026180000 0.8455200000
0.9349670000 0.8986210000 0.8360290000
0.0000000000 0.0024110000 0.7378230000
0.0047000000 0.0037840000 0.7286680000
0.0140990000 0.0030210000 0.6988530000
0.0414120000 0.0133360000 0.6161500000
0.1940610000 0.0206300000 0.4789730000
0.3455510000 0.0310360000 0.3902890000
0.4160770000 0.0360720000 0.3569640000
0.4599000000 0.0313420000 0.3485110000
0.0000000000 0.0115660000 0.7263490000
0.0047000000 0.0202640000 0.7396850000
0.0140990000 0.0237730000 0.7301640000
0.0423890000 0.0296940000 0.6448970000
0.2115780000 0.0438540000 0.5108340000
0.3690800000 0.0589290000 0.4178470000
0.4413150000 0.0568240000 0.3827820000
0.4852290000 0.0521850000 0.3729550000
0.0000000000 0.0540770000 0.6944270000
0.0047000000 0.0667720000 0.7077330000
0.0140990000 0.0924990000 0.7338870000
0.0471190000 0.1370240000 0.7232060000
0.2832950000 0.1405940000 0.5919490000
0.4429630000 0.1542660000 0.4979550000
0.5165710000 0.1524960000 0.4590450000
0.5621950000 0.1493840000 0.4493710000
0.0002140000 0.1695860000 0.6322330000
0.0049130000 0.1826170000 0.6461490000
0.0155640000 0.2118530000 0.6755980000
0.1641240000 0.3341670000 0.7887880000
0.4274290000 0.3644710000 0.7298580000
0.5789790000 0.3772890000 0.6392520000
0.6526180000 0.3802490000 0.6018370000
0.6970210000 0.3813780000 0.5928960000
0.0097960000 0.3047180000 0.5653690000
0.0199280000 0.3224490000 0.5818790000
0.0435180000 0.3646550000 0.6191410000
0.3072510000 0.4970400000 0.7365720000
0.5763850000 0.6270140000 0.8461910000
0.7208560000 0.6421810000 0.7862240000
0.7905880000 0.6459050000 0.7515560000
0.8308110000 0.6466980000 0.7438050000
0.0313110000 0.4104310000 0.5289310000
0.0455630000 0.4320370000 0.5481570000
0.1311950000 0.4813540000 0.5916440000
0.3910520000 0.6073910000 0.7000730000
0.6416320000 0.7336120000 0.8069460000
0.8143010000 0.8198550000 0.8784180000
0.8823850000 0.8240660000 0.8507390000
0.9191590000 0.8238530000 0.8447270000
0.0616460000 0.4650270000 0.5260620000
0.0787050000 0.4834900000 0.5424800000
0.1753540000 0.5349120000 0.5873410000
0.4229130000 0.6557310000 0.6916200000
0.6692810000 0.7800290000 0.7973020000
0.8388060000 0.8684390000 0.8712160000
0.9145510000 0.8967900000 0.8904720000
0.9498290000 0.8954770000 0.8838500000
0.0553590000 0.4944760000 0.5299680000
0.0841670000 0.5181880000 0.5507200000
0.1954960000 0.5687560000 0.5945740000
0.4321900000 0.6862180000 0.6964110000
0.6752320000 0.8095090000 0.8018190000
0.8433230000 0.8971560000 0.8761600000
0.9172060000 0.9252930000 0.8982850000
0.9500430000 0.9226070000 0.8904110000
