LUTs/SPK Cube Block1 S64/TheBrim_SPK_Type-I_Block1_S64.cube
TITLE "TheBrim® SPK Block 1"
# © Copyright 2021 - TheBrim® d.o.o. Croatia
LUT_3D_SIZE 8
DOMAIN_MIN 0.000000 0.000000 0.000000
DOMAIN_MAX 1.000000 1.000000 1.000000
0.006195 0.007263 0.008331
0.009949 0.011170 0.012818
0.024598 0.027222 0.030060
0.065034 0.070314 0.074281
0.124269 0.130251 0.137697
0.183780 0.189548 0.201144
0.217288 0.223331 0.237125
0.255009 0.259068 0.276310
0.010529 0.011780 0.013519
0.016480 0.018372 0.020508
0.036622 0.040192 0.043702
0.083619 0.089509 0.094026
0.155795 0.161349 0.171145
0.250156 0.254490 0.271275
0.307866 0.311009 0.328679
0.348241 0.352422 0.366155
0.027863 0.030762 0.033936
0.042573 0.046601 0.050294
0.069764 0.075288 0.079255
0.123079 0.129091 0.136446
0.203983 0.209964 0.222843
0.310857 0.314061 0.331456
0.407355 0.407233 0.418708
0.453407 0.450172 0.458717
0.081361 0.087251 0.091615
0.101991 0.108034 0.113863
0.138827 0.144625 0.153140
0.199527 0.205509 0.218082
0.290471 0.293156 0.312566
0.398047 0.398779 0.410498
0.514366 0.509941 0.510033
0.563195 0.561578 0.555291
0.162448 0.167971 0.178225
0.201572 0.207553 0.220279
0.251286 0.255558 0.272465
0.318456 0.321874 0.338537
0.406653 0.406592 0.418097
0.509422 0.505089 0.505882
0.603967 0.604242 0.591913
0.668849 0.670985 0.646540
0.257694 0.261631 0.279118
0.333623 0.337438 0.352605
0.411139 0.410681 0.422065
0.487037 0.483131 0.487037
0.553368 0.551110 0.546105
0.630121 0.630854 0.614069
0.704097 0.709590 0.675013
0.761837 0.764279 0.721675
0.301457 0.304417 0.322728
0.401526 0.401953 0.413581
0.489448 0.485512 0.489082
0.569574 0.568383 0.561242
0.655848 0.657038 0.635828
0.729854 0.735714 0.695827
0.796780 0.799313 0.750820
0.845640 0.851469 0.796841
0.332555 0.336370 0.351629
0.435920 0.433204 0.443915
0.527031 0.523095 0.521508
0.608026 0.608362 0.595361
0.695796 0.700526 0.668330
0.780270 0.781003 0.736629
0.836576 0.842191 0.787472
0.874662 0.881468 0.825162
0.009888 0.011109 0.012757
0.018036 0.020081 0.022309
0.046235 0.050568 0.054383
0.106386 0.112490 0.118624
0.184268 0.190066 0.201694
0.237736 0.242710 0.258366
0.268040 0.271427 0.289891
0.293187 0.295933 0.315068
0.016510 0.018402 0.020508
0.025483 0.028199 0.031128
0.054688 0.059480 0.063386
0.109590 0.115694 0.122072
0.195590 0.201511 0.213870
0.298253 0.301122 0.319768
0.367041 0.370611 0.383185
0.403113 0.403388 0.414954
0.047822 0.052277 0.056153
0.060456 0.065522 0.069459
0.094606 0.100618 0.105898
0.155337 0.160891 0.170657
0.246250 0.250797 0.267247
0.356847 0.361273 0.374151
0.469703 0.466163 0.472450
0.512322 0.507927 0.508324
0.115053 0.121157 0.127901
0.128450 0.134371 0.142153
0.173342 0.178988 0.189944
0.241886 0.246647 0.262699
0.336553 0.340459 0.355322
0.446357 0.443275 0.452766
0.555718 0.553613 0.548302
0.611231 0.611597 0.598047
0.210636 0.216739 0.230014
0.245731 0.250278 0.266667
0.294682 0.297490 0.316442
0.365148 0.368872 0.381506
0.454658 0.451423 0.459785
0.550530 0.548089 0.543450
0.642969 0.643946 0.624964
0.705135 0.710750 0.675868
0.337133 0.341039 0.355840
0.404669 0.404822 0.416358
0.466407 0.462928 0.469673
0.526452 0.522454 0.520958
0.588922 0.588891 0.579156
0.663050 0.664637 0.641840
0.732357 0.737972 0.697871
0.791501 0.793454 0.746304
0.401282 0.401740 0.413367
0.499550 0.495430 0.497597
0.568627 0.567376 0.560357
0.638575 0.639460 0.621210
0.703914 0.709407 0.674891
0.773739 0.774929 0.731289
0.824308 0.829709 0.774807
0.860105 0.866300 0.811551
0.432685 0.430274 0.441047
0.527703 0.523827 0.522148
0.603204 0.603418 0.591272
0.677485 0.680446 0.653498
0.749325 0.753140 0.711574
0.815518 0.820096 0.766964
0.861906 0.868162 0.813230
0.894011 0.900664 0.843534
0.024048 0.026612 0.029419
0.046784 0.051148 0.054994
0.095735 0.101747 0.107149
0.174929 0.180606 0.191623
0.277562 0.280461 0.299809
0.323949 0.327520 0.343633
0.344305 0.348425 0.362524
0.361608 0.365667 0.378363
0.039277 0.043061 0.046632
0.051972 0.056641 0.060517
0.094392 0.100404 0.105684
0.164584 0.170138 0.180514
0.266484 0.269963 0.288273
0.371771 0.374914 0.387335
0.443153 0.440131 0.450080
0.473793 0.470161 0.475868
0.081147 0.087037 0.091402
0.092592 0.098573 0.103731
0.139071 0.144839 0.153384
0.208804 0.214847 0.228031
0.309361 0.312535 0.330083
0.425666 0.423896 0.434852
0.535912 0.532555 0.529808
0.568841 0.567590 0.560571
0.158541 0.164065 0.174075
0.177646 0.183352 0.194583
0.226566 0.232120 0.246769
0.305425 0.308507 0.326421
0.403418 0.403662 0.415229
0.512016 0.507622 0.508080
0.611078 0.611475 0.597925
0.663416 0.665003 0.642115
0.268376 0.271733 0.290227
0.299382 0.302312 0.320806
0.353216 0.357549 0.370794
0.430640 0.428412 0.439246
0.519158 0.514702 0.514153
0.603540 0.603784 0.591547
0.688746 0.692775 0.662593
0.745785 0.749966 0.708705
0.409491 0.409186 0.420600
0.462409 0.459022 0.466316
0.518761 0.514275 0.513787
0.573022 0.572045 0.564446
0.640345 0.641291 0.622736
0.703761 0.709224 0.674739
0.769986 0.771603 0.728267
0.817563 0.822354 0.768734
0.492439 0.488441 0.491585
0.572961 0.571954 0.564385
0.633021 0.633814 0.616541
0.693263 0.697719 0.666255
0.752712 0.756161 0.714321
0.806638 0.810239 0.759335
0.842435 0.848173 0.793515
0.874693 0.881498 0.825193
0.532891 0.529320 0.527001
0.615351 0.615808 0.601556
0.682185 0.685603 0.657313
0.740414 0.745144 0.704372
0.798062 0.800717 0.751919
0.843839 0.849638 0.795010
0.880919 0.887999 0.831022
0.907744 0.913054 0.856870
0.048859 0.053346 0.057221
0.093019 0.099001 0.104189
0.169223 0.174838 0.185519
0.282811 0.285435 0.305241
0.403815 0.404028 0.415595
0.439857 0.436896 0.447303
0.447364 0.444282 0.453651
0.457313 0.454017 0.462013
0.081483 0.087373 0.091737
0.101961 0.108003 0.113832
0.159640 0.165164 0.175235
0.249027 0.253391 0.270085
0.350500 0.354772 0.368261
0.465797 0.462318 0.469154
0.535119 0.531701 0.529076
0.555840 0.553765 0.548425
0.131807 0.137697 0.145693
0.150423 0.156039 0.165438
0.205020 0.211032 0.223972
0.290135 0.292790 0.312230
0.396399 0.397284 0.409064
0.513634 0.509239 0.509453
0.610925 0.611322 0.597803
0.644404 0.645411 0.626154
0.222080 0.227878 0.242069
0.244572 0.249210 0.265476
0.303655 0.306676 0.324773
0.385748 0.387610 0.399664
0.486091 0.482216 0.486244
0.581079 0.580621 0.571984
0.677302 0.680262 0.653376
0.719173 0.726131 0.687221
0.338262 0.342199 0.356909
0.369970 0.373266 0.385748
0.430945 0.428687 0.439521
0.507286 0.503014 0.504112
0.583703 0.583429 0.574456
0.668055 0.670100 0.645869
0.742275 0.746822 0.705867
0.791684 0.793637 0.746426
0.477302 0.473610 0.478859
0.524407 0.520317 0.519066
0.572625 0.571618 0.564080
0.631525 0.632319 0.615259
0.691402 0.695705 0.664759
0.751369 0.754971 0.713222
0.806943 0.810575 0.759579
0.845365 0.851194 0.796567
0.566278 0.564874 0.558160
0.640192 0.641138 0.622614
0.691524 0.695827 0.664851
0.744442 0.748745 0.707607
0.796780 0.799313 0.750820
0.834348 0.839933 0.785153
0.864439 0.870787 0.815579
0.890990 0.897917 0.840574
0.616754 0.617243 0.602747
0.689662 0.693782 0.663355
0.741573 0.746212 0.705318
0.791287 0.793210 0.746120
0.833768 0.839322 0.784573
0.870542 0.877165 0.821317
0.899779 0.905852 0.849119
0.920226 0.922911 0.867735
0.077455 0.083345 0.087404
0.129366 0.135286 0.143099
0.217716 0.223728 0.237522
0.342901 0.346960 0.361212
0.468360 0.464851 0.471321
0.554986 0.552819 0.547601
0.560571 0.558770 0.552819
0.566491 0.565087 0.558343
0.132998 0.138857 0.146975
0.169894 0.175509 0.186221
0.240757 0.245579 0.261509
0.339269 0.343236 0.357824
0.454597 0.451331 0.459724
0.563806 0.562219 0.555840
0.632258 0.633021 0.615869
0.651789 0.652918 0.632410
0.199527 0.205509 0.218082
0.232273 0.237552 0.252689
0.296666 0.299535 0.318303
0.388647 0.390265 0.402228
0.498085 0.493965 0.496345
0.599573 0.599756 0.588190
0.692897 0.697353 0.665980
0.719997 0.726894 0.687861
0.298802 0.301732 0.320287
0.330724 0.334447 0.349889
0.396155 0.397070 0.408850
0.480690 0.476905 0.481697
0.569238 0.568017 0.560937
0.661738 0.663172 0.640772
0.743801 0.748165 0.707088
0.784817 0.786038 0.740536
0.417212 0.416205 0.427405
0.457801 0.454475 0.462409
0.515526 0.511070 0.511040
0.581689 0.581262 0.572564
0.658534 0.659815 0.638117
0.728206 0.734249 0.694514
0.796689 0.799191 0.750759
0.832944 0.838499 0.783719
0.539483 0.536339 0.533135
0.584253 0.584009 0.574945
0.637018 0.637873 0.619898
0.689967 0.694118 0.663600
0.744564 0.748867 0.707729
0.798398 0.801083 0.752224
0.842496 0.848264 0.793606
0.873777 0.880552 0.824338
0.636500 0.637385 0.619471
0.698482 0.703456 0.670466
0.747768 0.751736 0.710323
0.793973 0.796201 0.748409
0.830350 0.835843 0.781033
0.860166 0.866361 0.811612
0.887449 0.894713 0.837125
0.907683 0.912963 0.856809
0.693202 0.697658 0.666224
0.751614 0.755154 0.713405
0.793698 0.795895 0.748196
0.830442 0.835935 0.781125
0.865080 0.871489 0.816220
0.894713 0.901274 0.844205
0.916960 0.920378 0.864927
0.933471 0.933135 0.878996
0.100526 0.106569 0.112306
0.156161 0.161715 0.171542
0.240604 0.245457 0.261357
0.360815 0.364935 0.377691
0.507774 0.503471 0.504509
0.635859 0.636713 0.618921
0.670832 0.673152 0.648127
0.672633 0.675105 0.649561
0.171298 0.176944 0.187747
0.238346 0.243290 0.258976
0.326940 0.330571 0.346410
0.442451 0.439429 0.449470
0.552758 0.550469 0.545525
0.652430 0.653590 0.632959
0.723201 0.729763 0.690455
0.739651 0.744472 0.703761
0.272190 0.275364 0.294224
0.335485 0.339361 0.354314
0.407507 0.407385 0.418860
0.499489 0.495338 0.497536
0.593164 0.593225 0.582788
0.688441 0.692439 0.662379
0.770626 0.772152 0.728786
0.793668 0.795865 0.748165
0.378180 0.380713 0.392981
0.431342 0.429053 0.439857
0.498695 0.494575 0.496864
0.572351 0.571313 0.563836
0.657618 0.658869 0.637354
0.733944 0.739376 0.699123
0.806088 0.809628 0.758846
0.835050 0.840635 0.785885
0.492195 0.488197 0.491371
0.540581 0.537499 0.534142
0.595026 0.595117 0.584344
0.662287 0.663813 0.641230
0.724422 0.730861 0.691463
0.789761 0.791531 0.744808
0.841093 0.846830 0.792172
0.870085 0.876677 0.820859
0.599420 0.599603 0.588067
0.652155 0.653285 0.632715
0.695399 0.700069 0.667994
0.744656 0.748959 0.707820
0.795407 0.797787 0.749660
0.837308 0.842954 0.788235
0.874998 0.881804 0.825467
0.899718 0.905791 0.849088
0.699763 0.704829 0.671504
0.754696 0.757931 0.715908
0.796292 0.798795 0.750423
0.829099 0.834562 0.779721
0.857877 0.863981 0.809476
0.883940 0.891112 0.833829
0.906615 0.912016 0.855772
0.925231 0.926726 0.871977
0.759670 0.762356 0.719936
0.803586 0.806851 0.756680
0.833494 0.839048 0.784298
0.863279 0.869596 0.814511
0.891295 0.898192 0.840879
0.912993 0.917296 0.861570
0.931334 0.931456 0.877165
0.944396 0.941680 0.888701
0.122591 0.128573 0.135897
0.183902 0.189670 0.201266
0.267704 0.271122 0.289525
0.377600 0.380224 0.392493
0.513970 0.509545 0.509728
0.638941 0.639826 0.621515
0.725948 0.732235 0.692683
0.747585 0.751583 0.710170
0.202182 0.208164 0.220920
0.278508 0.281346 0.300786
0.366186 0.369818 0.382422
0.475654 0.471992 0.477455
0.589410 0.589380 0.579583
0.701198 0.706416 0.672694
0.788907 0.790585 0.744076
0.809018 0.812863 0.761379
0.309148 0.312322 0.329870
0.389685 0.391180 0.403143
0.473854 0.470222 0.475929
0.565484 0.564019 0.557427
0.664668 0.666407 0.643153
0.751553 0.755123 0.713375
0.823728 0.829099 0.774197
0.845670 0.851499 0.796872
0.433936 0.431403 0.442176
0.515618 0.511162 0.511101
0.578607 0.577966 0.569665
0.655421 0.656611 0.635492
0.729976 0.735836 0.695918
0.801877 0.804959 0.755215
0.852537 0.858518 0.803983
0.877470 0.884367 0.827787
0.553429 0.551171 0.546166
0.620661 0.621241 0.606073
0.679408 0.682551 0.655055
0.734096 0.739528 0.699275
0.791836 0.793820 0.746578
0.838895 0.844602 0.789883
0.878325 0.885283 0.828580
0.902647 0.908446 0.851926
0.664790 0.666529 0.643244
0.716091 0.722744 0.684718
0.761227 0.763760 0.721187
0.801785 0.804868 0.755154
0.839109 0.844785 0.790097
0.872984 0.879728 0.823606
0.902403 0.908202 0.851682
0.923217 0.925200 0.870268
0.758267 0.761105 0.718807
0.803250 0.806455 0.756405
0.831479 0.837034 0.782223
0.856931 0.863005 0.808530
0.881437 0.888518 0.831510
0.904417 0.910033 0.853666
0.924926 0.926513 0.871702
0.939910 0.938109 0.884428
0.811460 0.815579 0.763455
0.842954 0.848722 0.794095
0.867002 0.873472 0.817990
0.891234 0.898161 0.840818
0.911101 0.915862 0.859953
0.928832 0.929534 0.875059
0.942779 0.940368 0.886992
0.952667 0.948394 0.897490
0.146151 0.151827 0.160891
0.210117 0.216159 0.229435
0.295476 0.298283 0.317174
0.401129 0.401587 0.413214
0.526177 0.522179 0.520714
0.642756 0.643732 0.624781
0.737301 0.742397 0.701869
0.765957 0.768002 0.725032
0.233890 0.239078 0.254368
0.315343 0.318669 0.335637
0.404913 0.405035 0.416571
0.506981 0.502708 0.503838
0.609033 0.609369 0.596185
0.711574 0.717800 0.681056
0.798215 0.800900 0.752071
0.827512 0.832944 0.778103
0.342382 0.346441 0.360754
0.430945 0.428687 0.439521
0.515831 0.511406 0.511284
0.596368 0.596490 0.585473
0.687160 0.691066 0.661341
0.775113 0.776181 0.732418
0.835782 0.841398 0.786679
0.863645 0.869993 0.814847
0.466011 0.462562 0.469337
0.547448 0.544793 0.540581
0.616480 0.616968 0.602502
0.687465 0.691371 0.661585
0.759091 0.761837 0.719448
0.821622 0.826841 0.772213
0.867887 0.874418 0.818845
0.894041 0.900664 0.843565
0.582025 0.581628 0.572869
0.654902 0.656123 0.635065
0.709194 0.715206 0.679133
0.766140 0.768154 0.725154
0.817197 0.821927 0.768399
0.860227 0.866423 0.811673
0.896239 0.902678 0.845701
0.918029 0.921172 0.865843
0.692561 0.696956 0.665705
0.746761 0.750851 0.709499
0.790951 0.792844 0.745815
0.828000 0.833463 0.778622
0.861967 0.868223 0.813291
0.893065 0.899779 0.842588
0.919158 0.922057 0.866789
0.936858 0.935760 0.881865
0.793973 0.796201 0.748409
0.828031 0.833494 0.778653
0.853696 0.859678 0.805173
0.878294 0.885252 0.828550
0.900359 0.906371 0.849699
0.920409 0.923033 0.867887
0.937804 0.936492 0.882658
0.949828 0.946044 0.894438
0.829740 0.835233 0.780392
0.860685 0.866911 0.812100
0.884672 0.891875 0.834531
0.905058 0.910613 0.854246
0.924132 0.925902 0.871061
0.939666 0.937926 0.884245
0.951141 0.947112 0.895811
0.959808 0.954803 0.905638
