LUTs/SPK Cube Block1 S64/TheBrim_SPK_Type-Q_Block1_S64.cube
TITLE "TheBrim® SPK Block 1"
# © Copyright 2021 - TheBrim® d.o.o. Croatia
LUT_3D_SIZE 4
DOMAIN_MIN 0.000000 0.000000 0.000000
DOMAIN_MAX 1.000000 1.000000 1.000000
0.000000 0.000000 0.000000
0.387640 0.000000 0.000000
0.953368 0.000000 0.000000
1.000000 0.007019 0.000000
0.000000 0.336370 0.000000
0.229221 0.301335 0.000000
0.814755 0.325170 0.000000
1.000000 0.431220 0.000000
0.000000 0.845487 0.051270
0.133700 0.822721 0.032471
0.665827 0.782132 0.000000
1.000000 0.841825 0.040253
0.000000 1.000000 0.021851
0.147860 1.000000 0.038605
0.500786 1.000000 0.065492
1.000000 1.000000 0.105562
0.000000 0.000000 0.275364
0.337102 0.000000 0.207980
0.900786 0.000000 0.232486
1.000000 0.000000 0.292363
0.000000 0.290837 0.301061
0.271061 0.270512 0.270756
0.830320 0.307500 0.274876
1.000000 0.422766 0.349554
0.000000 0.829770 0.424811
0.149172 0.782315 0.400977
0.691585 0.752987 0.355016
1.000000 0.835966 0.408972
0.000000 1.000000 0.396521
0.168368 1.000000 0.411353
0.514244 1.000000 0.435981
1.000000 1.000000 0.466926
0.052064 0.000000 0.779202
0.428351 0.000000 0.720699
0.847135 0.000000 0.613642
1.000000 0.000000 0.641749
0.000000 0.301823 0.758419
0.385229 0.298344 0.720851
0.790738 0.221317 0.598535
1.000000 0.342046 0.659022
0.000000 0.789364 0.826291
0.210910 0.746212 0.791257
0.738552 0.731502 0.737423
1.000000 0.826261 0.785214
0.000000 1.000000 0.810666
0.190494 1.000000 0.820218
0.559380 1.000000 0.837339
1.000000 1.000000 0.841947
0.180087 0.000000 0.985077
0.542260 0.000000 0.985077
0.947173 0.000000 0.985077
1.000000 0.000000 0.985077
0.134432 0.321508 1.000000
0.538048 0.338018 1.000000
0.921691 0.281010 1.000000
1.000000 0.244572 0.987793
0.030945 0.795560 1.000000
0.426612 0.793179 1.000000
0.884581 0.787991 1.000000
1.000000 0.712093 1.000000
0.000000 1.000000 1.000000
0.207767 1.000000 1.000000
0.723964 1.000000 1.000000
1.000000 1.000000 1.000000
