LUTs/SPK Cube Block1 S64/TheBrim_SPK_Type-R_Block1_S64.cube
TITLE "TheBrim® SPK Block 1"
# © Copyright 2021 - TheBrim® d.o.o. Croatia
LUT_3D_SIZE 4
DOMAIN_MIN 0.000000 0.000000 0.000000
DOMAIN_MAX 1.000000 1.000000 1.000000
0.001068 0.004303 0.006806
0.140291 0.020478 0.029114
0.626001 0.000000 0.027619
0.664179 0.000000 0.051606
0.000000 0.254429 0.097017
0.131472 0.195041 0.059419
0.636316 0.000000 0.029328
0.664179 0.000000 0.051606
0.000000 0.517571 0.235233
0.000000 0.527428 0.218173
0.877287 0.828428 0.017517
0.975982 0.804654 0.000000
0.000000 0.654383 0.223087
0.447181 0.737362 0.203952
0.912596 0.841337 0.053651
0.985443 0.848508 0.000000
0.000000 0.019654 0.171237
0.038148 0.028046 0.203220
0.645686 0.000000 0.239994
0.665797 0.000000 0.224613
0.000000 0.207248 0.235019
0.128573 0.141085 0.198611
0.641321 0.000000 0.181186
0.667628 0.000000 0.191592
0.000000 0.521782 0.261234
0.000000 0.538201 0.270909
0.884398 0.854185 0.326635
0.974426 0.838407 0.323156
0.167636 0.687373 0.218997
0.520470 0.754391 0.199008
0.927703 0.853178 0.178470
0.979278 0.896727 0.441169
0.000000 0.062318 0.387121
0.000000 0.057740 0.398840
0.588708 0.000000 0.480079
0.640162 0.000000 0.406348
0.000000 0.071199 0.402777
0.001923 0.060121 0.404700
0.654078 0.000000 0.489082
0.641047 0.000000 0.407202
0.000000 0.577417 0.586603
0.000000 0.603052 0.604425
0.884306 0.903227 0.791165
0.954192 0.863401 0.765316
0.240116 0.769986 0.610559
0.591028 0.834867 0.643366
0.928832 0.914519 0.707698
0.963622 0.932677 0.777127
0.000000 0.057435 0.401526
0.000000 0.058839 0.397833
0.410864 0.006958 0.472572
0.663905 0.000000 0.450507
0.000000 0.099763 0.426886
0.000000 0.090486 0.433509
0.467842 0.037018 0.496681
0.718563 0.000000 0.491279
0.000000 0.615259 0.700801
0.000000 0.744686 0.807248
0.899077 0.911894 0.894469
0.954009 0.916411 0.883513
0.394202 0.826108 0.827054
0.681300 0.879423 0.853635
0.945068 0.940459 0.902220
0.957214 0.946410 0.923156
