LUTs/SPK Cube Block1 S64/TheBrim_SPK_Type-P_Block 1_S64.cube
TITLE "TheBrim® Industrial Imaging Burau"
# © Copyright 2022 - TheBrim® d.o.o. Croatia
LUT_3D_SIZE 64
0.0000000000 0.0000000000 0.0000000000
0.0000000000 0.0000000000 0.0000000000
0.0000000000 0.0000000000 0.0000000000
0.0000000000 0.0000000000 0.0000000000
0.0000000000 0.0000000000 0.0000000000
0.0000000000 0.0000000000 0.0000000000
0.0079652094 0.0000000000 0.0000000000
0.0250553140 0.0000000000 0.0000000000
0.0421149004 0.0000000000 0.0000000000
0.0576485847 0.0000000000 0.0000000000
0.0738841840 0.0000000000 0.0000000000
0.0893873503 0.0000000000 0.0000000000
0.1048599985 0.0000000000 0.0000000000
0.1196612497 0.0021667811 0.0000000000
0.1358052949 0.0046692607 0.0000000000
0.1550316625 0.0072938125 0.0000000000
0.1768215457 0.0095216297 0.0004272526
0.2055085069 0.0130922408 0.0026550698
0.2338597696 0.0163576715 0.0048218509
0.2616311894 0.0203860533 0.0080262455
0.2895246815 0.0238651102 0.0104982071
0.3197985809 0.0257267109 0.0108949416
0.3497367819 0.0266422522 0.0111696040
0.3800411994 0.0256961929 0.0110780499
0.4052185855 0.0277103838 0.0129091325
0.4238651102 0.0327458610 0.0156557565
0.4424200809 0.0368963149 0.0189517052
0.4615243763 0.0389715419 0.0219729915
0.4803845274 0.0420843824 0.0254520485
0.4979018845 0.0466010529 0.0292973220
0.5168993668 0.0509040970 0.0328679332
0.5368886854 0.0552681773 0.0363164721
0.5568474861 0.0596932937 0.0402838178
0.5771725032 0.0642099641 0.0440070192
0.6011596857 0.0722362097 0.0505989166
0.6264591440 0.0802929732 0.0571297780
0.6537422751 0.0888075074 0.0643625544
0.6825513085 0.0967116808 0.0714122225
0.7096208133 0.1040054932 0.0782787823
0.7361409934 0.1107804990 0.0849927520
0.7647058824 0.1177386130 0.0922255283
0.7948271916 0.1247882811 0.0994277867
0.8271152819 0.1333943694 0.1071488518
0.8608682383 0.1423666743 0.1149004349
0.8937361715 0.1513389792 0.1223468376
0.9267872129 0.1599755856 0.1302204929
0.9618219272 0.1696498054 0.1380941482
0.9977111467 0.1799343862 0.1460593576
1.0000000000 0.1896696422 0.1532921340
1.0000000000 0.1989166094 0.1604028382
1.0000000000 0.2070344091 0.1660791943
1.0000000000 0.2146639200 0.1716639963
1.0000000000 0.2213473716 0.1765163653
1.0000000000 0.2269321736 0.1810025177
1.0000000000 0.2327611200 0.1847867552
1.0000000000 0.2372472724 0.1886320287
1.0000000000 0.2417639429 0.1926909285
1.0000000000 0.2457923247 0.1964141299
1.0000000000 0.2474402991 0.1983367666
1.0000000000 0.2492408637 0.2003509575
1.0000000000 0.2495460441 0.2007476921
1.0000000000 0.2496986343 0.2009308003
1.0000000000 0.2541237507 0.2003509575
1.0000000000 0.2588845655 0.1999237049
0.0000000000 0.0000000000 0.0000000000
0.0000000000 0.0000000000 0.0000000000
0.0000000000 0.0000000000 0.0000000000
0.0000000000 0.0000000000 0.0000000000
0.0000000000 0.0000000000 0.0000000000
0.0000000000 0.0000000000 0.0000000000
0.0069275959 0.0000000000 0.0000000000
0.0248722057 0.0000000000 0.0000000000
0.0422064546 0.0000000000 0.0000000000
0.0583810178 0.0000000000 0.0000000000
0.0752880140 0.0000000000 0.0000000000
0.0937514305 0.0000000000 0.0000000000
0.1094377050 0.0023804074 0.0000000000
0.1244220645 0.0048523690 0.0000000000
0.1413595789 0.0074158846 0.0000000000
0.1633325704 0.0099488823 0.0000000000
0.1856107424 0.0122377356 0.0000000000
0.2148470283 0.0149233234 0.0000000000
0.2418249790 0.0187685969 0.0007324331
0.2655680171 0.0238651102 0.0051270314
0.2937666896 0.0270084688 0.0069275959
0.3241931792 0.0287174792 0.0063782712
0.3522087434 0.0304570077 0.0075989929
0.3788204776 0.0309147784 0.0089417868
0.4043640803 0.0328679332 0.0108033875
0.4234378576 0.0366216526 0.0126039521
0.4417792020 0.0399786374 0.0165712978
0.4600900282 0.0419012741 0.0218509194
0.4792858778 0.0443121996 0.0255130846
0.4975356680 0.0476691844 0.0294804303
0.5168078126 0.0515144579 0.0330205234
0.5371328298 0.0553902495 0.0364385443
0.5569085222 0.0597543297 0.0403448539
0.5769893950 0.0643625544 0.0440375372
0.6007934691 0.0723277638 0.0507209888
0.6260929274 0.0803845274 0.0572823682
0.6531624323 0.0888075074 0.0642710002
0.6819409476 0.0966811627 0.0713511864
0.7098039216 0.1041886015 0.0784008545
0.7368123903 0.1109941253 0.0852368963
0.7645227741 0.1178301671 0.0922865644
0.7942778668 0.1247272450 0.0993362325
0.8269932097 0.1334859236 0.1072404059
0.8610513466 0.1423971923 0.1149919890
0.8934920272 0.1513389792 0.1223468376
0.9263294423 0.1598840314 0.1300984207
0.9614251926 0.1695582513 0.1380636301
0.9973449302 0.1798428321 0.1460288396
1.0000000000 0.1895780880 0.1532616159
1.0000000000 0.1987945373 0.1603112840
1.0000000000 0.2070344091 0.1661097124
1.0000000000 0.2147554742 0.1716945144
1.0000000000 0.2213473716 0.1764553292
1.0000000000 0.2269321736 0.1809109636
1.0000000000 0.2327000839 0.1847867552
1.0000000000 0.2372777905 0.1886320287
1.0000000000 0.2416723888 0.1925688563
1.0000000000 0.2456702525 0.1964141299
1.0000000000 0.2474097810 0.1982452125
1.0000000000 0.2491798276 0.2002899214
1.0000000000 0.2495460441 0.2007476921
1.0000000000 0.2496986343 0.2009308003
1.0000000000 0.2587014572 0.1999237049
1.0000000000 0.2638284886 0.1995269703
0.0000000000 0.0000000000 0.0000000000
0.0000000000 0.0000000000 0.0000000000
0.0000000000 0.0000000000 0.0000000000
0.0000000000 0.0000000000 0.0000000000
0.0000000000 0.0000000000 0.0000000000
0.0000000000 0.0000000000 0.0000000000
0.0061341268 0.0000000000 0.0000000000
0.0244144350 0.0000000000 0.0000000000
0.0420843824 0.0000000000 0.0000000000
0.0589303426 0.0000000000 0.0000000000
0.0762035554 0.0000000000 0.0000000000
0.0953994049 0.0020141909 0.0000000000
0.1145342184 0.0050354772 0.0000000000
0.1292744335 0.0075989929 0.0000000000
0.1462424659 0.0101625086 0.0000000000
0.1691920348 0.0125123980 0.0000000000
0.1940337224 0.0152895399 0.0000000000
0.2234225986 0.0174868391 0.0000000000
0.2507972839 0.0208743420 0.0000000000
0.2728923476 0.0261844816 0.0007934691
0.2976729992 0.0303654536 0.0037537194
0.3282215610 0.0317387655 0.0030823224
0.3562371252 0.0333257038 0.0036316472
0.3809262226 0.0346074617 0.0053711757
0.4035706111 0.0371404593 0.0075074388
0.4228580148 0.0406195163 0.0093385214
0.4415960937 0.0434576944 0.0129701686
0.4595407034 0.0447699702 0.0192263676
0.4778515297 0.0466620890 0.0247196155
0.4962539101 0.0499580377 0.0295719844
0.5163805600 0.0525520714 0.0331120775
0.5370412757 0.0560006104 0.0366216526
0.5571221485 0.0598764019 0.0405584802
0.5769893950 0.0644846265 0.0442206455
0.6004577707 0.0723277638 0.0507209888
0.6257877470 0.0803845274 0.0572823682
0.6527046616 0.0888380255 0.0643625544
0.6814831769 0.0967116808 0.0714122225
0.7092240787 0.1041275654 0.0784618906
0.7369649805 0.1111467155 0.0853589685
0.7651636530 0.1180132753 0.0925001907
0.7940947585 0.1247272450 0.0994277867
0.8262607767 0.1333943694 0.1071488518
0.8609903105 0.1424582284 0.1150835431
0.8937361715 0.1514610513 0.1224994278
0.9259632258 0.1597924773 0.1301289387
0.9608148318 0.1693751431 0.1379720760
0.9969481956 0.1797512779 0.1459678035
1.0000000000 0.1894865339 0.1532616159
1.0000000000 0.1987945373 0.1602502480
1.0000000000 0.2069733730 0.1660791943
1.0000000000 0.2148470283 0.1717860685
1.0000000000 0.2213473716 0.1764553292
1.0000000000 0.2268101015 0.1809109636
1.0000000000 0.2326085298 0.1847562371
1.0000000000 0.2372472724 0.1886320287
1.0000000000 0.2417334249 0.1925993744
1.0000000000 0.2456092164 0.1962615396
1.0000000000 0.2473182269 0.1981536584
1.0000000000 0.2490882734 0.2002899214
1.0000000000 0.2495460441 0.2006256199
1.0000000000 0.2497901884 0.2009308003
1.0000000000 0.2588845655 0.1999847410
1.0000000000 0.2686503395 0.1990691997
0.0000000000 0.0000000000 0.0000000000
0.0000000000 0.0000000000 0.0000000000
0.0000000000 0.0000000000 0.0000000000
0.0000000000 0.0000000000 0.0000000000
0.0000000000 0.0000000000 0.0000000000
0.0000000000 0.0000000000 0.0000000000
0.0051880674 0.0000000000 0.0000000000
0.0222476539 0.0000000000 0.0000000000
0.0399786374 0.0000000000 0.0000000000
0.0573128862 0.0000000000 0.0000000000
0.0746166171 0.0032959487 0.0000000000
0.0932326238 0.0064087892 0.0000000000
0.1131914244 0.0096131838 0.0000000000
0.1320515755 0.0121461814 0.0000000000
0.1496910048 0.0147402152 0.0000000000
0.1750820172 0.0161135271 0.0000000000
0.1987945373 0.0194705119 0.0000000000
0.2237888151 0.0227054246 0.0000000000
0.2517433433 0.0259098192 0.0000000000
0.2756389715 0.0305485618 0.0000000000
0.3000839246 0.0347600519 0.0007019150
0.3300526436 0.0363469902 0.0000000000
0.3561455711 0.0386358434 0.0006103609
0.3769893950 0.0412603952 0.0035706111
0.4006103609 0.0431830320 0.0058594644
0.4214236667 0.0455024033 0.0080262455
0.4397650111 0.0484016175 0.0114442664
0.4571297780 0.0494392309 0.0168459602
0.4755321584 0.0507209888 0.0221560998
0.4943923095 0.0538033112 0.0272831312
0.5147936217 0.0558480201 0.0324101625
0.5367666133 0.0576791028 0.0368047608
0.5569390402 0.0607003891 0.0405584802
0.5768368048 0.0644846265 0.0442816815
0.6002441444 0.0724193179 0.0508735790
0.6255130846 0.0804760815 0.0573739223
0.6521553368 0.0888075074 0.0643930724
0.6806591897 0.0965896086 0.0713206683
0.7092545968 0.1041886015 0.0784924086
0.7378805219 0.1114518959 0.0856946670
0.7654383154 0.1181353475 0.0925917449
0.7938506142 0.1247272450 0.0994277867
0.8258945602 0.1333333333 0.1071488518
0.8604409857 0.1423971923 0.1150835431
0.8937361715 0.1515220874 0.1225299458
0.9261463340 0.1598535134 0.1301899748
0.9602349889 0.1692835889 0.1378194858
0.9958495460 0.1794766155 0.1457541772
1.0000000000 0.1894865339 0.1532005798
1.0000000000 0.1987945373 0.1603112840
1.0000000000 0.2070344091 0.1661097124
1.0000000000 0.2148470283 0.1717860685
1.0000000000 0.2213473716 0.1765163653
1.0000000000 0.2267490654 0.1808194095
1.0000000000 0.2326695659 0.1847867552
1.0000000000 0.2372472724 0.1886625467
1.0000000000 0.2415808347 0.1925078202
1.0000000000 0.2454871443 0.1961699855
1.0000000000 0.2472571908 0.1980621042
1.0000000000 0.2490577554 0.2001983673
1.0000000000 0.2530251011 0.2001678492
1.0000000000 0.2536659800 0.2004425116
1.0000000000 0.2635233082 0.1994659342
1.0000000000 0.2732585641 0.1985503929
0.0000000000 0.0000000000 0.0000000000
0.0000000000 0.0000000000 0.0000000000
0.0000000000 0.0000000000 0.0000000000
0.0000000000 0.0000000000 0.0000000000
0.0000000000 0.0000000000 0.0000000000
0.0000000000 0.0000000000 0.0000000000
0.0038452735 0.0000000000 0.0000000000
0.0206607156 0.0000000000 0.0000000000
0.0373540856 0.0013427939 0.0000000000
0.0546578164 0.0058289464 0.0000000000
0.0725413901 0.0096131838 0.0000000000
0.0910963607 0.0128786145 0.0000000000
0.1109025711 0.0151979858 0.0000000000
0.1306477455 0.0176699474 0.0000000000
0.1521934844 0.0199282826 0.0000000000
0.1780117494 0.0212405585 0.0000000000
0.2038605325 0.0239566644 0.0000000000
0.2276646067 0.0276493477 0.0000000000
0.2518348974 0.0317387655 0.0000000000
0.2764324407 0.0361638819 0.0000000000
0.3020065614 0.0394293126 0.0000000000
0.3316090639 0.0409246967 0.0000000000
0.3573968109 0.0434882124 0.0000000000
0.3762874800 0.0468451972 0.0002746624
0.3964904250 0.0497749294 0.0037537194
0.4182192721 0.0515449760 0.0060425727
0.4380865187 0.0534676127 0.0097962921
0.4550545510 0.0549019608 0.0153505760
0.4727855344 0.0565499351 0.0203860533
0.4918287938 0.0593270771 0.0255436027
0.5125047684 0.0609445335 0.0304875257
0.5350270848 0.0617074846 0.0363469902
0.5564812696 0.0629892424 0.0408331426
0.5765621424 0.0660410468 0.0445563439
0.6000915541 0.0726939803 0.0509040970
0.6251468681 0.0806897078 0.0574654765
0.6516060121 0.0889295796 0.0643930724
0.6799267567 0.0967116808 0.0714122225
0.7084916457 0.1041886015 0.0784618906
0.7380025940 0.1115434501 0.0858777752
0.7662623026 0.1184100099 0.0929274434
0.7941863127 0.1248187991 0.0995193408
0.8257114519 0.1333333333 0.1071183337
0.8599832151 0.1423971923 0.1150835431
0.8932784009 0.1514610513 0.1225299458
0.9261768521 0.1599450675 0.1302815290
0.9602349889 0.1693141070 0.1378805219
0.9950560769 0.1793545434 0.1456015869
1.0000000000 0.1893034257 0.1530785077
1.0000000000 0.1987945373 0.1603112840
1.0000000000 0.2070649271 0.1661097124
1.0000000000 0.2149080644 0.1718776226
1.0000000000 0.2214389258 0.1765468833
1.0000000000 0.2268101015 0.1808194095
1.0000000000 0.2326695659 0.1846952010
1.0000000000 0.2374303807 0.1887235828
1.0000000000 0.2418249790 0.1924773022
1.0000000000 0.2456702525 0.1960479133
1.0000000000 0.2475013352 0.1979705501
1.0000000000 0.2493324178 0.2000762951
1.0000000000 0.2534523537 0.2000762951
1.0000000000 0.2578469520 0.2000152590
1.0000000000 0.2678263523 0.1990997177
1.0000000000 0.2770733196 0.1970550088
0.0000000000 0.0000000000 0.0000000000
0.0000000000 0.0000000000 0.0000000000
0.0000000000 0.0000000000 0.0000000000
0.0000000000 0.0000000000 0.0000000000
0.0000000000 0.0000000000 0.0000000000
0.0000000000 0.0000000000 0.0000000000
0.0036621653 0.0000000000 0.0000000000
0.0180972000 0.0042725261 0.0000000000
0.0346684977 0.0095826658 0.0000000000
0.0512703136 0.0129091325 0.0000000000
0.0689707790 0.0173647669 0.0000000000
0.0869764248 0.0200503548 0.0000000000
0.1066605631 0.0227969787 0.0000000000
0.1281757839 0.0253299763 0.0000000000
0.1493553063 0.0277409018 0.0000000000
0.1734035248 0.0294804303 0.0000000000
0.1992523079 0.0322880903 0.0000000000
0.2238193332 0.0364080262 0.0000000000
0.2490882734 0.0401922637 0.0000000000
0.2774700542 0.0438544289 0.0000000000
0.3015182727 0.0473029679 0.0000000000
0.3264515145 0.0494087129 0.0000000000
0.3526359960 0.0511787594 0.0000000000
0.3720759899 0.0543831540 0.0000000000
0.3923094530 0.0570077058 0.0016174563
0.4146181430 0.0579537652 0.0044556344
0.4343022812 0.0599374380 0.0077821012
0.4511787594 0.0618600748 0.0127870603
0.4693980316 0.0632028687 0.0181887541
0.4890821698 0.0653086137 0.0237125200
0.5094834821 0.0671091783 0.0285343709
0.5316700999 0.0682993820 0.0338750286
0.5534599832 0.0698558022 0.0393682765
0.5739070726 0.0728770886 0.0439154650
0.5977111467 0.0785534447 0.0511787594
0.6241702907 0.0846265354 0.0576485847
0.6500801099 0.0921339742 0.0644541085
0.6778210117 0.0990920882 0.0712291142
0.7077897307 0.1054093233 0.0784924086
0.7380941482 0.1116960403 0.0859998474
0.7667200732 0.1187457084 0.0931105516
0.7947661555 0.1252765698 0.0997329671
0.8249790188 0.1339742123 0.1070267796
0.8580300603 0.1433737697 0.1149004349
0.8929121843 0.1519188220 0.1225909819
0.9266956588 0.1601281758 0.1304646372
0.9593499657 0.1691309987 0.1377279316
0.9934996567 0.1789272908 0.1453269245
1.0000000000 0.1892118715 0.1530174716
1.0000000000 0.1988860914 0.1603418021
1.0000000000 0.2073090715 0.1661707485
1.0000000000 0.2151216907 0.1718776226
1.0000000000 0.2220798047 0.1765163653
1.0000000000 0.2276340887 0.1807278553
1.0000000000 0.2346227207 0.1846646830
1.0000000000 0.2397192340 0.1886320287
1.0000000000 0.2452124819 0.1920500496
1.0000000000 0.2493324178 0.1956816968
1.0000000000 0.2532692454 0.1974212253
1.0000000000 0.2552834363 0.1993743801
1.0000000000 0.2612344549 0.1992523079
1.0000000000 0.2659342336 0.1991912718
1.0000000000 0.2749675746 0.1982452125
1.0000000000 0.2826581216 0.1943389029
0.0000000000 0.0109864958 0.0000000000
0.0000000000 0.0107118334 0.0000000000
0.0000000000 0.0104371710 0.0000000000
0.0000000000 0.0104371710 0.0000000000
0.0000000000 0.0103456168 0.0000000000
0.0000000000 0.0093385214 0.0000000000
0.0032043946 0.0083314260 0.0000000000
0.0166628519 0.0128786145 0.0000000000
0.0316777295 0.0184023804 0.0000000000
0.0482185092 0.0217593652 0.0000000000
0.0657663844 0.0250553140 0.0000000000
0.0835278859 0.0281071183 0.0000000000
0.1022659648 0.0303044175 0.0000000000
0.1239032578 0.0331425956 0.0000000000
0.1464866102 0.0354924849 0.0000000000
0.1701991302 0.0375982300 0.0000000000
0.1947661555 0.0404669261 0.0000000000
0.2193331807 0.0446784161 0.0000000000
0.2449378195 0.0488899062 0.0000000000
0.2745098039 0.0523384451 0.0000000000
0.3015487907 0.0551766232 0.0000000000
0.3249256123 0.0574654765 0.0000000000
0.3475089647 0.0598458839 0.0000000000
0.3672236210 0.0628061341 0.0000000000
0.3873655299 0.0653696498 0.0000000000
0.4101319905 0.0658274205 0.0023804074
0.4304570077 0.0674753948 0.0064087892
0.4471503777 0.0693369955 0.0110780499
0.4655832761 0.0707713436 0.0158999008
0.4858167391 0.0721751736 0.0214236667
0.5064927138 0.0732738231 0.0265201801
0.5284657053 0.0744640269 0.0316777295
0.5502555886 0.0763561456 0.0368963149
0.5710383764 0.0787670710 0.0414435035
0.5951171130 0.0838941024 0.0486762799
0.6222171359 0.0896620127 0.0566720073
0.6487067979 0.0961623560 0.0641794461
0.6758983749 0.1027542535 0.0711375601
0.7057450217 0.1085831998 0.0783093004
0.7370565347 0.1134660868 0.0859082933
0.7667200732 0.1195696956 0.0932326238
0.7950408179 0.1262836652 0.0998245212
0.8251621271 0.1351644160 0.1072098878
0.8569314107 0.1449607080 0.1148393988
0.8908369574 0.1536278325 0.1224383917
0.9261768521 0.1613183795 0.1304036011
0.9595941100 0.1700160220 0.1378805219
0.9922178988 0.1794460975 0.1451438163
1.0000000000 0.1895780880 0.1526512551
1.0000000000 0.1995574884 0.1602502480
1.0000000000 0.2081330587 0.1661097124
1.0000000000 0.2161287861 0.1718471046
1.0000000000 0.2231784543 0.1763637751
1.0000000000 0.2292210269 0.1806363012
1.0000000000 0.2362401770 0.1844815747
1.0000000000 0.2424963760 0.1885404746
1.0000000000 0.2480811780 0.1918669413
1.0000000000 0.2533913176 0.1952239261
1.0000000000 0.2574807355 0.1969024186
1.0000000000 0.2615396353 0.1987029831
1.0000000000 0.2677653162 0.1986114290
1.0000000000 0.2741741054 0.1983672847
1.0000000000 0.2810406653 0.1949797818
1.0000000000 0.2884260319 0.1916838331
0.0000000000 0.0230716411 0.0000000000
0.0000000000 0.0232242313 0.0000000000
0.0000000000 0.0228885328 0.0000000000
0.0000000000 0.0229800870 0.0000000000
0.0000000000 0.0230716411 0.0000000000
0.0000000000 0.0228580148 0.0000000000
0.0058289464 0.0216983291 0.0000000000
0.0137941558 0.0206912337 0.0000000000
0.0282902266 0.0257877470 0.0000000000
0.0440375372 0.0298466468 0.0000000000
0.0609750515 0.0333867399 0.0000000000
0.0790417334 0.0368657969 0.0000000000
0.0972610056 0.0396124208 0.0000000000
0.1174944686 0.0423590448 0.0000000000
0.1399252308 0.0455634394 0.0000000000
0.1640039673 0.0483405814 0.0000000000
0.1886625467 0.0510566873 0.0000000000
0.2152742809 0.0548104067 0.0000000000
0.2402685588 0.0587472343 0.0000000000
0.2673685817 0.0624704356 0.0000000000
0.2946822309 0.0652780957 0.0000000000
0.3176623178 0.0679636835 0.0000000000
0.3410391394 0.0694285496 0.0000000000
0.3639887083 0.0711680781 0.0000000000
0.3833981842 0.0737926299 0.0000000000
0.4035706111 0.0750133516 0.0012817578
0.4246280613 0.0758373388 0.0049134051
0.4428473335 0.0775463493 0.0096131838
0.4621652552 0.0785534447 0.0143739986
0.4838941024 0.0795605402 0.0199588006
0.5031052110 0.0813916228 0.0245975433
0.5229419394 0.0835889220 0.0289921416
0.5461966888 0.0845044633 0.0344853895
0.5690241855 0.0857862211 0.0395208667
0.5923094530 0.0908522164 0.0461432822
0.6183108263 0.0966201266 0.0537117571
0.6446478981 0.1031204700 0.0610666056
0.6717479210 0.1099870298 0.0681467918
0.7017166400 0.1166399634 0.0762951095
0.7326009003 0.1222247654 0.0847180896
0.7636987869 0.1283894102 0.0930495155
0.7934843977 0.1347981994 0.1000686656
0.8225375753 0.1443808652 0.1073014420
0.8527504387 0.1540856031 0.1145342184
0.8867780575 0.1624170291 0.1221332113
0.9224231327 0.1700160220 0.1300373846
0.9562981613 0.1781033036 0.1374532692
0.9897154192 0.1877164874 0.1446860456
1.0000000000 0.1974517433 0.1520714122
1.0000000000 0.2073395895 0.1594262608
1.0000000000 0.2164644846 0.1653467613
1.0000000000 0.2247959106 0.1710231174
1.0000000000 0.2323949035 0.1753261616
1.0000000000 0.2387426566 0.1795681697
1.0000000000 0.2458838788 0.1839627680
1.0000000000 0.2522011139 0.1881132219
1.0000000000 0.2574196994 0.1911955444
1.0000000000 0.2628824292 0.1945220111
1.0000000000 0.2668497749 0.1962310216
1.0000000000 0.2708476387 0.1978179599
1.0000000000 0.2764629587 0.1965972381
1.0000000000 0.2814679179 0.1947051194
1.0000000000 0.2879682612 0.1918364233
1.0000000000 0.2952010376 0.1884489204
0.0000000000 0.0351567864 0.0015564202
0.0000000000 0.0350347143 0.0006408789
0.0000000000 0.0352483406 0.0000000000
0.0000000000 0.0353093767 0.0000000000
0.0000000000 0.0355840391 0.0000000000
0.0017395285 0.0356145571 0.0000000000
0.0083314260 0.0353398947 0.0000000000
0.0163576715 0.0345769436 0.0000000000
0.0250858320 0.0338445106 0.0000000000
0.0403448539 0.0376287480 0.0000000000
0.0561837186 0.0418097200 0.0000000000
0.0740978103 0.0457465476 0.0000000000
0.0925612268 0.0489509422 0.0000000000
0.1123369192 0.0522774090 0.0000000000
0.1336690318 0.0555428397 0.0000000000
0.1575951781 0.0589303426 0.0000000000
0.1822232395 0.0623483635 0.0000000000
0.2091706722 0.0657663844 0.0000000000
0.2359044785 0.0695201038 0.0000000000
0.2620889601 0.0727244984 0.0000000000
0.2877241169 0.0758983749 0.0000000000
0.3107957580 0.0784618906 0.0000000000
0.3335317006 0.0809338521 0.0000000000
0.3576714733 0.0817578393 0.0000000000
0.3795834287 0.0831311513 0.0000000000
0.3989013504 0.0841687648 0.0000000000
0.4183108263 0.0850537881 0.0039063096
0.4370794232 0.0860914015 0.0082093538
0.4574349584 0.0870069429 0.0128175784
0.4800488289 0.0872510872 0.0180972000
0.5009689479 0.0887464714 0.0229800870
0.5191271839 0.0915541314 0.0268863966
0.5407339590 0.0936598764 0.0317387655
0.5649042496 0.0943007553 0.0369573510
0.5898985275 0.0985122454 0.0440985733
0.6150759136 0.1044937819 0.0515144579
0.6407415885 0.1111467155 0.0585641260
0.6675364309 0.1179217212 0.0654001678
0.6972304875 0.1243610285 0.0732433051
0.7280842298 0.1297627222 0.0814831769
0.7591515984 0.1358052949 0.0897230488
0.7902494850 0.1420309758 0.0974441138
0.8208590829 0.1509117266 0.1050431067
0.8495155261 0.1603418021 0.1115434501
0.8822308690 0.1692225528 0.1190203708
0.9180285344 0.1772793164 0.1277485313
0.9524834058 0.1855802243 0.1358052949
0.9866330968 0.1953154803 0.1434042878
1.0000000000 0.2056000610 0.1511863890
1.0000000000 0.2154879072 0.1587853819
1.0000000000 0.2243381399 0.1645532921
1.0000000000 0.2331578546 0.1700160220
1.0000000000 0.2412756542 0.1744106203
1.0000000000 0.2479896239 0.1782558938
1.0000000000 0.2552224002 0.1825894560
1.0000000000 0.2617837797 0.1871366445
1.0000000000 0.2666666667 0.1899443046
1.0000000000 0.2713359274 0.1926604105
1.0000000000 0.2750591287 0.1937895781
1.0000000000 0.2784771496 0.1948577096
1.0000000000 0.2836957351 0.1930571450
1.0000000000 0.2891889830 0.1910124361
1.0000000000 0.2956588083 0.1881132219
1.0000000000 0.3021591516 0.1851529717
0.0000000000 0.0472419318 0.0073243305
0.0000000000 0.0470588235 0.0064698253
0.0000000000 0.0473334859 0.0054932479
0.0000000000 0.0472419318 0.0044556344
0.0000000000 0.0473945220 0.0036316472
0.0017395285 0.0476691844 0.0023498894
0.0092469673 0.0475165942 0.0009765774
0.0168154421 0.0479438468 0.0000000000
0.0253299763 0.0473334859 0.0000000000
0.0367742428 0.0475776303 0.0000000000
0.0519111925 0.0509651331 0.0000000000
0.0700694285 0.0560006104 0.0000000000
0.0885633631 0.0593881132 0.0000000000
0.1083390555 0.0632944228 0.0000000000
0.1295796139 0.0669565881 0.0000000000
0.1538109407 0.0703135729 0.0000000000
0.1779812314 0.0739147021 0.0000000000
0.2027618830 0.0771190967 0.0000000000
0.2290379187 0.0806591897 0.0000000000
0.2536659800 0.0843518730 0.0000000000
0.2801251240 0.0873731594 0.0000000000
0.3057602808 0.0890821698 0.0000000000
0.3279468986 0.0913710231 0.0000000000
0.3504386969 0.0928664073 0.0000000000
0.3727168688 0.0940260929 0.0000000000
0.3920042725 0.0951247425 0.0000000000
0.4126344701 0.0953383688 0.0033875029
0.4339360647 0.0954909590 0.0077821012
0.4532845045 0.0966811627 0.0118715190
0.4735484855 0.0978103304 0.0162966354
0.4955825132 0.0984206912 0.0210574502
0.5156481270 0.1002822919 0.0253604944
0.5370412757 0.1021133745 0.0298466468
0.5614251926 0.1029068437 0.0346990158
0.5859922179 0.1070267796 0.0413824674
0.6107118334 0.1131609064 0.0485236896
