LUTs/SPK Cube Block1 S64/TheBrim_SPK_Type-A_Block1_S64.cube
TITLE "TheBrim® Industrial Imaging Burau"
# © Copyright 2022 - TheBrim® d.o.o. Croatia
LUT_3D_SIZE 4
DOMAIN_MIN 0.000000 0.000000 0.000000
DOMAIN_MAX 1.000000 1.000000 1.000000
0.004913 0.003448 0.003296
0.131561 0.007782 0.004486
0.583527 0.000000 0.000000
0.681183 0.000000 0.006104
0.000000 0.096863 0.066833
0.085480 0.122162 0.055206
0.712738 0.250122 0.000000
0.832428 0.314789 0.000000
0.000000 0.445496 0.344574
0.000000 0.476471 0.338470
0.818176 0.698303 0.160614
0.978424 0.724365 0.000000
0.000000 0.634583 0.398376
0.406891 0.724976 0.400421
0.877502 0.815338 0.269287
0.997650 0.829315 0.006134
0.002808 0.011963 0.066772
0.041168 0.014771 0.073730
0.579773 0.000000 0.124084
0.677734 0.000000 0.169525
0.000000 0.108826 0.144836
0.055878 0.141479 0.160492
0.747925 0.288849 0.244568
0.850464 0.361603 0.313904
0.000000 0.451202 0.367065
0.000000 0.480286 0.378998
0.829529 0.728638 0.339020
0.974548 0.784912 0.358734
0.000000 0.667908 0.402313
0.473785 0.738281 0.392792
0.889587 0.831116 0.349487
0.987427 0.872070 0.421600
0.000000 0.077057 0.303864
0.091766 0.075195 0.319000
0.549164 0.000000 0.312622
0.737427 0.040955 0.344788
0.000000 0.175110 0.403900
0.006866 0.218750 0.452393
0.701996 0.244263 0.445190
0.835327 0.329407 0.472931
0.000000 0.484100 0.544159
0.000000 0.557617 0.585480
0.821777 0.760590 0.635925
0.959747 0.816193 0.653870
0.126770 0.740265 0.626648
0.549530 0.813385 0.653137
0.882782 0.884399 0.671722
0.972717 0.907227 0.678986
0.000000 0.174072 0.409729
0.003235 0.200287 0.437531
0.441071 0.216217 0.438690
0.740875 0.211151 0.422302
0.000000 0.237976 0.457336
0.000000 0.271515 0.487396
0.508606 0.318481 0.508759
0.829529 0.408234 0.531128
0.000000 0.551361 0.647797
0.236908 0.683929 0.711334
0.834900 0.773590 0.724304
0.944427 0.807617 0.714905
0.350189 0.798828 0.757599
0.649200 0.857452 0.782562
0.912292 0.913483 0.812744
0.962372 0.919281 0.804932
