LUTs/SPK Cube Block1 S64/TheBrim_SPK_Type-N_Block1_S64.cube
TITLE "TheBrim® SPK Block 1"
# TheBrim® d.o.o. Croatia
# Copyright: (C) Copyright 2020 TheBrim® d.o.o. Croatia
LUT_3D_SIZE 8
0.0000920000 0.0000310000 0.0002750000
0.0049130000 0.0003360000 0.0005190000
0.0408630000 0.0016170000 0.0000000000
0.1647950000 0.0000000000 0.0000000000
0.3327640000 0.0000000000 0.0000000000
0.4772640000 0.0000000000 0.0000000000
0.5841370000 0.0000000000 0.0000000000
0.6163330000 0.0000000000 0.0000000000
0.0000000000 0.0044250000 0.0008850000
0.0122680000 0.0091550000 0.0010380000
0.0552060000 0.0129700000 0.0000000000
0.1904300000 0.0165710000 0.0000000000
0.3686830000 0.0014650000 0.0000000000
0.5176700000 0.0000000000 0.0000000000
0.6027530000 0.0000000000 0.0000000000
0.6261600000 0.0000000000 0.0000000000
0.0000000000 0.0376280000 0.0038150000
0.0050960000 0.0472720000 0.0073240000
0.0943910000 0.0785830000 0.0012820000
0.2642520000 0.1045230000 0.0000000000
0.4602050000 0.1142270000 0.0000000000
0.5907590000 0.1083980000 0.0000000000
0.6611330000 0.1085510000 0.0000000000
0.6838070000 0.1090700000 0.0000000000
0.0000000000 0.1577450000 0.0166930000
0.0000000000 0.1748050000 0.0194700000
0.0433650000 0.2382200000 0.0242610000
0.3257140000 0.2862550000 0.0000000000
0.5484010000 0.3077700000 0.0000000000
0.6888120000 0.3204040000 0.0000000000
0.7503050000 0.3246150000 0.0000000000
0.7689820000 0.3259890000 0.0000000000
0.0000000000 0.2829900000 0.0113530000
0.0000000000 0.3100280000 0.0099490000
0.0000000000 0.4077450000 0.0000000000
0.2837220000 0.4884950000 0.0000000000
0.6309510000 0.5500180000 0.0000000000
0.7640080000 0.5351870000 0.0000000000
0.8257750000 0.5415040000 0.0000000000
0.8431400000 0.5429690000 0.0000000000
0.0000000000 0.3553160000 0.0000000000
0.0000000000 0.3880000000 0.0000000000
0.0000000000 0.5066530000 0.0000000000
0.2264100000 0.5996700000 0.0000000000
0.6089170000 0.6890560000 0.0000000000
0.8247380000 0.7124630000 0.0000000000
0.8817140000 0.6991880000 0.0000000000
0.8948360000 0.6950380000 0.0000000000
0.0000000000 0.3789060000 0.0000000000
0.0000000000 0.4130250000 0.0000000000
0.0000000000 0.5387270000 0.0000000000
0.1896060000 0.6372990000 0.0000000000
0.5915220000 0.7299800000 0.0000000000
0.8192440000 0.7689210000 0.0000000000
0.9031070000 0.7731020000 0.0000000000
0.9252620000 0.7741390000 0.0000000000
0.0000000000 0.3838810000 0.0000000000
0.0000000000 0.4183960000 0.0000000000
0.0000000000 0.5451970000 0.0000000000
0.1802370000 0.6449280000 0.0000000000
0.5846560000 0.7377320000 0.0000000000
0.8153080000 0.7806700000 0.0000000000
0.9015810000 0.7871700000 0.0000000000
0.9244080000 0.7876590000 0.0000000000
0.0000310000 0.0002140000 0.0033260000
0.0061040000 0.0003660000 0.0079040000
0.0449220000 0.0022580000 0.0095520000
0.1744690000 0.0000000000 0.0098270000
0.3475950000 0.0000000000 0.0027470000
0.4926760000 0.0000000000 0.0000000000
0.5983280000 0.0000000000 0.0067750000
0.6302490000 0.0000000000 0.0164180000
0.0000000000 0.0064090000 0.0061950000
0.0119020000 0.0122380000 0.0127260000
0.0584410000 0.0168150000 0.0142520000
0.2005920000 0.0198670000 0.0114140000
0.3835750000 0.0008850000 0.0000000000
0.5330510000 0.0000000000 0.0000000000
0.6167910000 0.0000000000 0.0016780000
0.6401060000 0.0000000000 0.0135500000
0.0000000000 0.0420230000 0.0103150000
0.0013730000 0.0520630000 0.0165410000
0.0959780000 0.0837710000 0.0181880000
0.2731320000 0.1091920000 0.0000000000
0.4742430000 0.1171570000 0.0000000000
0.6063840000 0.1095890000 0.0000000000
0.6763920000 0.1080020000 0.0000000000
0.6988530000 0.1080930000 0.0000000000
0.0000000000 0.1596370000 0.0224000000
0.0000000000 0.1769710000 0.0290220000
0.0392460000 0.2404480000 0.0365300000
0.3320620000 0.2956240000 0.0000000000
0.5630490000 0.3172000000 0.0000000000
0.7063600000 0.3293150000 0.0000000000
0.7682500000 0.3333130000 0.0000000000
0.7870480000 0.3346860000 0.0000000000
0.0000000000 0.2850950000 0.0180660000
0.0000000000 0.3123470000 0.0204770000
0.0000000000 0.4102170000 0.0074160000
0.2824400000 0.4909970000 0.0000000000
0.6319270000 0.5532840000 0.0000000000
0.7803040000 0.5498660000 0.0000000000
0.8430790000 0.5563350000 0.0000000000
0.8607480000 0.5580140000 0.0000000000
0.0000000000 0.3575740000 0.0012820000
0.0000000000 0.3903500000 0.0000000000
0.0000000000 0.5093080000 0.0000000000
0.2222600000 0.6023250000 0.0000000000
0.6087950000 0.6916810000 0.0000000000
0.8261410000 0.7161870000 0.0000000000
0.8968200000 0.7148740000 0.0000000000
0.9105830000 0.7110290000 0.0000000000
0.0000000000 0.3811040000 0.0000000000
0.0000000000 0.4154660000 0.0000000000
0.0000000000 0.5413210000 0.0000000000
0.1847230000 0.6399230000 0.0000000000
0.5912170000 0.7326660000 0.0000000000
0.8197630000 0.7717900000 0.0000000000
0.9045720000 0.7767640000 0.0000000000
0.9268190000 0.7778630000 0.0000000000
0.0000000000 0.3860470000 0.0000000000
0.0000000000 0.4206850000 0.0000000000
0.0000000000 0.5477600000 0.0000000000
0.1745910000 0.6474910000 0.0000000000
0.5843810000 0.7403870000 0.0000000000
0.8158570000 0.7834780000 0.0000000000
0.9028930000 0.7906190000 0.0000000000
0.9259950000 0.7913210000 0.0000000000
0.0000000000 0.0005190000 0.0241700000
0.0063480000 0.0010070000 0.0354000000
0.0588990000 0.0059510000 0.0681760000
0.2139280000 0.0095830000 0.0871280000
0.4012150000 0.0000000000 0.0961300000
0.5402220000 0.0000000000 0.1054380000
0.6252750000 0.0000000000 0.1239010000
0.6478880000 0.0000000000 0.1322330000
0.0000000000 0.0081480000 0.0311280000
0.0096440000 0.0141910000 0.0446470000
0.0707700000 0.0223690000 0.0777590000
0.2391050000 0.0325320000 0.0963750000
0.4378050000 0.0057370000 0.1042180000
0.5827940000 0.0000000000 0.1104430000
0.6409000000 0.0000000000 0.1256410000
0.6579280000 0.0000000000 0.1332090000
0.0000000000 0.0561520000 0.0512390000
0.0000000000 0.0665280000 0.0647580000
0.0953670000 0.0994570000 0.1005550000
0.2955930000 0.1257320000 0.1126100000
0.5113530000 0.1295780000 0.1139830000
0.6462100000 0.1163940000 0.1149600000
0.7024540000 0.1109620000 0.1287840000
0.7187500000 0.1103820000 0.1359860000
0.0000000000 0.1723940000 0.0670780000
0.0000000000 0.1903990000 0.0790710000
0.0001220000 0.2549740000 0.1142580000
0.3355410000 0.3124390000 0.1147460000
0.5965580000 0.3458560000 0.0846250000
0.7480470000 0.3563840000 0.0736080000
0.8080440000 0.3582150000 0.0799260000
0.8246150000 0.3583070000 0.0868230000
0.0000000000 0.2998960000 0.0726320000
0.0000000000 0.3275450000 0.0830380000
0.0000000000 0.4270320000 0.1115110000
0.2708740000 0.5079040000 0.1119690000
0.6360470000 0.5738830000 0.0000000000
0.8170170000 0.5938720000 0.0000000000
0.8841860000 0.6016240000 0.0000000000
0.9025270000 0.6035460000 0.0000000000
0.0000000000 0.3732600000 0.0630190000
0.0000000000 0.4066770000 0.0711980000
0.0000000000 0.5273130000 0.0857240000
0.1889950000 0.6201170000 0.0588380000
0.6071470000 0.7089840000 0.0000000000
0.8312070000 0.7393490000 0.0000000000
0.9112850000 0.7460940000 0.0000000000
0.9322810000 0.7482910000 0.0000000000
0.0000000000 0.3966060000 0.0504760000
0.0000000000 0.4315190000 0.0568540000
0.0000000000 0.5593870000 0.0588990000
0.1356810000 0.6578060000 0.0014340000
0.5886540000 0.7500000000 0.0000000000
0.8213810000 0.7912900000 0.0000000000
0.9099120000 0.7999270000 0.0000000000
0.9337160000 0.8022770000 0.0000000000
0.0000000000 0.4012760000 0.0421750000
0.0000000000 0.4364930000 0.0445250000
0.0000000000 0.5655820000 0.0394290000
0.1218570000 0.6652530000 0.0000000000
0.5817260000 0.7577820000 0.0000000000
0.8169860000 0.8019710000 0.0000000000
0.9070430000 0.8119810000 0.0000000000
0.9319150000 0.8143310000 0.0000000000
0.0000000000 0.0000000000 0.0997620000
0.0076600000 0.0000000000 0.1203000000
0.0656740000 0.0000000000 0.1915280000
0.2765200000 0.0462950000 0.2805180000
0.4853210000 0.0198060000 0.3065800000
0.6111450000 0.0000000000 0.3215640000
0.6601560000 0.0000000000 0.3307190000
0.6744080000 0.0000000000 0.3348080000
0.0000000000 0.0077510000 0.1180730000
0.0036010000 0.0111690000 0.1434630000
0.0728760000 0.0153500000 0.2160640000
0.2812500000 0.0609440000 0.2850340000
0.4928280000 0.0406800000 0.3107910000
0.6202700000 0.0000000000 0.3258360000
0.6700130000 0.0000000000 0.3352660000
0.6842350000 0.0000000000 0.3393250000
0.0000000000 0.0719910000 0.1681210000
0.0000000000 0.0805360000 0.1951290000
0.0782470000 0.1079410000 0.2696840000
0.3078000000 0.1476140000 0.3085940000
0.5355220000 0.1560670000 0.3334050000
0.6720580000 0.1404720000 0.3485410000
0.7247920000 0.1287840000 0.3581540000
0.7396850000 0.1241760000 0.3626710000
0.0000000000 0.2024230000 0.1928710000
0.0000000000 0.2232360000 0.2204590000
0.0000000000 0.2875060000 0.2964480000
0.3351140000 0.3382870000 0.3392330000
0.6044920000 0.3709110000 0.3621520000
0.7595520000 0.3801270000 0.3780210000
0.8190920000 0.3807680000 0.3881530000
0.8356320000 0.3803410000 0.3928830000
0.0000000000 0.3347470000 0.2071230000
0.0000000000 0.3634640000 0.2301640000
0.0000000000 0.4639890000 0.3044130000
0.2617490000 0.5474550000 0.3462520000
0.6340030000 0.6102600000 0.3610530000
0.8206180000 0.6329960000 0.3636170000
0.8882140000 0.6400450000 0.3745420000
0.9068300000 0.6417540000 0.3804020000
0.0000000000 0.4114380000 0.2071840000
0.0000000000 0.4455260000 0.2283330000
0.0000000000 0.5681460000 0.2988890000
0.0482180000 0.6616210000 0.3324580000
0.6049190000 0.7480470000 0.3564760000
0.8282470000 0.7822880000 0.3423460000
0.9100340000 0.7922970000 0.3397520000
0.9315190000 0.7950130000 0.3430180000
0.0000000000 0.4361880000 0.1992190000
0.0000000000 0.4718320000 0.2192990000
0.0000000000 0.6021420000 0.2868650000
0.0000000000 0.7000120000 0.3163760000
0.5868530000 0.7920230000 0.3368230000
0.8172300000 0.8328550000 0.3306880000
0.9066470000 0.8447270000 0.3202510000
0.9309390000 0.8479610000 0.3197940000
0.0000000000 0.4407650000 0.1919860000
0.0000000000 0.4769290000 0.2113650000
0.0000000000 0.6086120000 0.2771300000
0.0000000000 0.7077030000 0.3045040000
0.5801390000 0.8007510000 0.3223270000
0.8129270000 0.8433840000 0.3178410000
0.9038090000 0.8562010000 0.3074950000
0.9291990000 0.8596190000 0.3053280000
0.0014040000 0.0000000000 0.1738280000
0.0130000000 0.0000000000 0.2009890000
0.0764770000 0.0000000000 0.2976070000
0.2780460000 0.0000000000 0.4480290000
0.5210270000 0.0329590000 0.4980470000
0.6545100000 0.0000000000 0.5151060000
0.7041020000 0.0000000000 0.5242000000
0.7178650000 0.0000000000 0.5276490000
0.0000000000 0.0000000000 0.2072750000
0.0035400000 0.0000000000 0.2416380000
0.0820310000 0.0000000000 0.3393250000
0.2824710000 0.0030520000 0.4561160000
0.5264280000 0.0558170000 0.5035400000
0.6611020000 0.0204160000 0.5206910000
0.7111820000 0.0000000000 0.5298460000
0.7250370000 0.0000000000 0.5332950000
0.0000000000 0.0762940000 0.2989810000
0.0000000000 0.0794680000 0.3361820000
0.0697940000 0.0932620000 0.4374080000
0.3055730000 0.1272890000 0.5009460000
0.5590520000 0.1768800000 0.5359500000
0.7003780000 0.1721800000 0.5519710000
0.7526550000 0.1636660000 0.5610660000
0.7672120000 0.1594850000 0.5646670000
0.0000000000 0.2237850000 0.3511960000
0.0000000000 0.2431340000 0.3916020000
0.0000000000 0.3023990000 0.5039370000
0.3264770000 0.3486940000 0.5642700000
0.6121220000 0.3960570000 0.5905460000
0.7709960000 0.4087220000 0.6058650000
0.8292540000 0.4094850000 0.6151430000
0.8455810000 0.4088440000 0.6190190000
0.0000000000 0.3765260000 0.3764650000
0.0000000000 0.4087520000 0.4148560000
0.0000000000 0.5080870000 0.5259700000
0.2614140000 0.5867610000 0.5908510000
0.6333310000 0.6362610000 0.6287230000
0.8168330000 0.6587220000 0.6437680000
0.8838200000 0.6646730000 0.6528020000
0.9025270000 0.6659550000 0.6567380000
0.0000000000 0.4683230000 0.3943790000
0.0000000000 0.5074770000 0.4320370000
0.0000000000 0.6193240000 0.5316160000
0.0380550000 0.7156070000 0.5931090000
0.6155700000 0.7842100000 0.6347960000
0.8223270000 0.8156130000 0.6493840000
0.9003910000 0.8251950000 0.6551210000
0.9216310000 0.8276060000 0.6583250000
0.0000000000 0.4906620000 0.3865660000
0.0000000000 0.5296630000 0.4223020000
0.0000000000 0.6525270000 0.5234680000
0.0000000000 0.7565000000 0.5855410000
0.5998840000 0.8342590000 0.6274110000
0.8143010000 0.8698730000 0.6443790000
0.8977660000 0.8815000000 0.6490780000
0.9208370000 0.8845830000 0.6514890000
0.0000000000 0.4945070000 0.3799740000
0.0000000000 0.5335390000 0.4145510000
0.0000000000 0.6589970000 0.5164790000
0.0000000000 0.7647710000 0.5780640000
0.5938420000 0.8454280000 0.6201780000
0.8109440000 0.8820500000 0.6375730000
0.8957520000 0.8943790000 0.6423650000
0.9195250000 0.8976440000 0.6445920000
0.0043030000 0.0000000000 0.2177730000
0.0185550000 0.0000000000 0.2483520000
0.0877080000 0.0000000000 0.3574830000
0.2852170000 0.0000000000 0.5403440000
0.5251460000 0.0000000000 0.6139530000
0.6724240000 0.0000000000 0.6329350000
0.7230220000 0.0000000000 0.6380310000
0.7366940000 0.0000000000 0.6400450000
0.0000000000 0.0000000000 0.2600400000
0.0086980000 0.0000000000 0.2993770000
0.0935360000 0.0000000000 0.4104610000
0.2895200000 0.0000000000 0.5507510000
0.5303960000 0.0000000000 0.6211850000
0.6780700000 0.0034180000 0.6388240000
0.7290340000 0.0000000000 0.6438600000
0.7428280000 0.0000000000 0.6459350000
0.0000000000 0.0697940000 0.3772280000
0.0000000000 0.0669560000 0.4200130000
0.0772710000 0.0632630000 0.5376590000
0.3119200000 0.0903930000 0.6099850000
0.5607910000 0.1564330000 0.6625060000
0.7131040000 0.1714780000 0.6750790000
0.7664790000 0.1633910000 0.6802370000
0.7808530000 0.1601260000 0.6823430000
0.0000000000 0.2299500000 0.4507140000
0.0000000000 0.2482910000 0.4989930000
0.0000000000 0.3020940000 0.6289370000
0.3286740000 0.3445740000 0.6974490000
0.6096190000 0.3929140000 0.7350460000
0.7777400000 0.4184570000 0.7424320000
0.8372800000 0.4205930000 0.7476200000
0.8533330000 0.4201970000 0.7499690000
0.0000000000 0.3915410000 0.4882810000
0.0000000000 0.4202270000 0.5296330000
0.0000000000 0.5204470000 0.6655580000
0.2296450000 0.5985720000 0.7442020000
0.6310420000 0.6445620000 0.7872620000
0.8167110000 0.6730650000 0.7979430000
0.8841250000 0.6806340000 0.8029170000
0.9025570000 0.6820370000 0.8053280000
0.0000000000 0.4863890000 0.5075070000
0.0000000000 0.5245060000 0.5507810000
0.0000000000 0.6446230000 0.6786190000
0.0000000000 0.7420960000 0.7536930000
0.6190190000 0.8037410000 0.7987060000
0.8230590000 0.8304140000 0.8188170000
0.8963320000 0.8397220000 0.8254700000
0.9166560000 0.8420100000 0.8280330000
0.0000000000 0.5266720000 0.5211790000
0.0000000000 0.5682070000 0.5655820000
0.0000000000 0.6858220000 0.6806340000
0.0000000000 0.7880250000 0.7532040000
0.6067500000 0.8570250000 0.7985840000
0.8189090000 0.8876040000 0.8204350000
0.8958130000 0.8981320000 0.8273620000
0.9172060000 0.9009700000 0.8297120000
0.0000000000 0.5371090000 0.5233760000
0.0000000000 0.5793460000 0.5671080000
0.0000000000 0.6943660000 0.6776120000
0.0000000000 0.7977600000 0.7493900000
0.6013490000 0.8691410000 0.7955320000
0.8164370000 0.9011540000 0.8184200000
0.8946840000 0.9122310000 0.8255000000
0.9166260000 0.9151920000 0.8277590000
0.0059510000 0.0000000000 0.2340700000
0.0213010000 0.0000000000 0.2655330000
0.0932920000 0.0000000000 0.3789370000
0.2915950000 0.0000000000 0.5742800000
0.5246580000 0.0000000000 0.6522830000
0.6759030000 0.0000000000 0.6782840000
0.7279360000 0.0000000000 0.6822810000
0.7416990000 0.0000000000 0.6835330000
0.0000000000 0.0000000000 0.2791750000
0.0122680000 0.0000000000 0.3198550000
0.0997310000 0.0000000000 0.4356990000
0.2959290000 0.0000000000 0.5854490000
0.5298770000 0.0000000000 0.6600650000
0.6813960000 0.0000000000 0.6847530000
0.7338870000 0.0000000000 0.6886290000
0.7476810000 0.0000000000 0.6898500000
0.0000000000 0.0633850000 0.4069520000
0.0000000000 0.0573730000 0.4515380000
0.0855410000 0.0421140000 0.5750120000
0.3183590000 0.0659180000 0.6500850000
0.5608830000 0.1310730000 0.7067570000
0.7150570000 0.1648250000 0.7235410000
0.7697750000 0.1607670000 0.7265930000
0.7841190000 0.1571660000 0.7277220000
0.0000000000 0.2301940000 0.4890440000
0.0000000000 0.2478640000 0.5400090000
0.0000000000 0.2989500000 0.6769710000
0.3343810000 0.3393860000 0.7473750000
0.6099850000 0.3845210000 0.7880860000
0.7776180000 0.4175720000 0.7968140000
0.8381040000 0.4215090000 0.7994380000
0.8543400000 0.4213560000 0.8007510000
0.0000000000 0.3956300000 0.5351560000
0.0000000000 0.4242250000 0.5793460000
0.0000000000 0.5231930000 0.7238160000
0.2303160000 0.5990910000 0.8058780000
0.6325990000 0.6438290000 0.8481140000
0.8154300000 0.6745000000 0.8581540000
0.8834840000 0.6841430000 0.8603520000
0.9019470000 0.6858520000 0.8616640000
0.0000000000 0.4904170000 0.5506590000
0.0000000000 0.5264890000 0.5950320000
0.0000000000 0.6508480000 0.7359920000
0.0000000000 0.7498780000 0.8179630000
0.6181640000 0.8096620000 0.8651120000
0.8227230000 0.8347170000 0.8842470000
0.8950200000 0.8443300000 0.8889160000
0.9150700000 0.8468020000 0.8904420000
0.0000000000 0.5289610000 0.5639650000
0.0000000000 0.5688780000 0.6097110000
0.0000000000 0.6928410000 0.7401430000
0.0000000000 0.7970890000 0.8193360000
0.6053770000 0.8653870000 0.8662410000
0.8202510000 0.8939210000 0.8885190000
0.8954160000 0.9039920000 0.8949580000
0.9162600000 0.9067380000 0.8968200000
0.0000000000 0.5407410000 0.5690610000
0.0000000000 0.5813900000 0.6147770000
0.0000000000 0.7023320000 0.7394100000
0.0000000000 0.8073120000 0.8176880000
0.5997620000 0.8778080000 0.8650210000
0.8183590000 0.9080200000 0.8876650000
0.8946530000 0.9183960000 0.8946230000
0.9159850000 0.9212950000 0.8967290000
0.0065310000 0.0000000000 0.2379460000
0.0224300000 0.0000000000 0.2695920000
0.0954900000 0.0000000000 0.3840030000
0.2942810000 0.0000000000 0.5816960000
0.5248110000 0.0000000000 0.6610720000
0.6763920000 0.0000000000 0.6906430000
0.7289730000 0.0000000000 0.6943970000
0.7428890000 0.0000000000 0.6953430000
0.0000000000 0.0000000000 0.2843930000
0.0145260000 0.0000000000 0.3255310000
0.1024480000 0.0000000000 0.4421080000
0.2987370000 0.0000000000 0.5933230000
0.5300900000 0.0000000000 0.6690670000
0.6818850000 0.0000000000 0.6971740000
0.7349550000 0.0000000000 0.7009890000
0.7488400000 0.0000000000 0.7019040000
0.0000000000 0.0603030000 0.4147340000
0.0000000000 0.0523680000 0.4598390000
0.0899960000 0.0343630000 0.5844120000
0.3215940000 0.0562130000 0.6595760000
0.5613710000 0.1206970000 0.7173460000
0.7152400000 0.1608280000 0.7365110000
0.7703250000 0.1590580000 0.7394410000
0.7847900000 0.1557310000 0.7403260000
0.0000000000 0.2291870000 0.4999080000
0.0000000000 0.2464290000 0.5516050000
0.0000000000 0.2967830000 0.6897580000
0.3382260000 0.3364560000 0.7601930000
0.6111450000 0.3807370000 0.8013920000
0.7773440000 0.4160160000 0.8117370000
0.8380130000 0.4210820000 0.8137510000
0.8542790000 0.4210820000 0.8146970000
0.0000000000 0.3961790000 0.5490720000
0.0000000000 0.4249570000 0.5941770000
0.0000000000 0.5234990000 0.7405400000
0.2357180000 0.5983890000 0.8226010000
0.6347350000 0.6426090000 0.8640750000
0.8153080000 0.6740110000 0.8747560000
0.8830870000 0.6844480000 0.8766480000
0.9015810000 0.6863710000 0.8775330000
0.0000000000 0.4924930000 0.5647890000
0.0000000000 0.5281980000 0.6087650000
0.0000000000 0.6527400000 0.7533260000
0.0000000000 0.7517700000 0.8367920000
0.6192020000 0.8106380000 0.8836060000
0.8229060000 0.8351140000 0.9019170000
0.8948970000 0.8450010000 0.9059450000
0.9147030000 0.8475040000 0.9070740000
0.0000000000 0.5318600000 0.5787660000
0.0000000000 0.5713200000 0.6243590000
0.0000000000 0.6950680000 0.7580570000
0.0000000000 0.7995610000 0.8388670000
0.6056820000 0.8675540000 0.8860780000
0.8206790000 0.8953550000 0.9072570000
0.8955380000 0.9053340000 0.9130550000
0.9160770000 0.9079900000 0.9143680000
0.0000000000 0.5449220000 0.5856320000
0.0000000000 0.5851440000 0.6314090000
0.0000000000 0.7048950000 0.7581790000
0.0000000000 0.8099370000 0.8378300000
0.6000060000 0.8801570000 0.8853450000
0.8190310000 0.9098820000 0.9077760000
0.8947750000 0.9200740000 0.9141240000
0.9158330000 0.9228820000 0.9154970000
