LUTs/SPK Cube Block1 S64/TheBrim_SPK_Type-I_Block1_S64.cube
TITLE "TheBrim® SPK Block 1"
# © Copyright 2021 - TheBrim® d.o.o. Croatia
LUT_3D_SIZE 4
DOMAIN_MIN 0.000000 0.000000 0.000000
DOMAIN_MAX 1.000000 1.000000 1.000000
0.006195 0.007263 0.008331
0.034516 0.037903 0.041352
0.168612 0.174228 0.184878
0.255009 0.259068 0.276310
0.044129 0.048310 0.052064
0.103212 0.109255 0.115175
0.300938 0.303899 0.322271
0.492653 0.488655 0.491768
0.227634 0.233158 0.247868
0.378637 0.381140 0.393408
0.558404 0.556481 0.550805
0.730495 0.736294 0.696345
0.332555 0.336370 0.351629
0.552941 0.550683 0.545708
0.751949 0.755489 0.713710
0.874662 0.881468 0.825162
0.031495 0.034699 0.037995
0.146151 0.151827 0.160891
0.349645 0.353887 0.367468
0.391974 0.393256 0.405158
0.118410 0.124453 0.131472
0.207095 0.213138 0.226200
0.441108 0.438117 0.448371
0.623224 0.623835 0.608240
0.379126 0.381567 0.393805
0.501732 0.497566 0.499428
0.665034 0.666804 0.643427
0.807248 0.810910 0.759823
0.560754 0.558984 0.553002
0.720150 0.727047 0.688014
0.839475 0.845182 0.790494
0.911803 0.916411 0.860533
0.093111 0.099092 0.104311
0.268437 0.271794 0.290288
0.576928 0.576196 0.568109
0.639796 0.640711 0.622248
0.282078 0.284733 0.304479
0.425177 0.423438 0.434455
0.645960 0.646998 0.627466
0.789029 0.790707 0.744167
0.540826 0.537774 0.534417
0.660029 0.661311 0.639399
0.792050 0.794064 0.746761
0.881193 0.888273 0.831266
0.737911 0.742916 0.702327
0.831998 0.837552 0.782742
0.899870 0.905943 0.849241
0.941222 0.939147 0.885557
0.146151 0.151827 0.160891
0.328161 0.331823 0.347509
0.602899 0.603143 0.591028
0.765957 0.768002 0.725032
0.383368 0.385443 0.397559
0.573693 0.572747 0.565087
0.767422 0.769284 0.726192
0.874510 0.881285 0.825010
0.659327 0.660609 0.638788
0.782437 0.783413 0.738491
0.871275 0.877958 0.822019
0.931456 0.931579 0.877287
0.829740 0.835233 0.780392
0.891722 0.898589 0.841306
0.934722 0.934112 0.880034
0.959808 0.954803 0.905638
