LUTs/SPK Cube Block1 S64/TheBrim_SPK_Type-U_Block 1_S64.cube
TITLE "TheBrim® Industrial Imaging Burau"
# © Copyright 2022 - TheBrim® d.o.o. Croatia
LUT_3D_SIZE 64
0.0127260243 0.0152590219 0.0176394293
0.0160830091 0.0173647669 0.0198062104
0.0213321126 0.0197756924 0.0224002441
0.0257267109 0.0219424735 0.0245670253
0.0320134279 0.0244754711 0.0268863966
0.0383306630 0.0261234455 0.0281376364
0.0444953079 0.0276493477 0.0291752499
0.0518196384 0.0287785153 0.0297550927
0.0592050050 0.0299076829 0.0303959716
0.0660715648 0.0315251392 0.0317082475
0.0738536660 0.0333257038 0.0330205234
0.0822766461 0.0352483406 0.0341496910
0.0911879149 0.0371709773 0.0353093767
0.0995498589 0.0386053254 0.0361638819
0.1102311742 0.0407110704 0.0370794232
0.1228351263 0.0430304417 0.0378118563
0.1364461738 0.0445868620 0.0379949645
0.1558251316 0.0452582589 0.0377508202
0.1727016098 0.0458686198 0.0370489052
0.1929350729 0.0462653544 0.0365300984
0.2136568246 0.0455939574 0.0351262684
0.2402380407 0.0442511635 0.0325932708
0.2669718471 0.0409857328 0.0290226596
0.2982833600 0.0336919203 0.0235294118
0.3235828183 0.0288700694 0.0200198367
0.3395132372 0.0270389868 0.0188296330
0.3552300298 0.0248111696 0.0177920195
0.3716792554 0.0213931487 0.0168764782
0.3865415427 0.0185244526 0.0169985504
0.4003356985 0.0177920195 0.0178835737
0.4151674678 0.0169985504 0.0188601511
0.4316777295 0.0148317693 0.0198062104
0.4481574731 0.0123598077 0.0206607156
0.4646982528 0.0098268101 0.0214236667
0.4790417334 0.0073548486 0.0222476539
0.4928358892 0.0049134051 0.0229495689
0.5070420386 0.0021362631 0.0236514839
0.5221179522 0.0000000000 0.0239261463
0.5361562524 0.0000000000 0.0252994583
0.5494926375 0.0000000000 0.0267948425
0.5609063859 0.0000000000 0.0285648890
0.5713740749 0.0000000000 0.0307316701
0.5823300526 0.0000000000 0.0324406806
0.5939574273 0.0000000000 0.0338139925
0.6046387427 0.0000000000 0.0350041962
0.6151674678 0.0000000000 0.0357671473
0.6250553140 0.0000000000 0.0369268330
0.6343022812 0.0000000000 0.0377508202
0.6419317922 0.0000000000 0.0386053254
0.6483405814 0.0000000000 0.0404669261
0.6519111925 0.0000000000 0.0409857328
0.6548104067 0.0000000000 0.0409857328
0.6573739223 0.0000000000 0.0404974441
0.6598458839 0.0000000000 0.0400091554
0.6617074846 0.0000000000 0.0393072404
0.6630807965 0.0000000000 0.0382391089
0.6643015183 0.0000000000 0.0373235676
0.6654306859 0.0000000000 0.0368047608
0.6655832761 0.0000000000 0.0353093767
0.6656443122 0.0000000000 0.0336308843
0.6657969024 0.0000000000 0.0336614023
0.6659494926 0.0000000000 0.0337834745
0.6683604181 0.0000000000 0.0336308843
0.6711680781 0.0000000000 0.0336003662
0.0159304189 0.0205386435 0.0217593652
0.0171206226 0.0202334630 0.0213015946
0.0232242313 0.0237430381 0.0247806516
0.0263675898 0.0245059892 0.0251773861
0.0325627527 0.0269474327 0.0273746853
0.0389715419 0.0279240101 0.0274662394
0.0451667048 0.0294193942 0.0285038529
0.0525215534 0.0303044175 0.0289921416
0.0601205463 0.0316166934 0.0295109483
0.0668955520 0.0327458610 0.0305485618
0.0748912795 0.0345159075 0.0318303197
0.0846875715 0.0362554360 0.0328679332
0.0936293584 0.0381780728 0.0338750286
0.1020523384 0.0396429389 0.0349736782
0.1133745327 0.0418402380 0.0358892195
0.1274128328 0.0441596094 0.0362554360
0.1420614939 0.0454413672 0.0362859541
0.1609216449 0.0456549935 0.0352178225
0.1773708705 0.0465094987 0.0347905699
0.1957122148 0.0476691844 0.0352483406
0.2167696651 0.0469977874 0.0336308843
0.2436255436 0.0454718853 0.0304264897
0.2687113756 0.0431830320 0.0276188296
0.2960860609 0.0385137713 0.0236209659
0.3218127718 0.0331120775 0.0199893187
0.3385061418 0.0310368505 0.0185244526
0.3541008621 0.0283817807 0.0177615015
0.3696040284 0.0242618448 0.0172121767
0.3850156405 0.0209353780 0.0173342489
0.3996948196 0.0190432593 0.0181887541
0.4148012512 0.0177309834 0.0190737774
0.4318608377 0.0149538415 0.0199282826
0.4481879911 0.0125123980 0.0207827878
0.4645151446 0.0100099184 0.0215457389
0.4789196612 0.0075989929 0.0224002441
0.4926222629 0.0052185855 0.0231631952
0.5067673762 0.0024414435 0.0238040742
0.5217822538 0.0000000000 0.0241397726
0.5362478065 0.0000000000 0.0254215305
0.5498588540 0.0000000000 0.0269779507
0.5608758679 0.0000000000 0.0286869612
0.5712214847 0.0000000000 0.0308537423
0.5823605707 0.0000000000 0.0325932708
0.5940794995 0.0000000000 0.0339971008
0.6046082246 0.0000000000 0.0351262684
0.6150759136 0.0000000000 0.0357976654
0.6249332418 0.0000000000 0.0369268330
0.6342107271 0.0000000000 0.0377813382
0.6418707561 0.0000000000 0.0386053254
0.6483100633 0.0000000000 0.0404364080
0.6519417105 0.0000000000 0.0410162509
0.6549019608 0.0000000000 0.0410772869
0.6573434043 0.0000000000 0.0404974441
0.6598458839 0.0000000000 0.0400396735
0.6617074846 0.0000000000 0.0393072404
0.6631113146 0.0000000000 0.0383001450
0.6642099641 0.0000000000 0.0372320134
0.6653696498 0.0000000000 0.0368047608
0.6655527581 0.0000000000 0.0352483406
0.6655832761 0.0000000000 0.0336003662
0.6657969024 0.0000000000 0.0336614023
0.6659494926 0.0000000000 0.0337834745
0.6710154879 0.0000000000 0.0336003662
0.6740978103 0.0000000000 0.0336919203
0.0205996796 0.0280155642 0.0280155642
0.0227359426 0.0278324559 0.0276188296
0.0249637598 0.0276493477 0.0270695048
0.0282597086 0.0284428168 0.0274662394
0.0332341497 0.0294499123 0.0279850462
0.0396734569 0.0304264897 0.0280155642
0.0458686198 0.0312504768 0.0279240101
0.0530708782 0.0320744640 0.0283512627
0.0607003891 0.0331425956 0.0286259251
0.0677500572 0.0344243534 0.0296635386
0.0757457847 0.0357671473 0.0307316701
0.0858472572 0.0374151217 0.0316472114
0.0961928740 0.0391851682 0.0325017166
0.1048905165 0.0407415885 0.0336614023
0.1161821927 0.0429999237 0.0346990158
0.1305867094 0.0453192950 0.0348210880
0.1473105974 0.0464484627 0.0347905699
0.1656519417 0.0465094987 0.0332036316
0.1834744793 0.0469367514 0.0321965362
0.2006561379 0.0483405814 0.0327458610
0.2197909514 0.0484931716 0.0323491264
0.2465552758 0.0468451972 0.0288090333
0.2721904326 0.0444953079 0.0255130846
0.2977340352 0.0411993591 0.0224307622
0.3201647974 0.0381170367 0.0202944991
0.3375295644 0.0362554360 0.0185549706
0.3534905013 0.0329594873 0.0175173571
0.3689631495 0.0282291905 0.0172732128
0.3833981842 0.0242313268 0.0177004654
0.3980163272 0.0215457389 0.0184939345
0.4140993362 0.0189822232 0.0193484398
0.4315251392 0.0157473106 0.0201419089
0.4483100633 0.0126344701 0.0209048600
0.4645761807 0.0101930266 0.0216678111
0.4787365530 0.0077821012 0.0224917983
0.4924086366 0.0054322118 0.0232852674
0.5065537499 0.0027466239 0.0239566644
0.5214465553 0.0000000000 0.0243228809
0.5359731441 0.0000000000 0.0256656748
0.5500114443 0.0000000000 0.0271305409
0.5611810483 0.0000000000 0.0288395514
0.5711909667 0.0000000000 0.0309452964
0.5821469444 0.0000000000 0.0326848249
0.5941405356 0.0000000000 0.0341802090
0.6046997787 0.0000000000 0.0352178225
0.6149538415 0.0000000000 0.0358587015
0.6248416876 0.0000000000 0.0369573510
0.6341496910 0.0000000000 0.0378118563
0.6418707561 0.0000000000 0.0386053254
0.6482490272 0.0000000000 0.0404364080
0.6519111925 0.0000000000 0.0410162509
0.6549629969 0.0000000000 0.0411993591
0.6574044404 0.0000000000 0.0406195163
0.6598153658 0.0000000000 0.0400396735
0.6616769665 0.0000000000 0.0393377584
0.6631113146 0.0000000000 0.0383001450
0.6642099641 0.0000000000 0.0372930495
0.6653086137 0.0000000000 0.0368047608
0.6654612039 0.0000000000 0.0352178225
0.6655527581 0.0000000000 0.0335698482
0.6658274205 0.0000000000 0.0336003662
0.6660105287 0.0000000000 0.0337529564
0.6711375601 0.0000000000 0.0336308843
0.6770580606 0.0000000000 0.0337529564
0.0224002441 0.0336003662 0.0302433814
0.0246585794 0.0329900053 0.0296940566
0.0268863966 0.0323186084 0.0290836957
0.0292973220 0.0319829099 0.0285954070
0.0349126421 0.0332341497 0.0292057679
0.0402227817 0.0337834745 0.0292668040
0.0465094987 0.0345769436 0.0291447318
0.0532539864 0.0349126421 0.0292973220
0.0608834974 0.0357061112 0.0295719844
0.0681773098 0.0368657969 0.0301823453
0.0761120012 0.0382696269 0.0311589227
0.0857862211 0.0394293126 0.0316777295
0.0959792477 0.0410162509 0.0325017166
0.1069352255 0.0427252613 0.0334477760
0.1181658656 0.0447699702 0.0342107271
0.1336079957 0.0468146792 0.0331120775
0.1498130770 0.0481574731 0.0334782940
0.1657740139 0.0490119783 0.0333867399
0.1841458762 0.0493171588 0.0321049821
0.2026092927 0.0502632181 0.0317998016
0.2219272145 0.0507820249 0.0313115129
0.2474708171 0.0492866407 0.0276798657
0.2713054093 0.0479438468 0.0250247959
0.2926375219 0.0466620890 0.0236209659
0.3165636683 0.0435187304 0.0211795224
0.3356069276 0.0407110704 0.0192874037
0.3513542382 0.0385137713 0.0181582361
0.3661249714 0.0345159075 0.0182192721
0.3811093309 0.0303959716 0.0187685969
0.3959716182 0.0275577935 0.0193789578
0.4120241093 0.0231021592 0.0198367285
0.4306706340 0.0175783932 0.0203555352
0.4478217746 0.0137331197 0.0210879683
0.4643625544 0.0103456168 0.0217593652
0.4785839628 0.0080567636 0.0226443885
0.4922560464 0.0057679103 0.0234683757
0.5061570153 0.0030518044 0.0240787366
0.5210498207 0.0000000000 0.0245059892
0.5359731441 0.0000000000 0.0258182650
0.5504386969 0.0000000000 0.0272831312
0.5612726024 0.0000000000 0.0289616236
0.5711299306 0.0000000000 0.0309758145
0.5820553902 0.0000000000 0.0328068971
0.5940489815 0.0000000000 0.0343327993
0.6047302968 0.0000000000 0.0353398947
0.6150759136 0.0000000000 0.0359807736
0.6246890974 0.0000000000 0.0369573510
0.6339665827 0.0000000000 0.0378118563
0.6418402380 0.0000000000 0.0386053254
0.6483100633 0.0000000000 0.0404364080
0.6519722286 0.0000000000 0.0411383230
0.6550240330 0.0000000000 0.0413214313
0.6574654765 0.0000000000 0.0407110704
0.6598153658 0.0000000000 0.0400701915
0.6617074846 0.0000000000 0.0393987945
0.6631723507 0.0000000000 0.0383916991
0.6642099641 0.0000000000 0.0373235676
0.6652475776 0.0000000000 0.0367132067
0.6654001678 0.0000000000 0.0352178225
0.6655222400 0.0000000000 0.0335698482
0.6677500572 0.0000000000 0.0335088121
0.6681467918 0.0000000000 0.0336614023
0.6739147021 0.0000000000 0.0336919203
0.6799267567 0.0000000000 0.0338445106
0.0239566644 0.0393987945 0.0325017166
0.0264286259 0.0389715419 0.0319523919
0.0287174792 0.0382391089 0.0312809949
0.0322575723 0.0381170367 0.0309147784
0.0365606165 0.0382085908 0.0307011521
0.0420538643 0.0388189517 0.0307621881
0.0471808957 0.0392767224 0.0306706340
0.0541084916 0.0397344930 0.0308537423
0.0614023041 0.0402227817 0.0309758145
0.0687876707 0.0413214313 0.0315556573
0.0766613260 0.0423895628 0.0320744640
0.0864576181 0.0432745861 0.0324406806
0.0961013199 0.0439765011 0.0327153429
0.1068741894 0.0453803311 0.0335698482
0.1198138399 0.0472419318 0.0341496910
0.1354390784 0.0489814603 0.0326848249
0.1526512551 0.0498970016 0.0317387655
0.1679407950 0.0510261692 0.0321049821
0.1844510567 0.0519722286 0.0321660182
0.2034943160 0.0527351797 0.0316472114
0.2237888151 0.0530403601 0.0304875257
0.2485694667 0.0515449760 0.0267338064
0.2720378424 0.0507515068 0.0243839170
0.2912642100 0.0502937362 0.0234988937
0.3117723354 0.0492256046 0.0222171359
0.3322194247 0.0463263905 0.0202944991
0.3494010834 0.0431219959 0.0189211872
0.3639276722 0.0402227817 0.0191042954
0.3789730678 0.0367742428 0.0197756924
0.3937132830 0.0336614023 0.0204470893
0.4100099184 0.0292057679 0.0207217517
0.4281986725 0.0222171359 0.0209048600
0.4468451972 0.0159914549 0.0213931487
0.4637521935 0.0117799649 0.0219729915
0.4784618906 0.0083924620 0.0227664607
0.4920424201 0.0061646448 0.0235904479
0.5059433890 0.0035095750 0.0242618448
0.5206225681 0.0000000000 0.0247501335
0.5356374456 0.0000000000 0.0260013733
0.5505302510 0.0000000000 0.0274662394
0.5616388190 0.0000000000 0.0291447318
0.5712825208 0.0000000000 0.0311284047
0.5820553902 0.0000000000 0.0328984512
0.5939269093 0.0000000000 0.0344548714
0.6046997787 0.0000000000 0.0355535210
0.6151064317 0.0000000000 0.0360418097
0.6246585794 0.0000000000 0.0370489052
0.6337834745 0.0000000000 0.0378728923
0.6417181659 0.0000000000 0.0386358434
0.6483100633 0.0000000000 0.0404669261
0.6520027466 0.0000000000 0.0411383230
0.6551155871 0.0000000000 0.0414435035
0.6574959945 0.0000000000 0.0408331426
0.6598458839 0.0000000000 0.0401312276
0.6617990387 0.0000000000 0.0394598306
0.6632944228 0.0000000000 0.0384222171
0.6643320363 0.0000000000 0.0372930495
0.6653086137 0.0000000000 0.0367132067
0.6655222400 0.0000000000 0.0351567864
0.6656748302 0.0000000000 0.0335393301
0.6679636835 0.0000000000 0.0334477760
0.6704356451 0.0000000000 0.0336003662
0.6765697719 0.0000000000 0.0337529564
0.6830701152 0.0020752270 0.0341496910
0.0249027237 0.0440070192 0.0340886549
0.0272526131 0.0441290913 0.0339971008
0.0298161288 0.0436408026 0.0333562219
0.0335088121 0.0438544289 0.0334782940
0.0375982300 0.0438544289 0.0332036316
0.0428168154 0.0440070192 0.0332341497
0.0481879911 0.0445868620 0.0331731136
0.0544747082 0.0453192950 0.0332036316
0.0621652552 0.0459906920 0.0335088121
0.0693980316 0.0464789807 0.0333562219
0.0769054704 0.0474555581 0.0338445106
0.0864271000 0.0482795453 0.0340886549
0.0963759823 0.0491035325 0.0343022812
0.1069352255 0.0498054475 0.0341802090
0.1195086595 0.0514839399 0.0349431601
0.1336995499 0.0531624323 0.0343022812
0.1507896544 0.0545662623 0.0332951858
0.1666895552 0.0559090562 0.0333562219
0.1831387808 0.0567940795 0.0329900053
0.2053559167 0.0572518502 0.0309452964
0.2245212482 0.0577096208 0.0304264897
0.2446936751 0.0568551156 0.0287174792
0.2673990997 0.0556649119 0.0255436027
0.2862897688 0.0559395743 0.0242618448
0.3070115206 0.0547798886 0.0233157855
0.3283131151 0.0521858549 0.0215457389
0.3454947738 0.0492866407 0.0202944991
0.3597772183 0.0469977874 0.0205996796
0.3757381552 0.0439459831 0.0209353780
0.3915465019 0.0401007095 0.0215152209
0.4072327764 0.0359807736 0.0218204013
0.4250247959 0.0305180438 0.0219729915
0.4432135500 0.0239261463 0.0222476539
0.4601510643 0.0193789578 0.0226443885
0.4762035554 0.0143129625 0.0230716411
0.4907606622 0.0100709545 0.0238956283
0.5044785229 0.0069275959 0.0244449531
0.5189440757 0.0028686961 0.0249637598
0.5350270848 0.0000000000 0.0262760357
0.5505912871 0.0000000000 0.0276188296
0.5617914092 0.0000000000 0.0292362860
0.5716182193 0.0000000000 0.0312809949
0.5819638361 0.0000000000 0.0331120775
0.5937132830 0.0000000000 0.0346379797
0.6046997787 0.0000000000 0.0356145571
0.6153505760 0.0000000000 0.0361028458
0.6245059892 0.0000000000 0.0371099413
0.6334477760 0.0000000000 0.0379644465
0.6416266117 0.0000000000 0.0386053254
0.6483405814 0.0000000000 0.0404364080
0.6521858549 0.0000000000 0.0412298772
0.6552986954 0.0000000000 0.0415655756
0.6580148013 0.0000000000 0.0409246967
0.6603646906 0.0000000000 0.0401922637
0.6631418326 0.0000000000 0.0396429389
0.6647287709 0.0000000000 0.0386358434
0.6664988174 0.0000000000 0.0374151217
0.6675059129 0.0000000000 0.0366826886
0.6687266346 0.0000000000 0.0350347143
0.6689097429 0.0000000000 0.0332951858
0.6724803540 0.0000000000 0.0334477760
0.6754100862 0.0000000000 0.0336614023
0.6810559243 0.0000000000 0.0339360647
0.6876783398 0.0130006867 0.0341191730
0.0258182650 0.0506904707 0.0362249180
0.0281376364 0.0505989166 0.0360723278
0.0312199588 0.0504158083 0.0358281834
0.0352788586 0.0504158083 0.0358587015
0.0389715419 0.0504463264 0.0359502556
0.0439154650 0.0500801099 0.0358892195
0.0487678340 0.0498359655 0.0356145571
0.0553902495 0.0505989166 0.0356145571
0.0624704356 0.0514229038 0.0357976654
0.0699778744 0.0520332647 0.0357366293
0.0772106508 0.0525215534 0.0354924849
0.0865491722 0.0533150225 0.0356755932
0.0963149462 0.0541390097 0.0358587015
0.1070572976 0.0548714427 0.0355840391
0.1192339971 0.0557869841 0.0354619669
0.1329365988 0.0573434043 0.0350347143
0.1482566567 0.0589913787 0.0345464256
0.1649805447 0.0605172808 0.0346684977
0.1814297704 0.0615854124 0.0340886549
0.2042267491 0.0623178454 0.0317082475
0.2258030060 0.0623178454 0.0297550927
0.2449683375 0.0620737011 0.0286869612
0.2634622721 0.0615854124 0.0272526131
0.2811627375 0.0618905928 0.0259403372
0.3022507057 0.0615548943 0.0241092546
0.3240100710 0.0588693065 0.0226138705
0.3422903792 0.0567635615 0.0217593652
0.3565423056 0.0549629969 0.0221560998
0.3724116884 0.0519417105 0.0225223163
0.3895323110 0.0484321355 0.0227359426
0.4052185855 0.0434271763 0.0230106050
0.4221866178 0.0378118563 0.0231021592
0.4400701915 0.0321355001 0.0233157855
0.4573739223 0.0269169146 0.0236820020
0.4749828336 0.0215457389 0.0237430381
0.4894483864 0.0158388647 0.0243228809
0.5031052110 0.0112306401 0.0246280613
0.5174181735 0.0080872816 0.0250858320
0.5337453269 0.0021057450 0.0266117342
0.5501029984 0.0000000000 0.0278934920
0.5620355535 0.0000000000 0.0294193942
0.5719539178 0.0000000000 0.0314335851
0.5823910887 0.0000000000 0.0332646677
0.5937743191 0.0000000000 0.0346990158
0.6046387427 0.0000000000 0.0357976654
0.6154726482 0.0000000000 0.0361333639
0.6248111696 0.0000000000 0.0371099413
0.6335088121 0.0000000000 0.0379034104
0.6416571298 0.0000000000 0.0385137713
0.6485542077 0.0000000000 0.0403448539
0.6526131075 0.0000000000 0.0412298772
0.6560311284 0.0000000000 0.0416876478
0.6588082704 0.0000000000 0.0411078050
0.6613412680 0.0000000000 0.0402227817
0.6641794461 0.0000000000 0.0397039750
0.6665598535 0.0000000000 0.0388799878
0.6683299001 0.0000000000 0.0375677119
0.6700999466 0.0000000000 0.0367742428
0.6713511864 0.0000000000 0.0350347143
0.6726939803 0.0000000000 0.0333867399
0.6765087358 0.0000000000 0.0335088121
0.6804760815 0.0000000000 0.0338139925
0.6863355459 0.0099794003 0.0341802090
0.6921950103 0.0238956283 0.0334172580
0.0273136492 0.0567330434 0.0385442893
0.0294193942 0.0568856336 0.0383916991
0.0333867399 0.0567940795 0.0382696269
0.0366826886 0.0569161517 0.0382391089
0.0408331426 0.0570382238 0.0383001450
0.0447394522 0.0569466697 0.0382085908
0.0494392309 0.0566109712 0.0379949645
0.0550240330 0.0567025254 0.0376897841
0.0626535439 0.0576485847 0.0378423743
0.0700083925 0.0582894636 0.0378728923
0.0773632410 0.0585641260 0.0375371939
0.0864881361 0.0592355230 0.0372930495
0.0960708019 0.0596932937 0.0375066758
0.1064774548 0.0603646906 0.0375066758
0.1185626001 0.0612497139 0.0373540856
0.1318684672 0.0627756161 0.0374456397
0.1455710689 0.0642099641 0.0365911345
0.1632715343 0.0652170596 0.0353704128
0.1800564584 0.0664988174 0.0348821241
0.1997711147 0.0673838407 0.0337529564
0.2220492866 0.0682688640 0.0316777295
0.2406652934 0.0686350805 0.0309147784
0.2602578775 0.0681467918 0.0288395514
0.2790569924 0.0673533227 0.0261234455
0.2979171435 0.0673228046 0.0251468681
0.3180895705 0.0664377813 0.0244754711
0.3370412757 0.0642099641 0.0235599298
0.3530022126 0.0626230259 0.0236514839
0.3696040284 0.0600289921 0.0238040742
0.3884641794 0.0557869841 0.0241092546
0.4037537194 0.0534370947 0.0243839170
0.4189517052 0.0499885557 0.0247806516
0.4370794232 0.0439765011 0.0246585794
0.4562142367 0.0378118563 0.0246585794
0.4732738231 0.0329289693 0.0249027237
0.4888075074 0.0285648890 0.0251163500
0.5024948501 0.0244144350 0.0254215305
0.5164110780 0.0213321126 0.0261844816
0.5321889067 0.0161135271 0.0272831312
0.5481498436 0.0090028229 0.0281376364
0.5628595407 0.0036621653 0.0293278401
0.5731746395 0.0022278172 0.0315251392
0.5833676661 0.0028381781 0.0332951858
0.5946593423 0.0027771420 0.0342412451
0.6055237659 0.0000000000 0.0352788586
0.6165407797 0.0000000000 0.0357366293
0.6263675898 0.0000000000 0.0364690623
0.6355535210 0.0000000000 0.0375982300
0.6443732357 0.0000000000 0.0378118563
0.6517586023 0.0000000000 0.0397039750
0.6579537652 0.0000000000 0.0412298772
0.6615243763 0.0000000000 0.0417181659
0.6646066987 0.0000000000 0.0411078050
0.6672617685 0.0000000000 0.0403753719
0.6699473564 0.0000000000 0.0399176013
0.6726939803 0.0000000000 0.0392767224
0.6742198825 0.0000000000 0.0379949645
0.6758983749 0.0000000000 0.0370794232
0.6771190967 0.0000000000 0.0353093767
0.6783703365 0.0000000000 0.0335393301
0.6825513085 0.0015564202 0.0338139925
0.6867322805 0.0110170138 0.0341496910
0.6918287938 0.0231021592 0.0333867399
0.6975661860 0.0368047608 0.0324711986
0.0289311055 0.0626230259 0.0411688411
0.0321660182 0.0628366522 0.0408941787
0.0354619669 0.0629587243 0.0406805524
0.0386968795 0.0629892424 0.0405889982
0.0420843824 0.0631723507 0.0405889982
0.0464789807 0.0632028687 0.0404974441
0.0502632181 0.0631723507 0.0404058900
0.0558175021 0.0632639048 0.0401007095
0.0623483635 0.0636911574 0.0399481193
0.0703440909 0.0645761807 0.0399786374
0.0776073854 0.0651865415 0.0397344930
0.0864271000 0.0659494926 0.0393987945
0.0963759823 0.0667124437 0.0393987945
0.1067826352 0.0675364309 0.0395819028
0.1188372625 0.0683604181 0.0396124208
0.1325398642 0.0695201038 0.0397344930
0.1454795148 0.0707103075 0.0393072404
0.1618982223 0.0718699931 0.0377203021
0.1794460975 0.0726329442 0.0359807736
0.1982757305 0.0734874495 0.0347600519
0.2191195544 0.0741893645 0.0335088121
0.2378881514 0.0749828336 0.0325627527
0.2568703746 0.0749217975 0.0312199588
0.2764019226 0.0739452201 0.0277409018
0.2950179294 0.0730296788 0.0257572290
0.3135729000 0.0723277638 0.0256961929
0.3312123293 0.0714427405 0.0253604944
0.3480277714 0.0699168383 0.0253299763
0.3656977188 0.0677805753 0.0253299763
0.3853208209 0.0639353017 0.0252689403
0.4026245518 0.0607919432 0.0255741207
0.4170290684 0.0596627756 0.0260929274
0.4336919203 0.0559090562 0.0263370718
0.4533150225 0.0495002670 0.0259708553
0.4719310292 0.0441596094 0.0259708553
0.4883192187 0.0399481193 0.0261844816
0.5019455253 0.0371709773 0.0263675898
0.5158312352 0.0346379797 0.0273441672
0.5310597391 0.0298771649 0.0286259251
0.5474174105 0.0228885328 0.0292057679
0.5632562753 0.0166018158 0.0299382010
0.5751888304 0.0126344701 0.0317692836
0.5857175555 0.0121766995 0.0336919203
0.5966735332 0.0126344701 0.0345159075
0.6074769207 0.0101625086 0.0352178225
0.6180972000 0.0059510185 0.0357671473
0.6285648890 0.0042725261 0.0361028458
0.6380560006 0.0045166705 0.0372625315
0.6477912566 0.0042725261 0.0378118563
0.6556038758 0.0053406577 0.0391546502
0.6627145800 0.0069886320 0.0409857328
0.6669871061 0.0090943771 0.0415350576
0.6703135729 0.0105592432 0.0410162509
0.6731822690 0.0115968566 0.0404058900
0.6758373388 0.0124513619 0.0398870832
0.6786755169 0.0136720836 0.0395208667
0.6805065995 0.0131837949 0.0384832532
0.6818799115 0.0116273747 0.0374456397
0.6831921874 0.0093385214 0.0356755932
0.6845044633 0.0071412222 0.0339665827
0.6886243992 0.0160219730 0.0336614023
0.6928969253 0.0257877470 0.0331731136
0.6979018845 0.0376897841 0.0322880903
0.7033035782 0.0504768444 0.0317082475
0.0302128634 0.0686655985 0.0435492485
0.0331425956 0.0687876707 0.0433051041
0.0364385443 0.0688181888 0.0430609598
0.0394293126 0.0686350805 0.0426947433
0.0427557794 0.0686961166 0.0424505989
0.0467841611 0.0688181888 0.0422369726
0.0512092775 0.0689707790 0.0422064546
0.0564583810 0.0695506218 0.0421149004
0.0628061341 0.0699168383 0.0419623102
0.0700694285 0.0708323796 0.0419623102
0.0780041199 0.0716258488 0.0417792020
0.0870984970 0.0727855344 0.0414129854
0.0970168612 0.0736705577 0.0413824674
0.1078202487 0.0749828336 0.0415655756
0.1196612497 0.0758373388 0.0415960937
0.1345235370 0.0767528801 0.0410772869
0.1477378500 0.0778820478 0.0408331426
0.1620202945 0.0791638056 0.0401617456
0.1787747005 0.0803234913 0.0384832532
0.1951934081 0.0812695506 0.0370794232
0.2175326162 0.0826123445 0.0354924849
0.2379186694 0.0824902724 0.0326848249
0.2566872663 0.0831311513 0.0317998016
0.2748760204 0.0826733806 0.0302433814
0.2929121843 0.0816662852 0.0281071183
0.3098191806 0.0807202258 0.0278324559
0.3275806821 0.0788891432 0.0274357214
0.3466239414 0.0767528801 0.0267032883
0.3630731670 0.0750133516 0.0268253605
0.3807125963 0.0729381247 0.0268558785
0.3995422293 0.0700083925 0.0269169146
0.4152590219 0.0678416114 0.0272220951
0.4319523919 0.0653391318 0.0274357214
0.4509651331 0.0598458839 0.0273441672
0.4692759594 0.0557259480 0.0272831312
0.4862439918 0.0531624323 0.0274967575
