LUTs/SPK Cube Block1 S64/TheBrim_SPK_Type-O_Block1_S64.cube
TITLE "TheBrim® SPK Block 1"
# © Copyright 2021 - TheBrim® d.o.o. Croatia
LUT_3D_SIZE 4
DOMAIN_MIN 0.000000 0.000000 0.000000
DOMAIN_MAX 1.000000 1.000000 1.000000
0.001770 0.000977 0.001221
0.080232 0.007111 0.004242
0.538048 0.000000 0.000000
0.625818 0.000000 0.000000
0.000000 0.134951 0.086000
0.144442 0.153567 0.047791
0.656397 0.156985 0.000000
0.739498 0.085664 0.000000
0.000000 0.499367 0.389136
0.000000 0.575982 0.351995
0.835874 0.722347 0.041627
0.972351 0.667811 0.000000
0.000000 0.668086 0.368322
0.422827 0.732601 0.338354
0.869139 0.809964 0.158785
1.000000 0.817655 0.000000
0.001587 0.010224 0.089174
0.099458 0.013092 0.099153
0.563195 0.000000 0.089906
0.644068 0.000000 0.050721
0.000000 0.167697 0.224582
0.130098 0.174838 0.186831
0.672969 0.165133 0.145296
0.758694 0.099977 0.106386
0.000000 0.507836 0.429877
0.000000 0.585901 0.415778
0.835050 0.748348 0.310246
0.973419 0.710109 0.123598
0.164004 0.691402 0.361273
0.482246 0.744228 0.327703
0.875151 0.828519 0.292119
0.997101 0.862394 0.317266
0.000000 0.051301 0.333593
0.148898 0.047791 0.349950
0.569055 0.000000 0.326421
0.698146 0.000000 0.283848
0.000000 0.196109 0.454719
0.127718 0.211978 0.478798
0.690517 0.192752 0.452369
0.777127 0.132784 0.382544
0.000000 0.539025 0.607446
0.000000 0.650263 0.652461
0.828428 0.799374 0.654292
0.957366 0.762661 0.590082
0.090394 0.757382 0.640864
0.477363 0.809262 0.652369
0.866331 0.884428 0.660670
0.977966 0.907408 0.658137
0.000000 0.177798 0.447303
0.120119 0.191684 0.464759
0.493629 0.190494 0.462989
0.724483 0.139986 0.416083
0.000000 0.259678 0.505974
0.117769 0.276158 0.519768
0.541588 0.294316 0.525200
0.811337 0.345098 0.519280
0.000000 0.634119 0.706264
0.254551 0.720485 0.739773
0.839109 0.804715 0.745357
0.948730 0.812375 0.714992
0.239780 0.799771 0.776425
0.549096 0.848264 0.793240
0.886625 0.910552 0.813626
0.967559 0.927031 0.819974
