LUTs/SPK Cube Block1 S64/TheBrim_SPK_Type-C_Block1_S64.cube
TITLE "TheBrim® SPK Block 1"
# TheBrim® d.o.o. Croatia
# Copyright: (C) Copyright 2020 TheBrim® d.o.o. Croatia
LUT_3D_SIZE 64
0.0000000000 0.0000000000 0.0000000000
0.0000000000 0.0000000000 0.0000000000
0.0000000000 0.0000000000 0.0000000000
0.0000000000 0.0000000000 0.0000000000
0.0000000000 0.0000000000 0.0000000000
0.0001220000 0.0000000000 0.0000000000
0.0004580000 0.0000000000 0.0000000000
0.0009160000 0.0000000000 0.0000000000
0.0013730000 0.0000000000 0.0000000000
0.0018920000 0.0000000000 0.0000000000
0.0023500000 0.0000000000 0.0000000000
0.0029300000 0.0000000000 0.0000000000
0.0037840000 0.0000000000 0.0000000000
0.0052190000 0.0000000000 0.0000000000
0.0071110000 0.0000000000 0.0000000000
0.0094300000 0.0000000000 0.0000000000
0.0121770000 0.0000000000 0.0000000000
0.0154420000 0.0000000000 0.0000000000
0.0192260000 0.0000000000 0.0000000000
0.0240480000 0.0000000000 0.0000000000
0.0302730000 0.0000000000 0.0000000000
0.0385740000 0.0000000000 0.0000000000
0.0488280000 0.0000000000 0.0000000000
0.0606380000 0.0000000000 0.0000000000
0.0740050000 0.0000000000 0.0000000000
0.0892030000 0.0000000000 0.0000000000
0.1062320000 0.0000000000 0.0000000000
0.1246950000 0.0000000000 0.0000000000
0.1445620000 0.0000000000 0.0000000000
0.1659850000 0.0000000000 0.0000000000
0.1890260000 0.0000310000 0.0000310000
0.2131650000 0.0000310000 0.0000310000
0.2380680000 0.0000610000 0.0000610000
0.2634280000 0.0000610000 0.0000610000
0.2905580000 0.0000920000 0.0000920000
0.3187870000 0.0000920000 0.0000920000
0.3479610000 0.0000920000 0.0000920000
0.3777160000 0.0001220000 0.0001220000
0.4079590000 0.0001220000 0.0001220000
0.4380190000 0.0001830000 0.0001830000
0.4678340000 0.0002440000 0.0002440000
0.4973450000 0.0003050000 0.0003050000
0.5263670000 0.0003660000 0.0003660000
0.5550230000 0.0004270000 0.0004270000
0.5831600000 0.0004880000 0.0004880000
0.6105040000 0.0005490000 0.0005490000
0.6354370000 0.0006100000 0.0006100000
0.6596680000 0.0006710000 0.0006710000
0.6831050000 0.0007320000 0.0007320000
0.7057800000 0.0007930000 0.0007930000
0.7267150000 0.0008540000 0.0008540000
0.7463070000 0.0009460000 0.0009460000
0.7650150000 0.0010070000 0.0010070000
0.7828370000 0.0010680000 0.0010680000
0.7991640000 0.0011290000 0.0011290000
0.8141170000 0.0011900000 0.0011900000
0.8280030000 0.0012820000 0.0012820000
0.8408200000 0.0013430000 0.0013430000
0.8523250000 0.0014040000 0.0014040000
0.8626710000 0.0014650000 0.0014650000
0.8721920000 0.0015560000 0.0015560000
0.8809510000 0.0016170000 0.0016170000
0.8890380000 0.0016780000 0.0016780000
0.8964230000 0.0017400000 0.0017400000
0.0000000000 0.0000000000 0.0000000000
0.0000000000 0.0000000000 0.0000000000
0.0000000000 0.0000000000 0.0000000000
0.0000000000 0.0000000000 0.0000000000
0.0000310000 0.0000000000 0.0000000000
0.0001220000 0.0000000000 0.0000000000
0.0005800000 0.0000000000 0.0000000000
0.0010380000 0.0000000000 0.0000000000
0.0015260000 0.0000000000 0.0000000000
0.0020140000 0.0000000000 0.0000000000
0.0024720000 0.0000000000 0.0000000000
0.0031430000 0.0000000000 0.0000000000
0.0041810000 0.0000000000 0.0000000000
0.0056460000 0.0000000000 0.0000000000
0.0076900000 0.0000000000 0.0000000000
0.0101620000 0.0000000000 0.0000000000
0.0130620000 0.0000000000 0.0000000000
0.0163880000 0.0000000000 0.0000000000
0.0202940000 0.0000000000 0.0000000000
0.0256650000 0.0000000000 0.0000000000
0.0325620000 0.0000000000 0.0000000000
0.0410770000 0.0000000000 0.0000000000
0.0517270000 0.0000310000 0.0000000000
0.0641780000 0.0000310000 0.0000000000
0.0781560000 0.0000610000 0.0000000000
0.0936280000 0.0000610000 0.0000000000
0.1109620000 0.0000920000 0.0000000000
0.1299740000 0.0000920000 0.0000000000
0.1504210000 0.0001220000 0.0000310000
0.1721190000 0.0001220000 0.0000310000
0.1953430000 0.0001220000 0.0000610000
0.2199400000 0.0001830000 0.0000610000
0.2450260000 0.0002440000 0.0000920000
0.2707520000 0.0003050000 0.0000920000
0.2980650000 0.0003660000 0.0000920000
0.3266300000 0.0004270000 0.0001220000
0.3560490000 0.0004880000 0.0001220000
0.3859250000 0.0005490000 0.0001830000
0.4162290000 0.0006100000 0.0002440000
0.4461670000 0.0006710000 0.0003050000
0.4758610000 0.0007320000 0.0003660000
0.5052490000 0.0008240000 0.0004270000
0.5342710000 0.0008850000 0.0004880000
0.5627440000 0.0009460000 0.0005490000
0.5905460000 0.0010070000 0.0006100000
0.6172490000 0.0010680000 0.0006710000
0.6422420000 0.0011600000 0.0007320000
0.6661680000 0.0012210000 0.0007930000
0.6893010000 0.0012820000 0.0008540000
0.7114870000 0.0013430000 0.0009460000
0.7323910000 0.0014040000 0.0010070000
0.7515260000 0.0014950000 0.0010680000
0.7698970000 0.0015560000 0.0011290000
0.7872620000 0.0016170000 0.0011900000
0.8035890000 0.0017090000 0.0012820000
0.8180850000 0.0017700000 0.0013430000
0.8315120000 0.0018310000 0.0014040000
0.8439640000 0.0018920000 0.0014650000
0.8553770000 0.0019530000 0.0015560000
0.8654170000 0.0020450000 0.0016170000
0.8746030000 0.0021060000 0.0016780000
0.8831480000 0.0021670000 0.0017400000
0.8911740000 0.0022280000 0.0018310000
0.8983760000 0.0022890000 0.0018920000
0.0000000000 0.0000000000 0.0000000000
0.0000000000 0.0000000000 0.0000000000
0.0000000000 0.0000000000 0.0000000000
0.0000000000 0.0000000000 0.0000000000
0.0000610000 0.0000000000 0.0000000000
0.0002440000 0.0000000000 0.0000000000
0.0006710000 0.0000000000 0.0000000000
0.0011600000 0.0000000000 0.0000000000
0.0016480000 0.0000000000 0.0000000000
0.0021360000 0.0000000000 0.0000000000
0.0025940000 0.0000000000 0.0000000000
0.0033570000 0.0000000000 0.0000000000
0.0045780000 0.0000000000 0.0000000000
0.0061950000 0.0000000000 0.0000000000
0.0082400000 0.0000310000 0.0000000000
0.0108950000 0.0000310000 0.0000000000
0.0139470000 0.0000610000 0.0000000000
0.0174560000 0.0000610000 0.0000000000
0.0214230000 0.0000920000 0.0000000000
0.0272520000 0.0000920000 0.0000000000
0.0347900000 0.0001220000 0.0000000000
0.0439760000 0.0001220000 0.0000000000
0.0547490000 0.0001530000 0.0000000000
0.0677190000 0.0002140000 0.0000000000
0.0822750000 0.0002750000 0.0000000000
0.0983280000 0.0003360000 0.0000000000
0.1158450000 0.0003970000 0.0000310000
0.1352540000 0.0004580000 0.0000310000
0.1562500000 0.0005190000 0.0000610000
0.1784360000 0.0005800000 0.0000610000
0.2018430000 0.0006410000 0.0000610000
0.2266850000 0.0007020000 0.0000920000
0.2519230000 0.0007630000 0.0000920000
0.2781980000 0.0008240000 0.0001220000
0.3057250000 0.0008850000 0.0001220000
0.3345640000 0.0009460000 0.0001830000
0.3641660000 0.0010380000 0.0002440000
0.3941960000 0.0010990000 0.0003050000
0.4244080000 0.0011600000 0.0003660000
0.4543150000 0.0012210000 0.0004270000
0.4838870000 0.0012820000 0.0004880000
0.5131530000 0.0013730000 0.0005490000
0.5420530000 0.0014340000 0.0006100000
0.5704960000 0.0014950000 0.0006710000
0.5980830000 0.0015560000 0.0007320000
0.6240540000 0.0016480000 0.0007930000
0.6488040000 0.0017090000 0.0008540000
0.6726680000 0.0017700000 0.0009460000
0.6954960000 0.0018310000 0.0010070000
0.7171630000 0.0019230000 0.0010680000
0.7376100000 0.0019840000 0.0011290000
0.7567140000 0.0020450000 0.0011900000
0.7747800000 0.0021060000 0.0012510000
0.7917180000 0.0021670000 0.0013430000
0.8075260000 0.0022280000 0.0014040000
0.8220210000 0.0022890000 0.0014650000
0.8350520000 0.0023500000 0.0015260000
0.8470760000 0.0024110000 0.0016170000
0.8580930000 0.0024720000 0.0016780000
0.8681340000 0.0025330000 0.0017400000
0.8770140000 0.0025940000 0.0018010000
0.8853450000 0.0027160000 0.0018920000
0.8931580000 0.0028380000 0.0019530000
0.9002990000 0.0029300000 0.0020140000
0.0000000000 0.0000000000 0.0000000000
0.0000000000 0.0000000000 0.0000000000
0.0000000000 0.0000000000 0.0000000000
0.0000000000 0.0000000000 0.0000000000
0.0000920000 0.0000000000 0.0000000000
0.0003660000 0.0000000000 0.0000000000
0.0008240000 0.0000310000 0.0000000000
0.0013120000 0.0000310000 0.0000000000
0.0018010000 0.0000610000 0.0000000000
0.0022580000 0.0000610000 0.0000000000
0.0028080000 0.0000920000 0.0000000000
0.0036010000 0.0000920000 0.0000000000
0.0049740000 0.0001220000 0.0000000000
0.0067440000 0.0001220000 0.0000000000
0.0089420000 0.0001530000 0.0000000000
0.0116270000 0.0002140000 0.0000000000
0.0148620000 0.0002750000 0.0000000000
0.0185240000 0.0003360000 0.0000000000
0.0230100000 0.0003970000 0.0000000000
0.0288390000 0.0004580000 0.0000000000
0.0370480000 0.0005190000 0.0000000000
0.0468750000 0.0005800000 0.0000000000
0.0582890000 0.0006410000 0.0000000000
0.0712280000 0.0007020000 0.0000000000
0.0864260000 0.0007630000 0.0000310000
0.1030580000 0.0008240000 0.0000310000
0.1211240000 0.0009160000 0.0000610000
0.1405940000 0.0009770000 0.0000610000
0.1620790000 0.0010380000 0.0000610000
0.1847840000 0.0010990000 0.0000920000
0.2086180000 0.0011600000 0.0000920000
0.2334900000 0.0012510000 0.0001220000
0.2588200000 0.0013120000 0.0001220000
0.2856450000 0.0013730000 0.0001830000
0.3135070000 0.0014340000 0.0002440000
0.3424070000 0.0015260000 0.0003050000
0.3722530000 0.0015870000 0.0003660000
0.4024350000 0.0016480000 0.0004270000
0.4325560000 0.0017090000 0.0004880000
0.4624330000 0.0018010000 0.0005490000
0.4919430000 0.0018620000 0.0006100000
0.5210570000 0.0019230000 0.0006710000
0.5498050000 0.0019840000 0.0007320000
0.5780940000 0.0020450000 0.0007930000
0.6055300000 0.0021060000 0.0008540000
0.6309200000 0.0021970000 0.0009160000
0.6553340000 0.0022580000 0.0010070000
0.6790160000 0.0023190000 0.0010680000
0.7016910000 0.0023800000 0.0011290000
0.7228700000 0.0024410000 0.0011900000
0.7428280000 0.0025020000 0.0012510000
0.7616880000 0.0025630000 0.0013430000
0.7796630000 0.0026250000 0.0014040000
0.7961730000 0.0027470000 0.0014650000
0.8114620000 0.0028380000 0.0015260000
0.8256230000 0.0029600000 0.0016170000
0.8385930000 0.0030520000 0.0016780000
0.8502200000 0.0031740000 0.0017400000
0.8608700000 0.0032960000 0.0018010000
0.8705750000 0.0033870000 0.0018920000
0.8794250000 0.0035100000 0.0019530000
0.8875730000 0.0036320000 0.0020140000
0.8951110000 0.0037840000 0.0020750000
0.9019470000 0.0039670000 0.0021360000
0.0000000000 0.0000610000 0.0000000000
0.0000000000 0.0000610000 0.0000000000
0.0000000000 0.0000920000 0.0000000000
0.0000000000 0.0000920000 0.0000000000
0.0001220000 0.0001220000 0.0000000000
0.0004880000 0.0001220000 0.0000000000
0.0009460000 0.0001830000 0.0000000000
0.0014340000 0.0002440000 0.0000000000
0.0019230000 0.0003050000 0.0000000000
0.0023800000 0.0003660000 0.0000000000
0.0030210000 0.0004270000 0.0000000000
0.0039060000 0.0004880000 0.0000000000
0.0053410000 0.0005490000 0.0000000000
0.0072940000 0.0005800000 0.0000000000
0.0096740000 0.0006710000 0.0000000000
0.0124820000 0.0007020000 0.0000000000
0.0157470000 0.0007930000 0.0000000000
0.0195920000 0.0008540000 0.0000000000
0.0245970000 0.0009160000 0.0000000000
0.0310360000 0.0009770000 0.0000000000
0.0393370000 0.0010380000 0.0000000000
0.0498050000 0.0011290000 0.0000000000
0.0618290000 0.0011900000 0.0000310000
0.0754090000 0.0012510000 0.0000310000
0.0906070000 0.0013120000 0.0000610000
0.1078190000 0.0014040000 0.0000610000
0.1264650000 0.0014650000 0.0000610000
0.1464840000 0.0015260000 0.0000920000
0.1679080000 0.0015870000 0.0000920000
0.1911010000 0.0016780000 0.0001220000
0.2153630000 0.0017400000 0.0001220000
0.2403870000 0.0018010000 0.0001830000
0.2657470000 0.0018620000 0.0002440000
0.2930600000 0.0019230000 0.0003050000
0.3214420000 0.0020140000 0.0003660000
0.3506160000 0.0020750000 0.0004270000
0.3804630000 0.0021360000 0.0004880000
0.4106750000 0.0021970000 0.0005490000
0.4407040000 0.0022580000 0.0006100000
0.4704590000 0.0023190000 0.0006710000
0.4999390000 0.0023800000 0.0007320000
0.5289610000 0.0024410000 0.0007930000
0.5575560000 0.0025020000 0.0008540000
0.5855410000 0.0025630000 0.0009160000
0.6127320000 0.0026550000 0.0010070000
0.6377260000 0.0027470000 0.0010680000
0.6618350000 0.0028690000 0.0011290000
0.6852110000 0.0029910000 0.0011900000
0.7077030000 0.0030820000 0.0012510000
0.7286070000 0.0032040000 0.0013430000
0.7480770000 0.0032960000 0.0014040000
0.7665410000 0.0034180000 0.0014650000
0.7842710000 0.0035400000 0.0015260000
0.8006290000 0.0036320000 0.0016170000
0.8154300000 0.0038150000 0.0016780000
0.8291320000 0.0040280000 0.0017400000
0.8418270000 0.0042110000 0.0018010000
0.8533630000 0.0044250000 0.0018920000
0.8635860000 0.0046080000 0.0019530000
0.8729860000 0.0048220000 0.0020140000
0.8816830000 0.0050050000 0.0020750000
0.8898010000 0.0052190000 0.0021360000
0.8970950000 0.0054020000 0.0021970000
0.9036250000 0.0056150000 0.0022580000
0.0000000000 0.0003050000 0.0000000000
0.0000000000 0.0003660000 0.0000000000
0.0000000000 0.0004270000 0.0000000000
0.0000310000 0.0004880000 0.0000000000
0.0001830000 0.0005490000 0.0000000000
0.0006100000 0.0006100000 0.0000000000
0.0010680000 0.0006710000 0.0000000000
0.0015560000 0.0007320000 0.0000000000
0.0020450000 0.0007930000 0.0000000000
0.0025020000 0.0008540000 0.0000000000
0.0032350000 0.0009160000 0.0000000000
0.0043030000 0.0010070000 0.0000000000
0.0058290000 0.0010680000 0.0000000000
0.0078740000 0.0011290000 0.0000000000
0.0104060000 0.0011900000 0.0000000000
0.0133670000 0.0012510000 0.0000000000
0.0167240000 0.0013430000 0.0000000000
0.0206600000 0.0014040000 0.0000000000
0.0261840000 0.0014650000 0.0000000000
0.0332950000 0.0015260000 0.0000000000
0.0420530000 0.0016170000 0.0000310000
0.0527040000 0.0016780000 0.0000310000
0.0653690000 0.0017400000 0.0000610000
0.0795290000 0.0018010000 0.0000610000
0.0952150000 0.0018920000 0.0000610000
0.1125490000 0.0019530000 0.0000920000
0.1317140000 0.0020140000 0.0000920000
0.1522520000 0.0020750000 0.0001220000
0.1741940000 0.0021360000 0.0001220000
0.1974180000 0.0021970000 0.0001830000
0.2221370000 0.0022580000 0.0002440000
0.2472840000 0.0023190000 0.0003050000
0.2731930000 0.0023800000 0.0003660000
0.3005070000 0.0024410000 0.0004270000
0.3292850000 0.0025330000 0.0004880000
0.3587040000 0.0025940000 0.0005490000
0.3887020000 0.0026550000 0.0006100000
0.4189760000 0.0027770000 0.0006710000
0.4489140000 0.0028990000 0.0007320000
0.4785770000 0.0029910000 0.0007930000
0.5078430000 0.0031130000 0.0008540000
0.5368350000 0.0032040000 0.0009160000
0.5652770000 0.0033260000 0.0009770000
0.5929870000 0.0034480000 0.0010680000
0.6195370000 0.0035400000 0.0011290000
0.6444700000 0.0036620000 0.0011900000
0.6683350000 0.0038450000 0.0012510000
0.6914060000 0.0040590000 0.0013120000
0.7134090000 0.0042420000 0.0014040000
0.7341610000 0.0044560000 0.0014650000
0.7532650000 0.0046390000 0.0015260000
0.7714840000 0.0048520000 0.0015870000
0.7887270000 0.0050350000 0.0016780000
0.8048710000 0.0052490000 0.0017400000
0.8193660000 0.0054320000 0.0018010000
0.8326720000 0.0056760000 0.0018620000
0.8449710000 0.0059510000 0.0019530000
0.8562930000 0.0062260000 0.0020140000
0.8663330000 0.0065310000 0.0020750000
0.8753970000 0.0068050000 0.0021360000
0.8838810000 0.0070800000 0.0021970000
0.8918460000 0.0073850000 0.0022580000
0.8990480000 0.0076600000 0.0023190000
0.9052730000 0.0079350000 0.0023800000
0.0000000000 0.0007930000 0.0000000000
0.0000000000 0.0008850000 0.0000000000
0.0000000000 0.0009460000 0.0000000000
0.0000610000 0.0010070000 0.0000000000
0.0002750000 0.0010680000 0.0000000000
0.0007320000 0.0011290000 0.0000000000
0.0012210000 0.0012210000 0.0000000000
0.0017090000 0.0012820000 0.0000000000
0.0021670000 0.0013430000 0.0000000000
0.0026550000 0.0014040000 0.0000000000
0.0034480000 0.0014950000 0.0000000000
0.0047000000 0.0015560000 0.0000000000
0.0063780000 0.0016170000 0.0000000000
0.0084840000 0.0016780000 0.0000000000
0.0111390000 0.0017700000 0.0000000000
0.0142520000 0.0018310000 0.0000000000
0.0177920000 0.0018920000 0.0000000000
0.0219420000 0.0019530000 0.0000000000
0.0277710000 0.0020450000 0.0000310000
0.0355220000 0.0021060000 0.0000310000
0.0449520000 0.0021670000 0.0000310000
0.0559390000 0.0022280000 0.0000610000
0.0688780000 0.0022890000 0.0000610000
0.0836790000 0.0023500000 0.0000920000
0.0999150000 0.0024110000 0.0000920000
0.1176150000 0.0024720000 0.0001220000
0.1370240000 0.0025330000 0.0001220000
0.1581420000 0.0025940000 0.0001830000
0.1805110000 0.0026860000 0.0002440000
0.2040710000 0.0028080000 0.0003050000
0.2289120000 0.0028990000 0.0003660000
0.2541810000 0.0030210000 0.0004270000
0.2806400000 0.0031130000 0.0004880000
0.3082890000 0.0032350000 0.0005490000
0.3371280000 0.0033570000 0.0006100000
0.3668210000 0.0034480000 0.0006710000
0.3969420000 0.0035710000 0.0007320000
0.4271550000 0.0036930000 0.0007930000
0.4570620000 0.0038760000 0.0008540000
0.4866030000 0.0040890000 0.0009160000
0.5158080000 0.0042720000 0.0009770000
0.5446470000 0.0044860000 0.0010680000
0.5731200000 0.0046690000 0.0011290000
0.6005250000 0.0048830000 0.0011900000
0.6263430000 0.0050660000 0.0012510000
0.6509700000 0.0052800000 0.0013120000
0.6748350000 0.0054630000 0.0014040000
0.6975710000 0.0057370000 0.0014650000
0.7190860000 0.0060120000 0.0015260000
0.7393800000 0.0062870000 0.0015870000
0.7584230000 0.0065610000 0.0016780000
0.7763670000 0.0068660000 0.0017400000
0.7931820000 0.0071410000 0.0018010000
0.8088070000 0.0074160000 0.0018620000
0.8232420000 0.0076900000 0.0019530000
0.8362120000 0.0079960000 0.0020140000
0.8481140000 0.0082700000 0.0020750000
0.8590090000 0.0086360000 0.0021360000
0.8689580000 0.0090030000 0.0021970000
0.8778080000 0.0093690000 0.0022580000
0.8861080000 0.0097350000 0.0023190000
0.8937990000 0.0101010000 0.0023800000
0.9008790000 0.0104980000 0.0024410000
0.9069210000 0.0108640000 0.0025020000
0.0000000000 0.0013430000 0.0000000000
0.0000000000 0.0014340000 0.0000000000
0.0000000000 0.0014950000 0.0000000000
0.0000920000 0.0015560000 0.0000000000
0.0003970000 0.0016170000 0.0000000000
0.0008540000 0.0017090000 0.0000000000
0.0013430000 0.0017700000 0.0000000000
0.0018310000 0.0018310000 0.0000000000
0.0022890000 0.0018920000 0.0000000000
0.0028690000 0.0019840000 0.0000000000
0.0036620000 0.0020450000 0.0000000000
0.0050960000 0.0021060000 0.0000000000
0.0069270000 0.0021670000 0.0000000000
0.0091860000 0.0022280000 0.0000000000
0.0118710000 0.0022890000 0.0000000000
0.0151370000 0.0023500000 0.0000000000
0.0188900000 0.0024110000 0.0000310000
0.0235290000 0.0024720000 0.0000310000
0.0295100000 0.0025330000 0.0000310000
0.0377810000 0.0025940000 0.0000610000
0.0478520000 0.0027160000 0.0000610000
0.0594480000 0.0028080000 0.0000920000
0.0726320000 0.0029300000 0.0000920000
0.0877990000 0.0030520000 0.0001220000
0.1046450000 0.0031430000 0.0001220000
0.1228940000 0.0032650000 0.0001830000
0.1425480000 0.0033570000 0.0002440000
0.1639710000 0.0034790000 0.0003050000
0.1868290000 0.0036010000 0.0003660000
0.2108150000 0.0037230000 0.0004270000
0.2357480000 0.0039370000 0.0004880000
0.2610780000 0.0041200000 0.0005490000
0.2880550000 0.0043330000 0.0006100000
0.3161620000 0.0045170000 0.0006710000
0.3451540000 0.0047300000 0.0007320000
0.3749080000 0.0049130000 0.0007930000
0.4052120000 0.0051270000 0.0008540000
0.4353030000 0.0053100000 0.0009160000
0.4651180000 0.0055240000 0.0009770000
0.4946290000 0.0057680000 0.0010680000
0.5237120000 0.0060730000 0.0011290000
0.5523990000 0.0063480000 0.0011900000
0.5805970000 0.0066220000 0.0012510000
0.6079710000 0.0068970000 0.0013120000
0.6331480000 0.0072020000 0.0014040000
0.6574710000 0.0074770000 0.0014650000
0.6810300000 0.0077510000 0.0015260000
0.7037660000 0.0080260000 0.0015870000
0.7247920000 0.0083310000 0.0016780000
0.7445680000 0.0087280000 0.0017400000
0.7633060000 0.0090940000 0.0018010000
0.7812500000 0.0094300000 0.0018620000
0.7976680000 0.0098270000 0.0019530000
0.8127750000 0.0101930000 0.0020140000
0.8267820000 0.0105590000 0.0020750000
0.8397220000 0.0109250000 0.0021360000
0.8512270000 0.0112920000 0.0021970000
0.8617550000 0.0116580000 0.0022580000
0.8713680000 0.0120850000 0.0023190000
0.8801880000 0.0125430000 0.0023800000
0.8883060000 0.0130000000 0.0024410000
0.8957520000 0.0134580000 0.0025020000
0.9025270000 0.0138850000 0.0025630000
0.9085080000 0.0143430000 0.0026550000
0.0000000000 0.0019230000 0.0000000000
0.0000000000 0.0019840000 0.0000000000
0.0000310000 0.0020450000 0.0000000000
0.0001220000 0.0021060000 0.0000000000
0.0005190000 0.0021670000 0.0000000000
0.0009770000 0.0022280000 0.0000000000
0.0014650000 0.0022890000 0.0000000000
0.0019840000 0.0023500000 0.0000000000
0.0024410000 0.0024410000 0.0000000000
0.0030820000 0.0025020000 0.0000000000
0.0040590000 0.0025630000 0.0000000000
0.0054630000 0.0026250000 0.0000000000
0.0074770000 0.0027160000 0.0000000000
0.0099180000 0.0028380000 0.0000000000
0.0127560000 0.0029600000 0.0000310000
0.0160520000 0.0030520000 0.0000310000
0.0199580000 0.0031740000 0.0000310000
0.0251160000 0.0032650000 0.0000610000
0.0317690000 0.0033870000 0.0000610000
0.0401000000 0.0035100000 0.0000920000
0.0507510000 0.0036010000 0.0000920000
0.0629880000 0.0037540000 0.0001220000
0.0767520000 0.0039670000 0.0001220000
0.0920410000 0.0041500000 0.0001830000
0.1093750000 0.0043640000 0.0002440000
0.1282040000 0.0045470000 0.0003050000
0.1483760000 0.0047610000 0.0003660000
0.1699220000 0.0049440000 0.0004270000
0.1932370000 0.0051570000 0.0004880000
0.2175900000 0.0053410000 0.0005190000
0.2426450000 0.0055540000 0.0005800000
0.2681880000 0.0058290000 0.0006410000
0.2955020000 0.0061040000 0.0007020000
0.3240050000 0.0064090000 0.0007930000
0.3532410000 0.0066830000 0.0008540000
0.3830870000 0.0069580000 0.0009160000
0.4134520000 0.0072330000 0.0009770000
0.4434510000 0.0075380000 0.0010380000
0.4731750000 0.0078120000 0.0011290000
0.5025940000 0.0080870000 0.0011900000
0.5316160000 0.0084230000 0.0012510000
0.5601500000 0.0087890000 0.0013120000
0.5880430000 0.0091550000 0.0013730000
0.6148990000 0.0095210000 0.0014650000
0.6399540000 0.0098880000 0.0015260000
0.6639710000 0.0102540000 0.0015870000
0.6872250000 0.0106200000 0.0016480000
0.7095640000 0.0109860000 0.0017400000
0.7304690000 0.0113530000 0.0018010000
0.7497560000 0.0117190000 0.0018620000
0.7681880000 0.0121770000 0.0019230000
0.7857360000 0.0126340000 0.0020140000
0.8021240000 0.0130920000 0.0020750000
0.8167420000 0.0135190000 0.0021360000
0.8303220000 0.0139770000 0.0021970000
0.8428960000 0.0144350000 0.0022580000
0.8544010000 0.0148930000 0.0023190000
0.8644710000 0.0153500000 0.0023800000
0.8737790000 0.0158080000 0.0024410000
0.8823850000 0.0162960000 0.0025020000
0.8905030000 0.0168150000 0.0025630000
0.8977360000 0.0173650000 0.0026550000
0.9041750000 0.0179140000 0.0027470000
0.9098820000 0.0184630000 0.0028690000
0.0000000000 0.0024410000 0.0000000000
0.0000000000 0.0025020000 0.0000000000
0.0000610000 0.0025630000 0.0000000000
0.0002140000 0.0026250000 0.0000000000
0.0006410000 0.0027470000 0.0000000000
0.0011290000 0.0028690000 0.0000000000
0.0016170000 0.0029600000 0.0000000000
0.0021060000 0.0030820000 0.0000000000
0.0025630000 0.0031740000 0.0000000000
0.0032960000 0.0032960000 0.0000000000
0.0044250000 0.0034180000 0.0000000000
0.0060120000 0.0035100000 0.0000000000
0.0080570000 0.0036320000 0.0000000000
0.0106510000 0.0038150000 0.0000310000
0.0136720000 0.0039980000 0.0000310000
0.0170900000 0.0042110000 0.0000610000
0.0210270000 0.0043950000 0.0000610000
0.0267330000 0.0046080000 0.0000920000
0.0340270000 0.0047910000 0.0000920000
0.0429690000 0.0049740000 0.0001220000
0.0536500000 0.0051880000 0.0001220000
0.0665280000 0.0053710000 0.0001830000
0.0809020000 0.0055850000 0.0002140000
0.0967410000 0.0058900000 0.0002750000
0.1141050000 0.0061650000 0.0003360000
0.1334840000 0.0064390000 0.0003970000
0.1542360000 0.0067140000 0.0004580000
0.1762700000 0.0070190000 0.0005190000
0.1995850000 0.0072940000 0.0005800000
0.2244260000 0.0075680000 0.0006410000
0.2496030000 0.0078740000 0.0007020000
0.2756960000 0.0081480000 0.0007930000
0.3030090000 0.0084840000 0.0008540000
0.3318480000 0.0088500000 0.0009160000
0.3613590000 0.0092160000 0.0009770000
0.3913270000 0.0095830000 0.0010380000
