LUTs/SPK Cube Block1 S64/TheBrim_SPK_Type-Y_Block1_S64.cube
TITLE "TheBrim® Industrial Imaging Burau"
# © Copyright 2022 - TheBrim® d.o.o. Croatia
LUT_3D_SIZE 8
DOMAIN_MIN 0.000000 0.000000 0.000000
DOMAIN_MAX 1.000000 1.000000 1.000000
0.000000 0.000031 0.000031
0.034637 0.000031 0.000031
0.153442 0.000031 0.000031
0.379578 0.000031 0.000031
0.629578 0.000031 0.000031
0.896454 0.000031 0.000031
0.997650 0.000031 0.000031
0.999969 0.000031 0.000031
0.000000 0.064453 0.000031
0.034637 0.064453 0.000031
0.153442 0.064453 0.000031
0.379578 0.064453 0.000031
0.629578 0.064453 0.000031
0.896454 0.064453 0.000031
0.997650 0.064453 0.000031
0.999969 0.064453 0.000031
0.000000 0.188904 0.000031
0.034637 0.188904 0.000031
0.153442 0.188904 0.000031
0.379578 0.188904 0.000031
0.629578 0.188904 0.000031
0.896454 0.188904 0.000031
0.997650 0.188904 0.000031
0.999969 0.188904 0.000031
0.000000 0.387177 0.000031
0.034637 0.387177 0.000031
0.153442 0.387177 0.000031
0.379578 0.387177 0.000031
0.629578 0.387177 0.000031
0.896454 0.387177 0.000031
0.997650 0.387177 0.000031
0.999969 0.387177 0.000031
0.000000 0.627594 0.000031
0.034637 0.627594 0.000031
0.153442 0.627594 0.000031
0.379578 0.627594 0.000031
0.629578 0.627594 0.000031
0.896454 0.627594 0.000031
0.997650 0.627594 0.000031
0.999969 0.627594 0.000031
0.000000 0.877808 0.000031
0.034637 0.877808 0.000031
0.153442 0.877808 0.000031
0.379578 0.877808 0.000031
0.629578 0.877808 0.000031
0.896454 0.877808 0.000031
0.997650 0.877808 0.000031
0.999969 0.877808 0.000031
0.000000 0.977661 0.000031
0.034637 0.977661 0.000031
0.153442 0.977661 0.000031
0.379578 0.977661 0.000031
0.629578 0.977661 0.000031
0.896454 0.977661 0.000031
0.997650 0.977661 0.000031
0.999969 0.977661 0.000031
0.000000 0.986603 0.000031
0.034637 0.986603 0.000031
0.153442 0.986603 0.000031
0.379578 0.986603 0.000031
0.629578 0.986603 0.000031
0.896454 0.986603 0.000031
0.997650 0.986603 0.000031
0.999969 0.986603 0.000031
0.000000 0.000031 0.056946
0.034637 0.000031 0.056946
0.153442 0.000031 0.056946
0.379578 0.000031 0.056946
0.629578 0.000031 0.056946
0.896454 0.000031 0.056946
0.997650 0.000031 0.056946
0.999969 0.000031 0.056946
0.000000 0.064453 0.056946
0.034637 0.064453 0.056946
0.153442 0.064453 0.056946
0.379578 0.064453 0.056946
0.629578 0.064453 0.056946
0.896454 0.064453 0.056946
0.997650 0.064453 0.056946
0.999969 0.064453 0.056946
0.000000 0.188904 0.056946
0.034637 0.188904 0.056946
0.153442 0.188904 0.056946
0.379578 0.188904 0.056946
0.629578 0.188904 0.056946
0.896454 0.188904 0.056946
0.997650 0.188904 0.056946
0.999969 0.188904 0.056946
0.000000 0.387177 0.056946
0.034637 0.387177 0.056946
0.153442 0.387177 0.056946
0.379578 0.387177 0.056946
0.629578 0.387177 0.056946
0.896454 0.387177 0.056946
0.997650 0.387177 0.056946
0.999969 0.387177 0.056946
0.000000 0.627594 0.056946
0.034637 0.627594 0.056946
0.153442 0.627594 0.056946
0.379578 0.627594 0.056946
0.629578 0.627594 0.056946
0.896454 0.627594 0.056946
0.997650 0.627594 0.056946
0.999969 0.627594 0.056946
0.000000 0.877808 0.056946
0.034637 0.877808 0.056946
0.153442 0.877808 0.056946
0.379578 0.877808 0.056946
0.629578 0.877808 0.056946
0.896454 0.877808 0.056946
0.997650 0.877808 0.056946
0.999969 0.877808 0.056946
0.000000 0.977661 0.056946
0.034637 0.977661 0.056946
0.153442 0.977661 0.056946
0.379578 0.977661 0.056946
0.629578 0.977661 0.056946
0.896454 0.977661 0.056946
0.997650 0.977661 0.056946
0.999969 0.977661 0.056946
0.000000 0.986603 0.056946
0.034637 0.986603 0.056946
0.153442 0.986603 0.056946
0.379578 0.986603 0.056946
0.629578 0.986603 0.056946
0.896454 0.986603 0.056946
0.997650 0.986603 0.056946
0.999969 0.986603 0.056946
0.000000 0.000031 0.185150
0.034637 0.000031 0.185150
0.153442 0.000031 0.185150
0.379578 0.000031 0.185150
0.629578 0.000031 0.185150
0.896454 0.000031 0.185150
0.997650 0.000031 0.185150
0.999969 0.000031 0.185150
0.000000 0.064453 0.185150
0.034637 0.064453 0.185150
0.153442 0.064453 0.185150
0.379578 0.064453 0.185150
0.629578 0.064453 0.185150
0.896454 0.064453 0.185150
0.997650 0.064453 0.185150
0.999969 0.064453 0.185150
0.000000 0.188904 0.185150
0.034637 0.188904 0.185150
0.153442 0.188904 0.185150
0.379578 0.188904 0.185150
0.629578 0.188904 0.185150
0.896454 0.188904 0.185150
0.997650 0.188904 0.185150
0.999969 0.188904 0.185150
0.000000 0.387177 0.185150
0.034637 0.387177 0.185150
0.153442 0.387177 0.185150
0.379578 0.387177 0.185150
0.629578 0.387177 0.185150
0.896454 0.387177 0.185150
0.997650 0.387177 0.185150
0.999969 0.387177 0.185150
0.000000 0.627594 0.185150
0.034637 0.627594 0.185150
0.153442 0.627594 0.185150
0.379578 0.627594 0.185150
0.629578 0.627594 0.185150
0.896454 0.627594 0.185150
0.997650 0.627594 0.185150
0.999939 0.627594 0.185150
0.000000 0.877808 0.185150
0.034637 0.877808 0.185150
0.153442 0.877808 0.185150
0.379578 0.877808 0.185150
0.629578 0.877808 0.185150
0.896454 0.877808 0.185150
0.997650 0.877808 0.185150
0.999939 0.877808 0.185150
0.000000 0.977661 0.185150
0.034637 0.977661 0.185150
0.153442 0.977661 0.185150
0.379578 0.977661 0.185150
0.629578 0.977661 0.185150
0.896454 0.977661 0.185150
0.997650 0.977661 0.185150
0.999969 0.977661 0.185150
0.000000 0.986603 0.185150
0.034637 0.986603 0.185150
0.153442 0.986603 0.185150
0.379578 0.986603 0.185150
0.629578 0.986603 0.185150
0.896454 0.986603 0.185150
0.997650 0.986603 0.185150
0.999969 0.986603 0.185150
0.000000 0.000031 0.376648
0.034637 0.000031 0.376648
0.153442 0.000031 0.376648
0.379578 0.000031 0.376648
0.629578 0.000031 0.376648
0.896454 0.000031 0.376648
0.997650 0.000031 0.376648
0.999969 0.000031 0.376648
0.000000 0.064453 0.376648
0.034637 0.064453 0.376648
0.153442 0.064453 0.376648
0.379578 0.064453 0.376648
0.629578 0.064453 0.376648
0.896454 0.064453 0.376648
0.997650 0.064453 0.376648
0.999969 0.064453 0.376648
0.000000 0.188904 0.376648
0.034637 0.188904 0.376648
0.153442 0.188904 0.376648
0.379578 0.188904 0.376648
0.629578 0.188904 0.376648
0.896454 0.188904 0.376648
0.997650 0.188904 0.376648
0.999969 0.188904 0.376648
0.000000 0.387177 0.376648
0.034637 0.387177 0.376648
0.153442 0.387177 0.376648
0.379578 0.387177 0.376648
0.629578 0.387177 0.376648
0.896454 0.387177 0.376648
0.997650 0.387177 0.376648
0.999969 0.387177 0.376648
0.000000 0.627594 0.376648
0.034637 0.627594 0.376648
0.153442 0.627594 0.376648
0.379578 0.627594 0.376648
0.629578 0.627594 0.376648
0.896454 0.627594 0.376648
0.997650 0.627594 0.376648
0.999969 0.627594 0.376648
0.000000 0.877808 0.376648
0.034637 0.877808 0.376648
0.153442 0.877808 0.376648
0.379578 0.877808 0.376648
0.629578 0.877808 0.376648
0.896454 0.877808 0.376648
0.997650 0.877808 0.376648
0.999939 0.877808 0.376648
0.000000 0.977661 0.376648
0.034637 0.977661 0.376648
0.153442 0.977661 0.376648
0.379578 0.977661 0.376648
0.629578 0.977661 0.376648
0.896454 0.977661 0.376648
0.997650 0.977661 0.376648
0.999969 0.977661 0.376648
0.000000 0.986603 0.376648
0.034637 0.986603 0.376648
0.153442 0.986603 0.376648
0.379578 0.986603 0.376648
0.629578 0.986603 0.376648
0.896454 0.986603 0.376648
0.997650 0.986603 0.376648
0.999969 0.986603 0.376648
0.000000 0.000031 0.574249
0.034637 0.000031 0.574249
0.153442 0.000031 0.574249
0.379578 0.000031 0.574249
0.629578 0.000031 0.574249
0.896454 0.000031 0.574249
0.997650 0.000031 0.574249
0.999969 0.000031 0.574249
0.000000 0.064453 0.574249
0.034637 0.064453 0.574249
0.153442 0.064453 0.574249
0.379578 0.064453 0.574249
0.629578 0.064453 0.574249
0.896454 0.064453 0.574249
0.997650 0.064453 0.574249
0.999969 0.064453 0.574249
0.000000 0.188904 0.574249
0.034637 0.188904 0.574249
0.153442 0.188904 0.574249
0.379578 0.188904 0.574249
0.629578 0.188904 0.574249
0.896454 0.188904 0.574249
0.997650 0.188904 0.574249
0.999939 0.188904 0.574249
0.000000 0.387177 0.574249
0.034637 0.387177 0.574249
0.153442 0.387177 0.574249
0.379578 0.387177 0.574249
0.629578 0.387177 0.574249
0.896454 0.387177 0.574249
0.997650 0.387177 0.574249
0.999969 0.387177 0.574249
0.000000 0.627594 0.574249
0.034637 0.627594 0.574249
0.153442 0.627594 0.574249
0.379578 0.627594 0.574249
0.629578 0.627594 0.574249
0.896454 0.627594 0.574249
0.997650 0.627594 0.574249
0.999969 0.627594 0.574249
0.000000 0.877808 0.574249
0.034637 0.877808 0.574249
0.153442 0.877808 0.574249
0.379578 0.877808 0.574249
0.629578 0.877808 0.574249
0.896454 0.877808 0.574249
0.997650 0.877808 0.574249
0.999969 0.877808 0.574249
0.000000 0.977661 0.574249
0.034637 0.977661 0.574249
0.153442 0.977661 0.574249
0.379578 0.977661 0.574249
0.629578 0.977661 0.574249
0.896454 0.977661 0.574249
0.997650 0.977661 0.574249
0.999969 0.977661 0.574249
0.000000 0.986603 0.574249
0.034637 0.986603 0.574249
0.153442 0.986603 0.574249
0.379578 0.986603 0.574249
0.629578 0.986603 0.574249
0.896454 0.986603 0.574249
0.997650 0.986603 0.574249
0.999969 0.986603 0.574249
0.000000 0.000031 0.780151
0.034637 0.000031 0.780151
0.153442 0.000031 0.780151
0.379578 0.000031 0.780151
0.629578 0.000031 0.780151
0.896454 0.000031 0.780151
0.997650 0.000031 0.780151
0.999969 0.000031 0.780151
0.000000 0.064453 0.780151
0.034637 0.064453 0.780151
0.153442 0.064453 0.780151
0.379578 0.064453 0.780151
0.629578 0.064453 0.780151
0.896454 0.064453 0.780151
0.997650 0.064453 0.780151
0.999969 0.064453 0.780151
0.000000 0.188904 0.780151
0.034637 0.188904 0.780151
0.153442 0.188904 0.780151
0.379578 0.188904 0.780151
0.629578 0.188904 0.780151
0.896454 0.188904 0.780151
0.997650 0.188904 0.780151
0.999939 0.188904 0.780151
0.000000 0.387177 0.780151
0.034637 0.387177 0.780151
0.153442 0.387177 0.780151
0.379578 0.387177 0.780151
0.629578 0.387177 0.780151
0.896454 0.387177 0.780151
0.997650 0.387177 0.780151
0.999939 0.387177 0.780151
0.000000 0.627594 0.780151
0.034637 0.627594 0.780151
0.153442 0.627594 0.780151
0.379578 0.627594 0.780151
0.629578 0.627594 0.780151
0.896454 0.627594 0.780151
0.997650 0.627594 0.780151
0.999969 0.627594 0.780151
0.000000 0.877808 0.780151
0.034637 0.877808 0.780151
0.153442 0.877808 0.780151
0.379578 0.877808 0.780151
0.629578 0.877808 0.780151
0.896454 0.877808 0.780151
0.997650 0.877808 0.780151
0.999969 0.877808 0.780151
0.000000 0.977661 0.780151
0.034637 0.977661 0.780151
0.153442 0.977661 0.780151
0.379578 0.977661 0.780151
0.629578 0.977661 0.780151
0.896454 0.977661 0.780151
0.997650 0.977661 0.780151
0.999969 0.977661 0.780151
0.000000 0.986603 0.780151
0.034637 0.986603 0.780151
0.153442 0.986603 0.780151
0.379578 0.986603 0.780151
0.629578 0.986603 0.780151
0.896454 0.986603 0.780151
0.997650 0.986603 0.780151
0.999969 0.986603 0.780151
0.000000 0.000031 0.943115
0.034637 0.000031 0.943115
0.153442 0.000031 0.943115
0.379578 0.000031 0.943115
0.629578 0.000031 0.943115
0.896454 0.000031 0.943115
0.997650 0.000031 0.943115
0.999969 0.000031 0.943115
0.000000 0.064453 0.943115
0.034637 0.064453 0.943115
0.153442 0.064453 0.943115
0.379578 0.064453 0.943115
0.629578 0.064453 0.943115
0.896454 0.064453 0.943115
0.997650 0.064453 0.943115
0.999969 0.064453 0.943115
0.000000 0.188904 0.943115
0.034637 0.188904 0.943115
0.153442 0.188904 0.943115
0.379578 0.188904 0.943115
0.629578 0.188904 0.943115
0.896454 0.188904 0.943115
0.997650 0.188904 0.943115
0.999969 0.188904 0.943115
0.000000 0.387177 0.943115
0.034637 0.387177 0.943115
0.153442 0.387177 0.943115
0.379578 0.387177 0.943115
0.629578 0.387177 0.943115
0.896454 0.387177 0.943115
0.997650 0.387177 0.943115
0.999969 0.387177 0.943115
0.000000 0.627594 0.943115
0.034637 0.627594 0.943115
0.153442 0.627594 0.943115
0.379578 0.627594 0.943115
0.629578 0.627594 0.943115
0.896454 0.627594 0.943115
0.997650 0.627594 0.943115
0.999969 0.627594 0.943115
0.000000 0.877808 0.943115
0.034637 0.877808 0.943115
0.153442 0.877808 0.943115
0.379578 0.877808 0.943115
0.629578 0.877808 0.943115
0.896454 0.877808 0.943115
0.997650 0.877808 0.943115
0.999969 0.877808 0.943115
0.000000 0.977661 0.943115
0.034637 0.977661 0.943115
0.153442 0.977661 0.943115
0.379578 0.977661 0.943115
0.629578 0.977661 0.943115
0.896454 0.977661 0.943115
0.997650 0.977661 0.943115
0.999969 0.977661 0.943115
0.000000 0.986603 0.943115
0.034637 0.986603 0.943115
0.153442 0.986603 0.943115
0.379578 0.986603 0.943115
0.629578 0.986603 0.943115
0.896454 0.986603 0.943115
0.997650 0.986603 0.943115
0.999969 0.986603 0.943115
0.000000 0.000031 0.958984
0.034637 0.000031 0.958984
0.153442 0.000031 0.958984
0.379578 0.000031 0.958984
0.629578 0.000031 0.958984
0.896454 0.000031 0.958984
0.997650 0.000031 0.958984
0.999969 0.000031 0.958984
0.000000 0.064453 0.958984
0.034637 0.064453 0.958984
0.153442 0.064453 0.958984
0.379578 0.064453 0.958984
0.629578 0.064453 0.958984
0.896454 0.064453 0.958984
0.997650 0.064453 0.958984
0.999969 0.064453 0.958984
0.000000 0.188904 0.958984
0.034637 0.188904 0.958984
0.153442 0.188904 0.958984
0.379578 0.188904 0.958984
0.629578 0.188904 0.958984
0.896454 0.188904 0.958984
0.997650 0.188904 0.958984
0.999969 0.188904 0.958984
0.000000 0.387177 0.958984
0.034637 0.387177 0.958984
0.153442 0.387177 0.958984
0.379578 0.387177 0.958984
0.629578 0.387177 0.958984
0.896454 0.387177 0.958984
0.997650 0.387177 0.958984
0.999969 0.387177 0.958984
0.000000 0.627594 0.958984
0.034637 0.627594 0.958984
0.153442 0.627594 0.958984
0.379578 0.627594 0.958984
0.629578 0.627594 0.958984
0.896454 0.627594 0.958984
0.997650 0.627594 0.958984
0.999969 0.627594 0.958984
0.000000 0.877808 0.958984
0.034637 0.877808 0.958984
0.153442 0.877808 0.958984
0.379578 0.877808 0.958984
0.629578 0.877808 0.958984
0.896454 0.877808 0.958984
0.997650 0.877808 0.958984
0.999969 0.877808 0.958984
0.000000 0.977661 0.958984
0.034637 0.977661 0.958984
0.153442 0.977661 0.958984
0.379578 0.977661 0.958984
0.629578 0.977661 0.958984
0.896454 0.977661 0.958984
0.997650 0.977661 0.958984
0.999969 0.977661 0.958984
0.000000 0.986603 0.958984
0.034637 0.986603 0.958984
0.153442 0.986603 0.958984
0.379578 0.986603 0.958984
0.629578 0.986603 0.958984
0.896454 0.986603 0.958984
0.997650 0.986603 0.958984
0.999969 0.986603 0.958984
