LUTs/SPK Cube Block1 S64/TheBrim_SPK_Type-H_Block1_S64.cube
TITLE "TheBrim® SPK Block 1"
# © Copyright 2021 - TheBrim® d.o.o. Croatia
LUT_3D_SIZE 4
DOMAIN_MIN 0.000000 0.000000 0.000000
DOMAIN_MAX 1.000000 1.000000 1.000000
0.068330 0.020264 0.046204
0.223392 0.023377 0.030976
0.718410 0.020386 0.015412
0.803555 0.022889 0.015534
0.081971 0.211154 0.140841
0.167697 0.157900 0.052186
0.658869 0.079072 0.015595
0.874815 0.024994 0.016266
0.137026 0.489418 0.264042
0.140658 0.503685 0.197024
0.686915 0.631373 0.065705
0.882322 0.614984 0.071870
0.394812 0.587243 0.156802
0.491127 0.632563 0.100801
0.757443 0.767086 0.086580
0.941985 0.847898 0.100252
0.072175 0.051118 0.235966
0.177768 0.049958 0.200900
0.780087 0.017426 0.110811
0.840391 0.021881 0.057862
0.083070 0.217075 0.317479
0.150454 0.144503 0.176730
0.704799 0.063966 0.092653
0.910338 0.024567 0.046174
0.137942 0.494148 0.296330
0.141207 0.505699 0.248508
0.681483 0.660182 0.069642
0.887724 0.647150 0.076326
0.423072 0.599268 0.149172
0.519677 0.648676 0.073030
0.774197 0.794736 0.090059
0.949706 0.914153 0.270970
0.084321 0.100893 0.454292
0.179751 0.095491 0.438819
0.698177 0.012726 0.374762
0.961822 0.014099 0.306950
0.092103 0.211185 0.546227
0.162448 0.165042 0.504387
0.753292 0.088746 0.416846
1.000000 0.017304 0.371740
0.145174 0.530816 0.665431
0.153597 0.575525 0.671931
0.687282 0.723934 0.622187
0.912535 0.668696 0.556664
0.372747 0.689021 0.547295
0.511131 0.734401 0.545953
0.786648 0.852232 0.575311
0.958129 0.938720 0.655177
0.088838 0.162417 0.510613
0.159091 0.154543 0.495094
0.441535 0.129915 0.440681
0.914305 0.016449 0.399420
0.092683 0.218448 0.554437
0.157107 0.209537 0.540490
0.454749 0.186313 0.481056
0.905638 0.174929 0.463020
0.157992 0.571374 0.807584
0.172457 0.625452 0.846067
0.707088 0.741268 0.759518
0.908690 0.759213 0.726711
0.325689 0.741299 0.852110
0.518090 0.790433 0.839963
0.825895 0.909300 0.807279
0.959869 0.964752 0.831968
