LUTs/SPK Cube Block1 S64/TheBrim_SPK_Type-L_Block 1_S64.cube
TITLE "TheBrim® Industrial Imaging Burau"
# © Copyright 2022 - TheBrim® d.o.o. Croatia
LUT_3D_SIZE 4
0.0073548486 0.0089417868 0.0091554131
0.1959563592 0.0189517052 0.0085145342
0.5580376898 0.0000000000 0.0000000000
0.6421149004 0.0000000000 0.0000000000
0.0000000000 0.1743801022 0.1268635080
0.1641260395 0.1759060044 0.0625925078
0.6311589227 0.1503624018 0.0000000000
0.7329365988 0.0626840620 0.0000000000
0.0000000000 0.4917982757 0.3862058442
0.0000000000 0.5254749371 0.3366445411
0.7261005570 0.6470588235 0.0928664073
0.9504386969 0.6145265888 0.0000000000
0.0000000000 0.6074464027 0.3590447852
0.1757228962 0.6675669490 0.3383535515
0.7621728847 0.7787441825 0.2116731518
0.9999389639 0.8076447700 0.0000000000
0.0000000000 0.0260929274 0.1654077974
0.1595483330 0.0255130846 0.1506981003
0.5835507744 0.0000000000 0.1156939040
0.6562752728 0.0000000000 0.0805371176
0.0000000000 0.1939726864 0.2588540475
0.1401693751 0.1869230182 0.1999847410
0.6478217746 0.1515831235 0.1347371633
0.7444419013 0.0534370947 0.0830090791
0.0000000000 0.4974441138 0.4210269322
0.0000000000 0.5245593957 0.3560845350
0.7245136187 0.6497749294 0.2073701076
0.9462272068 0.6182192721 0.0120546273
0.0000000000 0.6259403372 0.3534599832
0.2866559854 0.6849317159 0.3321278706
0.7831998169 0.7821927214 0.1994354162
0.9933775845 0.8453955901 0.2200961318
0.0000000000 0.1076066224 0.3916075380
0.2202182040 0.0929274434 0.3908751049
0.5957579919 0.0000000000 0.3414358740
0.7008010986 0.0000000000 0.2854352636
0.0000000000 0.2415808347 0.4885023270
0.1505760281 0.2348363470 0.4931715877
0.6746776532 0.1742275120 0.4388494697
0.7594262608 0.0711070420 0.3572747387
0.0000000000 0.5259632258 0.5912413214
0.0000000000 0.5828488594 0.6030518044
0.7203936828 0.7043717098 0.5959105821
0.9334706645 0.6566414893 0.5096360723
0.0000000000 0.6744945449 0.5797665370
0.2185091936 0.7412069886 0.5961547265
0.7667505913 0.8469214923 0.6020447089
0.9745174334 0.8973678187 0.6115358206
0.0000000000 0.2145113298 0.4753490501
0.1493858244 0.2174105440 0.4824902724
0.5019150072 0.1951628901 0.4648508431
0.7085221637 0.1170366979 0.4000610361
0.0000000000 0.2786297398 0.5181200885
0.1207904173 0.2844892042 0.5233386740
0.5181506065 0.2785076677 0.5153429465
0.7752346075 0.2830853742 0.4821850919
0.0000000000 0.5723506523 0.6729076066
0.0000000000 0.6342107271 0.6993972686
0.7424582284 0.7127336538 0.7028152895
0.9189135576 0.7239337758 0.6624093996
0.0000000000 0.7318684672 0.7321126116
0.2886701762 0.7896391241 0.7530479896
0.8105134661 0.8857709621 0.7836575875
0.9633783474 0.9213855192 0.8003509575
