LUTs/SPK Cube Block1 S64/TheBrim_SPK_Type-G_Block1_S64.cube
TITLE "TheBrim® SPK Block 1"
# © Copyright 2021 - TheBrim® d.o.o. Croatia
LUT_3D_SIZE 64
DOMAIN_MIN 0.000000 0.000000 0.000000
DOMAIN_MAX 1.000000 1.000000 1.000000
0.067048 0.020356 0.045258
0.067201 0.021607 0.047364
0.067597 0.023041 0.048920
0.068360 0.023713 0.049073
0.069734 0.024567 0.049073
0.070863 0.024689 0.048554
0.073457 0.025177 0.048035
0.076326 0.025299 0.047486
0.080232 0.025513 0.046967
0.085695 0.026032 0.046387
0.090394 0.026764 0.046204
0.094942 0.027771 0.046174
0.101717 0.028931 0.045960
0.109377 0.029877 0.045502
0.117891 0.030854 0.045014
0.128573 0.031891 0.044282
0.144228 0.032959 0.042725
0.167269 0.033295 0.039857
0.190860 0.033906 0.037201
0.215030 0.034882 0.034882
0.238987 0.035431 0.032319
0.264866 0.033631 0.029175
0.297520 0.030518 0.024811
0.336400 0.024353 0.020844
0.377295 0.016052 0.019165
0.418463 0.012177 0.017548
0.449958 0.012543 0.016846
0.481636 0.013489 0.016663
0.510948 0.014313 0.016510
0.539879 0.015167 0.016358
0.570520 0.016083 0.016175
0.601587 0.016968 0.016022
0.631281 0.017853 0.015869
0.658350 0.018616 0.015717
0.679957 0.019257 0.015625
0.697230 0.019776 0.015534
0.713527 0.020233 0.015442
0.729854 0.020722 0.015351
0.743984 0.021118 0.015290
0.757687 0.021546 0.015229
0.773190 0.022004 0.015198
0.788754 0.022461 0.015351
0.803922 0.022889 0.015534
0.815854 0.023255 0.015656
0.824796 0.023499 0.015747
0.833616 0.023774 0.015808
0.841917 0.024018 0.015900
0.847379 0.024170 0.015961
0.850553 0.024292 0.015991
0.854429 0.024384 0.016052
0.856260 0.024445 0.016052
0.857572 0.024475 0.016083
0.859220 0.024537 0.016083
0.861173 0.024598 0.016114
0.862974 0.024659 0.016144
0.865202 0.024720 0.016144
0.867765 0.024781 0.016175
0.869993 0.024872 0.016205
0.870817 0.024872 0.016205
0.872984 0.024933 0.016236
0.873075 0.024964 0.016236
0.873259 0.024964 0.016236
0.875883 0.025025 0.016266
0.878721 0.025116 0.016297
0.067201 0.024109 0.049378
0.067292 0.024384 0.049500
0.067842 0.024872 0.049409
0.068635 0.025147 0.049104
0.070008 0.025788 0.049073
0.071138 0.025330 0.047730
0.073915 0.025605 0.046967
0.076905 0.025666 0.046418
0.080659 0.026184 0.046265
0.086305 0.026795 0.045991
0.091341 0.027619 0.045838
0.096803 0.028595 0.045686
0.103731 0.029664 0.045411
0.112184 0.030488 0.044770
0.121157 0.031373 0.044160
0.134188 0.032441 0.043061
0.149020 0.033417 0.041596
0.173465 0.033539 0.038422
0.194766 0.034577 0.036255
0.218570 0.036225 0.034119
0.243076 0.036500 0.031342
0.269566 0.034394 0.028107
0.302098 0.030854 0.023804
0.341192 0.024720 0.020630
0.382696 0.016144 0.018952
0.418006 0.012177 0.017578
0.448127 0.012482 0.016876
0.480323 0.013428 0.016693
0.509636 0.014282 0.016541
0.539544 0.015167 0.016358
0.570642 0.016083 0.016175
0.602197 0.016999 0.016022
0.631403 0.017853 0.015869
0.658289 0.018616 0.015717
0.679805 0.019257 0.015625
0.697108 0.019776 0.015534
0.713466 0.020233 0.015442
0.729580 0.020722 0.015351
0.744167 0.021149 0.015290
0.758206 0.021546 0.015229
0.773098 0.022004 0.015198
0.788418 0.022431 0.015351
0.803861 0.022889 0.015534
0.815885 0.023255 0.015656
0.824796 0.023499 0.015747
0.833463 0.023774 0.015808
0.841855 0.024018 0.015900
0.847379 0.024170 0.015961
0.850553 0.024292 0.015991
0.854429 0.024384 0.016052
0.856321 0.024445 0.016052
0.857664 0.024506 0.016083
0.859220 0.024537 0.016083
0.861234 0.024598 0.016114
0.862974 0.024659 0.016144
0.865232 0.024720 0.016144
0.867735 0.024781 0.016175
0.869963 0.024872 0.016205
0.870726 0.024872 0.016205
0.872892 0.024933 0.016236
0.873075 0.024964 0.016236
0.873259 0.024964 0.016236
0.878630 0.025116 0.016297
0.881865 0.025208 0.016327
0.067506 0.028107 0.052338
0.067872 0.027741 0.051514
0.068391 0.027314 0.050538
0.069306 0.027283 0.049836
0.070253 0.027070 0.049073
0.071443 0.026490 0.047608
0.074189 0.026246 0.046113
0.077455 0.026276 0.045533
0.081178 0.026764 0.045533
0.086763 0.027619 0.045533
0.092348 0.028504 0.045380
0.098054 0.029389 0.045197
0.105806 0.030365 0.044800
0.115145 0.031067 0.044007
0.124117 0.031952 0.043488
0.138674 0.032959 0.042084
0.154421 0.034028 0.040528
0.178378 0.034119 0.037476
0.198978 0.035279 0.035431
0.222477 0.037537 0.033234
0.246586 0.038117 0.030549
0.273655 0.035859 0.027283
0.306462 0.031891 0.022797
0.345556 0.025208 0.020478
0.384955 0.017762 0.018891
0.418067 0.012238 0.017578
0.448371 0.012512 0.016846
0.480659 0.013458 0.016693
0.508904 0.014252 0.016541
0.538354 0.015137 0.016358
0.570367 0.016083 0.016175
0.602350 0.016999 0.016022
0.631922 0.017853 0.015869
0.658503 0.018647 0.015717
0.679774 0.019257 0.015625
0.697017 0.019776 0.015534
0.713283 0.020233 0.015442
0.729335 0.020691 0.015351
0.743893 0.021118 0.015290
0.758419 0.021546 0.015229
0.773495 0.022004 0.015198
0.788357 0.022431 0.015351
0.803586 0.022889 0.015534
0.815885 0.023255 0.015656
0.824887 0.023499 0.015747
0.833433 0.023774 0.015808
0.841825 0.024018 0.015900
0.847379 0.024170 0.015961
0.850492 0.024262 0.015991
0.854368 0.024384 0.016052
0.856291 0.024445 0.016052
0.857725 0.024506 0.016083
0.859312 0.024537 0.016083
0.861173 0.024598 0.016114
0.862913 0.024659 0.016144
0.865202 0.024720 0.016144
0.867765 0.024781 0.016175
0.869902 0.024872 0.016205
0.870634 0.024872 0.016205
0.872862 0.024933 0.016236
0.873106 0.024964 0.016236
0.873289 0.024964 0.016236
0.878660 0.025116 0.016297
0.885252 0.025299 0.016388
0.067689 0.031403 0.053437
0.068147 0.030701 0.052399
0.069032 0.030152 0.051270
0.069795 0.029816 0.050416
0.070680 0.029389 0.049622
0.071504 0.028504 0.048585
0.073945 0.028046 0.047059
0.076844 0.028046 0.046357
0.080507 0.028412 0.046113
0.086275 0.029175 0.045960
0.092561 0.029816 0.045472
0.098665 0.030457 0.045014
0.106783 0.031769 0.044587
0.117922 0.032258 0.043580
0.128603 0.033143 0.042664
0.143557 0.034028 0.040925
0.158907 0.035737 0.039582
0.180087 0.036805 0.037324
0.201297 0.038300 0.035126
0.225620 0.039918 0.032563
0.250217 0.040375 0.029816
0.277653 0.038239 0.026398
0.308598 0.034791 0.022461
0.344488 0.029450 0.020600
0.380194 0.023743 0.019165
0.415778 0.017487 0.017731
0.447547 0.012482 0.016876
0.480385 0.013428 0.016693
0.508507 0.014252 0.016541
0.537438 0.015106 0.016358
0.568963 0.016022 0.016205
0.601984 0.016999 0.016022
0.631739 0.017853 0.015869
0.658503 0.018647 0.015717
0.679652 0.019257 0.015625
0.696956 0.019745 0.015534
0.713100 0.020233 0.015442
0.728969 0.020691 0.015351
0.743954 0.021118 0.015290
0.758877 0.021576 0.015229
0.773709 0.022004 0.015198
0.788296 0.022431 0.015351
0.803433 0.022889 0.015534
0.815854 0.023255 0.015656
0.824918 0.023529 0.015747
0.833524 0.023774 0.015808
0.841642 0.024018 0.015900
0.847349 0.024170 0.015961
0.850492 0.024262 0.015991
0.854429 0.024384 0.016052
0.856382 0.024445 0.016052
0.857755 0.024506 0.016083
0.859312 0.024537 0.016083
0.861173 0.024598 0.016114
0.862974 0.024659 0.016144
0.865202 0.024720 0.016144
0.867735 0.024781 0.016175
0.869871 0.024842 0.016205
0.870573 0.024872 0.016205
0.872862 0.024933 0.016236
0.875242 0.025025 0.016266
0.875639 0.025025 0.016266
0.881682 0.025208 0.016327
0.888457 0.025391 0.016419
0.067933 0.034852 0.054566
0.068635 0.034119 0.053498
0.069551 0.033661 0.052522
0.070405 0.033173 0.051453
0.071168 0.032502 0.050599
0.072023 0.032044 0.049989
0.074128 0.031617 0.048859
0.076417 0.031464 0.048096
0.079255 0.031159 0.047242
0.085786 0.032044 0.046845
0.092256 0.032593 0.046174
0.098939 0.032929 0.045289
0.107332 0.033814 0.044587
0.118807 0.034333 0.043519
0.131380 0.035126 0.042329
0.144961 0.036103 0.040864
0.160281 0.037659 0.039216
0.181338 0.039399 0.037018
0.202213 0.041474 0.035065
0.227054 0.043061 0.032380
0.252293 0.043091 0.029450
0.280919 0.040833 0.025696
0.312535 0.036957 0.022248
0.346380 0.032349 0.020569
0.379065 0.028565 0.019287
0.410376 0.024353 0.018036
0.443549 0.018128 0.016999
0.480201 0.013428 0.016693
0.508263 0.014252 0.016541
0.536767 0.015076 0.016358
0.567712 0.015991 0.016205
0.599756 0.016907 0.016022
0.631403 0.017853 0.015869
0.658137 0.018616 0.015717
0.679622 0.019257 0.015625
0.696864 0.019745 0.015534
0.713069 0.020233 0.015442
0.728664 0.020691 0.015351
0.743648 0.021118 0.015290
0.758938 0.021576 0.015229
0.774166 0.022034 0.015198
0.788479 0.022431 0.015351
0.803281 0.022858 0.015534
0.815702 0.023255 0.015656
0.824887 0.023499 0.015747
0.833524 0.023774 0.015808
0.841672 0.024018 0.015900
0.847349 0.024170 0.015961
0.850462 0.024262 0.015991
0.854429 0.024384 0.016052
0.856413 0.024445 0.016052
0.857847 0.024506 0.016083
0.859464 0.024537 0.016083
0.861234 0.024598 0.016114
0.863005 0.024659 0.016144
0.865202 0.024720 0.016144
0.867826 0.024781 0.016175
0.869841 0.024842 0.016205
0.870665 0.024872 0.016205
0.872984 0.024933 0.016236
0.875517 0.025025 0.016266
0.878080 0.025086 0.016297
0.884611 0.025299 0.016358
0.891814 0.025483 0.016449
0.067933 0.039063 0.056916
0.068727 0.038544 0.055634
0.069703 0.037873 0.054261
0.070466 0.037659 0.053620
0.071412 0.036957 0.052491
0.072541 0.036103 0.051575
0.074434 0.035676 0.050538
0.076722 0.035676 0.049714
0.078920 0.035431 0.048951
0.084993 0.035676 0.047791
0.092348 0.036408 0.046937
0.098512 0.036744 0.046174
0.107820 0.037568 0.045014
0.119142 0.038178 0.043793
0.130922 0.038941 0.042786
0.145083 0.040040 0.041321
0.159396 0.041230 0.039857
0.179782 0.044221 0.037537
0.201358 0.046204 0.035401
0.228336 0.047547 0.032227
0.253269 0.047852 0.029419
0.281437 0.045991 0.025727
0.310674 0.042451 0.022400
0.342138 0.039002 0.020813
0.372503 0.035370 0.019623
0.405371 0.031037 0.018311
0.437446 0.025055 0.017151
0.471901 0.019959 0.016693
0.506615 0.014191 0.016541
0.535332 0.015045 0.016388
0.565454 0.015930 0.016205
0.597498 0.016846 0.016052
0.627955 0.017762 0.015900
0.653803 0.018494 0.015747
0.678859 0.019226 0.015625
0.696773 0.019745 0.015534
0.713161 0.020233 0.015442
0.728420 0.020691 0.015351
0.743648 0.021118 0.015290
0.759030 0.021576 0.015229
0.774441 0.022034 0.015198
0.788846 0.022461 0.015351
0.803250 0.022858 0.015534
0.815793 0.023255 0.015656
0.825101 0.023529 0.015747
0.833646 0.023774 0.015808
0.841550 0.024018 0.015900
0.847257 0.024170 0.015961
0.850401 0.024262 0.015991
0.854459 0.024384 0.016052
0.856657 0.024475 0.016052
0.858122 0.024506 0.016083
0.859983 0.024567 0.016114
0.861845 0.024628 0.016114
0.864561 0.024689 0.016144
0.866361 0.024750 0.016175
0.869169 0.024842 0.016205
0.871153 0.024903 0.016236
0.873960 0.024964 0.016266
0.876555 0.025055 0.016266
0.880064 0.025147 0.016327
0.883391 0.025238 0.016358
0.889647 0.025422 0.016419
0.896849 0.025635 0.016510
0.067842 0.045441 0.059907
0.068940 0.044709 0.058320
0.069795 0.044129 0.057130
0.070649 0.043793 0.056092
0.071534 0.043305 0.055055
0.073213 0.041901 0.053437
0.075135 0.040742 0.052125
0.077150 0.039948 0.051026
0.079500 0.039918 0.050141
0.084016 0.040009 0.048768
0.092103 0.040192 0.047456
0.098970 0.040558 0.046571
0.107759 0.041291 0.045472
0.117830 0.042603 0.044709
0.128847 0.043275 0.043641
0.142763 0.044404 0.042237
0.157748 0.045838 0.040711
0.177157 0.048554 0.038514
0.199374 0.051209 0.035950
0.227085 0.052308 0.032532
0.254490 0.052552 0.029114
0.281987 0.050935 0.025574
0.307103 0.049256 0.022675
0.335821 0.046509 0.021149
0.363561 0.044190 0.020081
0.397681 0.038911 0.018708
0.431922 0.031891 0.017365
0.463386 0.026917 0.016724
0.499763 0.021912 0.016571
0.532555 0.014954 0.016388
0.562402 0.015839 0.016236
0.595117 0.016785 0.016052
0.625788 0.017670 0.015900
0.651759 0.018433 0.015747
0.677790 0.019196 0.015625
0.696864 0.019745 0.015534
0.713405 0.020233 0.015442
0.728756 0.020691 0.015351
0.743679 0.021118 0.015290
0.759030 0.021576 0.015229
0.774655 0.022034 0.015198
0.789273 0.022461 0.015381
0.803647 0.022889 0.015534
0.816220 0.023255 0.015656
0.825650 0.023529 0.015747
0.834226 0.023804 0.015839
0.842161 0.024018 0.015900
0.847837 0.024201 0.015961
0.850797 0.024292 0.015991
0.854856 0.024414 0.016052
0.857176 0.024475 0.016083
0.858885 0.024537 0.016083
0.860777 0.024598 0.016114
0.862974 0.024659 0.016144
0.865965 0.024750 0.016175
0.868223 0.024811 0.016205
0.871214 0.024903 0.016236
0.873838 0.024964 0.016266
0.876677 0.025055 0.016297
0.880400 0.025177 0.016327
0.884672 0.025299 0.016358
0.889036 0.025422 0.016419
0.895384 0.025605 0.016480
0.901854 0.025788 0.016541
0.068269 0.051453 0.062348
0.069276 0.051118 0.061006
0.070253 0.050721 0.059785
0.070954 0.050477 0.058961
0.071809 0.050019 0.057923
0.073396 0.049561 0.056550
0.075990 0.048524 0.054566
0.078035 0.047364 0.052827
0.080049 0.046265 0.051667
0.084749 0.046174 0.050080
0.091035 0.045686 0.048463
0.098817 0.045563 0.047211
0.107851 0.046143 0.046174
0.117159 0.047425 0.045472
0.127352 0.048737 0.044739
0.141573 0.050233 0.043275
0.156374 0.051423 0.041718
0.174716 0.053834 0.039521
0.196445 0.057343 0.036957
0.224338 0.058991 0.033387
0.251347 0.059571 0.029999
0.278874 0.059022 0.026184
0.304753 0.057374 0.022919
0.330114 0.056306 0.021485
0.355657 0.055268 0.020539
0.388983 0.051606 0.019226
0.423499 0.045411 0.017853
0.453895 0.039002 0.016907
0.491951 0.031891 0.016571
0.526604 0.024994 0.016419
0.557702 0.019104 0.016236
0.590448 0.016663 0.016083
0.623163 0.017609 0.015900
0.651545 0.018433 0.015778
0.677180 0.019165 0.015625
0.698848 0.019806 0.015503
0.715846 0.020325 0.015442
0.731868 0.020783 0.015351
0.746334 0.021210 0.015259
0.760983 0.021637 0.015198
0.776089 0.022095 0.015229
0.791165 0.022522 0.015381
0.805417 0.022950 0.015534
0.819425 0.023346 0.015686
0.829221 0.023651 0.015778
0.838254 0.023926 0.015869
0.846860 0.024170 0.015961
0.853849 0.024384 0.016022
0.856901 0.024475 0.016083
0.860258 0.024567 0.016114
0.863188 0.024659 0.016144
0.865232 0.024720 0.016144
0.867369 0.024781 0.016175
0.869993 0.024872 0.016205
0.874144 0.024994 0.016266
0.875914 0.025025 0.016266
0.877867 0.025086 0.016297
0.880217 0.025147 0.016327
0.883116 0.025238 0.016358
0.886748 0.025360 0.016388
0.891295 0.025483 0.016449
0.895811 0.025605 0.016480
0.901457 0.025788 0.016541
0.907836 0.026032 0.016693
0.068727 0.057221 0.064820
0.069673 0.057008 0.063661
0.070466 0.056947 0.062806
0.071260 0.056764 0.061769
0.071992 0.056489 0.060792
0.073854 0.056306 0.059358
0.076051 0.056031 0.058015
0.078614 0.055238 0.056092
0.080720 0.054139 0.054414
0.085084 0.053620 0.052552
0.090700 0.053742 0.050507
0.097017 0.053559 0.048951
0.106813 0.054261 0.047456
0.117128 0.055421 0.046204
0.126894 0.056703 0.045502
0.141939 0.058228 0.043793
0.156985 0.059663 0.042206
0.174044 0.061616 0.040192
0.193454 0.064088 0.037873
0.220035 0.066011 0.034485
0.247044 0.066896 0.031067
0.273411 0.067506 0.027497
0.299290 0.067414 0.024109
0.325566 0.066468 0.021851
0.353094 0.064332 0.020752
0.383886 0.061860 0.019562
0.414893 0.058656 0.018372
0.443336 0.053437 0.017304
0.478157 0.045563 0.016602
0.518914 0.035828 0.016419
0.552117 0.029389 0.016266
0.583581 0.023774 0.016114
0.618952 0.017487 0.015930
0.649561 0.018372 0.015778
0.677333 0.019165 0.015625
0.701259 0.019898 0.015503
0.718105 0.020386 0.015412
0.734615 0.020844 0.015320
0.749874 0.021302 0.015259
0.764340 0.021729 0.015198
0.779660 0.022187 0.015259
0.794491 0.022614 0.015412
0.808927 0.023041 0.015564
0.823392 0.023468 0.015717
0.833097 0.023743 0.015808
0.842252 0.024018 0.015900
0.851957 0.024323 0.016022
0.860258 0.024567 0.016114
0.864958 0.024720 0.016144
0.866178 0.024750 0.016175
0.869017 0.024842 0.016205
0.871824 0.024903 0.016236
0.874235 0.024994 0.016266
0.877073 0.025055 0.016297
0.882048 0.025208 0.016327
0.884398 0.025269 0.016358
0.885161 0.025299 0.016388
0.887205 0.025360 0.016388
0.889738 0.025422 0.016419
0.893462 0.025544 0.016449
0.898009 0.025666 0.016510
0.902617 0.025818 0.016571
0.908171 0.026062 0.016693
0.913695 0.026429 0.016938
0.068879 0.063355 0.067689
0.069703 0.063172 0.066682
0.070436 0.063172 0.065919
0.071168 0.062959 0.065034
0.072023 0.062776 0.063996
0.074128 0.062837 0.062318
0.076295 0.062623 0.060670
0.078676 0.062501 0.059327
0.081300 0.061769 0.057588
0.086122 0.061860 0.055909
0.091157 0.061646 0.053742
0.097047 0.062104 0.051637
0.105470 0.062745 0.049683
0.116487 0.063966 0.047761
0.127932 0.065034 0.046296
0.142977 0.066072 0.044343
0.158541 0.067445 0.042542
0.175143 0.069154 0.040742
0.193179 0.071504 0.038514
0.214359 0.073671 0.036011
0.242557 0.074586 0.032258
0.269810 0.075166 0.028626
0.295323 0.075868 0.025208
0.322576 0.075380 0.022095
0.350134 0.073976 0.020996
0.379248 0.071962 0.019867
0.410559 0.069276 0.018677
0.439765 0.065339 0.017578
0.468055 0.060029 0.016785
0.505333 0.052552 0.016449
0.541741 0.043183 0.016266
0.574731 0.036133 0.016114
0.610376 0.028382 0.015961
0.647974 0.018921 0.015778
0.675929 0.019135 0.015625
0.701137 0.019898 0.015503
0.720424 0.020447 0.015412
0.737453 0.020935 0.015320
0.753231 0.021393 0.015229
0.768521 0.021851 0.015167
0.784024 0.022309 0.015320
0.799008 0.022736 0.015473
0.813626 0.023163 0.015625
0.828519 0.023621 0.015778
0.839933 0.023957 0.015900
0.849485 0.024231 0.015991
0.859403 0.024537 0.016083
0.867826 0.024781 0.016175
0.874662 0.024994 0.016266
0.876677 0.025055 0.016297
0.877653 0.025086 0.016297
0.880186 0.025147 0.016327
0.884184 0.025269 0.016358
0.886931 0.025360 0.016388
0.890349 0.025452 0.016419
0.893828 0.025544 0.016480
0.894591 0.025574 0.016480
0.895628 0.025605 0.016480
0.898497 0.025696 0.016510
0.901732 0.025788 0.016541
0.905455 0.025879 0.016602
0.909880 0.026184 0.016785
0.914794 0.026520 0.016999
0.920012 0.026856 0.017212
0.068666 0.070466 0.071138
0.069459 0.070253 0.070161
0.070130 0.070161 0.069429
0.070863 0.069978 0.068482
0.071901 0.069825 0.067231
0.074128 0.070039 0.065522
0.076387 0.070130 0.063844
0.078737 0.069978 0.062318
0.081331 0.069734 0.060395
0.087282 0.069642 0.057832
0.092409 0.069673 0.055818
0.097902 0.069642 0.053712
0.105776 0.070649 0.051270
0.116335 0.071901 0.049256
0.127779 0.073396 0.048066
0.142611 0.074769 0.046082
0.157870 0.075776 0.044007
0.176333 0.077455 0.041749
0.193454 0.079622 0.040162
0.213840 0.082246 0.037537
0.239780 0.083772 0.033722
0.267918 0.084504 0.029389
0.293767 0.085176 0.025574
0.320714 0.085695 0.022309
0.349493 0.084565 0.021180
0.376959 0.083742 0.020111
0.407111 0.081636 0.018982
0.437201 0.078157 0.017853
0.463172 0.074372 0.016938
0.496010 0.069734 0.016480
0.530327 0.063111 0.016297
0.563226 0.055940 0.016144
0.602075 0.044678 0.015961
0.640436 0.033814 0.015778
0.671962 0.026947 0.015625
0.701778 0.021149 0.015503
0.725032 0.020569 0.015381
0.742367 0.021088 0.015290
0.758236 0.021546 0.015229
0.773587 0.022004 0.015198
0.789639 0.022461 0.015381
0.805081 0.022919 0.015534
0.820066 0.023377 0.015686
0.834867 0.023804 0.015839
0.847105 0.024170 0.015961
0.857267 0.024475 0.016083
0.867613 0.024781 0.016175
0.875822 0.025025 0.016266
0.882628 0.025238 0.016358
0.886992 0.025360 0.016388
0.888121 0.025391 0.016419
0.889158 0.025422 0.016419
0.893126 0.025544 0.016449
0.897276 0.025666 0.016510
0.899809 0.025727 0.016541
0.902586 0.025818 0.016571
0.904479 0.025879 0.016571
0.905180 0.025879 0.016602
0.907286 0.026001 0.016663
0.909880 0.026184 0.016785
0.913390 0.026398 0.016938
0.917082 0.026673 0.017090
0.921416 0.026947 0.017273
0.926116 0.027283 0.017487
0.069215 0.078309 0.074800
0.069215 0.078187 0.074128
0.069886 0.077943 0.073121
0.070649 0.077882 0.072053
0.072175 0.077852 0.070619
0.074342 0.078157 0.068940
0.076600 0.078218 0.067048
0.079347 0.078187 0.065187
0.082063 0.077821 0.063020
0.087922 0.077577 0.059998
0.094057 0.077699 0.057771
0.099550 0.078004 0.055879
0.106752 0.078553 0.053681
0.116426 0.080201 0.051331
0.127718 0.081971 0.050507
0.141787 0.084077 0.048951
0.157198 0.085512 0.046815
0.175540 0.086946 0.044129
0.195956 0.088716 0.041260
0.215854 0.090608 0.038148
0.241245 0.093263 0.034302
0.266636 0.094606 0.031220
0.292851 0.095918 0.026703
0.318395 0.096651 0.023560
0.348028 0.096254 0.021393
0.378485 0.094392 0.020203
0.406744 0.093660 0.019165
0.433204 0.092287 0.018219
0.459907 0.089784 0.017273
0.488411 0.086671 0.016602
0.521721 0.081697 0.016297
0.557458 0.073548 0.016114
0.591577 0.067384 0.015961
0.626764 0.057130 0.015808
0.661067 0.047852 0.015656
0.690333 0.042603 0.015503
0.720119 0.036042 0.015381
0.741909 0.030213 0.015290
0.761135 0.025513 0.015198
0.779232 0.022187 0.015259
0.795315 0.022644 0.015442
0.811429 0.023102 0.015595
0.826902 0.023560 0.015747
0.842252 0.024018 0.015900
0.855985 0.024445 0.016052
0.865995 0.024750 0.016175
0.876310 0.025055 0.016266
0.885527 0.025299 0.016388
0.892363 0.025513 0.016449
0.897917 0.025666 0.016510
0.900664 0.025757 0.016541
0.901457 0.025788 0.016541
0.903807 0.025849 0.016571
0.907622 0.026032 0.016663
0.910979 0.026246 0.016815
0.912505 0.026368 0.016876
0.913848 0.026429 0.016938
0.915160 0.026520 0.016999
0.916045 0.026581 0.017029
0.918486 0.026764 0.017151
0.921172 0.026947 0.017273
0.924559 0.027161 0.017426
0.927550 0.027375 0.017548
0.931884 0.027649 0.017731
0.070069 0.087129 0.078431
0.070008 0.086427 0.077516
0.070008 0.086244 0.076722
0.071168 0.086091 0.075410
0.072877 0.086152 0.074006
0.075074 0.086427 0.072267
0.077241 0.086610 0.070558
0.079835 0.086824 0.068788
0.083467 0.086549 0.066377
0.089509 0.086275 0.063203
0.095155 0.086366 0.061036
0.101503 0.086793 0.058503
0.108827 0.087648 0.056214
0.117281 0.088746 0.053834
0.128878 0.090608 0.051606
0.143252 0.092775 0.049897
0.157809 0.094820 0.048310
0.175845 0.096407 0.045930
0.196109 0.097871 0.042725
0.216587 0.099733 0.039521
0.240604 0.101778 0.035523
0.266270 0.104128 0.031952
0.291752 0.105898 0.028260
0.317296 0.107424 0.024933
0.345495 0.107881 0.021668
0.376593 0.106630 0.020447
0.406653 0.105226 0.019318
0.430884 0.105348 0.018494
0.455756 0.103517 0.017639
0.481361 0.101808 0.016754
0.513451 0.097993 0.016327
0.549310 0.091890 0.016114
0.584955 0.084474 0.015961
0.615747 0.079347 0.015808
0.646693 0.073548 0.015656
0.677089 0.067536 0.015534
0.707393 0.060639 0.015381
0.732143 0.052613 0.015290
0.754665 0.043763 0.015198
0.774075 0.039063 0.015351
0.795102 0.032868 0.015503
0.816190 0.025971 0.015656
0.833951 0.023774 0.015839
0.849882 0.024262 0.015991
0.864958 0.024720 0.016144
0.875425 0.025025 0.016266
0.885649 0.025330 0.016388
0.894743 0.025574 0.016480
0.902434 0.025818 0.016571
0.908537 0.026093 0.016724
0.911040 0.026246 0.016815
0.913085 0.026398 0.016907
0.914733 0.026490 0.016999
0.916838 0.026642 0.017090
0.919432 0.026825 0.017182
0.922210 0.027008 0.017304
0.923400 0.027100 0.017365
0.924010 0.027131 0.017395
0.924834 0.027192 0.017426
0.926513 0.027283 0.017487
0.929076 0.027466 0.017609
0.931975 0.027649 0.017731
0.934447 0.027832 0.017853
0.937072 0.028016 0.017975
0.071290 0.099672 0.084138
0.071199 0.098726 0.082795
0.071168 0.098085 0.081483
0.071412 0.097658 0.080446
0.073396 0.097566 0.078950
0.075776 0.097322 0.076844
0.077974 0.097597 0.075166
0.080598 0.097810 0.073213
0.085328 0.097841 0.070802
0.092256 0.097810 0.067384
0.097993 0.097810 0.064973
0.104219 0.098329 0.062470
0.112886 0.099031 0.059449
0.121279 0.099977 0.056336
0.130251 0.101076 0.053162
0.145205 0.103243 0.050690
0.159640 0.105287 0.049409
0.176730 0.107424 0.047395
0.196048 0.109041 0.044648
0.214084 0.110445 0.042115
0.239841 0.112795 0.037110
0.263737 0.114931 0.033417
0.290135 0.117037 0.029328
0.316503 0.118776 0.026246
0.344305 0.120363 0.022858
0.372107 0.120851 0.020813
0.402197 0.120516 0.019715
0.428229 0.120027 0.018799
0.451820 0.118959 0.018006
0.477790 0.116457 0.017090
0.506340 0.114351 0.016419
0.538750 0.110506 0.016144
0.572686 0.105287 0.015991
0.604547 0.100526 0.015808
0.635950 0.096040 0.015686
0.666072 0.091279 0.015534
0.696010 0.085145 0.015381
0.719112 0.081178 0.015290
0.740597 0.074159 0.015259
0.763577 0.065431 0.015442
0.783902 0.061006 0.015625
0.805936 0.053498 0.015778
0.827604 0.045991 0.015930
0.847745 0.040131 0.016114
0.867002 0.035462 0.016266
0.879179 0.033448 0.016388
0.890471 0.031983 0.016480
0.900755 0.030213 0.016571
0.909300 0.027497 0.016846
0.916381 0.026612 0.017060
