LUTs/SPK Cube Block1 S64/TheBrim_SPK_Type-X_Block1_S64.cube
TITLE "TheBrim® SPK Block 1"
# © Copyright 2021 - TheBrim® d.o.o. Croatia
#Snook
LUT_3D_SIZE 8
DOMAIN_MIN 0.000000 0.000000 0.000000
DOMAIN_MAX 1.000000 1.000000 1.000000
0.000000 0.000000 0.000000
0.040772 0.043091 0.041077
0.123018 0.148836 0.144900
0.354955 0.364599 0.360388
0.638758 0.639155 0.590753
0.832975 0.823209 0.748989
0.925658 0.904540 0.840909
0.972717 0.947753 0.894072
0.002625 0.002441 0.002380
0.041749 0.044221 0.042115
0.124575 0.150546 0.146700
0.356817 0.366125 0.361913
0.639765 0.640223 0.591516
0.833433 0.823575 0.749325
0.925841 0.904692 0.841062
0.972717 0.947753 0.894072
0.009369 0.008789 0.008515
0.044160 0.047150 0.044770
0.128573 0.154971 0.151247
0.361761 0.370214 0.365911
0.642359 0.642939 0.593439
0.834684 0.824552 0.750271
0.926238 0.905028 0.841489
0.972717 0.947753 0.894072
0.018891 0.017700 0.017182
0.048371 0.053040 0.049958
0.135683 0.162814 0.159396
0.370733 0.377600 0.373205
0.647028 0.647913 0.596948
0.836759 0.826230 0.751919
0.927001 0.905730 0.842283
0.972717 0.947753 0.894072
0.026856 0.026490 0.025696
0.054170 0.061341 0.057191
0.145937 0.174136 0.171115
0.382483 0.389075 0.382757
0.654108 0.655390 0.602228
0.839750 0.828763 0.754391
0.928130 0.906737 0.843412
0.972717 0.947753 0.894072
0.034821 0.035828 0.034546
0.062165 0.074281 0.068940
0.161501 0.189914 0.187106
0.398077 0.404578 0.395453
0.663691 0.665522 0.609369
0.843839 0.832273 0.757809
0.929595 0.908019 0.844877
0.972717 0.947753 0.894072
0.043702 0.046632 0.044312
0.071931 0.089418 0.083406
0.179599 0.207462 0.204654
0.414435 0.420844 0.408789
0.673121 0.675471 0.616419
0.847410 0.835294 0.760769
0.930816 0.909117 0.846128
0.972717 0.947753 0.894072
0.050141 0.055604 0.052186
0.081331 0.102480 0.096864
0.193820 0.221195 0.218448
0.428077 0.434363 0.419867
0.681666 0.682673 0.622583
0.850706 0.838132 0.763546
0.931914 0.910094 0.847288
0.972717 0.947753 0.894072
0.000000 0.000000 0.000000
0.028717 0.028656 0.027741
0.118532 0.143862 0.139773
0.359777 0.368566 0.364324
0.644434 0.645167 0.595026
0.836301 0.825834 0.751522
0.926818 0.905547 0.842069
0.972717 0.947753 0.894072
0.000000 0.000000 0.000000
0.038911 0.040772 0.039033
0.125338 0.151369 0.147555
0.363714 0.371801 0.367498
0.645686 0.646479 0.595941
0.836698 0.826169 0.751858
0.926970 0.905669 0.842222
0.972717 0.947753 0.894072
0.013703 0.012818 0.012451
0.046357 0.050141 0.047395
0.133883 0.160800 0.157321
0.371405 0.378149 0.373724
0.648768 0.649744 0.598260
0.837827 0.827146 0.752773
0.927398 0.906065 0.842649
0.972717 0.947753 0.894072
0.024323 0.023682 0.022980
0.052308 0.058686 0.054902
0.143465 0.171420 0.168276
0.380987 0.387549 0.381537
0.653864 0.655146 0.602045
0.839750 0.828763 0.754391
0.928161 0.906737 0.843442
0.972717 0.947753 0.894072
0.031922 0.032410 0.031281
0.059083 0.069184 0.064302
0.155581 0.184207 0.181399
0.393194 0.399695 0.391485
0.661097 0.662776 0.607446
0.842741 0.831327 0.756924
0.929290 0.907744 0.844602
0.972717 0.947753 0.894072
0.039979 0.042115 0.040223
0.067140 0.082460 0.076478
0.172427 0.200504 0.197696
0.408850 0.415290 0.404242
0.670619 0.672847 0.614557
0.846799 0.834806 0.760311
0.930724 0.909026 0.846036
0.972717 0.947753 0.894072
0.048646 0.053437 0.050294
0.079164 0.099458 0.093751
0.190616 0.218082 0.215335
0.425208 0.431556 0.417578
0.680110 0.681361 0.621454
0.850309 0.837797 0.763241
0.931914 0.910094 0.847288
0.972717 0.947753 0.894072
0.054658 0.062043 0.057832
0.088319 0.111940 0.106569
0.205997 0.233036 0.229892
0.439063 0.445075 0.428748
0.688502 0.688411 0.627497
0.853574 0.840604 0.765957
0.932982 0.911070 0.848417
0.972717 0.947753 0.894072
0.000000 0.000000 0.000000
0.009888 0.009277 0.009003
0.065766 0.080171 0.074372
0.315648 0.332219 0.328527
0.635004 0.635187 0.587976
0.836271 0.825803 0.751492
0.927977 0.906584 0.843290
0.972717 0.947753 0.894072
0.000000 0.000000 0.000000
0.009888 0.009277 0.009003
0.084199 0.106477 0.100984
0.332189 0.345830 0.341955
0.639399 0.639826 0.591241
0.837339 0.826719 0.752377
0.928252 0.906859 0.843534
0.972717 0.947753 0.894072
0.000000 0.000000 0.000000
0.030274 0.030488 0.029450
0.115816 0.140932 0.136751
0.359136 0.368048 0.363775
0.648035 0.648951 0.597681
0.839750 0.828763 0.754391
0.928893 0.907408 0.844205
0.972717 0.947753 0.894072
0.020722 0.019715 0.019135
0.050324 0.055879 0.052399
0.142306 0.170138 0.166934
0.383368 0.389929 0.383459
0.658350 0.659876 0.605402
0.843107 0.831632 0.757229
0.929931 0.908324 0.845243
0.972717 0.947753 0.894072
0.035523 0.036652 0.035309
0.063172 0.075898 0.070466
0.165225 0.193545 0.190707
0.404150 0.410590 0.400397
0.669398 0.671534 0.613642
0.847166 0.835111 0.760616
0.931304 0.909545 0.846647
0.972717 0.947753 0.894072
0.046509 0.050385 0.047608
0.076356 0.095583 0.089754
0.187594 0.215152 0.212406
0.424475 0.430762 0.416938
0.681514 0.682521 0.622461
0.851926 0.839170 0.764584
0.932952 0.911070 0.848386
0.972717 0.947753 0.894072
0.056580 0.065064 0.060517
0.092805 0.116670 0.111513
0.212497 0.239353 0.236027
0.447120 0.452857 0.435248
0.695399 0.694179 0.632441
0.857542 0.843961 0.769284
0.934447 0.912444 0.850278
0.972717 0.947753 0.894072
0.066896 0.082063 0.076081
0.113344 0.138277 0.134035
0.236576 0.262730 0.258671
0.467750 0.472663 0.451820
0.706600 0.703578 0.640497
0.861173 0.847074 0.772335
0.935363 0.913237 0.851408
0.972717 0.947753 0.894072
0.000000 0.000000 0.000000
0.009888 0.009277 0.009003
0.019898 0.018769 0.018219
0.175692 0.203677 0.200870
0.575708 0.569818 0.536950
0.820584 0.813565 0.739651
0.925170 0.904082 0.840421
0.972717 0.947753 0.894072
0.000000 0.000000 0.000000
0.009888 0.009277 0.009003
0.019898 0.018769 0.018219
0.209140 0.236088 0.232853
0.588739 0.584344 0.548577
0.823819 0.816068 0.742031
0.925841 0.904692 0.841093
0.972717 0.947753 0.894072
0.000000 0.000000 0.000000
0.009888 0.009277 0.009003
0.044739 0.047913 0.045441
0.271519 0.294072 0.290135
0.614038 0.612543 0.571160
0.830594 0.821378 0.747158
0.927428 0.906065 0.842679
0.972717 0.947753 0.894072
0.000000 0.000000 0.000000
0.010895 0.010224 0.009888
0.096620 0.120668 0.115694
0.338628 0.351141 0.347173
0.641199 0.641718 0.592584
0.839139 0.828244 0.753902
0.929656 0.908049 0.844938
0.972717 0.947753 0.894072
0.022889 0.022126 0.021485
0.052247 0.058595 0.054810
0.146487 0.174746 0.171756
0.390845 0.397406 0.389593
0.665156 0.667048 0.610468
0.847410 0.835294 0.760769
0.932189 0.910338 0.847532
0.972717 0.947753 0.894072
0.046509 0.050355 0.047608
0.076814 0.096193 0.090394
0.189792 0.217288 0.214542
0.429297 0.435584 0.420874
0.687129 0.687221 0.626490
0.855467 0.842191 0.767544
0.934447 0.912444 0.850278
0.972717 0.947753 0.894072
0.062837 0.075349 0.069978
0.105684 0.130220 0.125612
0.229160 0.255558 0.251682
0.464240 0.469337 0.449012
0.707607 0.704463 0.641230
0.863432 0.848997 0.774197
0.936736 0.914519 0.853147
0.972717 0.947753 0.894072
0.081056 0.102144 0.096498
0.136110 0.163302 0.159884
0.269444 0.292241 0.288273
0.497444 0.501030 0.475624
0.727596 0.721401 0.655756
0.869596 0.854734 0.780941
0.939208 0.916808 0.856229
0.972717 0.947753 0.894072
0.000000 0.000000 0.000000
0.009888 0.009277 0.009003
0.019898 0.018769 0.018219
0.028443 0.028321 0.027436
0.392279 0.398779 0.390723
0.775998 0.768643 0.697383
0.913481 0.893950 0.828855
0.970672 0.945861 0.891966
0.000000 0.000000 0.000000
0.009888 0.009277 0.009003
0.019898 0.018769 0.018219
0.029480 0.029572 0.028565
0.424811 0.431128 0.417243
0.782589 0.776181 0.704372
0.915190 0.895384 0.830472
0.971191 0.946349 0.892485
0.000000 0.000000 0.000000
0.009888 0.009277 0.009003
0.019898 0.018769 0.018219
0.078401 0.098421 0.092683
0.490639 0.494759 0.470222
0.796841 0.792447 0.719478
0.919036 0.898619 0.834165
0.972381 0.947448 0.893736
0.000000 0.000000 0.000000
0.009888 0.009277 0.009003
0.019898 0.018769 0.018219
0.192325 0.219730 0.217014
0.570031 0.563470 0.531884
0.815274 0.809445 0.735622
0.923583 0.902647 0.838773
0.972717 0.947753 0.894072
0.000000 0.000000 0.000000
0.009888 0.009277 0.009003
0.072053 0.089570 0.083558
0.302495 0.321294 0.317754
0.625513 0.625116 0.580865
0.833982 0.823972 0.749722
0.928618 0.907164 0.843900
0.972717 0.947753 0.894072
0.020417 0.019348 0.018799
0.051209 0.057130 0.053529
0.145724 0.173892 0.170840
0.391333 0.397864 0.389990
0.667475 0.669551 0.612207
0.849393 0.837003 0.762448
0.933379 0.911406 0.848905
0.972717 0.947753 0.894072
0.055512 0.063294 0.058900
0.091676 0.115450 0.110262
0.214084 0.240879 0.237522
0.453132 0.458625 0.440101
0.703334 0.700832 0.638148
0.863035 0.848661 0.773861
0.937133 0.914916 0.853666
0.972717 0.947753 0.894072
0.083711 0.105806 0.100282
0.140566 0.168185 0.164950
0.277073 0.298955 0.295079
0.506371 0.508598 0.482490
0.733547 0.727138 0.660822
0.872343 0.857328 0.784085
0.940764 0.918242 0.858213
0.972717 0.947753 0.894072
0.000000 0.000000 0.000000
0.009888 0.009277 0.009003
0.019898 0.018769 0.018219
0.028443 0.028321 0.027436
0.045472 0.048890 0.046326
0.627344 0.627070 0.582238
0.884947 0.869230 0.798459
0.961120 0.937072 0.882139
0.000000 0.000000 0.000000
0.009888 0.009277 0.009003
0.019898 0.018769 0.018219
0.028443 0.028321 0.027436
0.059052 0.069123 0.064240
0.648890 0.649866 0.598322
0.888182 0.872099 0.802152
0.962097 0.937957 0.883116
0.000000 0.000000 0.000000
0.009888 0.009277 0.009003
0.019898 0.018769 0.018219
0.028443 0.028321 0.027436
0.177279 0.205203 0.202396
0.695552 0.694331 0.632563
0.895659 0.878752 0.810605
0.964324 0.940002 0.885405
0.000000 0.000000 0.000000
0.009888 0.009277 0.009003
0.019898 0.018769 0.018219
0.028443 0.028321 0.027436
0.356268 0.365698 0.361456
0.751980 0.744930 0.676387
0.905974 0.887694 0.821683
0.967590 0.943053 0.888792
0.000000 0.000000 0.000000
0.009888 0.009277 0.009003
0.019898 0.018769 0.018219
0.104585 0.129091 0.124422
0.492256 0.496284 0.471534
0.793393 0.788510 0.715816
0.916747 0.896696 0.831998
0.971435 0.946563 0.892729
0.000000 0.000000 0.000000
0.009888 0.009277 0.009003
0.045136 0.048432 0.045899
0.254124 0.278813 0.274632
0.599084 0.595880 0.557824
0.824186 0.816373 0.742336
0.925902 0.904723 0.841154
0.972717 0.947753 0.894072
0.013397 0.012543 0.012177
0.045930 0.049561 0.046876
0.138094 0.165469 0.162142
0.384527 0.391089 0.384405
0.664332 0.666194 0.609857
0.849027 0.836698 0.762173
0.933593 0.911620 0.849180
0.972717 0.947753 0.894072
0.063386 0.076265 0.070771
0.107637 0.132296 0.127779
0.233860 0.260136 0.256107
0.472877 0.477638 0.455940
0.716732 0.712093 0.647791
0.868009 0.853208 0.779080
0.939422 0.916991 0.856504
0.972717 0.947753 0.894072
0.000000 0.000000 0.000000
0.009888 0.009277 0.009003
0.019898 0.018769 0.018219
0.028443 0.028321 0.027436
0.037354 0.038880 0.037293
0.285283 0.306157 0.302373
0.800198 0.796292 0.723049
0.942168 0.919554 0.860014
0.000000 0.000000 0.000000
0.009888 0.009277 0.009003
0.019898 0.018769 0.018219
0.028443 0.028321 0.027436
0.037354 0.038880 0.037293
0.247990 0.273411 0.269169
0.810819 0.805966 0.732235
0.944030 0.921263 0.862333
0.000000 0.000000 0.000000
0.009888 0.009277 0.009003
0.019898 0.018769 0.018219
0.028443 0.028321 0.027436
0.037354 0.038880 0.037293
0.379644 0.386236 0.380438
0.835080 0.824857 0.750576
0.948058 0.925048 0.867369
0.000000 0.000000 0.000000
0.009888 0.009277 0.009003
0.019898 0.018769 0.018219
0.028443 0.028321 0.027436
0.037354 0.038880 0.037293
0.547723 0.543572 0.514244
0.865232 0.850584 0.775937
0.954131 0.930724 0.874998
0.000000 0.000000 0.000000
0.009888 0.009277 0.009003
0.019898 0.018769 0.018219
0.028443 0.028321 0.027436
0.160189 0.188663 0.185855
0.670985 0.673213 0.614801
0.888090 0.872007 0.802029
0.960723 0.936706 0.881712
0.000000 0.000000 0.000000
0.009888 0.009277 0.009003
0.019898 0.018769 0.018219
0.036652 0.038056 0.036530
0.400946 0.407385 0.397772
0.760647 0.753262 0.683742
0.906462 0.888090 0.822110
0.967254 0.942687 0.888426
0.000000 0.000000 0.000000
0.009888 0.009277 0.009003
0.019898 0.018769 0.018219
0.194644 0.221988 0.219211
0.561303 0.555077 0.524712
0.810056 0.805386 0.731685
0.921599 0.900908 0.836790
0.972717 0.947753 0.894072
0.005768 0.005402 0.005249
0.035340 0.036469 0.035096
0.122530 0.148257 0.144350
0.368414 0.375677 0.371313
0.656031 0.657404 0.603632
0.846098 0.834165 0.759701
0.933043 0.911101 0.848478
0.972717 0.947753 0.894072
0.000000 0.000000 0.000000
0.009888 0.009277 0.009003
0.019898 0.018769 0.018219
0.028443 0.028321 0.027436
0.139773 0.167330 0.164096
0.461341 0.466529 0.446693
0.744472 0.737667 0.670039
0.896391 0.879362 0.811398
0.000000 0.000000 0.000000
0.009888 0.009277 0.009003
0.019898 0.018769 0.018219
0.028443 0.028321 0.027436
0.070771 0.087739 0.081727
0.409735 0.416144 0.404944
0.720974 0.715694 0.650813
0.901183 0.883574 0.816831
0.000000 0.000000 0.000000
0.009888 0.009277 0.009003
0.019898 0.018769 0.018219
0.028443 0.028321 0.027436
0.037354 0.038880 0.037293
0.238926 0.265049 0.260868
0.653376 0.654597 0.601678
0.912016 0.892699 0.827420
0.000000 0.000000 0.000000
0.009888 0.009277 0.009003
0.019898 0.018769 0.018219
0.028443 0.028321 0.027436
0.037354 0.038880 0.037293
0.047944 0.052461 0.049409
0.720577 0.715328 0.650538
0.926390 0.905211 0.841672
0.000000 0.000000 0.000000
0.009888 0.009277 0.009003
0.019898 0.018769 0.018219
0.028443 0.028321 0.027436
0.037354 0.038880 0.037293
0.267887 0.290898 0.286870
0.804105 0.800778 0.727169
0.940002 0.917540 0.857267
0.000000 0.000000 0.000000
0.009888 0.009277 0.009003
0.019898 0.018769 0.018219
0.028443 0.028321 0.027436
0.041413 0.043854 0.041749
0.554925 0.549676 0.519799
0.860655 0.846616 0.771847
0.951781 0.928496 0.872038
0.000000 0.000000 0.000000
0.009888 0.009277 0.009003
0.019898 0.018769 0.018219
0.028443 0.028321 0.027436
0.260807 0.284672 0.280583
0.704311 0.701656 0.638849
0.892699 0.876097 0.807279
0.961852 0.937774 0.882902
0.000000 0.000000 0.000000
0.009888 0.009277 0.009003
0.019898 0.018769 0.018219
0.124208 0.150118 0.146273
0.498421 0.501854 0.476356
0.791684 0.786557 0.713985
0.915251 0.895415 0.830503
0.970550 0.945769 0.891844
