LUTs/SPK Cube Block1 S64/TheBrim_SPK_Type-V_Block1_S64.cube
TITLE "TheBrim® SPK Block 1"
# © Copyright 2021 - TheBrim® d.o.o. Croatia
LUT_3D_SIZE 4
DOMAIN_MIN 0.000000 0.000000 0.000000
DOMAIN_MAX 1.000000 1.000000 1.000000
0.007721 0.009491 0.011383
0.263371 0.015747 0.007660
0.570550 0.000000 0.000000
0.608850 0.000000 0.000000
0.000000 0.247105 0.005646
0.248051 0.232975 0.000000
0.707790 0.244968 0.000000
0.793484 0.221012 0.000000
0.000000 0.492256 0.000000
0.292302 0.637812 0.000000
0.827726 0.721889 0.000000
0.965881 0.714229 0.000000
0.000000 0.522911 0.000000
0.331945 0.699580 0.000000
0.821592 0.828458 0.000000
0.990082 0.865293 0.000000
0.000000 0.000000 0.245090
0.247013 0.000000 0.289281
0.597162 0.000000 0.243259
0.629419 0.000000 0.150851
0.000000 0.230167 0.260136
0.214328 0.221958 0.234928
0.690517 0.243778 0.259892
0.811948 0.240116 0.226505
0.000000 0.552667 0.314916
0.163302 0.669123 0.319158
0.800809 0.749752 0.323247
0.966918 0.754849 0.286809
0.000000 0.632471 0.338323
0.291051 0.793057 0.448280
0.818265 0.892638 0.524743
0.978729 0.914824 0.508080
0.003113 0.000000 0.372503
0.160647 0.000000 0.487587
0.591791 0.000000 0.576837
0.661311 0.000000 0.520287
0.000000 0.214511 0.518547
0.180301 0.230167 0.585138
0.692805 0.251164 0.644434
0.830777 0.258915 0.639887
0.000000 0.576715 0.610620
0.000000 0.698939 0.691096
0.777768 0.779324 0.738155
0.953582 0.790555 0.729915
0.000000 0.711635 0.670405
0.272923 0.843320 0.754879
0.819089 0.924712 0.800870
0.964538 0.944549 0.795682
0.018372 0.000000 0.419471
0.152956 0.000000 0.523400
0.532647 0.000000 0.618250
0.658839 0.000000 0.627131
0.000000 0.179782 0.566522
0.182406 0.248203 0.680201
0.676570 0.281071 0.758450
0.835264 0.250248 0.768795
0.000000 0.569604 0.701564
0.000000 0.700862 0.810208
0.755306 0.789517 0.868162
0.948150 0.797818 0.880735
0.000000 0.711269 0.768032
0.169924 0.849180 0.855253
0.807614 0.932250 0.893645
0.959136 0.954101 0.904753
