LUTs/SPK Cube Block1 S64/TheBrim_SPK_Type-A_Block1_S64.cube
TITLE "TheBrim® Industrial Imaging Burau"
# © Copyright 2022 - TheBrim® d.o.o. Croatia
LUT_3D_SIZE 64
DOMAIN_MIN 0.000000 0.000000 0.000000
DOMAIN_MAX 1.000000 1.000000 1.000000
0.004913 0.003448 0.003296
0.005463 0.004211 0.004242
0.005951 0.004822 0.004974
0.006317 0.005402 0.005493
0.006592 0.005554 0.005615
0.006927 0.005646 0.005615
0.007355 0.005768 0.005707
0.008148 0.005829 0.005737
0.009583 0.006165 0.005859
0.010986 0.006805 0.006256
0.013123 0.007324 0.006470
0.015442 0.007751 0.006531
0.018280 0.008087 0.006592
0.023041 0.008392 0.006561
0.029572 0.009033 0.006836
0.039368 0.009949 0.007202
0.051971 0.010773 0.007477
0.067413 0.011810 0.007599
0.084015 0.011902 0.007172
0.101868 0.011230 0.006378
0.115753 0.009460 0.005432
0.131561 0.007782 0.004486
0.148315 0.008148 0.004364
0.167145 0.007935 0.003448
0.184052 0.006531 0.002258
0.204163 0.003632 0.001251
0.226440 0.000031 0.000763
0.251007 0.000000 0.000427
0.274872 0.000000 0.000000
0.301331 0.000000 0.000000
0.325836 0.000000 0.000000
0.353058 0.000000 0.000000
0.384613 0.000000 0.000000
0.411652 0.000000 0.000000
0.435944 0.000000 0.000000
0.456970 0.000000 0.000000
0.478302 0.000000 0.000000
0.501343 0.000000 0.000000
0.523987 0.000000 0.000000
0.542389 0.000000 0.000000
0.558136 0.000000 0.000000
0.570312 0.000000 0.000000
0.583527 0.000000 0.000000
0.595856 0.000000 0.000000
0.605194 0.000000 0.000000
0.614166 0.000000 0.000000
0.619934 0.000000 0.000000
0.625549 0.000000 0.000000
0.630890 0.000000 0.000000
0.636597 0.000000 0.000000
0.641174 0.000000 0.000000
0.646912 0.000000 0.000000
0.652466 0.000000 0.000000
0.657623 0.000000 0.000000
0.663147 0.000000 0.000000
0.666199 0.000000 0.000000
0.668671 0.000000 0.000000
0.671082 0.000000 0.000000
0.673309 0.000000 0.000000
0.675293 0.000000 0.000000
0.677094 0.000000 0.000000
0.678680 0.000000 0.002075
0.680023 0.000000 0.004303
0.681183 0.000000 0.006104
0.005676 0.004761 0.004791
0.005646 0.004639 0.004669
0.006104 0.005463 0.005310
0.006317 0.005737 0.005615
0.006653 0.005981 0.005829
0.006958 0.005890 0.005615
0.007385 0.006042 0.005737
0.008148 0.006134 0.005798
0.009583 0.006439 0.005920
0.011047 0.006897 0.006195
0.013214 0.007507 0.006409
0.016052 0.007965 0.006470
0.018921 0.008331 0.006470
0.023926 0.008606 0.006439
0.030304 0.009338 0.006775
0.040375 0.010345 0.007202
0.052948 0.011139 0.007416
0.068329 0.012207 0.007538
0.085266 0.012238 0.007019
0.103119 0.011749 0.006195
0.117401 0.010681 0.005554
0.133453 0.009369 0.004730
0.150635 0.009613 0.004395
0.169708 0.009369 0.003448
0.185852 0.008026 0.002350
0.204620 0.004852 0.001343
0.225952 0.001831 0.001007
0.250549 0.000000 0.000580
0.273438 0.000000 0.000000
0.298553 0.000000 0.000000
0.323242 0.000000 0.000000
0.349365 0.000000 0.000000
0.380463 0.000000 0.000000
0.408386 0.000000 0.000000
0.433014 0.000000 0.000000
0.454773 0.000000 0.000000
0.475922 0.000000 0.000000
0.498871 0.000000 0.000000
0.521667 0.000000 0.000000
0.540161 0.000000 0.000000
0.556824 0.000000 0.000000
0.569580 0.000000 0.000000
0.583313 0.000000 0.000000
0.596130 0.000000 0.000000
0.605682 0.000000 0.000000
0.615173 0.000000 0.000000
0.622406 0.000000 0.000000
0.628326 0.000000 0.000000
0.633698 0.000000 0.000000
0.639526 0.000000 0.000000
0.644806 0.000000 0.000000
0.650970 0.000000 0.000000
0.656616 0.000000 0.000000
0.661743 0.000000 0.000000
0.667572 0.000000 0.000000
0.670654 0.000000 0.000000
0.673370 0.000000 0.000000
0.675812 0.000000 0.000000
0.678101 0.000000 0.000000
0.680206 0.000000 0.000000
0.682007 0.000000 0.000000
0.683594 0.000000 0.002350
0.684998 0.000000 0.004700
0.686310 0.000000 0.006744
0.006042 0.006317 0.006012
0.006104 0.006226 0.005920
0.006195 0.006134 0.005798
0.006378 0.006348 0.005981
0.006653 0.006378 0.005981
0.006958 0.006287 0.005798
0.007385 0.006287 0.005737
0.008087 0.006409 0.005798
0.009552 0.006805 0.006042
0.011108 0.007324 0.006317
0.013214 0.007843 0.006470
0.016083 0.008270 0.006500
0.019592 0.008636 0.006470
0.024719 0.009033 0.006500
0.031067 0.009674 0.006714
0.041565 0.010712 0.007141
0.054108 0.011597 0.007385
0.069794 0.012695 0.007538
0.086151 0.013092 0.007172
0.104523 0.012512 0.006134
0.119324 0.012360 0.005737
0.135345 0.011688 0.005127
0.153564 0.011932 0.004395
0.174011 0.011658 0.003387
0.189606 0.009979 0.002502
0.208160 0.006989 0.001465
0.229431 0.004364 0.001190
0.252167 0.000488 0.000854
0.273956 0.000000 0.000000
0.296753 0.000000 0.000000
0.320984 0.000000 0.000000
0.346130 0.000000 0.000000
0.377716 0.000000 0.000000
0.407379 0.000000 0.000000
0.431091 0.000000 0.000000
0.454102 0.000000 0.000000
0.474854 0.000000 0.000000
0.497040 0.000000 0.000000
0.519653 0.000000 0.000000
0.538788 0.000000 0.000000
0.557648 0.000000 0.000000
0.570923 0.000000 0.000000
0.583893 0.000000 0.000000
0.596619 0.000000 0.000000
0.606598 0.000000 0.000000
0.617096 0.000000 0.000000
0.625031 0.000000 0.000000
0.632874 0.000000 0.000000
0.638458 0.000000 0.000000
0.644226 0.000000 0.000000
0.649841 0.000000 0.000000
0.655579 0.000000 0.000000
0.661621 0.000000 0.000000
0.666779 0.000000 0.000000
0.672791 0.000000 0.000000
0.675751 0.000000 0.000000
0.678406 0.000000 0.000000
0.680817 0.000000 0.000000
0.682983 0.000000 0.000000
0.685028 0.000000 0.000000
0.686920 0.000000 0.000000
0.688660 0.000000 0.002136
0.690186 0.000000 0.004608
0.691498 0.000000 0.006653
0.006134 0.007202 0.006653
0.006195 0.007111 0.006531
0.006287 0.006989 0.006409
0.006470 0.006958 0.006317
0.006714 0.007080 0.006348
0.007050 0.007050 0.006287
0.007477 0.007019 0.006134
0.008057 0.007080 0.006195
0.009674 0.007538 0.006378
0.011200 0.007965 0.006592
0.013336 0.008453 0.006714
0.015930 0.008789 0.006683
0.019714 0.009277 0.006744
0.024933 0.009796 0.006897
0.031738 0.010437 0.006989
0.042450 0.011536 0.007446
0.055450 0.012512 0.007660
0.071869 0.013702 0.007629
0.087585 0.014648 0.007416
0.105469 0.013885 0.006409
0.120544 0.013885 0.005981
0.135956 0.014038 0.005676
0.154114 0.014008 0.004761
0.176178 0.013458 0.003571
0.193024 0.012238 0.002655
0.211945 0.009369 0.001862
0.233337 0.006622 0.001404
0.255035 0.003357 0.001068
0.275726 0.000000 0.000031
0.298553 0.000000 0.000000
0.323090 0.000000 0.000000
0.348663 0.000000 0.000000
0.379272 0.000000 0.000000
0.409058 0.000000 0.000000
0.431396 0.000000 0.000000
0.453949 0.000000 0.000000
0.474152 0.000000 0.000000
0.496429 0.000000 0.000000
0.520020 0.000000 0.000000
0.540649 0.000000 0.000000
0.560822 0.000000 0.000000
0.574982 0.000000 0.000000
0.587677 0.000000 0.000000
0.600922 0.000000 0.000000
0.611115 0.000000 0.000000
0.621033 0.000000 0.000000
0.629089 0.000000 0.000000
0.639069 0.000000 0.000000
0.645264 0.000000 0.000000
0.650299 0.000000 0.000000
0.655182 0.000000 0.000000
0.660706 0.000000 0.000000
0.667419 0.000000 0.000000
0.672729 0.000000 0.000000
0.677704 0.000000 0.000000
0.680389 0.000000 0.000000
0.682648 0.000000 0.000000
0.685242 0.000000 0.000000
0.687653 0.000000 0.000000
0.689850 0.000000 0.000000
0.691895 0.000000 0.000000
0.693787 0.000000 0.000000
0.695404 0.000000 0.002441
0.696838 0.000000 0.004700
0.006165 0.008301 0.007355
0.006256 0.008240 0.007263
0.006378 0.008148 0.007172
0.006592 0.008118 0.007050
0.006805 0.008087 0.006989
0.007141 0.008087 0.006927
0.007599 0.008240 0.006927
0.008148 0.008301 0.006927
0.009796 0.008545 0.006927
0.011353 0.008850 0.007019
0.013519 0.009186 0.006989
0.015778 0.009583 0.007141
0.019592 0.010040 0.007294
0.024872 0.010773 0.007507
0.031891 0.011719 0.007660
0.043457 0.013092 0.007843
0.056763 0.014496 0.008179
0.073608 0.015778 0.007996
0.089935 0.016724 0.007690
0.107025 0.016327 0.006805
0.122223 0.016754 0.006348
0.137238 0.017883 0.006195
0.154449 0.017609 0.005219
0.177582 0.016846 0.003784
0.195953 0.016571 0.003387
0.215820 0.014221 0.002655
0.237427 0.010437 0.001923
0.259521 0.007294 0.001312
0.279572 0.003571 0.000305
0.301605 0.000000 0.000000
0.326508 0.000000 0.000000
0.353088 0.000000 0.000000
0.383209 0.000000 0.000000
0.411560 0.000000 0.000000
0.433807 0.000000 0.000000
0.455963 0.000000 0.000000
0.476410 0.000000 0.000000
0.499512 0.000000 0.000000
0.524506 0.000000 0.000000
0.545074 0.000000 0.000000
0.565125 0.000000 0.000000
0.580017 0.000000 0.000000
0.593170 0.000000 0.000000
0.606323 0.000000 0.000000
0.617218 0.000000 0.000000
0.627411 0.000000 0.000000
0.634766 0.000000 0.000000
0.644958 0.000000 0.000000
0.652710 0.000000 0.000000
0.657715 0.000000 0.000000
0.662201 0.000000 0.000000
0.667297 0.000000 0.000000
0.673920 0.000000 0.000000
0.678589 0.000000 0.000000
0.683350 0.000000 0.000000
0.686340 0.000000 0.000000
0.688660 0.000000 0.000000
0.691162 0.000000 0.000000
0.693542 0.000000 0.000000
0.695679 0.000000 0.000000
0.697388 0.000000 0.000000
0.698883 0.000000 0.000000
0.700287 0.000000 0.000244
0.701538 0.000000 0.002563
0.006195 0.009277 0.008026
0.006256 0.009277 0.007996
0.006409 0.009247 0.007935
0.006622 0.009247 0.007874
0.006836 0.009186 0.007751
0.007172 0.009186 0.007660
0.007629 0.009338 0.007690
0.008270 0.009491 0.007660
0.009827 0.009796 0.007721
0.011444 0.010101 0.007782
0.013611 0.010437 0.007782
0.015808 0.010864 0.007904
0.019531 0.011658 0.008179
0.024506 0.012543 0.008362
0.032227 0.013702 0.008545
0.043274 0.015137 0.008698
0.056732 0.016785 0.008942
0.073792 0.018158 0.008636
0.091248 0.019379 0.008331
0.107849 0.020325 0.007843
0.123840 0.020569 0.007141
0.139008 0.021332 0.006683
0.155212 0.021637 0.006073
0.177612 0.020386 0.004486
0.197327 0.020081 0.003876
0.217804 0.018585 0.003326
0.240997 0.015564 0.002350
0.263458 0.011871 0.001709
0.283813 0.008698 0.000732
0.305878 0.004517 0.000000
0.330383 0.000000 0.000000
0.357391 0.000000 0.000000
0.388000 0.000000 0.000000
0.416809 0.000000 0.000000
0.438721 0.000000 0.000000
0.461060 0.000000 0.000000
0.481171 0.000000 0.000000
0.503479 0.000000 0.000000
0.528809 0.000000 0.000000
0.549225 0.000000 0.000000
0.570190 0.000000 0.000000
0.586090 0.000000 0.000000
0.600616 0.000000 0.000000
0.613831 0.000000 0.000000
0.624542 0.000000 0.000000
0.635223 0.000000 0.000000
0.642151 0.000000 0.000000
0.651611 0.000000 0.000000
0.659943 0.000000 0.000000
0.666321 0.000000 0.000000
0.670197 0.000000 0.000000
0.674225 0.000000 0.000000
0.680023 0.000000 0.000000
0.685089 0.000000 0.000000
0.690002 0.000000 0.000000
0.692627 0.000000 0.000000
0.694916 0.000000 0.000000
0.696747 0.000000 0.000000
0.698578 0.000000 0.000000
0.700348 0.000000 0.000000
0.701965 0.000000 0.000000
0.703491 0.000000 0.000000
0.705048 0.000000 0.000000
0.706482 0.000000 0.000000
0.006134 0.010529 0.008789
0.006226 0.010559 0.008759
0.006378 0.010681 0.008789
0.006561 0.010803 0.008850
0.006744 0.010895 0.008850
0.007111 0.010925 0.008820
0.007538 0.011047 0.008789
0.008179 0.011444 0.008942
0.009766 0.011780 0.008911
0.011261 0.012115 0.008972
0.013519 0.012390 0.008881
0.015533 0.012787 0.008972
0.019165 0.013672 0.009277
0.023163 0.014313 0.009247
0.031891 0.015656 0.009430
0.042389 0.017059 0.009583
0.056061 0.018768 0.009674
0.072357 0.020508 0.009430
0.091003 0.022186 0.008942
0.108307 0.023987 0.008850
0.124939 0.025452 0.008484
0.141235 0.026062 0.007507
0.156982 0.026733 0.007019
0.178406 0.025787 0.005768
0.199707 0.024963 0.004761
0.221375 0.024017 0.003967
0.244415 0.020874 0.002960
0.266724 0.017395 0.001740
0.287384 0.014984 0.000885
0.309998 0.012512 0.000000
0.334686 0.006409 0.000000
0.362396 0.000214 0.000000
0.393158 0.000000 0.000000
0.422211 0.000000 0.000000
0.444458 0.000000 0.000000
0.466064 0.000000 0.000000
0.486572 0.000000 0.000000
0.507874 0.000000 0.000000
0.534332 0.000000 0.000000
0.555603 0.000000 0.000000
0.576416 0.000000 0.000000
0.592712 0.000000 0.000000
0.608215 0.000000 0.000000
0.622620 0.000000 0.000000
0.632965 0.000000 0.000000
0.643127 0.000000 0.000000
0.651123 0.000000 0.000000
0.658600 0.000000 0.000000
0.666290 0.000000 0.000000
0.673920 0.000000 0.000000
0.678864 0.000000 0.000000
0.682159 0.000000 0.000000
0.687378 0.000000 0.000000
0.691498 0.000000 0.000000
0.695831 0.000000 0.000000
0.697998 0.000000 0.000000
0.699890 0.000000 0.000000
0.701721 0.000000 0.000000
0.703491 0.000000 0.000000
0.705414 0.000000 0.000000
0.707214 0.000000 0.000000
0.708923 0.000000 0.000000
0.710419 0.000000 0.000000
0.711945 0.000000 0.000000
0.005951 0.012360 0.010040
0.006073 0.012482 0.010101
0.006256 0.012543 0.010040
0.006439 0.012634 0.010071
0.006622 0.012756 0.010132
0.006897 0.012848 0.010071
0.007355 0.012909 0.010040
0.007812 0.013062 0.010010
0.009583 0.013580 0.010101
0.011139 0.013885 0.010071
0.013184 0.014221 0.010010
0.015442 0.014709 0.010101
0.018829 0.015411 0.010254
0.022797 0.016144 0.010223
0.031067 0.017670 0.010284
0.041260 0.019653 0.010468
0.055481 0.021942 0.010529
0.070587 0.024200 0.010590
0.088013 0.026001 0.010284
0.106567 0.028107 0.009766
0.123718 0.029877 0.009552
0.141724 0.030640 0.008179
0.157776 0.031494 0.007477
0.177795 0.031830 0.006775
0.200287 0.031342 0.005859
0.224274 0.029968 0.004883
0.248444 0.027527 0.003571
0.270294 0.024567 0.002258
0.291107 0.022064 0.001343
0.313293 0.019806 0.000458
0.338531 0.015320 0.000000
0.365967 0.009125 0.000000
0.396729 0.000885 0.000000
0.426422 0.000000 0.000000
0.448730 0.000000 0.000000
0.470642 0.000000 0.000000
0.492126 0.000000 0.000000
0.513519 0.000000 0.000000
0.540253 0.000000 0.000000
0.562256 0.000000 0.000000
0.582733 0.000000 0.000000
0.599121 0.000000 0.000000
0.615448 0.000000 0.000000
0.630615 0.000000 0.000000
0.641632 0.000000 0.000000
0.651276 0.000000 0.000000
0.659363 0.000000 0.000000
0.666901 0.000000 0.000000
0.673309 0.000000 0.000000
0.680725 0.000000 0.000000
0.686584 0.000000 0.000000
0.690704 0.000000 0.000000
0.694519 0.000000 0.000000
0.697815 0.000000 0.000000
0.701324 0.000000 0.000000
0.703644 0.000000 0.000000
0.705719 0.000000 0.000000
0.707672 0.000000 0.000000
0.709534 0.000000 0.000000
0.711334 0.000000 0.000000
0.713348 0.000000 0.000000
0.715179 0.000000 0.000000
0.716949 0.002258 0.000000
0.718628 0.008423 0.000000
0.005798 0.014282 0.011383
0.005920 0.014404 0.011414
0.006104 0.014465 0.011383
0.006287 0.014526 0.011353
0.006470 0.014618 0.011383
0.006744 0.014709 0.011383
0.007111 0.014801 0.011322
0.007599 0.014893 0.011292
0.009125 0.015320 0.011200
0.010895 0.016052 0.011261
0.012939 0.016632 0.011200
0.015259 0.017303 0.011200
0.018707 0.018280 0.011292
0.022705 0.019379 0.011475
0.030548 0.020844 0.011353
0.039764 0.022736 0.011627
0.054596 0.025330 0.011810
0.070007 0.027527 0.011719
0.086334 0.030029 0.011627
0.103119 0.031982 0.011200
0.122070 0.033936 0.010437
0.140594 0.034821 0.009216
0.158295 0.036072 0.008270
0.178314 0.037262 0.007660
0.200195 0.037476 0.006775
0.223785 0.036377 0.005615
0.250427 0.034454 0.004242
0.274811 0.032135 0.002716
0.296051 0.029541 0.002075
0.317902 0.027252 0.001007
0.342773 0.024078 0.000000
0.368439 0.021576 0.000000
0.399323 0.014404 0.000000
0.430908 0.007874 0.000000
0.453827 0.003113 0.000000
0.475464 0.000000 0.000000
0.497009 0.000000 0.000000
0.519226 0.000000 0.000000
0.545593 0.000000 0.000000
0.569092 0.000000 0.000000
0.589844 0.000000 0.000000
0.605316 0.000000 0.000000
0.621643 0.000000 0.000000
0.637909 0.000000 0.000000
0.650574 0.000000 0.000000
0.660248 0.000000 0.000000
0.667786 0.000000 0.000000
0.675201 0.000000 0.000000
0.681396 0.000000 0.000000
0.687286 0.000000 0.000000
0.692841 0.000000 0.000000
0.697876 0.000000 0.000000
0.701080 0.000000 0.000000
0.703705 0.000000 0.000000
0.707397 0.000000 0.000000
0.709625 0.000000 0.000000
0.711761 0.000000 0.000000
0.713928 0.000000 0.000000
0.716003 0.001892 0.000000
0.718018 0.009308 0.000000
0.720001 0.016541 0.000000
0.721863 0.023438 0.000000
0.723633 0.030060 0.000000
0.725433 0.036285 0.000000
0.005585 0.016235 0.012665
0.005707 0.016388 0.012665
0.005829 0.016571 0.012665
0.006012 0.016663 0.012604
0.006165 0.016815 0.012604
0.006439 0.016968 0.012604
0.006775 0.017151 0.012543
0.007172 0.017548 0.012573
0.008484 0.018005 0.012543
0.010406 0.018707 0.012482
0.012482 0.019348 0.012421
0.015076 0.019958 0.012207
0.018219 0.020874 0.012238
0.022583 0.022369 0.012756
0.029694 0.023987 0.013031
0.039276 0.025940 0.013092
0.053345 0.028564 0.013184
0.068878 0.031342 0.013000
0.086121 0.034546 0.012817
0.101440 0.037445 0.012604
0.119324 0.039581 0.011627
0.138397 0.041107 0.010742
0.157776 0.042236 0.009613
0.178650 0.043793 0.008636
0.201691 0.044769 0.007629
0.224426 0.044678 0.006531
0.250336 0.044067 0.004852
0.276062 0.042419 0.003693
0.299591 0.040253 0.002319
0.322784 0.037262 0.001373
0.347931 0.034210 0.000000
0.373199 0.032135 0.000000
0.402924 0.028290 0.000000
0.434723 0.022369 0.000000
0.458282 0.016571 0.000000
0.480652 0.011993 0.000000
0.502960 0.007843 0.000000
0.525940 0.001160 0.000000
0.551666 0.000000 0.000000
0.575134 0.000000 0.000000
0.596649 0.000000 0.000000
0.611847 0.000000 0.000000
0.627594 0.000000 0.000000
0.643616 0.000000 0.000000
0.657959 0.000000 0.000000
0.668701 0.000000 0.000000
0.675812 0.000000 0.000000
0.682495 0.000000 0.000000
0.688751 0.000000 0.000000
0.694763 0.000000 0.000000
0.699921 0.000000 0.000000
0.704926 0.000000 0.000000
0.708282 0.000000 0.000000
0.710327 0.000000 0.000000
0.714081 0.000000 0.000000
0.716370 0.005829 0.000000
0.718658 0.014343 0.000000
0.720978 0.022797 0.000000
0.723053 0.030457 0.000000
0.725159 0.037598 0.000000
0.727081 0.044006 0.000000
0.729034 0.050446 0.000000
0.730988 0.056793 0.000000
0.732941 0.063019 0.000000
0.005157 0.019073 0.014069
0.005310 0.019165 0.014069
0.005463 0.019257 0.014038
0.005585 0.019379 0.014008
0.005737 0.019470 0.013947
0.006042 0.019592 0.013916
0.006378 0.019775 0.013916
0.006775 0.020142 0.014038
0.007660 0.020691 0.014191
0.009705 0.021484 0.014282
0.011810 0.022247 0.014221
0.014526 0.022919 0.014008
0.017548 0.023651 0.013763
0.021942 0.025146 0.014038
0.028259 0.027649 0.014587
0.037811 0.030212 0.014832
0.051147 0.033356 0.014740
0.065857 0.036316 0.014648
0.084229 0.039642 0.014069
0.100952 0.042664 0.013702
0.117523 0.045532 0.012878
0.134888 0.047516 0.012238
0.155731 0.048859 0.011108
0.176453 0.050293 0.010040
0.201019 0.051514 0.008636
0.224304 0.051910 0.007416
0.250000 0.052216 0.006165
0.276459 0.052124 0.004944
0.300476 0.050232 0.003143
0.324188 0.048431 0.002045
0.349884 0.045227 0.000092
0.376526 0.043854 0.000000
0.407593 0.043030 0.000000
0.438477 0.039886 0.000000
0.462891 0.036926 0.000000
0.485962 0.029785 0.000000
0.508423 0.024811 0.000000
0.532104 0.019440 0.000000
0.558075 0.013367 0.000000
0.581787 0.011444 0.000000
0.603577 0.007172 0.000000
0.618561 0.002502 0.000000
0.634369 0.000000 0.000000
0.649261 0.000000 0.000000
0.663574 0.002777 0.000000
0.676758 0.009125 0.000000
0.684875 0.006653 0.000000
0.691071 0.005157 0.000000
0.696777 0.009033 0.000000
0.702698 0.012665 0.000000
0.708099 0.014069 0.000000
0.711914 0.014557 0.000000
0.715576 0.015137 0.000000
0.717712 0.012726 0.000000
0.721252 0.025726 0.000000
0.723480 0.033966 0.000000
0.725739 0.041626 0.000000
0.727997 0.049011 0.000000
0.730255 0.056305 0.000000
0.732513 0.063629 0.000000
0.734894 0.071442 0.000000
0.737244 0.079163 0.000000
0.739563 0.086700 0.000000
0.741852 0.094055 0.000000
0.004547 0.022278 0.016113
0.004669 0.022430 0.016174
0.004791 0.022552 0.016235
0.004913 0.022705 0.016327
0.005066 0.022858 0.016388
0.005371 0.023132 0.016479
0.005737 0.023315 0.016479
0.006165 0.023560 0.016510
0.007172 0.024231 0.016602
0.008881 0.025177 0.016632
0.010986 0.026337 0.016663
0.013702 0.027252 0.016357
0.016449 0.028137 0.016113
0.021393 0.029480 0.015717
0.026794 0.031555 0.015961
0.036804 0.034546 0.016235
0.048706 0.037476 0.016357
0.063873 0.040924 0.016052
0.080566 0.043945 0.015533
0.099030 0.047089 0.014771
0.116425 0.050293 0.014038
0.132629 0.053375 0.013550
0.151733 0.055298 0.012573
0.172791 0.056946 0.011597
0.198853 0.058350 0.009827
0.222473 0.059784 0.008942
0.248688 0.060516 0.007324
0.276306 0.061157 0.005981
0.301361 0.060822 0.003967
0.325439 0.059570 0.002625
0.351685 0.059479 0.000610
0.378387 0.057922 0.000000
0.410370 0.057648 0.000000
0.442078 0.055725 0.000000
0.465424 0.053345 0.000000
0.489532 0.048615 0.000000
0.513397 0.042450 0.000000
0.539154 0.040924 0.000000
0.565643 0.037903 0.000000
0.589386 0.038208 0.000000
0.610626 0.035156 0.000000
0.625671 0.031982 0.000000
0.641052 0.026947 0.000000
0.656219 0.021912 0.000000
0.670074 0.025208 0.000000
0.683502 0.034790 0.000000
0.693207 0.043121 0.000000
0.700226 0.043121 0.000000
0.705078 0.042328 0.000000
0.710480 0.045380 0.000000
0.715881 0.048981 0.000000
0.719269 0.047424 0.000000
0.722565 0.044891 0.000000
0.725098 0.042664 0.000000
0.728455 0.052002 0.000000
0.730988 0.060547 0.000000
0.733795 0.069977 0.000000
0.736725 0.079224 0.000000
0.739471 0.088165 0.000000
0.741943 0.095978 0.000000
0.744324 0.103210 0.000000
0.746613 0.110291 0.000000
0.748810 0.116699 0.000000
0.750946 0.121735 0.000000
0.003693 0.025970 0.018738
0.003815 0.026215 0.018677
0.003906 0.026520 0.018707
0.003998 0.026825 0.018829
0.004120 0.027222 0.019012
0.004486 0.027710 0.019104
0.004761 0.028290 0.019226
0.005127 0.028748 0.019287
0.006439 0.029572 0.019318
0.008209 0.030518 0.019257
0.009888 0.031525 0.019348
0.012970 0.032654 0.019104
0.015564 0.033264 0.018585
0.020294 0.034485 0.018097
0.025391 0.035614 0.017456
0.035278 0.038361 0.017395
0.045502 0.041199 0.017609
0.060791 0.045105 0.017487
0.076111 0.048584 0.017090
0.094696 0.051971 0.016174
0.113770 0.055878 0.015320
0.131226 0.059448 0.014648
0.149841 0.062134 0.013855
0.170197 0.064240 0.013306
0.195465 0.066437 0.012085
0.221252 0.068176 0.010834
0.247375 0.069275 0.008850
0.275452 0.070496 0.007324
0.302094 0.070709 0.005127
0.326996 0.070587 0.003265
0.353638 0.070557 0.001434
0.380493 0.070557 0.000000
0.411743 0.069824 0.000000
0.444916 0.069061 0.000000
0.469421 0.068237 0.000000
0.493958 0.066986 0.000000
0.517944 0.063812 0.000000
0.544586 0.061829 0.000000
0.571899 0.061737 0.000000
0.595520 0.060791 0.000000
0.616699 0.059601 0.000000
0.632019 0.058380 0.000000
0.647797 0.056854 0.000000
0.663849 0.054840 0.000000
0.677643 0.054657 0.000000
0.689789 0.059418 0.000000
0.699463 0.070007 0.000000
0.707947 0.076416 0.000000
0.713531 0.075653 0.000000
0.718750 0.074615 0.000000
0.723907 0.077057 0.000000
0.727295 0.076172 0.000000
0.730438 0.072540 0.000000
0.733704 0.074677 0.000000
0.737885 0.084778 0.000000
0.741089 0.094910 0.000000
0.744019 0.104126 0.000000
0.746552 0.111847 0.000000
0.748901 0.118011 0.000000
0.751099 0.123169 0.000000
0.753387 0.128662 0.000000
0.755615 0.133942 0.000000
0.757538 0.138458 0.000000
0.759430 0.142822 0.000000
0.002319 0.031830 0.021729
0.002472 0.031921 0.021637
0.002594 0.032043 0.021576
0.002747 0.032288 0.021576
0.002869 0.032654 0.021729
0.003296 0.033020 0.021729
0.003693 0.033478 0.021759
0.004059 0.034027 0.021881
0.005585 0.034851 0.021851
0.007416 0.035828 0.021790
0.009247 0.036804 0.021729
0.012024 0.037964 0.021545
0.015076 0.039307 0.021149
0.019104 0.039764 0.020386
0.024384 0.040955 0.019562
0.033203 0.043091 0.018890
0.043030 0.046051 0.018616
0.057587 0.049988 0.018494
0.073090 0.053436 0.018097
0.090515 0.057068 0.017334
0.109192 0.061127 0.017120
0.128479 0.065033 0.016510
0.147522 0.068085 0.015869
0.168274 0.070801 0.015228
0.192047 0.073029 0.013855
0.220123 0.075958 0.012329
0.247253 0.077667 0.010712
0.275543 0.078949 0.008484
0.301910 0.080414 0.006653
0.327850 0.081207 0.004456
0.355225 0.082428 0.002289
0.382965 0.082977 0.001434
0.414703 0.083832 0.000000
0.447449 0.083313 0.000000
0.473663 0.082703 0.000000
0.498352 0.082306 0.000000
0.522430 0.082855 0.000000
0.548309 0.082581 0.000000
0.576538 0.081116 0.000000
0.601196 0.081177 0.000000
0.623291 0.080719 0.000000
0.639282 0.083344 0.000000
0.654388 0.083252 0.000000
0.670563 0.085754 0.000000
0.684967 0.085938 0.000000
0.697021 0.086029 0.000000
0.706299 0.090881 0.000000
0.715027 0.097809 0.000000
0.722473 0.104309 0.000000
0.728149 0.105530 0.000000
