LUTs/SPK Cube Block1 S64/TheBrim_SPK_Type-T_Block1_S64.cube
TITLE "TheBrim® SPK Block 1"
# TheBrim® d.o.o. Croatia
# Copyright: (C) Copyright 2020 TheBrim® d.o.o. Croatia
LUT_3D_SIZE 4
0.0000000000 0.0000000000 0.0000000000
0.1375730000 0.0133360000 0.0102540000
0.5932920000 0.0198970000 0.0282290000
0.7700200000 0.0167850000 0.0353390000
0.0364380000 0.1390990000 0.0396420000
0.1329040000 0.1242070000 0.0182190000
0.5870360000 0.1020510000 0.0248110000
0.7657170000 0.0912170000 0.0377810000
0.0753780000 0.5098570000 0.1309810000
0.1928410000 0.5298460000 0.1296080000
0.5743100000 0.4419860000 0.0453800000
0.7379460000 0.4438480000 0.0346980000
0.1380920000 0.6480410000 0.1815800000
0.2489320000 0.6699520000 0.1905520000
0.5907590000 0.5737300000 0.0497440000
0.7355040000 0.5552670000 0.0421450000
0.0205990000 0.0096440000 0.1628720000
0.0758360000 0.0116580000 0.1042180000
0.5183410000 0.0338440000 0.0678100000
0.6945800000 0.0191650000 0.0705570000
0.0378420000 0.1126100000 0.1231990000
0.1809690000 0.1930850000 0.1889040000
0.6410220000 0.1864620000 0.1444090000
0.8128970000 0.1862790000 0.1325380000
0.0656430000 0.4743960000 0.2052000000
0.2394710000 0.5670780000 0.2915950000
0.6374820000 0.5427550000 0.2076720000
0.7931520000 0.5400700000 0.1804810000
0.1028750000 0.6119080000 0.2494200000
0.2883000000 0.6966860000 0.3392640000
0.6548770000 0.6744080000 0.2585140000
0.7918090000 0.6504520000 0.2126460000
0.0000000000 0.0134580000 0.5569760000
0.0223390000 0.0109560000 0.4934390000
0.3648380000 0.0366210000 0.2650450000
0.5298460000 0.0311890000 0.2454530000
0.0018310000 0.1028140000 0.4921880000
0.0254820000 0.1633910000 0.5604550000
0.5034790000 0.2170100000 0.3986210000
0.6731260000 0.2161250000 0.3724670000
0.0476680000 0.3928530000 0.3984680000
0.2304690000 0.5011600000 0.4950260000
0.7616880000 0.7453610000 0.7063290000
0.9067080000 0.7385560000 0.6753230000
0.0541380000 0.5294190000 0.4364620000
0.2607730000 0.6336980000 0.5306700000
0.7794490000 0.8664860000 0.7498470000
0.9017640000 0.8422240000 0.7019960000
0.0000000000 0.0024110000 0.7378230000
0.0207210000 0.0040890000 0.6785580000
0.3143620000 0.0303340000 0.4139400000
0.4599000000 0.0313420000 0.3485110000
0.0000000000 0.0902100000 0.6752930000
0.0219120000 0.1495670000 0.7352290000
0.4500430000 0.2159120000 0.5659790000
0.6066280000 0.2191770000 0.4952090000
0.0241090000 0.3837280000 0.5369260000
0.1824040000 0.4904170000 0.6311340000
0.7568050000 0.7737430000 0.8719480000
0.8974000000 0.7809140000 0.8199770000
0.0553590000 0.4944760000 0.5299680000
0.2646480000 0.6026310000 0.6239010000
0.8013000000 0.8750610000 0.8572080000
0.9500430000 0.9226070000 0.8904110000
