LUTs/SPK Cube Block1 S64/TheBrim_SPK_Type-U_Block 1_S64.cube
TITLE "TheBrim® Industrial Imaging Burau"
# © Copyright 2022 - TheBrim® d.o.o. Croatia
LUT_3D_SIZE 4
0.0127260243 0.0152590219 0.0176394293
0.2402380407 0.0442511635 0.0325932708
0.5823300526 0.0000000000 0.0324406806
0.6711680781 0.0000000000 0.0336003662
0.0000000000 0.1890592813 0.0816052491
0.2109712367 0.2027924010 0.0658884565
0.6321660182 0.2222018769 0.0309758145
0.7965972381 0.2420691234 0.0000000000
0.0000000000 0.5459220264 0.2565041581
0.1492027161 0.6086671244 0.1940337224
0.7352254520 0.6729076066 0.0144655528
0.9554436561 0.7031815061 0.0000000000
0.3512321660 0.7016556039 0.2114900435
0.5090257115 0.7408712902 0.1990081636
0.8063630121 0.8183566033 0.1540245670
0.9801327535 0.8776531624 0.2379797055
0.0112916762 0.0296025025 0.1977569238
0.1913481346 0.0451667048 0.2171663996
0.6006408789 0.0000000000 0.2416723888
0.6790112154 0.0000000000 0.2111238270
0.0000000000 0.2007782101 0.2290379187
0.1895170520 0.1983062486 0.2099641413
0.6313725490 0.2211337453 0.2317540246
0.8036163882 0.2490272374 0.2451209277
0.0000000000 0.5449759670 0.3079270619
0.0657053483 0.6104676890 0.2656290532
0.7272907607 0.6820325017 0.2611734188
0.9515983825 0.7190814069 0.3038071260
0.4047913329 0.7138323033 0.2086823835
0.5410391394 0.7492942702 0.1936675059
0.8177462425 0.8333409628 0.2705729763
0.9717402914 0.9113756008 0.5268787671
0.0030212863 0.0856336309 0.4277409018
0.2052033265 0.0888990616 0.4754406043
0.5624322881 0.0645151446 0.5064927138
0.7492027161 0.0773327230 0.5137865263
0.0000000000 0.2258640421 0.5128099489
0.1833524071 0.2288548104 0.5503166247
0.6471503777 0.2439002060 0.5859006638
0.8189669642 0.2699931334 0.5907835508
0.0000000000 0.5676813916 0.5927061875
0.0000000000 0.6425421530 0.6404364080
0.7128557259 0.7188677806 0.6845654994
0.9388723583 0.7471580072 0.7049210346
0.3315785458 0.7662317845 0.6096742199
0.4999160754 0.8035858701 0.6342412451
0.7997100786 0.8835736629 0.6994583047
0.9620660716 0.9430838483 0.8095368887
0.0000000000 0.2032196536 0.5174486915
0.1778286412 0.2121004044 0.5396047913
0.4570687419 0.2184786755 0.5641412985
0.7091020066 0.2195468070 0.5783932250
0.0000000000 0.2726482033 0.5648126955
0.1810330358 0.2798504616 0.5806210422
0.4782787823 0.2977035172 0.6053711757
0.7728236820 0.3728999771 0.6456244755
0.0000000000 0.6075989929 0.7410238804
0.2001068132 0.6464484627 0.7672083619
0.7102922103 0.7204547189 0.7998016327
0.9035019455 0.7697108415 0.8135347524
0.3065537499 0.8025177386 0.8111848631
0.4949721523 0.8395056077 0.8298619059
0.8188448920 0.9127794308 0.8733501183
0.9591363394 0.9541008621 0.9047531853
