LUTs/SPK Cube Block1 S64/TheBrim_SPK_Type-U_Block 1_S64.cube
TITLE "TheBrim® Industrial Imaging Burau"
# © Copyright 2022 - TheBrim® d.o.o. Croatia
LUT_3D_SIZE 8
0.0127260243 0.0152590219 0.0176394293
0.0660715648 0.0315251392 0.0317082475
0.1727016098 0.0458686198 0.0370489052
0.3716792554 0.0213931487 0.0168764782
0.5070420386 0.0021362631 0.0236514839
0.6151674678 0.0000000000 0.0357671473
0.6617074846 0.0000000000 0.0393072404
0.6711680781 0.0000000000 0.0336003662
0.0302128634 0.0686655985 0.0435492485
0.0700694285 0.0708323796 0.0419623102
0.1787747005 0.0803234913 0.0384832532
0.3466239414 0.0767528801 0.0267032883
0.5012741283 0.0496528573 0.0277409018
0.6216372930 0.0245365072 0.0363469902
0.6826428626 0.0288700694 0.0397039750
0.7098649577 0.0654612039 0.0308842603
0.0161745632 0.1523460746 0.0652170596
0.0683909361 0.1569542992 0.0629587243
0.1676356146 0.1625696193 0.0578011749
0.3258716716 0.1706874189 0.0466620890
0.5088120851 0.1722438392 0.0347905699
0.6651865415 0.1706569009 0.0333867399
0.7535057603 0.1812161440 0.0269474327
0.7696192874 0.1877470054 0.0070496681
0.0000000000 0.3168078126 0.1347371633
0.0000000000 0.2829022660 0.1132524605
0.1456321050 0.2960860609 0.1005264363
0.3331654841 0.3179980163 0.0779125658
0.5408255131 0.3348134585 0.0349126421
0.7220416571 0.3493705653 0.0000000000
0.8240024414 0.3621576257 0.0000000000
0.8524147402 0.3680476081 0.0000000000
0.0000000000 0.4652780957 0.2139925231
0.0000000000 0.4774242771 0.1855191882
0.0023804074 0.4887159533 0.1659571221
0.3535820554 0.5121690700 0.1301899748
0.5763790341 0.5292896925 0.0671091783
0.7684596017 0.5535820554 0.0000000000
0.8834515908 0.5707026780 0.0000000000
0.9247425040 0.5793087663 0.0000000000
0.0000000000 0.5845273518 0.2620889601
0.0000000000 0.6014343481 0.2459754330
0.0000000000 0.6410467689 0.2361486229
0.3666742962 0.6795605402 0.1904325933
0.6196231022 0.7164568551 0.1233844511
0.8094148165 0.7340657664 0.0000000000
0.9197070268 0.7479514763 0.0000000000
0.9654535744 0.7514305333 0.0000000000
0.0000000000 0.6546272984 0.2330663005
0.1288776989 0.6656137942 0.2280003052
0.3067978943 0.6921644923 0.2157930877
0.4902723735 0.7356527047 0.2003204395
0.6624093996 0.7809109636 0.1809109636
0.8358434424 0.8251316091 0.1474631876
0.9410086213 0.8487220569 0.0772411688
0.9843137255 0.8533913176 0.0017395285
0.3512321660 0.7016556039 0.2114900435
0.3891050584 0.7102922103 0.2099031052
0.4762035554 0.7317769131 0.2011749447
0.5847714961 0.7609216449 0.1895780880
0.7233234150 0.7962615396 0.1702601663
0.8476234073 0.8288853285 0.1513084611
0.9354543374 0.8568093385 0.1575341421
0.9801327535 0.8776531624 0.2379797055
0.0180056458 0.0282902266 0.0606393530
0.0566414893 0.0328374151 0.0650644694
0.1766384375 0.0436408026 0.0735179675
0.3808957046 0.0168154421 0.0628061341
0.5138780804 0.0000000000 0.0528877699
0.6195010300 0.0000000000 0.0476997024
0.6630197604 0.0000000000 0.0464484627
0.6702220188 0.0000000000 0.0621652552
0.0056763561 0.0590829328 0.0653391318
0.0574044404 0.0623788815 0.0650644694
0.1770046540 0.0721446555 0.0676585031
0.3416189822 0.0688181888 0.0589608606
0.5030746929 0.0401007095 0.0437018387
0.6220035096 0.0076905470 0.0410772869
0.6764476997 0.0114137484 0.0429083696
0.7094682231 0.0603036545 0.0676279850
0.0000000000 0.1735561151 0.0803845274
0.0365911345 0.1498435950 0.0693675135
0.1643091478 0.1570153353 0.0693675135
0.3278858625 0.1655298695 0.0620737011
0.5116807813 0.1650720989 0.0452582589
0.6680247196 0.1634546426 0.0366826886
0.7509117266 0.1722743572 0.0324711986
0.7702601663 0.1866483558 0.0562447547
0.0000000000 0.3124132143 0.1383077745
0.0000000000 0.2850690471 0.1148699168
0.1452658885 0.2948043030 0.1002212558
0.3371328298 0.3158007172 0.0760509651
0.5443350881 0.3308766308 0.0325017166
0.7234454871 0.3413443198 0.0014038300
0.8240634775 0.3573662928 0.0000000000
0.8511329824 0.3634088655 0.0137026017
0.0000000000 0.4642404822 0.2149996185
0.0000000000 0.4769054704 0.1860379950
0.0122377356 0.4880445563 0.1661097124
0.3552910658 0.5109788663 0.1292439155
0.5777828641 0.5270008392 0.0642710002
0.7705043107 0.5491874571 0.0000000000
0.8848859388 0.5689326314 0.0000000000
0.9243457694 0.5760128176 0.0000000000
0.0000000000 0.5864499886 0.2607766842
0.0000000000 0.6017090105 0.2457007706
0.0000000000 0.6410772869 0.2357518883
0.3676508736 0.6793469139 0.1899443046
0.6208133059 0.7157244221 0.1211871519
0.8118562600 0.7333943694 0.0000000000
0.9204089418 0.7471580072 0.0000000000
0.9664606699 0.7575646601 0.0000000000
0.0191042954 0.6570992599 0.2318150607
0.1495078965 0.6677500572 0.2265964752
0.3160448615 0.6942397192 0.2150606546
0.4964980545 0.7373617151 0.2001983673
0.6660715648 0.7818570230 0.1804837110
0.8378271153 0.8259555962 0.1503318837
0.9410696574 0.8517433433 0.1456015869
0.9828488594 0.8610818647 0.1927214466
0.3669184405 0.7052262150 0.2108186465
0.4046692607 0.7138017853 0.2087129015
0.4867627985 0.7345540551 0.2005340658
0.5925841154 0.7630273899 0.1886320287
0.7295490959 0.7979400320 0.1691309987
0.8502784771 0.8297093156 0.1518577859
0.9369192035 0.8573586633 0.1575036240
0.9771114672 0.8896467536 0.3503471427
0.0080262455 0.0268253605 0.1696803235
0.0365911345 0.0248111696 0.1799343862
0.1531700618 0.0373540856 0.1755092699
0.3407949950 0.0343938354 0.1841153582
0.5153124285 0.0000000000 0.1879911498
0.6269779507 0.0000000000 0.1828641184
0.6678416114 0.0000000000 0.1675440604
0.6769359884 0.0000000000 0.1682459754
0.0000000000 0.0539253834 0.1628137636
0.0304875257 0.0520332647 0.1416647593
0.1437094682 0.0650034333 0.1505760281
0.3212634470 0.0686961166 0.1617761501
0.5050583658 0.0403753719 0.1662012665
0.6291447318 0.0000000000 0.1698634318
0.6821240558 0.0027771420 0.1615320058
0.7167620356 0.0628671702 0.1766079194
0.0000000000 0.1580834668 0.1795681697
0.0151674678 0.1385519188 0.1478294041
0.1456015869 0.1524071107 0.1617761501
0.3107042039 0.1630579080 0.1628747997
0.5009994659 0.1670252537 0.1673609522
0.6675364309 0.1675135424 0.1752956435
0.7539635309 0.1705348287 0.1747463188
0.7743495842 0.1886625467 0.1869840543
0.0000000000 0.3030136568 0.1965972381
0.0000000000 0.2958113985 0.1779201953
0.1282368200 0.2927595941 0.1710841535
0.3261463340 0.3130846113 0.1763027390
0.5363393606 0.3294422827 0.1769436179
0.7184710460 0.3416495003 0.1812466621
0.8230869001 0.3590142672 0.1877775235
0.8528725109 0.3677424277 0.2008087282
0.0000000000 0.4596017395 0.2284885939
0.0000000000 0.4766918441 0.2005645838
0.0000000000 0.4888075074 0.1907988098
0.3474174105 0.5096055543 0.1837796597
0.5765926604 0.5306324865 0.1790798810
0.7652552071 0.5510185397 0.1783169299
0.8803997864 0.5699702449 0.1831998169
0.9228503853 0.5808041505 0.2163424125
0.0000000000 0.5883115892 0.2630960555
0.0000000000 0.6047913329 0.2475623713
0.0000000000 0.6415655756 0.2400244144
0.3670710307 0.6821240558 0.2096589609
0.6192263676 0.7181048295 0.1915312428
0.8056000610 0.7400167849 0.2028229191
0.9144274052 0.7554283970 0.2110627909
0.9627069505 0.7655909056 0.2322117952
0.0737926299 0.6619211109 0.2327916381
0.1927214466 0.6730296788 0.2290379187
0.3304798962 0.6998550393 0.2312352178
0.4964675364 0.7424582284 0.2407568475
0.6610055695 0.7925078202 0.2791790646
0.8302891585 0.8425574121 0.3194628824
0.9329213397 0.8667887388 0.3320668345
0.9780575265 0.8774395361 0.3672846571
0.3918211643 0.7109025711 0.2097505150
0.4276188296 0.7193255512 0.2057221332
0.5027084764 0.7390707256 0.1998321508
0.6088197147 0.7673609522 0.1867093919
0.7408407721 0.8015106432 0.1714808881
0.8531776913 0.8358129244 0.2030975814
0.9309987030 0.8763408865 0.3561760891
0.9733272297 0.9051194018 0.4768139162
0.0150148775 0.0426337072 0.2551613642
0.0318303197 0.0432440681 0.2758525978
0.1382162203 0.0508430610 0.2988937209
0.3063706416 0.0552681773 0.3292896925
0.5009689479 0.0169985504 0.3511711299
0.6384527352 0.0000000000 0.3616998550
0.6686961166 0.0000000000 0.3262378882
0.6837109941 0.0000000000 0.3143358511
0.0039978637 0.0728770886 0.2691081102
0.0313725490 0.0605783169 0.2825970855
0.1351033799 0.0622873274 0.3073167010
0.3197985809 0.0628061341 0.3317311360
0.5111009384 0.0282291905 0.3416189822
0.6404974441 0.0000000000 0.3439688716
0.6934767681 0.0000000000 0.3288929580
0.7208209354 0.0380865187 0.3258106355
0.0000000000 0.1535973144 0.3051499199
0.0000000000 0.1466392004 0.2898298619
0.1299153124 0.1564965286 0.3039597162
0.3110704204 0.1703517205 0.3198290990
0.5148241398 0.1764858473 0.3389333944
0.6782787823 0.1734645609 0.3523002976
0.7636072328 0.1780117494 0.3541618982
0.7805752651 0.1929961089 0.3497672999
0.0000000000 0.3093919280 0.3396658274
0.0000000000 0.3005111772 0.3264209964
0.0882581827 0.3059433890 0.3262073701
0.3186083772 0.3253223468 0.3408255131
0.5368886854 0.3412832837 0.3542534524
0.7212787060 0.3539177539 0.3714045930
0.8246738384 0.3677119097 0.3784542611
0.8548867018 0.3766536965 0.3774166476
0.0000000000 0.4785229267 0.3865110246
0.0000000000 0.4878309300 0.3745479515
0.0000000000 0.4972304875 0.3662165255
0.3234912642 0.5242542153 0.3722285801
0.5665522240 0.5464103151 0.3805294881
0.7595483330 0.5647211414 0.3909666590
0.8745098039 0.5801327535 0.4025024796
0.9202258335 0.5923094530 0.4108644236
0.0000000000 0.6029297322 0.4193179217
0.0000000000 0.6203555352 0.4095826658
0.0000000000 0.6564278630 0.4061036088
0.3259937438 0.7005569543 0.4119935912
0.5986877241 0.7355916686 0.4177615015
0.7930571450 0.7563439384 0.4251468681
0.9056076905 0.7705653468 0.4378118563
0.9565117876 0.7817044327 0.4447089342
0.0000000000 0.6796826123 0.3900511177
0.0828564889 0.6915541314 0.3945983062
0.2737163348 0.7193560693 0.4066834516
0.4599984741 0.7615930419 0.4294193942
0.6447699702 0.8135042344 0.4617074846
0.8192416266 0.8633707179 0.5035629816
0.9217517357 0.8847333486 0.5233386740
0.9715877012 0.8924238956 0.5257495995
0.3929198138 0.7272297246 0.3183337148
0.4250247959 0.7354695964 0.3230029755
0.4934157321 0.7552147707 0.3373159380
0.6001831083 0.7876249332 0.3599298085
0.7289692531 0.8261997406 0.4000305180
0.8392004273 0.8630960555 0.4591744869
0.9234607462 0.8972152285 0.5371023117
0.9682917525 0.9221484703 0.6191958495
0.0193179217 0.0682688640 0.3658808270
0.0353398947 0.0618905928 0.3835812924
0.1489585718 0.0617685206 0.4237125200
0.3068894484 0.0568856336 0.4594186313
0.4902113375 0.0098878462 0.4821850919
0.6414435035 0.0000000000 0.5065842679
0.6806897078 0.0000000000 0.4728465705
0.7100480659 0.0000000000 0.4651865415
0.0000000000 0.0946364538 0.3929808499
0.0271610590 0.0700694285 0.4073243305
0.1432516976 0.0684824903 0.4418707561
0.3193713283 0.0607309071 0.4726024262
0.5062485695 0.0238345922 0.4878919661
0.6460517281 0.0000000000 0.4930189975
0.7118181125 0.0000000000 0.4896925307
0.7384298466 0.0334172580 0.4826428626
0.0000000000 0.1695582513 0.4443121996
0.0000000000 0.1593957427 0.4448920424
0.1210040436 0.1670557717 0.4674753948
0.3257190814 0.1792629892 0.4947585260
0.5320973526 0.1816433967 0.5142748150
0.6886854353 0.1711146715 0.5216601816
0.7712062257 0.1780727855 0.5246204318
0.7905851835 0.2009002823 0.5119859617
0.0000000000 0.3205615320 0.4710460060
0.0000000000 0.3165026322 0.4769970245
0.0161745632 0.3289234760 0.4928664073
0.3254749371 0.3465323873 0.5140306706
0.5510795758 0.3626764324 0.5333791104
0.7286335546 0.3690241855 0.5482719158
0.8282444495 0.3772640574 0.5546196689
0.8572976272 0.3855649653 0.5487907225
0.0000000000 0.4871595331 0.5120164797
0.0000000000 0.5013351644 0.5220263981
0.0000000000 0.5097276265 0.5235828183
0.3050583658 0.5391165026 0.5427176318
0.5641107805 0.5628900587 0.5571221485
0.7582055390 0.5786984054 0.5709773404
0.8724956130 0.5927977417 0.5859616999
0.9170214389 0.6033569848 0.5903868162
0.0000000000 0.5954222934 0.5425345235
0.0000000000 0.6337529564 0.5589532311
0.0000000000 0.6722056916 0.5658503090
0.2923018235 0.7146562905 0.5827573053
0.5800717174 0.7477073320 0.5949340047
0.7847867552 0.7710841535 0.6077515831
0.8971847105 0.7839627680 0.6209964141
0.9497978180 0.7938506142 0.6244449531
0.0000000000 0.7040360113 0.5444876783
0.0000000000 0.7145952544 0.5496757458
0.2340123598 0.7420614939 0.5645685512
0.4436102846 0.7841458762 0.5884946975
0.6398870832 0.8348058289 0.6203250172
0.8104524300 0.8789044022 0.6554207675
0.9137560082 0.8979171435 0.6717174029
0.9646295872 0.9050888838 0.6750743877
0.3508049134 0.7514915694 0.5065232319
0.3879758907 0.7596093690 0.5114061189
0.4700389105 0.7796902419 0.5248950942
0.5811093309 0.8100556954 0.5486381323
0.7122453651 0.8468604562 0.5834897383
0.8338292515 0.8836957351 0.6325017166
0.9189135576 0.9142442969 0.6862745098
0.9637140459 0.9357595178 0.7419089036
0.0000000000 0.1097428855 0.4487067979
0.0611276417 0.1122148470 0.4631113146
0.1665674830 0.1157549401 0.4844739452
0.3016403449 0.1204547189 0.5053330282
0.4607919432 0.1138323033 0.5185168231
0.5902342260 0.1032425422 0.5229724575
0.6994888228 0.1098039216 0.5294422827
0.7593652247 0.1248798352 0.5323109789
0.0000000000 0.1299763485 0.4623788815
0.0400091554 0.1326314183 0.4743724727
0.1610131991 0.1382467384 0.4949111162
0.3031662470 0.1438620584 0.5158312352
0.4673228046 0.1426108186 0.5308155947
0.6029297322 0.1346456092 0.5362783246
0.7119401846 0.1409323262 0.5443350881
0.7727626459 0.1600976577 0.5464408331
0.0000000000 0.1902800031 0.4983596551
0.0000000000 0.1918059052 0.5072251469
0.1426718547 0.2000762951 0.5284351873
0.3119859617 0.2087129015 0.5490959030
0.4878614481 0.2147859922 0.5639581903
0.6396734569 0.2135957885 0.5724727245
0.7501487755 0.2253757534 0.5815365835
0.8096589609 0.2528114748 0.5856870375
0.0000000000 0.3251697566 0.5577019913
0.0000000000 0.3307240406 0.5839780270
0.0000000000 0.3421988251 0.6085450523
0.3212939651 0.3608758679 0.6318608377
0.5502861067 0.3717708095 0.6439154650
0.7225299458 0.3776302739 0.6483710994
0.8192111086 0.3922484169 0.6516975662
0.8641947051 0.4065003433 0.6500801099
0.0000000000 0.4863965820 0.5974364843
0.0000000000 0.5048447395 0.6265506981
0.0000000000 0.5228503853 0.6483405814
0.2902876326 0.5535515373 0.6744640269
0.5591973754 0.5765011063 0.6941176471
0.7568932631 0.5903257801 0.7076676585
0.8713969635 0.6031433585 0.7204547189
0.9151293202 0.6137941558 0.7213397421
0.0000000000 0.6006408789 0.6287785153
0.0000000000 0.6386968795 0.6577096208
0.0000000000 0.6791332876 0.6793163958
0.2698710613 0.7222552834 0.7041886015
0.5750362402 0.7574425879 0.7242084382
0.7796902419 0.7813076982 0.7395895323
0.8935530632 0.7948271916 0.7490806439
0.9443656062 0.8021820401 0.7552758068
0.0000000000 0.7218890669 0.6628061341
0.0000000000 0.7321431296 0.6689707790
0.1705653468 0.7580224308 0.6847180896
0.4234988937 0.8005951019 0.7104142824
0.6305180438 0.8506752117 0.7423666743
0.8059662776 0.8898908980 0.7691309987
0.9087815671 0.9056382086 0.7815213245
0.9590447852 0.9146410315 0.7896696422
0.3214160372 0.7718165866 0.6509346151
0.3718623636 0.7810025177 0.6562752728
0.4583504997 0.7999237049 0.6669871061
0.5790951400 0.8305638209 0.6877393759
0.7126726177 0.8648355840 0.7150225071
0.8359960327 0.8994125277 0.7524071107
0.9194323644 0.9275196460 0.7936675059
0.9610284581 0.9460440986 0.8374608988
0.0000305180 0.1642481117 0.4919813840
0.0559395743 0.1665369650 0.4993362325
0.1587853819 0.1716029603 0.5130846113
0.2760662242 0.1761806668 0.5279468986
0.4138551919 0.1776150149 0.5407034409
0.5411917296 0.1745632105 0.5489738308
0.6588082704 0.1658960861 0.5529411765
0.7439230945 0.1819180591 0.5636530098
0.0000000000 0.1807888914 0.5029831388
0.0578011749 0.1836270695 0.5101853971
0.1575341421 0.1883573663 0.5230945296
0.2785687037 0.1947966735 0.5386892500
0.4163576715 0.1965972381 0.5504692149
0.5480888075 0.1933928435 0.5576104372
0.6663767453 0.1908598459 0.5648126955
0.7554283970 0.2098420691 0.5754329747
0.0000000000 0.2265964752 0.5316700999
0.0158388647 0.2290989548 0.5381399252
0.1480735485 0.2351415274 0.5509880217
0.2823834592 0.2439612421 0.5663996338
0.4304875257 0.2489356832 0.5780880446
0.5686579690 0.2495765621 0.5850461585
0.6976882582 0.2653543908 0.5973449302
0.7887541009 0.2956893263 0.6101625086
0.0000000000 0.3285877775 0.5916685740
0.0000000000 0.3301747158 0.5974059663
0.0866102083 0.3356374456 0.6083314260
0.2968184939 0.3483634699 0.6239871824
0.4789196612 0.3720759899 0.6424505989
0.6401007095 0.3990539406 0.6581979095
0.7675440604 0.4206912337 0.6677195392
0.8460669871 0.4469367514 0.6758983749
0.0000000000 0.4923170825 0.6700389105
0.0000000000 0.5019760433 0.6832227054
0.0000000000 0.5255359731 0.7062333104
0.3103685054 0.5566948959 0.7287861448
0.5640802625 0.5810482948 0.7413290608
0.7359273671 0.5942320897 0.7449912261
0.8397802701 0.6168154421 0.7519188220
0.9051499199 0.6398565652 0.7568017090
0.0000000000 0.6042114900 0.6909132525
0.0000000000 0.6415350576 0.7265278096
0.0000000000 0.6888685435 0.7633020523
0.2452429999 0.7294270237 0.7892423896
0.5644769970 0.7645227741 0.8106965743
0.7737087053 0.7879301137 0.8232700084
0.8895857176 0.8021210040 0.8284275578
0.9419851987 0.8144197757 0.8287022202
0.0000000000 0.7331502251 0.7469138628
0.0000000000 0.7451438163 0.7542381933
0.0845654994 0.7713588159 0.7703212024
0.4127260243 0.8148775463 0.7956816968
0.6236514839 0.8618448157 0.8240634775
0.8050812543 0.8969100481 0.8469214923
0.9078355077 0.9117723354 0.8573586633
0.9548943313 0.9209582666 0.8651102464
0.3188830396 0.7883268482 0.7443808652
0.3603875792 0.7959563592 0.7487754635
0.4614633402 0.8163424125 0.7603418021
0.5739681086 0.8440833143 0.7777065690
0.7177996490 0.8793316548 0.8052948806
0.8435950256 0.9125352865 0.8355382620
0.9236438544 0.9375295644 0.8643472953
0.9600518807 0.9518120089 0.8833905547
0.0000000000 0.2032196536 0.5174486915
0.0395208667 0.2051117723 0.5232776379
0.1446860456 0.2102388037 0.5350576028
0.2531166552 0.2149996185 0.5478141451
0.3715266651 0.2186007477 0.5586480507
0.4948500801 0.2167391470 0.5653620203
0.6081177996 0.2116121157 0.5696040284
0.7091020066 0.2195468070 0.5783932250
0.0000000000 0.2157320516 0.5269398032
0.0422674907 0.2176852064 0.5321583886
0.1435873960 0.2226596475 0.5428397040
0.2542458228 0.2277256428 0.5551689937
0.3750667582 0.2318455787 0.5656977188
0.4997940032 0.2348668650 0.5743038071
0.6142214084 0.2301060502 0.5779354543
0.7221026932 0.2466163119 0.5899900816
0.0000000000 0.2532997635 0.5520256352
0.0281376364 0.2547951476 0.5560845350
0.1440451667 0.2594644083 0.5653925383
0.2581826505 0.2649881743 0.5768368048
0.3818722820 0.2717021439 0.5875181201
0.5105821317 0.2749065385 0.5947203784
0.6415045396 0.2953841459 0.6088502327
0.7550621805 0.3277637903 0.6258182650
0.0000000000 0.3317616541 0.5995727474
0.0000000000 0.3315175097 0.6018310826
0.1220721752 0.3326161593 0.6079652094
0.2678263523 0.3417410544 0.6193789578
0.4152285039 0.3662165255 0.6378728923
0.5711909667 0.4032043946 0.6590218967
0.7113298238 0.4384527352 0.6768139162
0.8133821622 0.4780346380 0.6945143816
0.0000000000 0.4755016403 0.6775768673
0.0000000000 0.4815747311 0.6834363317
0.1348897536 0.5007248035 0.6983291371
0.3442740520 0.5256580453 0.7144121462
0.5258106355 0.5568780041 0.7301594568
0.6714732586 0.5905088884 0.7444724193
0.7939726864 0.6254825666 0.7574731060
0.8711528191 0.6548104067 0.7667505913
0.0000000000 0.6623788815 0.7674219883
0.0000000000 0.6734874495 0.7746852827
0.0000000000 0.6962233921 0.7890287633
0.3928282597 0.7282368200 0.8046540017
0.6089723049 0.7599755856 0.8179903868
0.7766994736 0.7819180591 0.8243686580
0.8587624933 0.7969329366 0.8282444495
0.9178149081 0.8207064927 0.8349889372
0.0000000000 0.7533836881 0.8057831693
0.0000000000 0.7639734493 0.8121004044
0.0000000000 0.7893644617 0.8272983902
0.4115053025 0.8312046998 0.8482032502
0.6362554360 0.8713054093 0.8667887388
0.8148165103 0.8986495766 0.8760357061
0.9087815671 0.9122606241 0.8791180285
0.9479056992 0.9215991455 0.8809491112
0.3065537499 0.8025177386 0.8111848631
0.3414663920 0.8089875639 0.8143892576
0.4535896849 0.8301976043 0.8251621271
0.5824216068 0.8577248798 0.8397802701
0.7298542763 0.8917830167 0.8602578775
0.8523231861 0.9215075914 0.8795147631
0.9285877775 0.9436331731 0.8967879759
0.9591363394 0.9541008621 0.9047531853
