LUTs/SPK Cube Block1 S64/TheBrim_SPK_Type-W_Block1_S64.cube
TITLE "TheBrim® Industrial Imaging Burau"
# © Copyright 2022 - TheBrim® d.o.o. Croatia
LUT_3D_SIZE 8
DOMAIN_MIN 0.000000 0.000000 0.000000
DOMAIN_MAX 1.000000 1.000000 1.000000
0.038086 0.065277 0.119720
0.048431 0.065399 0.119019
0.124542 0.064117 0.118164
0.361511 0.063171 0.118164
0.521057 0.063171 0.118164
0.570343 0.063171 0.118164
0.583740 0.063171 0.118164
0.592194 0.063171 0.118164
0.037018 0.080078 0.119995
0.050171 0.077209 0.119232
0.110748 0.079254 0.118164
0.328125 0.071381 0.118164
0.535034 0.063171 0.118164
0.609528 0.063171 0.118164
0.626495 0.063171 0.118164
0.630707 0.063171 0.118164
0.036133 0.140137 0.118164
0.050415 0.130859 0.118164
0.121521 0.128296 0.118164
0.339630 0.130249 0.118164
0.569733 0.117188 0.118164
0.659515 0.098328 0.118164
0.683289 0.085907 0.118164
0.684387 0.078308 0.118164
0.036133 0.284821 0.118164
0.038574 0.288605 0.118164
0.153351 0.292450 0.118164
0.411194 0.304413 0.118164
0.630432 0.295349 0.118164
0.729004 0.260559 0.118164
0.764465 0.230408 0.118164
0.763733 0.204407 0.118164
0.036133 0.385742 0.118164
0.036957 0.440918 0.118164
0.191833 0.497070 0.118164
0.486816 0.533417 0.118164
0.684937 0.546600 0.118164
0.802063 0.536346 0.118164
0.854340 0.516174 0.118164
0.856232 0.470795 0.118164
0.036133 0.444305 0.118164
0.045593 0.517487 0.118164
0.259033 0.581635 0.118164
0.547333 0.626862 0.118164
0.722229 0.652252 0.118164
0.847900 0.662201 0.118164
0.910156 0.658386 0.118164
0.923187 0.638184 0.118164
0.036133 0.454315 0.118164
0.054413 0.541412 0.118164
0.289337 0.604828 0.118164
0.560822 0.652466 0.118164
0.733124 0.687866 0.118164
0.863312 0.707245 0.118164
0.931458 0.712372 0.118164
0.955597 0.714661 0.118164
0.036133 0.453674 0.118164
0.053955 0.541229 0.118164
0.291107 0.607971 0.118164
0.548492 0.657623 0.118164
0.714722 0.699951 0.118164
0.852448 0.730164 0.118164
0.932434 0.741760 0.118164
0.961090 0.737518 0.118164
0.036438 0.065857 0.140442
0.047485 0.066193 0.132050
0.129395 0.064575 0.126984
0.392242 0.063171 0.119263
0.552551 0.063171 0.118164
0.589966 0.063171 0.118164
0.600220 0.063171 0.118164
0.604187 0.063171 0.118164
0.036133 0.081787 0.138550
0.045807 0.078094 0.130432
0.102234 0.080383 0.127136
0.311218 0.073517 0.120361
0.540466 0.063171 0.118164
0.622894 0.063171 0.118164
0.643860 0.063171 0.118164
0.645752 0.063171 0.118164
0.036133 0.152588 0.144623
0.040955 0.124573 0.133820
0.110016 0.126160 0.129211
0.315979 0.128662 0.120728
0.561584 0.118073 0.118164
0.666504 0.098267 0.118164
0.699005 0.085388 0.118164
0.699860 0.078552 0.118164
0.036133 0.321747 0.144135
0.036133 0.269775 0.131683
0.130310 0.285614 0.122467
0.384094 0.299469 0.118225
0.617310 0.291473 0.118164
0.727814 0.260712 0.118164
0.774597 0.230377 0.118164
0.777344 0.208832 0.118164
0.036133 0.434052 0.145721
0.036133 0.473450 0.126282
0.148407 0.509186 0.118164
0.457214 0.539764 0.118164
0.671417 0.550018 0.118164
0.800323 0.540375 0.118164
0.858246 0.510986 0.118164
0.866913 0.482361 0.118164
0.036133 0.503357 0.159943
0.036133 0.562195 0.142273
0.198029 0.611084 0.121063
0.514679 0.647797 0.118164
0.708740 0.670593 0.118164
0.843719 0.677887 0.118164
0.913696 0.671112 0.118164
0.931946 0.655396 0.118164
0.036133 0.523834 0.158417
0.036133 0.595581 0.154572
0.243195 0.645691 0.146790
0.542755 0.686890 0.130432
0.724823 0.717834 0.118317
0.860016 0.736267 0.118164
0.932434 0.739929 0.118164
0.957581 0.734375 0.118164
0.036133 0.519440 0.145996
0.036133 0.589294 0.139404
0.243378 0.646423 0.136475
0.526794 0.692200 0.138641
0.704437 0.732391 0.141571
0.847473 0.760101 0.137451
0.930359 0.769897 0.128021
0.960754 0.764709 0.118164
0.036133 0.063171 0.232697
0.045258 0.063232 0.215698
0.121979 0.063324 0.197754
0.386719 0.063171 0.176178
0.574799 0.063171 0.155640
0.611481 0.063171 0.137054
0.621155 0.063171 0.122925
0.623199 0.063171 0.118225
0.036133 0.086884 0.229980
0.038635 0.082062 0.185089
0.097992 0.084015 0.173889
0.309296 0.077637 0.165070
0.553009 0.063171 0.153015
0.639618 0.063171 0.138641
0.662415 0.063171 0.125366
0.663666 0.063171 0.119690
0.036133 0.161407 0.243042
0.036133 0.130432 0.186035
0.099518 0.135345 0.183136
0.305328 0.136902 0.173004
0.560791 0.126099 0.160431
0.675903 0.105743 0.145599
0.715546 0.090302 0.127014
0.716553 0.082489 0.118896
0.036133 0.352570 0.259949
0.036133 0.300446 0.210266
0.104614 0.306122 0.194946
0.365936 0.321289 0.183594
0.613861 0.313354 0.166260
0.733276 0.283569 0.148743
0.787537 0.250519 0.126526
0.792908 0.228058 0.118164
0.036133 0.481049 0.265930
0.036133 0.504456 0.224304
0.091309 0.536072 0.205017
0.424316 0.565247 0.184143
0.663666 0.576050 0.159271
0.797638 0.563629 0.134308
0.863464 0.535492 0.118713
0.877350 0.509186 0.118164
0.036133 0.545319 0.292114
0.036133 0.596313 0.265869
0.119080 0.639160 0.243347
0.479462 0.673401 0.206207
0.696381 0.696838 0.167419
0.836884 0.702606 0.131683
0.912842 0.692841 0.118164
0.935486 0.674164 0.118164
0.036133 0.575012 0.303680
0.036133 0.636230 0.309967
0.182220 0.678558 0.312347
0.526489 0.719025 0.297974
0.717407 0.749054 0.255188
0.852692 0.763947 0.198639
0.928284 0.763245 0.144287
0.955688 0.754456 0.119904
0.036133 0.579315 0.280579
0.036133 0.641479 0.300781
0.215851 0.689178 0.326233
0.528748 0.731445 0.347046
0.707825 0.765656 0.352112
0.844757 0.787628 0.337311
0.924805 0.793945 0.294067
0.955383 0.789337 0.228577
0.036133 0.063171 0.327148
0.044159 0.063171 0.338501
0.106201 0.063171 0.357117
0.366241 0.063171 0.354095
0.579803 0.063171 0.318420
0.626190 0.063171 0.235413
0.637573 0.063171 0.188751
0.640411 0.063171 0.162048
0.036133 0.086456 0.377045
0.036133 0.081665 0.327484
0.090881 0.081329 0.325256
0.296021 0.076385 0.308960
0.547577 0.063293 0.276337
0.650055 0.063171 0.242950
0.677246 0.063171 0.204346
0.679535 0.063171 0.179901
0.036133 0.165497 0.408173
0.036133 0.143768 0.338776
0.086090 0.146088 0.329193
0.296570 0.147827 0.318359
0.561920 0.136993 0.299438
0.683716 0.116028 0.271301
0.728882 0.100433 0.229706
0.732025 0.092346 0.198730
0.036133 0.380981 0.452850
0.036133 0.325043 0.383881
0.062622 0.337891 0.370148
0.341522 0.353271 0.360474
0.608673 0.345032 0.339508
0.734833 0.315521 0.310883
0.795288 0.282349 0.264465
0.804779 0.262451 0.216980
0.036133 0.514771 0.460022
0.036133 0.533508 0.417053
0.038666 0.564331 0.405426
0.380859 0.592163 0.392426
0.651215 0.603577 0.370605
0.791473 0.591858 0.340271
0.863434 0.566833 0.294678
0.881134 0.543579 0.225677
0.036133 0.569366 0.471710
0.036133 0.621613 0.452637
0.041077 0.662903 0.444000
0.431915 0.698761 0.427734
0.678986 0.723236 0.400269
0.824493 0.730347 0.363708
0.904388 0.720520 0.317688
0.931366 0.702942 0.238770
0.036133 0.605408 0.479126
0.036133 0.663147 0.487976
0.109711 0.704193 0.498840
0.500610 0.744720 0.493988
0.705963 0.775238 0.470459
0.840546 0.790710 0.434601
0.917236 0.790802 0.378601
0.947937 0.780151 0.300812
0.036133 0.620453 0.464172
0.036133 0.677887 0.491455
0.183929 0.719269 0.514832
0.528778 0.759338 0.529968
0.712433 0.791718 0.534241
0.842316 0.811249 0.526031
0.916626 0.817078 0.496521
0.947571 0.810822 0.417511
0.036133 0.063171 0.376190
0.041656 0.063171 0.391418
0.087097 0.063171 0.429657
0.285156 0.063171 0.454498
0.548767 0.063171 0.448730
0.635040 0.063171 0.404510
0.649078 0.063171 0.345062
0.653625 0.063171 0.288361
0.036133 0.086761 0.450165
0.036133 0.080872 0.446106
0.082794 0.077728 0.464172
0.266693 0.072174 0.469971
0.539337 0.063293 0.458191
0.656158 0.063171 0.433777
0.688293 0.063171 0.389465
0.692657 0.063171 0.340332
0.036133 0.170380 0.512817
0.036133 0.153076 0.493561
0.070526 0.154724 0.495087
0.284515 0.156982 0.499634
0.560638 0.145355 0.493011
0.687988 0.123718 0.475250
0.737976 0.107971 0.439636
0.743835 0.102448 0.397888
0.036133 0.382629 0.559174
0.036133 0.345032 0.533142
0.037628 0.363495 0.538818
0.315521 0.380188 0.542023
0.601532 0.374268 0.536285
0.734558 0.346802 0.521820
0.799500 0.315552 0.491516
0.811462 0.299866 0.449829
0.036133 0.531494 0.574707
0.036133 0.555969 0.566376
0.036133 0.583954 0.568024
0.334686 0.612488 0.571594
0.637024 0.623596 0.567078
0.782776 0.614502 0.555023
0.859222 0.593170 0.529694
0.879303 0.576599 0.479889
0.036133 0.581390 0.577423
0.036133 0.636932 0.581696
0.036133 0.681213 0.587769
0.380951 0.717712 0.589081
0.661804 0.743622 0.583344
0.810852 0.753754 0.572052
0.893738 0.745575 0.552429
0.921967 0.730560 0.503876
0.036133 0.623016 0.585175
0.036133 0.678009 0.599823
0.044006 0.722565 0.610565
0.471893 0.763947 0.612122
0.693359 0.795044 0.606506
0.826904 0.810822 0.594940
0.904419 0.813599 0.575714
0.935791 0.805298 0.537537
0.036133 0.648529 0.583740
0.036133 0.702209 0.602356
0.156189 0.739624 0.617035
0.525970 0.778717 0.628113
0.715210 0.810394 0.632812
0.838867 0.828796 0.630310
0.907074 0.835388 0.617859
0.936279 0.832947 0.586914
0.036133 0.063171 0.395599
0.039459 0.063171 0.416229
0.075958 0.063171 0.452850
0.207825 0.063171 0.485809
0.494110 0.063171 0.502289
0.632568 0.063171 0.497955
0.656921 0.063171 0.475983
0.663025 0.063171 0.444092
0.036133 0.088074 0.474457
0.036133 0.087555 0.494232
0.072144 0.085358 0.521973
0.235565 0.078644 0.545319
0.521210 0.063904 0.551727
0.656921 0.063171 0.543762
0.698608 0.063171 0.530914
0.703094 0.063171 0.507355
0.036133 0.169586 0.545105
0.036133 0.165680 0.557373
0.048615 0.169342 0.574005
0.264282 0.172455 0.587494
0.554413 0.160767 0.591827
0.691437 0.136719 0.588074
0.745880 0.115356 0.575928
0.753418 0.108368 0.559845
0.036133 0.369049 0.593842
0.036133 0.365936 0.600830
0.036133 0.386292 0.614990
0.285461 0.407440 0.627045
0.593842 0.405792 0.630981
0.734772 0.380310 0.627899
0.802856 0.347168 0.617462
0.816254 0.331085 0.602020
0.036133 0.531982 0.617035
0.036133 0.563507 0.630066
0.036133 0.596588 0.644379
0.291260 0.625946 0.655701
0.624298 0.639069 0.660065
0.776001 0.633575 0.657928
0.855865 0.614655 0.648315
0.877014 0.602936 0.628967
0.036133 0.585510 0.623840
0.036133 0.645538 0.644928
0.036133 0.689972 0.659027
0.336914 0.727692 0.668274
0.647827 0.755920 0.672668
0.799683 0.768311 0.672119
0.885712 0.763336 0.663757
0.912933 0.751678 0.643005
0.036133 0.631683 0.638245
0.036133 0.684998 0.657318
0.038361 0.732483 0.670959
0.445953 0.775055 0.679810
0.682037 0.806427 0.682159
0.816132 0.823273 0.679932
0.895355 0.828003 0.672302
0.925293 0.823456 0.655487
0.036133 0.664429 0.647522
0.036133 0.715485 0.665222
0.129700 0.752167 0.677246
0.524628 0.790985 0.688019
0.715973 0.821899 0.693268
0.834351 0.839355 0.692505
0.899261 0.846954 0.688507
0.927185 0.847687 0.675903
0.036133 0.063171 0.406769
0.041718 0.063171 0.431274
0.074127 0.063171 0.467102
0.178864 0.063171 0.499268
0.438324 0.063171 0.518311
0.612946 0.063171 0.521790
0.659821 0.063171 0.511017
0.665833 0.063171 0.502594
0.036133 0.084229 0.483246
0.036133 0.087891 0.509460
0.071350 0.090302 0.537933
0.213196 0.088959 0.562531
0.489685 0.074005 0.577850
0.649628 0.063171 0.581329
0.703522 0.063171 0.574249
0.707825 0.063171 0.565491
0.036133 0.161377 0.550415
0.036133 0.171417 0.572418
0.039551 0.184967 0.594696
0.243469 0.193787 0.614563
0.541351 0.185059 0.625519
0.689545 0.160095 0.627655
0.750916 0.130737 0.623566
0.760315 0.117035 0.617065
0.036133 0.352234 0.602386
0.036133 0.378876 0.623535
0.036133 0.409027 0.642853
0.249847 0.436035 0.660309
0.582031 0.442413 0.670807
0.734161 0.421082 0.672394
0.805878 0.383362 0.668091
0.821625 0.362854 0.662018
0.036133 0.527863 0.633026
0.036133 0.569611 0.657288
0.036133 0.605988 0.677551
0.245514 0.635773 0.693939
0.610291 0.653351 0.703979
0.771790 0.651154 0.706024
0.854156 0.633698 0.702087
0.877350 0.624237 0.696503
0.036133 0.591827 0.647064
0.036133 0.645294 0.673584
0.036133 0.694305 0.694946
0.295441 0.733215 0.708862
0.635559 0.763306 0.717926
0.792725 0.777069 0.720673
0.880463 0.775452 0.718689
0.908173 0.766937 0.712646
0.036133 0.632507 0.662354
0.036133 0.683746 0.684967
0.036133 0.735382 0.703796
0.414520 0.777863 0.715668
0.671539 0.810089 0.721954
0.809540 0.828583 0.724274
0.889862 0.834625 0.722931
0.919098 0.832733 0.716675
0.036133 0.667999 0.677460
0.036133 0.717316 0.697388
0.090027 0.756805 0.710815
0.517426 0.796753 0.722198
0.711731 0.827301 0.727966
0.829712 0.844788 0.728729
0.894989 0.852814 0.727203
0.922516 0.854889 0.722229
0.036133 0.063171 0.410492
0.046326 0.063171 0.436676
0.077545 0.063171 0.471191
0.172943 0.063171 0.502533
0.409088 0.063171 0.522400
0.592896 0.063171 0.528534
0.656189 0.063171 0.519775
0.660889 0.063171 0.502838
0.036133 0.079681 0.486664
0.036133 0.082794 0.515289
0.080109 0.087372 0.544006
0.213623 0.088409 0.567932
0.471466 0.077026 0.583496
0.636749 0.063416 0.588531
0.699280 0.063171 0.581879
0.703613 0.063171 0.569366
0.036133 0.150787 0.552612
0.036133 0.164886 0.578400
0.058685 0.185760 0.601929
0.246490 0.200958 0.621399
0.529388 0.199219 0.633667
0.682495 0.173615 0.637085
0.749542 0.140717 0.633118
0.758545 0.110565 0.625244
0.036133 0.324860 0.604340
0.036133 0.364838 0.628815
0.036133 0.411469 0.650208
0.250793 0.446075 0.668152
0.574707 0.458496 0.679718
0.729767 0.444061 0.683044
0.806580 0.408173 0.680176
0.821106 0.361786 0.674011
0.036133 0.517761 0.638702
0.036133 0.564423 0.663879
0.036133 0.606995 0.685303
0.231964 0.639557 0.702484
0.600647 0.660309 0.714355
0.766327 0.662903 0.718994
0.854645 0.650421 0.718201
0.876190 0.625244 0.713837
0.036133 0.599274 0.657623
0.036133 0.648773 0.683258
0.036133 0.693207 0.703827
0.258026 0.733093 0.719879
0.623657 0.764893 0.730957
0.785950 0.781281 0.736328
0.878052 0.783020 0.737427
0.906158 0.770538 0.735718
0.036133 0.641998 0.673828
0.036133 0.689362 0.696411
0.036133 0.735016 0.714630
0.390961 0.778198 0.728821
0.662231 0.811310 0.737976
0.803070 0.830566 0.742493
0.886169 0.837952 0.743866
0.916351 0.836639 0.743378
0.036133 0.660736 0.682068
0.036133 0.708771 0.703857
0.048065 0.753876 0.720398
0.495331 0.796356 0.733185
0.703064 0.828308 0.741150
0.824402 0.846863 0.744934
0.892944 0.855743 0.746155
0.919952 0.858521 0.746124
