LUTs/SPK Cube Block1 S64/TheBrim_SPK_Type-G_Block1_S64.cube
TITLE "TheBrim® SPK Block 1"
# © Copyright 2021 - TheBrim® d.o.o. Croatia
LUT_3D_SIZE 4
DOMAIN_MIN 0.000000 0.000000 0.000000
DOMAIN_MAX 1.000000 1.000000 1.000000
0.067048 0.020356 0.045258
0.264866 0.033631 0.029175
0.803922 0.022889 0.015534
0.878721 0.025116 0.016297
0.086213 0.255406 0.174289
0.257420 0.232273 0.067323
0.773465 0.237644 0.017395
0.896300 0.207370 0.025696
0.154543 0.553857 0.402686
0.290257 0.640436 0.306126
0.805905 0.763943 0.088228
0.919432 0.687831 0.082826
0.505791 0.761379 0.313146
0.629999 0.814115 0.280705
0.861051 0.913878 0.130526
0.970642 0.916655 0.106172
0.073945 0.046815 0.287633
0.239322 0.057618 0.253758
0.885374 0.017762 0.167178
0.935851 0.022217 0.112032
0.091035 0.273259 0.387457
0.223819 0.235904 0.259068
0.811246 0.233127 0.187747
0.951415 0.223819 0.136110
0.155154 0.557305 0.431952
0.250004 0.647120 0.380072
0.798947 0.768154 0.264714
0.925017 0.732540 0.167453
0.549310 0.780758 0.304997
0.653742 0.824552 0.272221
0.873533 0.917082 0.273259
0.972595 0.949798 0.402411
0.089113 0.142428 0.549859
0.195773 0.131411 0.551598
0.809628 0.090608 0.489204
1.000000 0.060945 0.445258
0.103548 0.298528 0.656367
0.149386 0.284215 0.662257
0.828611 0.279484 0.569024
1.000000 0.261997 0.522423
0.158541 0.585718 0.754025
0.186069 0.698116 0.806516
0.812009 0.801663 0.693294
0.950988 0.765591 0.640131
0.553521 0.817929 0.677272
0.663905 0.851743 0.668544
0.884001 0.930510 0.684840
0.972107 0.964263 0.731319
0.097780 0.259922 0.645289
0.137148 0.266545 0.652338
0.550866 0.265263 0.591852
0.949340 0.242435 0.544488
0.110506 0.335454 0.688014
0.139681 0.342840 0.702144
0.567132 0.352270 0.653040
0.930510 0.407416 0.619348
0.187411 0.664118 0.900114
0.401740 0.719509 0.881651
0.820584 0.812955 0.788998
0.948882 0.827604 0.770260
0.563317 0.839200 0.894499
0.678950 0.871946 0.882444
0.903044 0.952972 0.836698
0.969696 0.975280 0.844755
