LUTs/SPK Cube Block1 S64/TheBrim_SPK_Type-Z_Block1_S64.cube
TITLE "TheBrim® Industrial Imaging Burau"
# © Copyright 2022 - TheBrim® d.o.o. Croatia
LUT_3D_SIZE 8
DOMAIN_MIN 0.000000 0.000000 0.000000
DOMAIN_MAX 1.000000 1.000000 1.000000
0.000000 0.000000 0.000000
0.000000 0.000000 0.000000
0.000000 0.000000 0.000000
0.000000 0.000000 0.000000
0.002167 0.002167 0.002167
0.014282 0.014282 0.014282
0.041107 0.041107 0.041107
0.101624 0.101624 0.101624
0.000000 0.000000 0.000000
0.000000 0.000000 0.000000
0.002167 0.002167 0.002167
0.013519 0.013519 0.013519
0.039093 0.039093 0.039093
0.098114 0.098114 0.098114
0.213287 0.213287 0.213287
0.321503 0.321503 0.321503
0.002167 0.002167 0.002167
0.012726 0.012726 0.012726
0.037476 0.037476 0.037476
0.094604 0.094604 0.094604
0.208221 0.208221 0.208221
0.318634 0.318634 0.318634
0.433929 0.433929 0.433929
0.552826 0.552826 0.552826
0.036591 0.036591 0.036591
0.091187 0.091187 0.091187
0.202728 0.202728 0.202728
0.315765 0.315765 0.315765
0.429718 0.429718 0.429718
0.549957 0.549957 0.549957
0.658783 0.658783 0.658783
0.738586 0.738586 0.738586
0.197479 0.197479 0.197479
0.312561 0.312561 0.312561
0.425507 0.425507 0.425507
0.546204 0.546204 0.546204
0.655762 0.655762 0.655762
0.736176 0.736176 0.736176
0.809814 0.809814 0.809814
0.875244 0.875244 0.875244
0.421204 0.421204 0.421204
0.541901 0.541901 0.541901
0.652649 0.652649 0.652649
0.733154 0.733154 0.733154
0.807800 0.807800 0.807800
0.873230 0.873230 0.873230
0.926178 0.926178 0.926178
0.964783 0.964783 0.964783
0.649628 0.649628 0.649628
0.730042 0.730042 0.730042
0.805725 0.805725 0.805725
0.871155 0.871155 0.871155
0.924835 0.924835 0.924835
0.963776 0.963776 0.963776
0.984314 0.984314 0.984314
0.996063 0.996063 0.996063
0.803711 0.803711 0.803711
0.869141 0.869141 0.869141
0.922821 0.922821 0.922821
0.962738 0.962738 0.962738
0.984314 0.984314 0.984314
0.996063 0.996063 0.996063
1.000000 1.000000 1.000000
1.000000 1.000000 1.000000
0.000000 0.000000 0.000000
0.000000 0.000000 0.000000
0.000000 0.000000 0.000000
0.000000 0.000000 0.000000
0.005859 0.005859 0.005859
0.021515 0.021515 0.021515
0.056549 0.056549 0.056549
0.141144 0.141144 0.141144
0.000000 0.000000 0.000000
0.000000 0.000000 0.000000
0.005066 0.005066 0.005066
0.020569 0.020569 0.020569
0.055511 0.055511 0.055511
0.137299 0.137299 0.137299
0.253967 0.253967 0.253967
0.364685 0.364685 0.364685
0.004303 0.004303 0.004303
0.019623 0.019623 0.019623
0.054047 0.054047 0.054047
0.133453 0.133453 0.133453
0.251007 0.251007 0.251007
0.360382 0.360382 0.360382
0.477173 0.477173 0.477173
0.596039 0.596039 0.596039
0.052032 0.052032 0.052032
0.129700 0.129700 0.129700
0.247955 0.247955 0.247955
0.356079 0.356079 0.356079
0.472931 0.472931 0.472931
0.593109 0.593109 0.593109
0.688629 0.688629 0.688629
0.765228 0.765228 0.765228
0.244537 0.244537 0.244537
0.352234 0.352234 0.352234
0.468719 0.468719 0.468719
0.589355 0.589355 0.589355
0.685608 0.685608 0.685608
0.763031 0.763031 0.763031
0.836304 0.836304 0.836304
0.895935 0.895935 0.895935
0.464447 0.464447 0.464447
0.585114 0.585114 0.585114
0.682587 0.682587 0.682587
0.760956 0.760956 0.760956
0.834229 0.834229 0.834229
0.894928 0.894928 0.894928
0.941376 0.941376 0.941376
0.972534 0.972534 0.972534
0.679474 0.679474 0.679474
0.758942 0.758942 0.758942
0.832214 0.832214 0.832214
0.893738 0.893738 0.893738
0.940369 0.940369 0.940369
0.972534 0.972534 0.972534
0.990112 0.990112 0.990112
0.997314 0.997314 0.997314
0.829651 0.829651 0.829651
0.891724 0.891724 0.891724
0.939331 0.939331 0.939331
0.972534 0.972534 0.972534
0.989105 0.989105 0.989105
0.996307 0.996307 0.996307
1.000000 1.000000 1.000000
1.000000 1.000000 1.000000
0.000000 0.000000 0.000000
0.000000 0.000000 0.000000
0.000000 0.000000 0.000000
0.002167 0.002167 0.002167
0.010193 0.010193 0.010193
0.031860 0.031860 0.031860
0.080872 0.080872 0.080872
0.182739 0.182739 0.182739
0.000000 0.000000 0.000000
0.002167 0.002167 0.002167
0.009399 0.009399 0.009399
0.030914 0.030914 0.030914
0.077942 0.077942 0.077942
0.179077 0.179077 0.179077
0.294708 0.294708 0.294708
0.407867 0.407867 0.407867
0.008636 0.008636 0.008636
0.029968 0.029968 0.029968
0.075165 0.075165 0.075165
0.175385 0.175385 0.175385
0.290771 0.290771 0.290771
0.403625 0.403625 0.403625
0.520386 0.520386 0.520386
0.639160 0.639160 0.639160
0.072357 0.072357 0.072357
0.171722 0.171722 0.171722
0.286469 0.286469 0.286469
0.399323 0.399323 0.399323
0.516083 0.516083 0.516083
0.636353 0.636353 0.636353
0.718201 0.718201 0.718201
0.795197 0.795197 0.795197
0.282288 0.282288 0.282288
0.395111 0.395111 0.395111
0.511871 0.511871 0.511871
0.632568 0.632568 0.632568
0.715576 0.715576 0.715576
0.792175 0.792175 0.792175
0.858826 0.858826 0.858826
0.915100 0.915100 0.915100
0.507660 0.507660 0.507660
0.628357 0.628357 0.628357
0.712433 0.712433 0.712433
0.789032 0.789032 0.789032
0.856812 0.856812 0.856812
0.914093 0.914093 0.914093
0.956329 0.956329 0.956329
0.980377 0.980377 0.980377
0.709320 0.709320 0.709320
0.786011 0.786011 0.786011
0.854736 0.854736 0.854736
0.912354 0.912354 0.912354
0.954254 0.954254 0.954254
0.980377 0.980377 0.980377
0.993530 0.993530 0.993530
1.000000 1.000000 1.000000
0.852722 0.852722 0.852722
0.910339 0.910339 0.910339
0.952240 0.952240 0.952240
0.980377 0.980377 0.980377
0.992523 0.992523 0.992523
1.000000 1.000000 1.000000
1.000000 1.000000 1.000000
1.000000 1.000000 1.000000
0.000000 0.000000 0.000000
0.000000 0.000000 0.000000
0.000000 0.000000 0.000000
0.003876 0.003876 0.003876
0.015076 0.015076 0.015076
0.045471 0.045471 0.045471
0.112122 0.112122 0.112122
0.226624 0.226624 0.226624
0.000000 0.000000 0.000000
0.003113 0.003113 0.003113
0.015076 0.015076 0.015076
0.044434 0.044434 0.044434
0.108582 0.108582 0.108582
0.223297 0.223297 0.223297
0.334290 0.334290 0.334290
0.451111 0.451111 0.451111
0.015045 0.015045 0.015045
0.043243 0.043243 0.043243
0.105133 0.105133 0.105133
0.219910 0.219910 0.219910
0.330078 0.330078 0.330078
0.446747 0.446747 0.446747
0.563629 0.563629 0.563629
0.669556 0.669556 0.669556
0.101624 0.101624 0.101624
0.216583 0.216583 0.216583
0.325775 0.325775 0.325775
0.442535 0.442535 0.442535
0.559296 0.559296 0.559296
0.667480 0.667480 0.667480
0.744690 0.744690 0.744690
0.817993 0.817993 0.817993
0.321594 0.321594 0.321594
0.438324 0.438324 0.438324
0.555695 0.555695 0.555695
0.664886 0.664886 0.664886
0.742676 0.742676 0.742676
0.815918 0.815918 0.815918
0.881409 0.881409 0.881409
0.931183 0.931183 0.931183
0.552887 0.552887 0.552887
0.661774 0.661774 0.661774
0.740662 0.740662 0.740662
0.813904 0.813904 0.813904
0.879333 0.879333 0.879333
0.929291 0.929291 0.929291
0.967834 0.967834 0.967834
0.986847 0.986847 0.986847
0.738586 0.738586 0.738586
0.811890 0.811890 0.811890
0.877258 0.877258 0.877258
0.928253 0.928253 0.928253
0.966827 0.966827 0.966827
0.985809 0.985809 0.985809
0.996063 0.996063 0.996063
1.000000 1.000000 1.000000
0.875244 0.875244 0.875244
0.927246 0.927246 0.927246
0.965820 0.965820 0.965820
0.984833 0.984833 0.984833
0.996063 0.996063 0.996063
1.000000 1.000000 1.000000
1.000000 1.000000 1.000000
1.000000 1.000000 1.000000
0.000000 0.000000 0.000000
0.000000 0.000000 0.000000
0.000000 0.000000 0.000000
0.006470 0.006470 0.006470
0.024323 0.024323 0.024323
0.062012 0.062012 0.062012
0.152588 0.152588 0.152588
0.268250 0.268250 0.268250
0.000000 0.000000 0.000000
0.006470 0.006470 0.006470
0.023376 0.023376 0.023376
0.059479 0.059479 0.059479
0.148743 0.148743 0.148743
0.263702 0.263702 0.263702
0.377167 0.377167 0.377167
0.494202 0.494202 0.494202
0.022430 0.022430 0.022430
0.057617 0.057617 0.057617
0.144897 0.144897 0.144897
0.260040 0.260040 0.260040
0.373199 0.373199 0.373199
0.489990 0.489990 0.489990
0.606842 0.606842 0.606842
0.699982 0.699982 0.699982
0.141144 0.141144 0.141144
0.257019 0.257019 0.257019
0.368988 0.368988 0.368988
0.485779 0.485779 0.485779
0.602539 0.602539 0.602539
0.697845 0.697845 0.697845
0.774384 0.774384 0.774384
0.844482 0.844482 0.844482
0.364685 0.364685 0.364685
0.481567 0.481567 0.481567
0.598907 0.598907 0.598907
0.694855 0.694855 0.694855
0.771362 0.771362 0.771362
0.842407 0.842407 0.842407
0.900085 0.900085 0.900085
0.945496 0.945496 0.945496
0.596039 0.596039 0.596039
0.691742 0.691742 0.691742
0.768341 0.768341 0.768341
0.840332 0.840332 0.840332
0.898071 0.898071 0.898071
0.944458 0.944458 0.944458
0.975220 0.975220 0.975220
0.992157 0.992157 0.992157
0.765228 0.765228 0.765228
0.838318 0.838318 0.838318
0.897003 0.897003 0.897003
0.943420 0.943420 0.943420
0.974182 0.974182 0.974182
0.992157 0.992157 0.992157
1.000000 1.000000 1.000000
1.000000 1.000000 1.000000
0.895966 0.895966 0.895966
0.942413 0.942413 0.942413
0.973145 0.973145 0.973145
0.992126 0.992126 0.992126
0.999390 0.999390 0.999390
1.000000 1.000000 1.000000
1.000000 1.000000 1.000000
1.000000 1.000000 1.000000
0.000000 0.000000 0.000000
0.000000 0.000000 0.000000
0.002167 0.002167 0.002167
0.010773 0.010773 0.010773
0.034668 0.034668 0.034668
0.086731 0.086731 0.086731
0.193695 0.193695 0.193695
0.308258 0.308258 0.308258
0.002167 0.002167 0.002167
0.010773 0.010773 0.010773
0.033752 0.033752 0.033752
0.085297 0.085297 0.085297
0.190033 0.190033 0.190033
0.303955 0.303955 0.303955
0.416718 0.416718 0.416718
0.537506 0.537506 0.537506
0.032776 0.032776 0.032776
0.083649 0.083649 0.083649
0.186340 0.186340 0.186340
0.300446 0.300446 0.300446
0.413574 0.413574 0.413574
0.533203 0.533203 0.533203
0.646393 0.646393 0.646393
0.726929 0.726929 0.726929
0.182739 0.182739 0.182739
0.297577 0.297577 0.297577
0.410706 0.410706 0.410706
0.528900 0.528900 0.528900
0.643372 0.643372 0.643372
0.724365 0.724365 0.724365
0.801575 0.801575 0.801575
0.867004 0.867004 0.867004
0.407867 0.407867 0.407867
0.524780 0.524780 0.524780
0.641205 0.641205 0.641205
0.722351 0.722351 0.722351
0.799561 0.799561 0.799561
0.864990 0.864990 0.864990
0.918671 0.918671 0.918671
0.960693 0.960693 0.960693
0.639221 0.639221 0.639221
0.720337 0.720337 0.720337
0.797485 0.797485 0.797485
0.862915 0.862915 0.862915
0.917114 0.917114 0.917114
0.959656 0.959656 0.959656
0.982574 0.982574 0.982574
0.996063 0.996063 0.996063
0.795197 0.795197 0.795197
0.860901 0.860901 0.860901
0.916107 0.916107 0.916107
0.958649 0.958649 0.958649
0.981567 0.981567 0.981567
0.996063 0.996063 0.996063
1.000000 1.000000 1.000000
1.000000 1.000000 1.000000
0.915131 0.915131 0.915131
0.957611 0.957611 0.957611
0.980530 0.980530 0.980530
0.995605 0.995605 0.995605
1.000000 1.000000 1.000000
1.000000 1.000000 1.000000
1.000000 1.000000 1.000000
1.000000 1.000000 1.000000
0.000000 0.000000 0.000000
0.000000 0.000000 0.000000
0.004303 0.004303 0.004303
0.016846 0.016846 0.016846
0.048553 0.048553 0.048553
0.122650 0.122650 0.122650
0.239410 0.239410 0.239410
0.349304 0.349304 0.349304
0.004303 0.004303 0.004303
0.016083 0.016083 0.016083
0.047516 0.047516 0.047516
0.119049 0.119049 0.119049
0.234375 0.234375 0.234375
0.346436 0.346436 0.346436
0.460052 0.460052 0.460052
0.580719 0.580719 0.580719
0.046509 0.046509 0.046509
0.115631 0.115631 0.115631
0.229980 0.229980 0.229980
0.342896 0.342896 0.342896
0.456787 0.456787 0.456787
0.576416 0.576416 0.576416
0.676270 0.676270 0.676270
0.756836 0.756836 0.756836
0.226624 0.226624 0.226624
0.338593 0.338593 0.338593
0.453918 0.453918 0.453918
0.572144 0.572144 0.572144
0.673645 0.673645 0.673645
0.753693 0.753693 0.753693
0.826447 0.826447 0.826447
0.889526 0.889526 0.889526
0.451111 0.451111 0.451111
0.567932 0.567932 0.567932
0.671631 0.671631 0.671631
0.750641 0.750641 0.750641
0.823425 0.823425 0.823425
0.887512 0.887512 0.887512
0.937256 0.937256 0.937256
0.971954 0.971954 0.971954
0.669556 0.669556 0.669556
0.747620 0.747620 0.747620
0.820312 0.820312 0.820312
0.885498 0.885498 0.885498
0.935272 0.935272 0.935272
0.970947 0.970947 0.970947
0.988220 0.988220 0.988220
0.996063 0.996063 0.996063
0.818054 0.818054 0.818054
0.883484 0.883484 0.883484
0.933197 0.933197 0.933197
0.969910 0.969910 0.969910
0.988220 0.988220 0.988220
0.996063 0.996063 0.996063
1.000000 1.000000 1.000000
1.000000 1.000000 1.000000
0.931183 0.931183 0.931183
0.968903 0.968903 0.968903
0.987885 0.987885 0.987885
0.996063 0.996063 0.996063
1.000000 1.000000 1.000000
1.000000 1.000000 1.000000
1.000000 1.000000 1.000000
1.000000 1.000000 1.000000
0.000000 0.000000 0.000000
0.002106 0.002106 0.002106
0.008423 0.008423 0.008423
0.027130 0.027130 0.027130
0.067535 0.067535 0.067535
0.164093 0.164093 0.164093
0.279175 0.279175 0.279175
0.390717 0.390717 0.390717
0.007629 0.007629 0.007629
0.026184 0.026184 0.026184
0.066132 0.066132 0.066132
0.160278 0.160278 0.160278
0.276215 0.276215 0.276215
0.386383 0.386383 0.386383
0.503265 0.503265 0.503265
0.623962 0.623962 0.623962
0.064728 0.064728 0.064728
0.156433 0.156433 0.156433
0.272797 0.272797 0.272797
0.382843 0.382843 0.382843
0.499969 0.499969 0.499969
0.619659 0.619659 0.619659
0.706207 0.706207 0.706207
0.783295 0.783295 0.783295
0.268250 0.268250 0.268250
0.380035 0.380035 0.380035
0.497101 0.497101 0.497101
0.615356 0.615356 0.615356
0.704010 0.704010 0.704010
0.781219 0.781219 0.781219
0.850586 0.850586 0.850586
0.908264 0.908264 0.908264
0.494263 0.494263 0.494263
0.611145 0.611145 0.611145
0.701996 0.701996 0.701996
0.779205 0.779205 0.779205
0.848572 0.848572 0.848572
0.906189 0.906189 0.906189
0.948547 0.948547 0.948547
0.979309 0.979309 0.979309
0.699982 0.699982 0.699982
0.777191 0.777191 0.777191
0.846558 0.846558 0.846558
0.904114 0.904114 0.904114
0.947540 0.947540 0.947540
0.978271 0.978271 0.978271
0.992157 0.992157 0.992157
1.000000 1.000000 1.000000
0.844482 0.844482 0.844482
0.902100 0.902100 0.902100
0.946533 0.946533 0.946533
0.977295 0.977295 0.977295
0.992157 0.992157 0.992157
1.000000 1.000000 1.000000
1.000000 1.000000 1.000000
1.000000 1.000000 1.000000
0.945526 0.945526 0.945526
0.976288 0.976288 0.976288
0.992157 0.992157 0.992157
1.000000 1.000000 1.000000
1.000000 1.000000 1.000000
1.000000 1.000000 1.000000
1.000000 1.000000 1.000000
1.000000 1.000000 1.000000
