LUTs/SPK Cube Block1 S64/TheBrim_SPK_Type-M_Block1_S64.cube
TITLE "TheBrim® SPK Block 1"
# © Copyright 2021 - TheBrim® d.o.o. Croatia
LUT_3D_SIZE 8
DOMAIN_MIN 0.000000 0.000000 0.000000
DOMAIN_MAX 1.000000 1.000000 1.000000
0.011200 0.001984 0.018219
0.042939 0.002716 0.018647
0.099245 0.004608 0.018311
0.229160 0.002747 0.015839
0.391760 0.003449 0.016083
0.522637 0.005707 0.016571
0.596887 0.011963 0.020752
0.637385 0.020722 0.027955
0.012573 0.037690 0.020325
0.041871 0.038972 0.023804
0.103792 0.041535 0.021332
0.237034 0.043641 0.017914
0.413611 0.032136 0.018158
0.548974 0.032776 0.018494
0.624750 0.035309 0.022248
0.663722 0.040497 0.029999
0.009033 0.103151 0.022431
0.036805 0.105623 0.030152
0.101411 0.115755 0.031250
0.254459 0.129915 0.022339
0.443244 0.127749 0.021820
0.588586 0.089876 0.022217
0.666835 0.064179 0.023621
0.704280 0.065766 0.028199
0.007446 0.210666 0.019196
0.031067 0.214145 0.025330
0.072114 0.230777 0.034028
0.249973 0.265446 0.033875
0.484840 0.286351 0.027131
0.650050 0.284337 0.026337
0.734981 0.273106 0.026795
0.772427 0.264408 0.027436
0.007446 0.339239 0.021607
0.030793 0.344945 0.026307
0.055360 0.368231 0.035767
0.217075 0.420935 0.044129
0.482368 0.475105 0.041169
0.707668 0.488167 0.032593
0.808133 0.485389 0.031617
0.850370 0.479469 0.032013
0.007446 0.435981 0.025147
0.029786 0.444221 0.027863
0.055421 0.474922 0.036683
0.184726 0.538781 0.046418
0.446265 0.612451 0.054231
0.699519 0.655604 0.048371
0.849790 0.660609 0.038575
0.902525 0.658350 0.036927
0.007446 0.483131 0.031678
0.030732 0.491127 0.033051
0.055818 0.523156 0.038300
0.163272 0.591333 0.047517
0.440070 0.669306 0.057099
0.657313 0.724910 0.063142
0.834653 0.743557 0.054719
0.916869 0.742580 0.042573
0.017060 0.510369 0.039185
0.035737 0.522148 0.042481
0.057465 0.550652 0.041840
0.151095 0.615198 0.048707
0.438148 0.693843 0.058412
0.643885 0.751125 0.067384
0.799496 0.780667 0.070069
0.913512 0.777035 0.050446
0.010925 0.002686 0.053010
0.042023 0.003449 0.052308
0.100252 0.005127 0.051148
0.233463 0.002625 0.046906
0.407172 0.003082 0.041321
0.539910 0.004517 0.040803
0.612879 0.009339 0.041718
0.649378 0.018585 0.045289
0.010590 0.040101 0.058473
0.043030 0.040101 0.056458
0.107637 0.042542 0.054078
0.246006 0.043854 0.048524
0.426123 0.031617 0.042725
0.558709 0.032288 0.042603
0.631586 0.033997 0.043519
0.669337 0.038453 0.046967
0.007446 0.112276 0.066194
0.035554 0.111513 0.065858
0.110292 0.121004 0.067903
0.268070 0.133516 0.052705
0.460182 0.127779 0.044953
0.601709 0.086488 0.045014
0.676112 0.063172 0.045350
0.710445 0.064240 0.046601
0.007446 0.224338 0.067475
0.033753 0.224735 0.067475
0.073365 0.240452 0.075044
0.262364 0.275578 0.061616
0.502037 0.292485 0.048798
0.664332 0.287694 0.048280
0.745876 0.274998 0.048371
0.780789 0.265629 0.048554
0.007446 0.357366 0.045838
0.032532 0.360967 0.046082
0.059022 0.383581 0.051148
0.226291 0.438239 0.058930
0.497353 0.489570 0.059052
0.722225 0.497475 0.052705
0.819303 0.492042 0.051820
0.859495 0.485847 0.051942
0.007446 0.452735 0.045533
0.030457 0.460761 0.047486
0.058961 0.493996 0.051606
0.185885 0.560937 0.060304
0.457221 0.633997 0.068147
0.711360 0.672816 0.065461
0.860410 0.672206 0.057404
0.910735 0.667689 0.055573
0.007446 0.499001 0.048463
0.029236 0.506249 0.050538
0.058930 0.541558 0.052399
0.156527 0.614008 0.060853
0.450446 0.692348 0.070069
0.669032 0.747494 0.076509
0.842924 0.761379 0.070954
0.924590 0.753689 0.060060
0.012482 0.525902 0.053285
0.033539 0.538750 0.057740
0.059815 0.568597 0.054658
0.135592 0.637781 0.061402
0.449226 0.716701 0.070741
0.656062 0.773587 0.079652
0.809567 0.802365 0.083162
0.921508 0.791836 0.068025
0.009735 0.002075 0.132387
0.039796 0.003021 0.130282
0.099763 0.004578 0.128023
0.237491 0.002228 0.124269
0.416114 0.003265 0.108370
0.551965 0.004730 0.082185
0.626703 0.007233 0.066102
0.660731 0.013092 0.066102
0.007446 0.043854 0.149477
0.037171 0.043641 0.143282
0.106081 0.045594 0.138796
0.250492 0.045380 0.133303
0.436316 0.031861 0.116732
0.572381 0.032380 0.091249
0.645655 0.033234 0.070680
0.680262 0.035126 0.068971
0.007446 0.128786 0.171267
0.034333 0.127016 0.165133
0.108400 0.131380 0.159518
0.277897 0.142672 0.150759
0.477211 0.133333 0.128359
0.618708 0.088319 0.096132
0.691920 0.062409 0.070100
0.724636 0.062928 0.069581
0.007446 0.250340 0.190158
0.033417 0.250034 0.185489
0.063081 0.260807 0.179812
0.280003 0.292790 0.184115
0.519921 0.306279 0.141817
0.681880 0.297826 0.085145
0.762051 0.283268 0.072023
0.795804 0.272282 0.072084
0.007446 0.392340 0.198642
0.031861 0.395544 0.195895
0.062593 0.414557 0.183169
0.243656 0.465370 0.197787
0.512993 0.513695 0.179538
0.736355 0.517998 0.075715
0.832731 0.509636 0.075166
0.872038 0.501701 0.075196
0.007446 0.488472 0.196567
0.029328 0.495979 0.199008
0.062104 0.530816 0.173159
0.186770 0.596857 0.178164
0.476875 0.663508 0.204440
0.721981 0.701411 0.104097
0.869322 0.697963 0.079713
0.919463 0.690761 0.078401
0.007446 0.533440 0.196567
0.025879 0.541436 0.206577
0.061250 0.577752 0.170474
0.136843 0.651972 0.161929
0.469062 0.723873 0.199283
0.681086 0.773800 0.224857
0.847440 0.790158 0.089967
0.930205 0.780911 0.082155
0.007446 0.557458 0.203189
0.027893 0.568750 0.234958
0.061250 0.603082 0.180911
0.112154 0.677638 0.162264
0.469062 0.749691 0.200015
0.672419 0.800381 0.255680
0.816098 0.827359 0.267491
0.923766 0.823087 0.089876
0.010956 0.001129 0.234470
0.038727 0.001862 0.239719
0.101106 0.001892 0.243229
0.239017 0.002747 0.246311
0.419898 0.003784 0.237980
0.561028 0.005463 0.220462
0.637964 0.007111 0.201266
0.674434 0.009003 0.184665
0.007446 0.039857 0.267491
0.032532 0.040009 0.264317
0.102174 0.039857 0.263951
0.252171 0.036927 0.265202
0.442206 0.032044 0.256443
0.582361 0.032654 0.239475
0.658045 0.033326 0.222293
0.692531 0.033967 0.209201
0.007446 0.140810 0.305028
0.032288 0.140230 0.302220
0.080354 0.142061 0.299779
0.276249 0.152407 0.300542
0.482765 0.143282 0.289311
0.628992 0.099519 0.270207
0.704921 0.062562 0.251408
0.738674 0.062989 0.237888
0.007446 0.275181 0.339605
0.031312 0.276280 0.338598
0.063203 0.285313 0.334234
0.289738 0.310735 0.335241
0.531304 0.323156 0.320165
0.693141 0.313390 0.296391
0.773037 0.298009 0.275120
0.807584 0.286473 0.260075
0.007446 0.427039 0.364019
0.029511 0.432227 0.366094
0.062715 0.449805 0.357488
0.253605 0.495827 0.359228
0.533745 0.538018 0.368231
0.743160 0.542504 0.327642
0.839414 0.533776 0.297398
0.878386 0.525017 0.279362
0.007446 0.524529 0.372198
0.026612 0.532097 0.378698
0.061921 0.568505 0.366400
0.131411 0.637263 0.363653
0.509209 0.695613 0.388281
0.732692 0.730251 0.382788
0.869505 0.728878 0.319646
0.919310 0.722286 0.283848
0.007446 0.569360 0.373205
0.021851 0.576745 0.387182
0.060761 0.614557 0.368963
0.091005 0.693843 0.362982
0.500908 0.759457 0.387243
0.700465 0.801907 0.421057
0.848875 0.819577 0.396704
0.926696 0.814267 0.306035
0.007446 0.592248 0.373236
0.024933 0.601495 0.408606
0.061097 0.639979 0.378332
0.091127 0.720699 0.368780
0.501732 0.786954 0.388647
0.695003 0.828824 0.433967
0.823819 0.851316 0.455390
0.918151 0.854826 0.388342
0.015320 0.002167 0.324559
0.039094 0.003113 0.338476
0.103059 0.003113 0.348028
0.238560 0.003540 0.363348
0.420050 0.004578 0.366308
0.564904 0.006104 0.355596
0.643275 0.008026 0.340490
0.680934 0.009522 0.326268
0.007446 0.030732 0.372076
0.029206 0.032105 0.372930
0.100008 0.031739 0.379736
0.252934 0.031952 0.393896
0.443854 0.032349 0.395544
0.587579 0.032898 0.384405
0.664973 0.033692 0.371130
0.700008 0.034333 0.359991
0.007446 0.144930 0.422400
0.028748 0.146456 0.424048
0.062135 0.144442 0.430854
0.271275 0.152102 0.446632
0.484230 0.140414 0.447028
0.634089 0.092714 0.433753
0.712093 0.062745 0.418708
0.746578 0.063203 0.406928
0.007446 0.291661 0.469093
0.027497 0.295659 0.472847
0.061830 0.302251 0.479896
0.271183 0.327459 0.497810
0.528222 0.340734 0.497108
0.695033 0.331334 0.482490
0.777829 0.316258 0.466255
0.813413 0.304875 0.453742
0.007446 0.450355 0.503899
0.025208 0.459998 0.510948
0.061341 0.475929 0.516014
0.169558 0.523278 0.533959
0.550958 0.556085 0.532158
0.746334 0.560845 0.515679
0.839628 0.552422 0.497841
0.878843 0.543969 0.485145
0.007446 0.548455 0.517174
0.021546 0.556237 0.527153
0.060487 0.592615 0.531151
0.091554 0.667536 0.547936
0.540673 0.722499 0.548791
0.747402 0.751644 0.556634
0.866545 0.752560 0.532341
0.913848 0.747494 0.514519
0.007446 0.593347 0.519982
0.014496 0.599817 0.535302
0.059419 0.638483 0.534325
0.091035 0.722255 0.549554
0.529717 0.789395 0.551476
0.731868 0.825101 0.574090
0.852781 0.840421 0.573388
0.919097 0.839780 0.537011
0.007446 0.616236 0.520745
0.021851 0.621820 0.547265
0.060334 0.663844 0.540368
0.091432 0.749142 0.553704
0.529747 0.818235 0.555993
0.730495 0.853666 0.581659
0.837766 0.870970 0.605005
0.911955 0.877348 0.588617
0.019715 0.003571 0.390143
0.037079 0.004700 0.409583
0.103426 0.004364 0.424018
0.234409 0.004730 0.447852
0.417243 0.005646 0.458686
0.565881 0.006989 0.456489
0.645686 0.008667 0.447913
0.684260 0.010254 0.438758
0.007446 0.031128 0.446448
0.023407 0.033143 0.451545
0.097200 0.032380 0.462440
0.250248 0.032471 0.484474
0.443214 0.032776 0.494087
0.590051 0.033265 0.490913
0.668849 0.033936 0.483070
0.704494 0.034668 0.475410
0.007446 0.146548 0.504448
0.022705 0.153323 0.510735
0.060212 0.144533 0.522148
0.265019 0.149020 0.546715
0.483375 0.133577 0.557153
0.636744 0.076173 0.552514
0.716457 0.062959 0.543206
0.751431 0.063416 0.534783
0.007446 0.301854 0.558251
0.021088 0.312047 0.565698
0.059937 0.312322 0.578302
0.248081 0.337713 0.606531
0.522576 0.351141 0.618799
0.694881 0.342535 0.614801
0.780209 0.327062 0.605097
0.816648 0.315770 0.596368
0.007446 0.463813 0.598566
0.017700 0.477302 0.607202
0.059419 0.491279 0.620233
0.090852 0.539757 0.650538
0.539635 0.573846 0.663264
0.740963 0.579675 0.659785
0.836881 0.571893 0.650538
0.877043 0.563684 0.642329
0.007446 0.561425 0.614496
0.010956 0.570184 0.623713
0.058503 0.603021 0.636774
0.090455 0.682033 0.670222
0.528588 0.740536 0.683497
0.757931 0.764157 0.681697
0.865141 0.766049 0.673365
0.909789 0.761776 0.664851
0.007446 0.606043 0.618402
0.007446 0.612848 0.630213
0.057221 0.647852 0.640070
0.089937 0.734951 0.674006
0.515221 0.805844 0.687831
0.754940 0.839780 0.688838
0.860410 0.852628 0.694057
0.914122 0.853971 0.682521
0.007446 0.628779 0.619318
0.017578 0.631373 0.633783
0.059327 0.674617 0.644831
0.090883 0.762509 0.677729
0.517906 0.834989 0.691371
0.756863 0.869810 0.694240
0.855528 0.883238 0.707698
0.909667 0.889281 0.714290
0.022095 0.005158 0.433173
0.025360 0.007111 0.455360
0.099489 0.005982 0.469245
0.226108 0.006073 0.497749
0.409827 0.007050 0.514855
0.564630 0.008179 0.518730
0.645899 0.009796 0.514946
0.685725 0.011933 0.509850
0.007446 0.031556 0.492683
0.012421 0.034607 0.502068
0.088777 0.033173 0.511131
0.244205 0.033082 0.538689
0.439399 0.033326 0.553674
0.590661 0.033753 0.555383
0.670680 0.034455 0.551415
0.708003 0.036103 0.548241
0.007446 0.148592 0.554711
0.011719 0.164401 0.564538
0.057893 0.147372 0.574578
0.255589 0.149294 0.605707
0.479500 0.132631 0.622217
0.637751 0.068452 0.622644
0.719295 0.063294 0.617243
0.755276 0.064057 0.612482
0.007446 0.308476 0.611566
0.008667 0.329656 0.622187
0.057618 0.319677 0.633570
0.223697 0.344640 0.669429
0.516045 0.358801 0.688838
0.694270 0.351202 0.690822
0.781888 0.335119 0.685542
0.818997 0.323919 0.680232
0.007446 0.471260 0.653895
0.007446 0.490303 0.663020
0.057069 0.499794 0.678096
0.089540 0.549737 0.716732
0.526879 0.585443 0.737667
0.736660 0.591913 0.740749
0.835355 0.584436 0.736751
0.876219 0.576104 0.732265
0.007446 0.567773 0.670741
0.007446 0.579400 0.679011
0.056062 0.606348 0.694942
0.089174 0.686732 0.737087
0.510277 0.749599 0.760067
0.751919 0.774380 0.764492
0.861387 0.777127 0.761654
0.906096 0.773373 0.757809
0.007446 0.611780 0.674678
0.007446 0.619776 0.684138
0.054932 0.650568 0.698116
0.088624 0.738613 0.740841
0.494850 0.812131 0.764767
0.751705 0.847807 0.770138
0.865446 0.858762 0.769162
0.912352 0.860624 0.766506
0.007446 0.634180 0.675288
0.020844 0.636316 0.681697
0.059236 0.680262 0.702815
0.090455 0.767727 0.743435
0.505852 0.841764 0.766537
0.757931 0.877867 0.772152
0.867033 0.889769 0.773312
0.910582 0.894438 0.781827
0.023194 0.006683 0.462867
0.022095 0.009583 0.479744
0.091768 0.007538 0.492134
0.216648 0.007599 0.525322
0.400977 0.008392 0.547112
0.559899 0.009308 0.554314
0.644984 0.011353 0.553338
0.688441 0.019562 0.555596
0.007446 0.031983 0.518303
0.007446 0.036652 0.527520
0.079316 0.034119 0.535027
0.235782 0.033753 0.566247
0.433906 0.033906 0.585168
0.589593 0.034211 0.589502
0.671809 0.035523 0.588952
0.716335 0.042084 0.598566
0.007446 0.151064 0.579644
0.007446 0.177096 0.589776
0.055543 0.153445 0.599390
0.244266 0.153414 0.634180
0.473793 0.136568 0.654749
0.637201 0.072175 0.658045
0.720699 0.063813 0.655207
0.760678 0.066255 0.656123
0.007446 0.312474 0.636927
0.007446 0.341863 0.645686
0.055848 0.325719 0.658503
0.202640 0.350164 0.698451
0.508415 0.365667 0.722408
0.692256 0.359503 0.728023
0.782589 0.344152 0.725277
0.820829 0.333989 0.721340
0.007446 0.475013 0.679164
0.007446 0.496193 0.683375
0.056001 0.504723 0.702998
0.088808 0.555993 0.746273
0.518242 0.593439 0.771939
0.732662 0.601770 0.778744
0.833921 0.595789 0.777676
0.875944 0.589105 0.774228
0.007446 0.570153 0.695521
0.007446 0.580072 0.696651
0.056519 0.609277 0.720089
0.089326 0.690272 0.766873
0.506920 0.754269 0.794308
0.748043 0.780056 0.802426
0.858122 0.785245 0.802457
0.903258 0.784054 0.799588
0.007446 0.613367 0.699275
0.010529 0.616785 0.699397
0.058747 0.658869 0.726314
0.090669 0.746456 0.772335
0.510918 0.817350 0.799222
0.755184 0.851469 0.807645
0.864652 0.862699 0.807645
0.909483 0.865812 0.805173
0.007446 0.635004 0.699947
0.035676 0.645624 0.705928
0.065034 0.696345 0.735958
0.094301 0.780789 0.777188
0.546960 0.850248 0.801633
0.775784 0.882353 0.808743
0.875059 0.892454 0.807736
0.913725 0.896391 0.807614
