LUTs/SPK Cube Block1 S64/TheBrim_SPK_Type-K_Block1_S64.cube
TITLE "TheBrim® SPK Block 1"
# TheBrim® d.o.o. Croatia
# Copyright: (C) Copyright 2020 TheBrim® d.o.o. Croatia
LUT_3D_SIZE 8
0.0022280000 0.0019840000 0.0018310000
0.0095210000 0.0064090000 0.0061650000
0.0451660000 0.0124820000 0.0135800000
0.2089230000 0.0303340000 0.0435490000
0.4403080000 0.0418090000 0.0834660000
0.6258850000 0.0120540000 0.1140440000
0.7080080000 0.0000000000 0.1486210000
0.7167360000 0.0000000000 0.1548160000
0.0072940000 0.0130920000 0.0076600000
0.0150150000 0.0158080000 0.0067140000
0.0647580000 0.0248410000 0.0115970000
0.2095030000 0.0346680000 0.0347600000
0.4396060000 0.0428470000 0.0753170000
0.6251830000 0.0148010000 0.1058960000
0.7097780000 0.0000000000 0.1396180000
0.7162780000 0.0000000000 0.1268620000
0.0006100000 0.0537720000 0.0110170000
0.0130000000 0.0610660000 0.0106200000
0.0810550000 0.0843200000 0.0072020000
0.2404480000 0.1129150000 0.0229490000
0.4822390000 0.1327210000 0.0465090000
0.6740110000 0.1386110000 0.0596010000
0.7618710000 0.1410220000 0.0888060000
0.7742920000 0.1452940000 0.0919800000
0.0000000000 0.1420290000 0.0119020000
0.0000000000 0.1499630000 0.0115660000
0.0437010000 0.2100830000 0.0148620000
0.2803040000 0.2589420000 0.0000000000
0.5556950000 0.3118590000 0.0000000000
0.7618410000 0.3493960000 0.0000000000
0.8520200000 0.3626710000 0.0000000000
0.8648990000 0.3624270000 0.0000000000
0.0000000000 0.2908630000 0.0122990000
0.0000000000 0.3056340000 0.0058900000
0.0000000000 0.4153440000 0.0000000000
0.3381650000 0.4961240000 0.0000000000
0.6431580000 0.5477290000 0.0000000000
0.8327030000 0.5769350000 0.0000000000
0.9220580000 0.5950620000 0.0000000000
0.9337160000 0.5875850000 0.0000000000
0.0000000000 0.3826900000 0.0000000000
0.0000000000 0.4043270000 0.0000000000
0.0000000000 0.5142210000 0.0000000000
0.3368840000 0.6340640000 0.0000000000
0.7005310000 0.7101440000 0.0000000000
0.8705440000 0.7161250000 0.0000000000
0.9364930000 0.7144170000 0.0000000000
0.9466860000 0.7056270000 0.0000000000
0.0000000000 0.5537410000 0.0000000000
0.0000000000 0.5718380000 0.0000000000
0.2062680000 0.6192020000 0.0000000000
0.4938050000 0.6858520000 0.0000000000
0.7320560000 0.7402040000 0.0000000000
0.9065860000 0.7716670000 0.0000000000
0.9353940000 0.7455750000 0.0000000000
0.9441220000 0.7375790000 0.0000000000
0.2916560000 0.6366580000 0.0000000000
0.3554080000 0.6518550000 0.0000000000
0.4740300000 0.6811220000 0.0000000000
0.6422730000 0.7206730000 0.0000000000
0.8064880000 0.7549130000 0.0000000000
0.9169620000 0.7713930000 0.0000000000
0.9320070000 0.7477720000 0.0000000000
0.9483030000 0.7495420000 0.0000000000
0.0068050000 0.0068360000 0.0090640000
0.0093080000 0.0063480000 0.0112920000
0.0474850000 0.0114440000 0.0212100000
0.2106930000 0.0290530000 0.0521850000
0.4450070000 0.0411070000 0.0895080000
0.6307070000 0.0101930000 0.1181030000
0.7091370000 0.0000000000 0.1514890000
0.7161250000 0.0000000000 0.1650090000
0.0004580000 0.0111690000 0.0093990000
0.0121150000 0.0154110000 0.0144350000
0.0656130000 0.0229490000 0.0229800000
0.2266850000 0.0397640000 0.0518490000
0.4493710000 0.0436100000 0.0850830000
0.6320190000 0.0146180000 0.1133730000
0.7116700000 0.0000000000 0.1476140000
0.7252200000 0.0000000000 0.1562500000
0.0000000000 0.0451350000 0.0061040000
0.0044860000 0.0576780000 0.0141910000
0.0802000000 0.0835270000 0.0121150000
0.2492680000 0.1116330000 0.0307010000
0.4851990000 0.1257630000 0.0505680000
0.6753850000 0.1279910000 0.0643920000
0.7579650000 0.1273500000 0.0944210000
0.7748720000 0.1442260000 0.1099850000
0.0000000000 0.1404720000 0.0122070000
0.0000000000 0.1495060000 0.0118410000
0.0440060000 0.2085270000 0.0147710000
0.2843930000 0.2568970000 0.0000000000
0.5588680000 0.3079830000 0.0000000000
0.7620540000 0.3415220000 0.0000000000
0.8513180000 0.3574220000 0.0000000000
0.8652340000 0.3610530000 0.0000000000
0.0000000000 0.2902530000 0.0129090000
0.0000000000 0.3054500000 0.0071110000
0.0000000000 0.4162900000 0.0000000000
0.3415220000 0.4955440000 0.0000000000
0.6388550000 0.5407410000 0.0000000000
0.8336180000 0.5725400000 0.0000000000
0.9225460000 0.5929870000 0.0000000000
0.9401250000 0.5929870000 0.0000000000
0.0000000000 0.3835450000 0.0000000000
0.0000000000 0.4051510000 0.0000000000
0.0000000000 0.5154420000 0.0000000000
0.3388980000 0.6343080000 0.0000000000
0.7019960000 0.7099000000 0.0000000000
0.8727110000 0.7160640000 0.0000000000
0.9383240000 0.7153320000 0.0000000000
0.9550170000 0.7141110000 0.0000000000
0.0000000000 0.5575260000 0.0000000000
0.0000000000 0.5755310000 0.0000000000
0.2298280000 0.6228940000 0.0000000000
0.5021970000 0.6878660000 0.0000000000
0.7363280000 0.7410580000 0.0000000000
0.9093630000 0.7724910000 0.0000000000
0.9400630000 0.7497560000 0.0000000000
0.9556580000 0.7494510000 0.0000000000
0.3190310000 0.6430660000 0.0000000000
0.3801880000 0.6579280000 0.0000000000
0.4888920000 0.6846620000 0.0000000000
0.6525270000 0.7230220000 0.0000000000
0.8138730000 0.7562870000 0.0000000000
0.9189450000 0.7712710000 0.0000000000
0.9326170000 0.7477420000 0.0000000000
0.9671330000 0.7689820000 0.0000000000
0.0090940000 0.0140080000 0.0455020000
0.0103450000 0.0125120000 0.0514220000
0.0374760000 0.0073240000 0.0661010000
0.1822200000 0.0182190000 0.1051640000
0.4509580000 0.0264280000 0.1703800000
0.6336060000 0.0000000000 0.2156070000
0.7062380000 0.0000000000 0.2509770000
0.7141720000 0.0000000000 0.2655640000
0.0039670000 0.0186460000 0.0483400000
0.0107730000 0.0198970000 0.0528260000
0.0440980000 0.0158390000 0.0695500000
0.1990970000 0.0284730000 0.1084590000
0.4553530000 0.0332950000 0.1621400000
0.6374510000 0.0000000000 0.2060240000
0.7118530000 0.0000000000 0.2440800000
0.7323910000 0.0000000000 0.2700500000
0.0000000000 0.0557560000 0.0480350000
0.0000000000 0.0637510000 0.0585020000
0.0620730000 0.0919800000 0.0935060000
0.2501220000 0.1182250000 0.1200560000
0.5047300000 0.1463010000 0.1665950000
0.6994930000 0.1585080000 0.2075200000
0.7773130000 0.1553960000 0.2478640000
0.7984010000 0.1807560000 0.2815550000
0.0000000000 0.1529240000 0.0476990000
0.0000000000 0.1635440000 0.0547490000
0.0000000000 0.2185670000 0.0838010000
0.2881770000 0.2764590000 0.1010440000
0.5716250000 0.3226930000 0.1244810000
0.7751770000 0.3549190000 0.1465150000
0.8609620000 0.3709110000 0.1857910000
0.8745730000 0.3741760000 0.2285770000
0.0000000000 0.2881770000 0.0196530000
0.0000000000 0.3067020000 0.0202640000
0.0000000000 0.4037780000 0.0140080000
0.3321230000 0.5015560000 0.0000000000
0.6397090000 0.5505070000 0.0000000000
0.8453370000 0.5942990000 0.0000000000
0.9326780000 0.6158750000 0.0000000000
0.9493410000 0.6200870000 0.1078490000
0.0000000000 0.3849490000 0.0000000000
0.0000000000 0.4115910000 0.0000000000
0.0000000000 0.5151060000 0.0000000000
0.3398740000 0.6398620000 0.0000000000
0.7059630000 0.7206420000 0.0000000000
0.8813480000 0.7408750000 0.0000000000
0.9622190000 0.7570800000 0.0000000000
0.9814450000 0.7629090000 0.0000000000
0.0000000000 0.5657350000 0.0000000000
0.0000000000 0.5852660000 0.0000000000
0.2555240000 0.6336670000 0.0000000000
0.5061650000 0.6991580000 0.0000000000
0.7382200000 0.7615970000 0.0000000000
0.9177250000 0.8031920000 0.0000000000
0.9696350000 0.7969360000 0.0000000000
0.9897160000 0.8044740000 0.0000000000
0.3595890000 0.6528630000 0.0000000000
0.4112850000 0.6658330000 0.0000000000
0.5103760000 0.6898190000 0.0000000000
0.6720280000 0.7275090000 0.0000000000
0.8277280000 0.7596130000 0.0000000000
0.9319150000 0.7826540000 0.0000000000
0.9664920000 0.7956240000 0.0000000000
0.9892270000 0.8177800000 0.0000000000
0.0091550000 0.0336000000 0.1535640000
0.0110470000 0.0348510000 0.1771240000
0.0551150000 0.0273740000 0.2005000000
0.1780700000 0.0000000000 0.2119450000
0.4317630000 0.0000000000 0.3053590000
0.6305850000 0.0000000000 0.3736880000
0.6922000000 0.0000000000 0.3966980000
0.7033690000 0.0000000000 0.4029850000
0.0025330000 0.0476380000 0.1823730000
0.0099490000 0.0460820000 0.2129210000
0.0591430000 0.0352170000 0.2336120000
0.1978450000 0.0000000000 0.2231750000
0.4599300000 0.0000000000 0.3139040000
0.6367190000 0.0000000000 0.3673400000
0.7004390000 0.0000000000 0.3967590000
0.7210690000 0.0000000000 0.4128720000
0.0000000000 0.0971070000 0.2001040000
0.0000000000 0.1027220000 0.2152710000
0.0451970000 0.1190490000 0.2595210000
0.2573850000 0.1207890000 0.2872920000
0.5286250000 0.1389770000 0.3580630000
0.7084660000 0.1430970000 0.4036250000
0.7763370000 0.1306760000 0.4366150000
0.7938230000 0.1461790000 0.4502260000
0.0000000000 0.1821900000 0.1724550000
0.0000000000 0.1935730000 0.1877440000
0.0000000000 0.2505490000 0.2605590000
0.2824100000 0.3042600000 0.3148500000
0.5896610000 0.3562010000 0.3693540000
0.7928470000 0.3952640000 0.4265440000
0.8708500000 0.4047550000 0.4597780000
0.8840030000 0.4050600000 0.4778750000
0.0000000000 0.3312380000 0.1829220000
0.0000000000 0.3493960000 0.1967160000
0.0000000000 0.4511410000 0.2697140000
0.2715760000 0.5398560000 0.3153080000
0.6388850000 0.5966800000 0.3468020000
0.8492740000 0.6369930000 0.3779600000
0.9326780000 0.6539920000 0.4134220000
0.9481200000 0.6542360000 0.4476930000
0.0000000000 0.4310000000 0.1795650000
0.0000000000 0.4471130000 0.1865540000
0.0000000000 0.5661930000 0.2402950000
0.2325440000 0.6846620000 0.2879640000
0.6850590000 0.7693480000 0.3113400000
0.8768010000 0.7908330000 0.3314210000
0.9587100000 0.8065190000 0.3592220000
0.9765930000 0.8096920000 0.3878170000
0.0000000000 0.5893860000 0.1983950000
0.0000000000 0.6107790000 0.2058110000
0.0000000000 0.6651920000 0.2261350000
0.4481200000 0.7425230000 0.2735290000
0.7162480000 0.8056340000 0.2909550000
0.9046630000 0.8474430000 0.2997740000
0.9645390000 0.8506470000 0.3335570000
0.9844670000 0.8554990000 0.3519590000
0.3659360000 0.6857600000 0.0000000000
0.4090270000 0.6970520000 0.0000000000
0.5055850000 0.7231750000 0.0000000000
0.6706240000 0.7658390000 0.0000000000
0.8268740000 0.8075260000 0.0315250000
0.9284060000 0.8393550000 0.1589970000
0.9641720000 0.8501890000 0.2978820000
0.9820860000 0.8668820000 0.3838500000
0.0020750000 0.0620420000 0.3238220000
0.0082090000 0.0609740000 0.3463130000
0.0865480000 0.0360110000 0.3733220000
0.2557680000 0.0000000000 0.4097290000
0.4006960000 0.0000000000 0.3693850000
0.5836790000 0.0000000000 0.4435730000
0.6548460000 0.0000000000 0.4723510000
0.6913760000 0.0000000000 0.5030210000
0.0000000000 0.0798950000 0.3595890000
0.0070500000 0.0675960000 0.3807680000
0.0845640000 0.0401920000 0.3982850000
0.2751460000 0.0000000000 0.4274290000
0.4344180000 0.0000000000 0.3967900000
0.6207580000 0.0000000000 0.4800110000
0.6874390000 0.0000000000 0.5088200000
0.7120970000 0.0000000000 0.5242310000
0.0000000000 0.1489560000 0.4207150000
0.0000000000 0.1452330000 0.4297790000
0.0378110000 0.1539610000 0.4617310000
0.3078310000 0.1386110000 0.4950870000
0.5491030000 0.0969850000 0.5228580000
0.7080690000 0.0757140000 0.5584410000
0.7675170000 0.0534970000 0.5784910000
0.7874150000 0.0924680000 0.5861510000
0.0000000000 0.2686770000 0.4026790000
0.0000000000 0.2794800000 0.4237060000
0.0000000000 0.3157960000 0.4863590000
0.3223570000 0.3589780000 0.5503230000
0.6138610000 0.3730160000 0.5827030000
0.7974240000 0.3949580000 0.6205750000
0.8642580000 0.3942570000 0.6410520000
0.8752750000 0.3893130000 0.6441040000
0.0000000000 0.3662720000 0.3382570000
0.0000000000 0.3856200000 0.3607480000
0.0000000000 0.4895320000 0.4734500000
0.2279970000 0.5757450000 0.5488590000
0.6411740000 0.6347960000 0.5965580000
0.8501280000 0.6693420000 0.6281740000
0.9295960000 0.6806950000 0.6524960000
0.9439390000 0.6754760000 0.6632080000
0.0000000000 0.4523620000 0.3344420000
0.0000000000 0.4836430000 0.3609010000
0.0000000000 0.6052860000 0.4613040000
0.0240170000 0.7217410000 0.5383300000
0.6552730000 0.8009030000 0.5918580000
0.8674320000 0.8283690000 0.6141360000
0.9485470000 0.8406070000 0.6336980000
0.9670100000 0.8409730000 0.6454770000
0.0000000000 0.6359560000 0.4310610000
0.0000000000 0.6564030000 0.4440920000
0.0000000000 0.7103270000 0.4773860000
0.3851320000 0.7763370000 0.5183110000
0.6957400000 0.8417970000 0.5698240000
0.8830260000 0.8800350000 0.5943910000
0.9532470000 0.8871150000 0.6174930000
0.9733280000 0.8909000000 0.6293640000
0.2249150000 0.7255550000 0.3816220000
0.3021240000 0.7368770000 0.3885800000
0.4515380000 0.7711490000 0.4275210000
0.6326900000 0.8124080000 0.4599910000
0.7941280000 0.8498230000 0.4982600000
0.9088750000 0.8782040000 0.5393680000
0.9534610000 0.8894650000 0.5992740000
0.9718930000 0.9006350000 0.6425780000
0.0000000000 0.1037900000 0.4369200000
0.0018010000 0.1040650000 0.4463500000
0.1094360000 0.0805660000 0.4587400000
0.2667850000 0.0606690000 0.4809270000
0.4324340000 0.0000000000 0.4789120000
0.5939330000 0.0000000000 0.5169680000
0.6987920000 0.0000000000 0.5498960000
0.7404170000 0.0000000000 0.5683290000
0.0000000000 0.1226500000 0.4543760000
0.0000000000 0.1232910000 0.4607850000
0.1007690000 0.1064760000 0.4780270000
0.2756350000 0.0944820000 0.5026860000
0.4540100000 0.0382080000 0.5060120000
0.6166080000 0.0000000000 0.5393370000
0.7185360000 0.0000000000 0.5708620000
0.7593690000 0.0000000000 0.5890200000
0.0000000000 0.1819460000 0.4998470000
0.0000000000 0.1826780000 0.5043030000
0.0765990000 0.1922610000 0.5375370000
0.3034670000 0.1796260000 0.5612790000
0.5078430000 0.1625060000 0.5710450000
0.6820980000 0.1468200000 0.6019290000
0.7714230000 0.1609190000 0.6250610000
0.8076480000 0.1763610000 0.6418150000
0.0000000000 0.3185120000 0.5604550000
0.0000000000 0.3256530000 0.5773620000
0.0000000000 0.3462830000 0.6161500000
0.3487240000 0.3855900000 0.6797180000
0.6168520000 0.3784790000 0.6860660000
0.7891540000 0.3863220000 0.7096560000
0.8569340000 0.3988650000 0.7223510000
0.8760070000 0.3972170000 0.7257390000
0.0000000000 0.4220580000 0.4837950000
0.0000000000 0.4460750000 0.5159300000
0.0000000000 0.5359190000 0.6287230000
0.1948240000 0.6148380000 0.7052920000
0.6531980000 0.6630860000 0.7462460000
0.8493650000 0.6811520000 0.7679440000
0.9252930000 0.6903990000 0.7865600000
0.9392090000 0.6853330000 0.7903750000
0.0000000000 0.4731750000 0.4411930000
0.0000000000 0.5044250000 0.4738460000
0.0000000000 0.6280520000 0.5983280000
0.0000000000 0.7416380000 0.6901860000
0.6435550000 0.8167420000 0.7408750000
0.8643490000 0.8482360000 0.7659910000
0.9449160000 0.8595890000 0.7808230000
0.9625550000 0.8575440000 0.7891850000
0.0000000000 0.6616820000 0.5820920000
0.0000000000 0.6813660000 0.5970460000
0.0000000000 0.7304690000 0.6333310000
0.3296200000 0.7973630000 0.6836850000
0.6666260000 0.8595890000 0.7270200000
0.8719480000 0.8980410000 0.7574770000
0.9478150000 0.9068600000 0.7723690000
0.9679570000 0.9101260000 0.7812190000
0.0702820000 0.7593080000 0.5984500000
0.2270810000 0.7720640000 0.6078800000
0.3967290000 0.7975160000 0.6275630000
0.6084900000 0.8392030000 0.6595760000
0.7855830000 0.8761600000 0.6963810000
0.9013670000 0.9013370000 0.7272950000
0.9497680000 0.9115600000 0.7607120000
0.9673770000 0.9190670000 0.7825930000
0.0000000000 0.1556400000 0.4846190000
0.0000000000 0.1575930000 0.4926150000
0.1114500000 0.1638790000 0.5185240000
0.2499080000 0.1434020000 0.5307920000
0.4087520000 0.1203310000 0.5375980000
0.5555730000 0.0662230000 0.5494080000
0.6776730000 0.0442810000 0.5731810000
0.7533260000 0.0750120000 0.6007080000
0.0000000000 0.1717530000 0.4974060000
0.0000000000 0.1736450000 0.5056150000
0.1047360000 0.1809390000 0.5314330000
0.2545780000 0.1665340000 0.5468140000
0.4185180000 0.1510310000 0.5555420000
0.5723880000 0.1108700000 0.5674130000
0.6933900000 0.1087340000 0.5923460000
0.7690730000 0.1334840000 0.6173400000
0.0000000000 0.2178340000 0.5312500000
0.0000000000 0.2203980000 0.5405580000
0.0737610000 0.2305910000 0.5670170000
0.2646790000 0.2249450000 0.5890500000
0.4474180000 0.2181090000 0.5975650000
0.6088560000 0.1968380000 0.6080930000
0.7412110000 0.2261660000 0.6407780000
0.8141480000 0.2637330000 0.6676940000
0.0000000000 0.3232120000 0.5826420000
0.0000000000 0.3263550000 0.5926510000
0.0000000000 0.3425290000 0.6248170000
0.3062130000 0.3696290000 0.6689450000
0.5337520000 0.3828120000 0.6870120000
0.7215880000 0.4089360000 0.7099910000
0.8332210000 0.4439390000 0.7347110000
0.8825680000 0.4705200000 0.7499390000
0.0000000000 0.4642030000 0.5814210000
0.0000000000 0.4919740000 0.6188350000
0.0000000000 0.5533750000 0.6917720000
0.2972110000 0.6260070000 0.7593380000
0.6628720000 0.6642150000 0.7878420000
0.8327940000 0.6773990000 0.7948910000
0.9093320000 0.7059020000 0.8074340000
0.9392400000 0.7199710000 0.8131100000
0.0000000000 0.4837650000 0.4960940000
0.0000000000 0.5161740000 0.5317080000
0.0000000000 0.6434940000 0.6697690000
0.0000000000 0.7505190000 0.7608640000
0.6388850000 0.8219600000 0.8115840000
0.8617860000 0.8544310000 0.8337100000
0.9422610000 0.8659060000 0.8451230000
0.9606630000 0.8665160000 0.8463750000
0.0000000000 0.6693120000 0.6566470000
0.0000000000 0.6913450000 0.6751400000
0.0000000000 0.7395940000 0.7135010000
0.2872620000 0.8079830000 0.7652280000
0.6522520000 0.8683470000 0.8052370000
0.8673710000 0.9054570000 0.8318790000
0.9456180000 0.9154050000 0.8439330000
0.9647520000 0.9180600000 0.8503720000
0.0000000000 0.7780460000 0.7111820000
0.1490480000 0.7884830000 0.7190860000
0.3858030000 0.8148500000 0.7391970000
0.5950620000 0.8521120000 0.7642210000
0.7797240000 0.8880620000 0.7904360000
0.9013370000 0.9123230000 0.8178710000
0.9491880000 0.9219970000 0.8374330000
0.9654850000 0.9274900000 0.8491210000
0.0000000000 0.1945190000 0.5155030000
0.0000000000 0.1956790000 0.5225220000
0.0754390000 0.2034300000 0.5462340000
0.2192380000 0.1914370000 0.5602720000
0.3764340000 0.1859130000 0.5722660000
0.5159300000 0.1644290000 0.5727230000
0.6464840000 0.1427610000 0.5936890000
0.7381900000 0.1567690000 0.6161190000
0.0000000000 0.2070920000 0.5270080000
0.0000000000 0.2093810000 0.5347290000
0.0695800000 0.2168880000 0.5560610000
0.2214660000 0.2062990000 0.5713200000
0.3839110000 0.2027590000 0.5833440000
0.5254520000 0.1889340000 0.5869140000
0.6579900000 0.1717220000 0.6064150000
0.7561340000 0.1960750000 0.6327820000
0.0000000000 0.2471920000 0.5545040000
0.0000000000 0.2503360000 0.5636290000
0.0349120000 0.2585450000 0.5841060000
0.2356570000 0.2576290000 0.6061400000
0.3994450000 0.2548520000 0.6172180000
0.5484920000 0.2445070000 0.6184080000
0.7051390000 0.2674870000 0.6533200000
0.8070370000 0.3213200000 0.6881710000
0.0000000000 0.3291020000 0.5968020000
0.0000000000 0.3327940000 0.6063540000
0.0000000000 0.3411870000 0.6281740000
0.2587280000 0.3603520000 0.6600950000
0.4543150000 0.3783260000 0.6834720000
0.6434940000 0.4190370000 0.7022400000
0.7928160000 0.4698790000 0.7369080000
0.8732600000 0.5240170000 0.7614140000
0.0000000000 0.4898070000 0.6623540000
0.0000000000 0.5046390000 0.6788330000
0.0000000000 0.5419010000 0.7138060000
0.3579710000 0.5893250000 0.7522280000
0.6196590000 0.6379390000 0.7792050000
0.7752380000 0.6695860000 0.7858580000
0.8815920000 0.7160950000 0.8084720000
0.9287110000 0.7439880000 0.8184200000
0.0000000000 0.6228330000 0.6689450000
0.0000000000 0.6509090000 0.6951290000
0.0000000000 0.7079770000 0.7437740000
0.3742980000 0.7728880000 0.7912900000
0.6972050000 0.8249210000 0.8206480000
0.8655090000 0.8513490000 0.8354800000
0.9251710000 0.8631590000 0.8428960000
0.9534910000 0.8746640000 0.8488160000
0.0000000000 0.6839290000 0.6970520000
0.0000000000 0.7034000000 0.7137450000
0.0000000000 0.7484130000 0.7504580000
0.2451480000 0.8135990000 0.7981570000
0.6698000000 0.8751220000 0.8341670000
0.8771360000 0.9078980000 0.8544310000
0.9458620000 0.9167480000 0.8624570000
0.9615780000 0.9195860000 0.8643800000
0.0000000000 0.7855830000 0.7623600000
0.0416260000 0.7946470000 0.7689820000
0.3649290000 0.8217470000 0.7891850000
0.5994870000 0.8610230000 0.8134160000
0.7875060000 0.8958740000 0.8353270000
0.9019780000 0.9172670000 0.8538510000
0.9494630000 0.9261170000 0.8657840000
0.9653020000 0.9309390000 0.8728640000
