LUTs/SPK Cube Block1 S64/TheBrim_SPK_Type-X_Block1_S64.cube
TITLE "TheBrim® SPK Block 1"
# © Copyright 2021 - TheBrim® d.o.o. Croatia
#Snook
LUT_3D_SIZE 4
DOMAIN_MIN 0.000000 0.000000 0.000000
DOMAIN_MAX 1.000000 1.000000 1.000000
0.000000 0.000000 0.000000
0.180819 0.208621 0.205814
0.784787 0.778653 0.706661
0.972717 0.947753 0.894072
0.012543 0.011749 0.011383
0.188693 0.216251 0.213504
0.787289 0.781521 0.709346
0.972717 0.947753 0.894072
0.032197 0.032715 0.031586
0.217746 0.244450 0.240940
0.795590 0.791012 0.718166
0.972717 0.947753 0.894072
0.050141 0.055604 0.052186
0.259495 0.283513 0.279423
0.805875 0.802121 0.728511
0.972717 0.947753 0.894072
0.000000 0.000000 0.000000
0.089357 0.113008 0.107698
0.782834 0.776486 0.704616
0.972717 0.947753 0.894072
0.000000 0.000000 0.000000
0.171176 0.199283 0.196506
0.791592 0.786435 0.713893
0.972717 0.947753 0.894072
0.043793 0.046754 0.044404
0.246555 0.272160 0.267887
0.806424 0.802579 0.728939
0.972717 0.947753 0.894072
0.072602 0.090333 0.084382
0.322759 0.338079 0.334295
0.823026 0.815457 0.741451
0.972717 0.947753 0.894072
0.000000 0.000000 0.000000
0.022736 0.021912 0.021271
0.555566 0.550225 0.520287
0.965057 0.940703 0.886168
0.000000 0.000000 0.000000
0.022736 0.021912 0.021271
0.654078 0.655360 0.602197
0.968505 0.943877 0.889738
0.000000 0.000000 0.000000
0.101411 0.125765 0.120943
0.776272 0.768978 0.697658
0.972717 0.947753 0.894072
0.072755 0.090547 0.084565
0.329931 0.343969 0.340124
0.831052 0.821714 0.747524
0.972717 0.947753 0.894072
0.000000 0.000000 0.000000
0.022736 0.021912 0.021271
0.351629 0.361852 0.357702
0.896391 0.879362 0.811398
0.000000 0.000000 0.000000
0.022736 0.021912 0.021271
0.044251 0.047303 0.044892
0.916838 0.896757 0.832090
0.000000 0.000000 0.000000
0.022736 0.021912 0.021271
0.237522 0.263676 0.259556
0.947997 0.924987 0.867308
0.000000 0.000000 0.000000
0.022736 0.021912 0.021271
0.715999 0.711513 0.647272
0.970550 0.945769 0.891844
