LUTs/SPK Cube Block1 S64/TheBrim_SPK_Type-X_Block1_S64.cube
TITLE "TheBrim® SPK Block 1"
# © Copyright 2021 - TheBrim® d.o.o. Croatia
#Snook
LUT_3D_SIZE 64
DOMAIN_MIN 0.000000 0.000000 0.000000
DOMAIN_MAX 1.000000 1.000000 1.000000
0.000000 0.000000 0.000000
0.003662 0.003418 0.003326
0.007385 0.006958 0.006744
0.012757 0.011933 0.011597
0.018158 0.016999 0.016510
0.022766 0.021942 0.021332
0.027222 0.026917 0.026093
0.031464 0.031891 0.030793
0.035828 0.037018 0.035615
0.040772 0.043091 0.041077
0.045838 0.049439 0.046784
0.051240 0.057160 0.053559
0.056855 0.065522 0.060945
0.063325 0.076173 0.070710
0.070619 0.087587 0.081514
0.080446 0.101259 0.095613
0.091829 0.115633 0.110445
0.107118 0.131746 0.127199
0.123018 0.148836 0.144900
0.140261 0.167880 0.164614
0.159121 0.187655 0.184817
0.180819 0.208621 0.205814
0.203830 0.230930 0.227878
0.228885 0.255314 0.251438
0.256626 0.281010 0.276860
0.287663 0.308263 0.304509
0.320378 0.336126 0.332372
0.354955 0.364599 0.360388
0.387427 0.393988 0.386786
0.417762 0.424109 0.411475
0.449104 0.454749 0.436835
0.481453 0.485878 0.462837
0.515984 0.516716 0.489906
0.552087 0.547295 0.517601
0.583459 0.578454 0.543847
0.611933 0.610193 0.569268
0.638758 0.639155 0.590753
0.664729 0.666651 0.610163
0.691463 0.690883 0.629603
0.718471 0.713558 0.649012
0.743130 0.736385 0.668910
0.766903 0.759304 0.689021
0.784787 0.778653 0.706661
0.800687 0.796872 0.723568
0.816831 0.810666 0.736782
0.832975 0.823209 0.748989
0.847807 0.835660 0.761135
0.862455 0.848142 0.773373
0.873503 0.858427 0.785397
0.884001 0.868345 0.797421
0.893034 0.876402 0.807645
0.901884 0.884184 0.817624
0.910246 0.891264 0.825742
0.918608 0.898253 0.833738
0.925658 0.904540 0.840909
0.932708 0.910826 0.848081
0.938354 0.916014 0.855192
0.943999 0.921233 0.862272
0.949248 0.926116 0.868833
0.954406 0.930968 0.875273
0.959228 0.935363 0.880186
0.964050 0.939757 0.885130
0.968383 0.943755 0.889586
0.972717 0.947753 0.894072
0.000000 0.000000 0.000000
0.004578 0.004273 0.004150
0.008270 0.007752 0.007538
0.013428 0.012573 0.012207
0.018799 0.017609 0.017121
0.023011 0.022217 0.021546
0.027436 0.027161 0.026337
0.031525 0.031983 0.030854
0.035889 0.037110 0.035706
0.040864 0.043153 0.041169
0.045899 0.049531 0.046876
0.051301 0.057252 0.053620
0.056977 0.065675 0.061097
0.063416 0.076295 0.070802
0.070680 0.087678 0.081636
0.080507 0.101350 0.095705
0.091951 0.115755 0.110567
0.107210 0.131868 0.127321
0.123110 0.148928 0.145022
0.140352 0.167971 0.164706
0.159243 0.187747 0.184939
0.180941 0.208743 0.205966
0.203983 0.231083 0.228000
0.229007 0.255406 0.251560
0.256748 0.281102 0.276951
0.287785 0.308354 0.304631
0.320439 0.336156 0.332403
0.355077 0.364691 0.360510
0.387488 0.394049 0.386847
0.417823 0.424201 0.411536
0.449256 0.454871 0.436927
0.481575 0.486000 0.462928
0.516167 0.516869 0.489998
0.552178 0.547326 0.517662
0.583490 0.578515 0.543908
0.611963 0.610254 0.569299
0.638819 0.639216 0.590784
0.664851 0.666712 0.610254
0.691524 0.690944 0.629633
0.718502 0.713588 0.649042
0.743191 0.736416 0.668940
0.766934 0.759335 0.689052
0.784817 0.778714 0.706691
0.800748 0.796933 0.723629
0.816861 0.810666 0.736782
0.832975 0.823209 0.748989
0.847868 0.835691 0.761196
0.862486 0.848173 0.773404
0.873533 0.858427 0.785428
0.884031 0.868345 0.797452
0.893065 0.876402 0.807645
0.901884 0.884215 0.817624
0.910277 0.891264 0.825772
0.918608 0.898253 0.833768
0.925658 0.904540 0.840909
0.932708 0.910826 0.848081
0.938384 0.916045 0.855222
0.943999 0.921233 0.862272
0.949248 0.926146 0.868833
0.954437 0.930999 0.875273
0.959258 0.935363 0.880217
0.964050 0.939757 0.885161
0.968383 0.943755 0.889586
0.972717 0.947753 0.894072
0.000000 0.000000 0.000000
0.004578 0.004303 0.004150
0.009125 0.008576 0.008331
0.014313 0.013428 0.013001
0.019379 0.018250 0.017731
0.023529 0.022797 0.022126
0.027680 0.027405 0.026581
0.031739 0.032197 0.031098
0.035950 0.037201 0.035798
0.040925 0.043275 0.041230
0.045991 0.049653 0.046937
0.051362 0.057343 0.053712
0.057008 0.065766 0.061158
0.063478 0.076387 0.070893
0.070802 0.087800 0.081788
0.080568 0.101442 0.095796
0.092042 0.115846 0.110658
0.107301 0.131960 0.127413
0.123262 0.149050 0.145174
0.140505 0.168124 0.164858
0.159304 0.187839 0.185000
0.181033 0.208804 0.206058
0.204135 0.231235 0.228122
0.229160 0.255558 0.251682
0.256870 0.281224 0.277073
0.287907 0.308476 0.304753
0.320562 0.336278 0.332525
0.355138 0.364752 0.360540
0.387549 0.394079 0.386877
0.417914 0.424292 0.411627
0.449348 0.454994 0.437049
0.481636 0.486061 0.462989
0.516197 0.516899 0.490059
0.552300 0.547448 0.517784
0.583612 0.578637 0.543999
0.611963 0.610254 0.569299
0.638849 0.639246 0.590845
0.664912 0.666773 0.610285
0.691554 0.690974 0.629694
0.718532 0.713649 0.649073
0.743221 0.736477 0.668971
0.766995 0.759396 0.689082
0.784878 0.778775 0.706783
0.800778 0.796963 0.723659
0.816892 0.810697 0.736812
0.833036 0.823270 0.749020
0.847898 0.835721 0.761227
0.862516 0.848203 0.773434
0.873564 0.858457 0.785489
0.884031 0.868345 0.797452
0.893065 0.876402 0.807645
0.901915 0.884245 0.817655
0.910307 0.891264 0.825772
0.918639 0.898253 0.833768
0.925689 0.904540 0.840940
0.932708 0.910826 0.848081
0.938384 0.916045 0.855222
0.944030 0.921263 0.862333
0.949248 0.926146 0.868833
0.954437 0.930999 0.875273
0.959258 0.935393 0.880217
0.964050 0.939757 0.885161
0.968383 0.943755 0.889586
0.972717 0.947753 0.894072
0.000366 0.000336 0.000336
0.005158 0.004822 0.004700
0.009766 0.009155 0.008850
0.014527 0.013611 0.013214
0.019562 0.018433 0.017884
0.023621 0.022919 0.022217
0.027741 0.027527 0.026673
0.031800 0.032288 0.031159
0.036042 0.037293 0.035889
0.041016 0.043336 0.041321
0.046052 0.049744 0.047028
0.051423 0.057435 0.053773
0.057099 0.065919 0.061280
0.063539 0.076509 0.071015
0.070893 0.087922 0.081910
0.080659 0.101564 0.095888
0.092195 0.115999 0.110811
0.107424 0.132082 0.127565
0.123384 0.149203 0.145327
0.140597 0.168215 0.164981
0.159457 0.187961 0.185153
0.181155 0.208927 0.206149
0.204227 0.231296 0.228244
0.229282 0.255711 0.251835
0.256962 0.281315 0.277165
0.288029 0.308568 0.304845
0.320684 0.336370 0.332647
0.355352 0.364904 0.360723
0.387732 0.394263 0.387030
0.417975 0.424353 0.411658
0.449500 0.455116 0.437140
0.481788 0.486183 0.463111
0.516350 0.517021 0.490150
0.552453 0.547570 0.517876
0.583703 0.578729 0.544091
0.612085 0.610346 0.569390
0.638911 0.639307 0.590875
0.664973 0.666896 0.610346
0.691676 0.691035 0.629755
0.718593 0.713680 0.649104
0.743282 0.736507 0.669032
0.767086 0.759487 0.689143
0.784909 0.778805 0.706813
0.800809 0.796994 0.723690
0.816922 0.810727 0.736843
0.833066 0.823301 0.749050
0.847929 0.835752 0.761257
0.862547 0.848234 0.773434
0.873564 0.858457 0.785489
0.884062 0.868376 0.797452
0.893065 0.876432 0.807675
0.901946 0.884276 0.817685
0.910307 0.891264 0.825772
0.918639 0.898253 0.833768
0.925719 0.904570 0.840970
0.932708 0.910826 0.848081
0.938384 0.916045 0.855222
0.944030 0.921263 0.862333
0.949248 0.926146 0.868864
0.954437 0.930999 0.875273
0.959258 0.935393 0.880247
0.964050 0.939757 0.885161
0.968383 0.943755 0.889586
0.972717 0.947753 0.894072
0.000732 0.000702 0.000671
0.005524 0.005158 0.005035
0.010346 0.009674 0.009400
0.015106 0.014130 0.013733
0.019715 0.018585 0.018067
0.023774 0.023102 0.022400
0.027832 0.027619 0.026764
0.031891 0.032380 0.031250
0.036133 0.037415 0.035950
0.041077 0.043427 0.041382
0.046143 0.049866 0.047150
0.051514 0.057557 0.053895
0.057160 0.065980 0.061402
0.063600 0.076600 0.071107
0.070985 0.088106 0.082063
0.080751 0.101717 0.096071
0.092287 0.116121 0.110933
0.107546 0.132204 0.127687
0.123507 0.149325 0.145449
0.140688 0.168338 0.165103
0.159579 0.188083 0.185245
0.181277 0.209079 0.206271
0.204379 0.231449 0.228367
0.229404 0.255772 0.251896
0.257176 0.281468 0.277348
0.288212 0.308751 0.304997
0.320836 0.336492 0.332738
0.355474 0.365057 0.360815
0.387854 0.394385 0.387121
0.418158 0.424537 0.411841
0.449531 0.455177 0.437201
0.481880 0.486305 0.463172
0.516503 0.517144 0.490272
0.552575 0.547692 0.517998
0.583764 0.578820 0.544152
0.612207 0.610468 0.569512
0.639002 0.639399 0.590936
0.665034 0.666926 0.610376
0.691707 0.691096 0.629786
0.718715 0.713741 0.649195
0.743343 0.736629 0.669123
0.767147 0.759518 0.689174
0.784939 0.778836 0.706844
0.800839 0.797024 0.723720
0.816953 0.810758 0.736873
0.833097 0.823331 0.749050
0.847959 0.835782 0.761257
0.862577 0.848264 0.773465
0.873594 0.858488 0.785519
0.884092 0.868437 0.797513
0.893095 0.876432 0.807706
0.901946 0.884276 0.817685
0.910307 0.891295 0.825803
0.918639 0.898253 0.833768
0.925719 0.904570 0.840970
0.932708 0.910826 0.848112
0.938384 0.916075 0.855222
0.944030 0.921263 0.862333
0.949248 0.926146 0.868864
0.954437 0.930999 0.875303
0.959258 0.935393 0.880247
0.964080 0.939757 0.885161
0.968383 0.943755 0.889586
0.972717 0.947753 0.894072
0.001007 0.000946 0.000916
0.005829 0.005463 0.005280
0.010651 0.009979 0.009674
0.015290 0.014343 0.013916
0.019898 0.018799 0.018219
0.023926 0.023224 0.022522
0.027955 0.027771 0.026917
0.031983 0.032502 0.031373
0.036225 0.037537 0.036103
0.041199 0.043549 0.041505
0.046235 0.050019 0.047272
0.051575 0.057679 0.053986
0.057252 0.066163 0.061555
0.063691 0.076753 0.071229
0.071138 0.088289 0.082246
0.080873 0.101869 0.096254
0.092470 0.116335 0.111147
0.107698 0.132357 0.127840
0.123690 0.149538 0.145663
0.140871 0.168551 0.165316
0.159792 0.188266 0.185458
0.181430 0.209201 0.206455
0.204562 0.231632 0.228550
0.229648 0.256016 0.252140
0.257389 0.281682 0.277562
0.288365 0.308904 0.305150
0.321019 0.336645 0.332891
0.355596 0.365148 0.360937
0.387945 0.394507 0.387213
0.418280 0.424659 0.411902
0.449714 0.455360 0.437354
0.482002 0.486427 0.463294
0.516625 0.517266 0.490364
0.552728 0.547784 0.518090
0.583948 0.579004 0.544274
0.612299 0.610620 0.569574
0.639094 0.639521 0.591028
0.665156 0.667048 0.610468
0.691859 0.691249 0.629908
0.718807 0.713832 0.649256
0.743465 0.736690 0.669184
0.767208 0.759609 0.689265
0.785000 0.778927 0.706905
0.800900 0.797086 0.723781
0.817014 0.810788 0.736934
0.833158 0.823362 0.749111
0.847990 0.835813 0.761288
0.862638 0.848295 0.773526
0.873655 0.858549 0.785550
0.884092 0.868437 0.797543
0.893095 0.876463 0.807736
0.901976 0.884276 0.817746
0.910338 0.891325 0.825864
0.918669 0.898283 0.833799
0.925750 0.904570 0.840970
0.932769 0.910857 0.848142
0.938415 0.916075 0.855222
0.944030 0.921263 0.862333
0.949248 0.926146 0.868864
0.954437 0.930999 0.875303
0.959258 0.935393 0.880247
0.964080 0.939788 0.885161
0.968383 0.943755 0.889616
0.972717 0.947753 0.894072
0.001282 0.001221 0.001160
0.006104 0.005737 0.005554
0.010956 0.010254 0.009949
0.015595 0.014618 0.014191
0.020050 0.018982 0.018433
0.024079 0.023407 0.022705
0.028077 0.027924 0.027039
0.032105 0.032624 0.031495
0.036347 0.037659 0.036225
0.041291 0.043702 0.041657
0.046357 0.050172 0.047395
0.051698 0.057832 0.054139
0.057374 0.066346 0.061707
0.063752 0.076905 0.071351
0.071260 0.088411 0.082429
0.080995 0.102022 0.096407
0.092622 0.116487 0.111299
0.107851 0.132509 0.128023
0.123812 0.149691 0.145815
0.140993 0.168704 0.165469
0.160006 0.188479 0.185641
0.181643 0.209415 0.206638
0.204746 0.231815 0.228733
0.229770 0.256168 0.252262
0.257572 0.281834 0.277714
0.288548 0.309026 0.305303
0.321294 0.336858 0.333104
0.355871 0.365362 0.361151
0.388128 0.394690 0.387366
0.418463 0.424811 0.412055
0.449897 0.455543 0.437507
0.482185 0.486610 0.463447
0.516838 0.517449 0.490517
0.552941 0.547967 0.518273
0.584070 0.579126 0.544396
0.612451 0.610773 0.569726
0.639277 0.639673 0.591150
0.665278 0.667201 0.610590
0.691981 0.691310 0.629969
0.718959 0.713985 0.649378
0.743557 0.736782 0.669245
0.767300 0.759701 0.689357
0.785061 0.778988 0.706966
0.800961 0.797147 0.723842
0.817044 0.810819 0.736934
0.833219 0.823423 0.749142
0.848081 0.835874 0.761349
0.862699 0.848356 0.773587
0.873655 0.858549 0.785580
0.884154 0.868467 0.797574
0.893156 0.876493 0.807767
0.902007 0.884306 0.817746
0.910369 0.891356 0.825864
0.918730 0.898314 0.833860
0.925750 0.904601 0.841001
0.932769 0.910857 0.848142
0.938415 0.916075 0.855253
0.944060 0.921294 0.862333
0.949279 0.926177 0.868894
0.954467 0.931029 0.875303
0.959319 0.935393 0.880247
0.964080 0.939788 0.885161
0.968414 0.943786 0.889647
0.972717 0.947753 0.894072
0.001709 0.001587 0.001526
0.006500 0.006073 0.005890
0.011322 0.010620 0.010285
0.015900 0.014893 0.014466
0.020294 0.019257 0.018708
0.024231 0.023590 0.022858
0.028229 0.028107 0.027192
0.032227 0.032776 0.031647
0.036530 0.037873 0.036378
0.041413 0.043854 0.041749
0.046448 0.050355 0.047578
0.051820 0.057984 0.054261
0.057465 0.066560 0.061891
0.063905 0.077119 0.071595
0.071443 0.088716 0.082704
0.081147 0.102266 0.096590
0.092866 0.116732 0.111574
0.108095 0.132753 0.128267
0.124025 0.149966 0.146090
0.141207 0.168917 0.165713
0.160250 0.188724 0.185916
0.181857 0.209628 0.206851
0.204990 0.232059 0.228946
0.230014 0.256382 0.252506
0.257877 0.282078 0.277989
0.288853 0.309300 0.305577
0.321569 0.337072 0.333349
0.356115 0.365576 0.361364
0.388434 0.394965 0.387610
0.418708 0.425055 0.412238
0.450172 0.455787 0.437690
0.482429 0.486854 0.463661
0.517052 0.517601 0.490700
0.553124 0.548150 0.518425
0.584222 0.579309 0.544549
0.612634 0.610956 0.569879
0.639399 0.639826 0.591241
0.665400 0.667323 0.610651
0.692073 0.691402 0.630030
0.719081 0.714046 0.649470
0.743679 0.736934 0.669368
0.767422 0.759792 0.689418
0.785122 0.779049 0.707027
0.801022 0.797238 0.723903
0.817136 0.810880 0.737026
0.833280 0.823453 0.749203
0.848142 0.835935 0.761379
0.862760 0.848386 0.773617
0.873716 0.858610 0.785641
0.884184 0.868498 0.797604
0.893187 0.876524 0.807797
0.902007 0.884337 0.817777
0.910399 0.891356 0.825895
0.918730 0.898344 0.833860
0.925780 0.904631 0.841001
0.932769 0.910857 0.848173
0.938445 0.916106 0.855283
0.944091 0.921294 0.862394
0.949279 0.926177 0.868925
0.954498 0.931029 0.875334
0.959319 0.935424 0.880278
0.964111 0.939788 0.885191
0.968414 0.943786 0.889647
0.972717 0.947753 0.894072
0.002106 0.001953 0.001923
0.006867 0.006470 0.006256
0.011719 0.010986 0.010681
0.016266 0.015259 0.014832
0.020569 0.019501 0.018952
0.024475 0.023865 0.023133
0.028382 0.028290 0.027375
0.032380 0.032959 0.031800
0.036652 0.038056 0.036561
0.041566 0.044038 0.041932
0.046601 0.050538 0.047730
0.051942 0.058198 0.054444
0.057618 0.066743 0.062074
0.064027 0.077333 0.071778
0.071626 0.088960 0.082948
0.081331 0.102510 0.096895
0.093111 0.116976 0.111818
0.108309 0.133028 0.128511
0.124269 0.150179 0.146334
0.141451 0.169162 0.165957
0.160494 0.188968 0.186130
0.182101 0.209873 0.207065
0.205234 0.232303 0.229191
0.230259 0.256626 0.252720
0.258183 0.282353 0.278264
0.289158 0.309575 0.305852
0.321904 0.337346 0.333593
0.356481 0.365850 0.361639
0.388647 0.395178 0.387793
0.418921 0.425299 0.412451
0.450355 0.455940 0.437842
0.482612 0.487037 0.463783
0.517235 0.517784 0.490852
0.553338 0.548333 0.518578
0.584436 0.579522 0.544732
0.612787 0.611139 0.570031
0.639551 0.639979 0.591363
0.665522 0.667475 0.610773
0.692256 0.691554 0.630152
0.719173 0.714137 0.649531
0.743771 0.737026 0.669459
0.767544 0.759915 0.689540
0.785214 0.779141 0.707149
0.801083 0.797299 0.723964
0.817197 0.810910 0.737057
0.833341 0.823484 0.749264
0.848203 0.835966 0.761440
0.862791 0.848447 0.773648
0.873747 0.858640 0.785672
0.884215 0.868528 0.797665
0.893217 0.876524 0.807828
0.902037 0.884367 0.817807
0.910430 0.891356 0.825895
0.918761 0.898375 0.833890
0.925811 0.904631 0.841062
0.932799 0.910918 0.848173
0.938476 0.916106 0.855314
0.944091 0.921324 0.862394
0.949310 0.926207 0.868925
0.954498 0.931029 0.875334
0.959319 0.935454 0.880278
0.964141 0.939818 0.885191
0.968444 0.943786 0.889647
0.972717 0.947753 0.894072
0.002625 0.002441 0.002380
0.007294 0.006836 0.006622
0.012146 0.011383 0.011048
0.016602 0.015564 0.015106
0.020813 0.019806 0.019226
0.024689 0.024079 0.023377
0.028595 0.028504 0.027588
0.032532 0.033143 0.031983
0.036835 0.038270 0.036744
0.041749 0.044221 0.042115
0.046784 0.050782 0.047944
0.052094 0.058381 0.054597
0.057801 0.067018 0.062348
0.064179 0.077577 0.071992
0.071809 0.089235 0.083253
0.081514 0.102754 0.097139
0.093385 0.117281 0.112154
0.108553 0.133272 0.128756
0.124575 0.150546 0.146700
0.141726 0.169467 0.166262
0.160830 0.189273 0.186465
0.182406 0.210147 0.207370
0.205570 0.232639 0.229496
0.230594 0.256931 0.253025
0.258610 0.282719 0.278599
0.289525 0.309880 0.306188
0.322301 0.337682 0.333928
0.356817 0.366125 0.361913
0.388922 0.395483 0.388006
0.419196 0.425574 0.412665
0.450660 0.456245 0.438087
0.482948 0.487312 0.464027
0.517601 0.518090 0.491127
0.553643 0.548577 0.518791
0.584649 0.579767 0.544915
0.613001 0.611383 0.570214
0.639765 0.640223 0.591516
0.665736 0.667659 0.610895
0.692378 0.691646 0.630274
0.719387 0.714321 0.649683
0.743954 0.737179 0.669612
0.767697 0.760067 0.689631
0.785306 0.779263 0.707240
0.801175 0.797421 0.724056
0.817288 0.811002 0.737118
0.833433 0.823575 0.749325
0.848264 0.836027 0.761501
0.862852 0.848478 0.773709
0.873808 0.858701 0.785702
0.884245 0.868589 0.797696
0.893248 0.876585 0.807889
0.902129 0.884398 0.817899
0.910460 0.891417 0.825956
0.918791 0.898405 0.833951
0.925841 0.904692 0.841062
0.932830 0.910918 0.848234
0.938476 0.916136 0.855314
0.944121 0.921355 0.862425
0.949340 0.926238 0.868986
0.954498 0.931060 0.875364
0.959350 0.935454 0.880278
0.964141 0.939849 0.885222
0.968444 0.943786 0.889647
0.972717 0.947753 0.894072
0.003113 0.002930 0.002838
0.007782 0.007324 0.007080
0.012543 0.011749 0.011383
0.016999 0.015930 0.015442
0.021057 0.020081 0.019501
0.024933 0.024384 0.023651
0.028809 0.028779 0.027832
0.032746 0.033387 0.032227
0.037049 0.038544 0.036957
0.041932 0.044465 0.042329
0.046937 0.051026 0.048157
0.052247 0.058625 0.054810
0.057954 0.067323 0.062593
0.064332 0.077821 0.072236
0.072053 0.089570 0.083558
0.081727 0.103090 0.097475
0.093690 0.117586 0.112459
0.108858 0.133577 0.129091
0.124849 0.150820 0.146975
0.142000 0.169802 0.166629
0.161166 0.189609 0.186801
0.182773 0.210483 0.207736
0.205905 0.232944 0.229801
0.230869 0.257237 0.253300
0.258946 0.283024 0.278935
0.289860 0.310216 0.306493
0.322637 0.337987 0.334203
0.357214 0.366461 0.362219
0.389227 0.395758 0.388281
0.419501 0.425849 0.412909
0.450965 0.456550 0.438361
0.483253 0.487617 0.464271
0.517967 0.518364 0.491402
0.553979 0.548852 0.519036
0.584863 0.580011 0.545098
0.613214 0.611658 0.570397
0.639887 0.640375 0.591638
0.665888 0.667842 0.611017
0.692561 0.691798 0.630396
0.719600 0.714504 0.649836
0.744137 0.737362 0.669734
0.767849 0.760220 0.689815
0.785397 0.779355 0.707332
0.801266 0.797513 0.724178
0.817350 0.811063 0.737179
0.833494 0.823636 0.749355
0.848325 0.836088 0.761563
0.862943 0.848569 0.773770
0.873869 0.858762 0.785794
0.884306 0.868620 0.797757
0.893309 0.876616 0.807919
0.902129 0.884459 0.817929
0.910491 0.891447 0.825986
0.918822 0.898405 0.833951
0.925841 0.904692 0.841093
0.932860 0.910948 0.848264
0.938506 0.916167 0.855375
0.944121 0.921355 0.862425
0.949340 0.926238 0.868986
0.954528 0.931060 0.875395
0.959350 0.935485 0.880339
0.964141 0.939849 0.885252
0.968444 0.943786 0.889647
0.972717 0.947753 0.894072
0.003693 0.003479 0.003357
0.008392 0.007874 0.007599
0.013123 0.012299 0.011933
0.017395 0.016297 0.015839
0.021393 0.020447 0.019867
0.025208 0.024659 0.023926
0.029084 0.029084 0.028138
0.032959 0.033661 0.032471
0.037293 0.038849 0.037263
0.042115 0.044678 0.042542
0.047150 0.051301 0.048432
0.052430 0.058869 0.055024
0.058167 0.067659 0.062898
0.064515 0.078096 0.072450
0.072297 0.089937 0.083955
0.081971 0.103395 0.097810
0.094057 0.118013 0.112886
0.109163 0.133913 0.129458
0.125185 0.151247 0.147402
0.142336 0.170169 0.166995
0.161532 0.189975 0.187137
0.183108 0.210849 0.208042
0.206332 0.233371 0.230198
0.231205 0.257542 0.253635
0.259373 0.283421 0.279301
0.290288 0.310552 0.306859
0.323095 0.338354 0.334569
0.357610 0.366796 0.362554
0.389654 0.396185 0.388586
0.419837 0.426215 0.413184
0.451270 0.456855 0.438605
0.483589 0.487922 0.464546
0.518212 0.518608 0.491615
0.554253 0.549096 0.519249
0.585077 0.580285 0.545312
0.613489 0.611933 0.570672
0.640162 0.640620 0.591791
0.666133 0.668116 0.611200
0.692805 0.692012 0.630549
0.719783 0.714687 0.649989
0.744259 0.737484 0.669856
0.768063 0.760403 0.689967
0.785519 0.779507 0.707454
0.801389 0.797665 0.724300
0.817472 0.811154 0.737270
0.833616 0.823728 0.749447
0.848447 0.836210 0.761654
0.863005 0.848661 0.773831
0.873899 0.858793 0.785855
0.884367 0.868681 0.797818
0.893339 0.876646 0.807950
0.902190 0.884489 0.817960
0.910552 0.891508 0.826047
0.918883 0.898466 0.834012
0.925902 0.904723 0.841154
0.932891 0.910979 0.848264
0.938537 0.916197 0.855406
0.944152 0.921386 0.862486
0.949401 0.926268 0.869017
0.954528 0.931090 0.875395
0.959350 0.935485 0.880339
0.964172 0.939879 0.885283
0.968444 0.943786 0.889677
0.972717 0.947753 0.894072
0.004273 0.004028 0.003906
0.008972 0.008392 0.008148
0.013764 0.012879 0.012482
0.017975 0.016846 0.016358
0.021729 0.020813 0.020203
0.025513 0.025025 0.024262
0.029328 0.029389 0.028412
0.033234 0.033936 0.032746
0.037568 0.039155 0.037537
0.042390 0.045014 0.042817
0.047395 0.051637 0.048707
0.052644 0.059174 0.055268
0.058381 0.068025 0.063233
0.064729 0.078462 0.072786
0.072572 0.090272 0.084291
0.082216 0.103761 0.098177
0.094453 0.118410 0.113283
0.109529 0.134310 0.129885
0.125551 0.151614 0.147829
0.142672 0.170535 0.167361
0.161959 0.190372 0.187564
0.183474 0.211185 0.208408
0.206729 0.233738 0.230564
0.231632 0.258000 0.254032
0.259800 0.283757 0.279698
0.290715 0.310948 0.307225
0.323552 0.338720 0.334936
0.358068 0.367163 0.362921
0.389990 0.396521 0.388861
0.420203 0.426551 0.413489
0.451606 0.457130 0.438849
0.483864 0.488228 0.464790
0.518639 0.518975 0.491920
0.554650 0.549432 0.519585
0.585351 0.580560 0.545556
0.613794 0.612238 0.570916
0.640406 0.640894 0.591974
0.666377 0.668360 0.611414
0.693050 0.692226 0.630762
0.719997 0.714839 0.650141
0.744472 0.737667 0.670039
0.768185 0.760525 0.690089
0.785611 0.779629 0.707576
0.801511 0.797787 0.724422
0.817594 0.811246 0.737362
0.833738 0.823819 0.749569
0.848508 0.836271 0.761715
0.863127 0.848722 0.773953
0.873991 0.858885 0.785946
0.884428 0.868742 0.797910
0.893370 0.876707 0.808011
0.902251 0.884550 0.818051
0.910582 0.891539 0.826078
0.918944 0.898497 0.834073
0.925933 0.904753 0.841184
0.932891 0.911009 0.848325
0.938567 0.916228 0.855436
0.944182 0.921416 0.862516
0.949401 0.926299 0.869047
0.954589 0.931121 0.875425
0.959380 0.935515 0.880339
0.964202 0.939879 0.885283
0.968475 0.943816 0.889677
0.972717 0.947753 0.894072
0.005005 0.004700 0.004547
0.009583 0.008972 0.008728
0.014343 0.013428 0.013062
0.018463 0.017304 0.016785
0.022126 0.021271 0.020630
0.025818 0.025360 0.024567
0.029603 0.029694 0.028717
0.033448 0.034211 0.032990
0.037842 0.039490 0.037842
0.042603 0.045289 0.043091
0.047608 0.051972 0.049012
0.052857 0.059449 0.055543
0.058625 0.068421 0.063600
0.064942 0.078828 0.073121
0.072877 0.090730 0.084779
0.082490 0.104128 0.098543
0.094850 0.118837 0.113741
0.109895 0.134707 0.130251
0.126009 0.152102 0.148318
0.143038 0.170932 0.167788
0.162387 0.190799 0.187991
0.183902 0.211612 0.208804
0.207248 0.234257 0.231083
0.232151 0.258457 0.254490
0.260380 0.284306 0.280186
0.291203 0.311345 0.307652
0.324071 0.339147 0.335363
0.358526 0.367559 0.363317
0.390387 0.396918 0.389197
0.420661 0.427039 0.413855
0.452094 0.457618 0.439216
0.484321 0.488624 0.465126
0.519127 0.519371 0.492287
0.555077 0.549798 0.519921
0.585687 0.580957 0.545861
0.614038 0.612543 0.571160
0.640650 0.641169 0.592187
0.666621 0.668635 0.611566
0.693324 0.692439 0.630945
0.720241 0.715053 0.650294
0.744625 0.737850 0.670192
0.768368 0.760708 0.690242
0.785763 0.779782 0.707729
0.801633 0.797910 0.724544
0.817716 0.811337 0.737453
0.833890 0.823911 0.749660
0.848631 0.836362 0.761807
0.863249 0.848814 0.774044
0.874052 0.858946 0.786007
0.884489 0.868803 0.798001
