LUTs/SPK Cube Block1 S64/TheBrim_SPK_Type-E_Block 1_S64.cube
TITLE "TheBrim® Industrial Imaging Burau"
# © Copyright 2022 - TheBrim® d.o.o. Croatia
LUT_3D_SIZE 64
0.0077821012 0.0134279393 0.0119020371
0.0099794003 0.0155031662 0.0136110475
0.0144045167 0.0179751278 0.0158083467
0.0182497902 0.0203860533 0.0177309834
0.0246890974 0.0231021592 0.0194705119
0.0313725490 0.0246890974 0.0199893187
0.0378423743 0.0261539635 0.0203860533
0.0461127642 0.0268253605 0.0198062104
0.0544441901 0.0275883116 0.0195010300
0.0621042191 0.0291142138 0.0202334630
0.0704661631 0.0306706340 0.0207217517
0.0792248417 0.0322270542 0.0207522698
0.0884412909 0.0337224384 0.0208438239
0.0969863432 0.0347600519 0.0209658961
0.1083695735 0.0363469902 0.0206301976
0.1218585489 0.0379644465 0.0198062104
0.1365377279 0.0385442893 0.0188601511
0.1590905623 0.0376592660 0.0165407797
0.1786831464 0.0368352789 0.0145876249
0.1981231403 0.0349736782 0.0122377356
0.2174715801 0.0318608377 0.0097352560
0.2423743038 0.0271000229 0.0057679103
0.2676432441 0.0199282826 0.0018005646
0.2993820096 0.0072632944 0.0000000000
0.3249866484 0.0000000000 0.0000000000
0.3411917296 0.0000000000 0.0000000000
0.3571526665 0.0000000000 0.0000000000
0.3735103380 0.0000000000 0.0000000000
0.3873655299 0.0000000000 0.0000000000
0.4002441444 0.0000000000 0.0000000000
0.4140993362 0.0000000000 0.0000000000
0.4304875257 0.0000000000 0.0000000000
0.4469062333 0.0000000000 0.0000000000
0.4634164950 0.0000000000 0.0000000000
0.4791638056 0.0000000000 0.0000000000
0.4946059358 0.0000000000 0.0000000000
0.5105821317 0.0000000000 0.0000000000
0.5230029755 0.0000000000 0.0000000000
0.5335622187 0.0000000000 0.0000000000
0.5436331731 0.0000000000 0.0000000000
0.5535820554 0.0000000000 0.0000000000
0.5639276722 0.0000000000 0.0000000000
0.5747615778 0.0000000000 0.0000000000
0.5865110246 0.0000000000 0.0000000000
0.5976195926 0.0000000000 0.0000000000
0.6085755703 0.0000000000 0.0000000000
0.6165407797 0.0000000000 0.0000000000
0.6236514839 0.0000000000 0.0000000000
0.6295414664 0.0000000000 0.0000000000
0.6343633173 0.0000000000 0.0000000000
0.6369573510 0.0000000000 0.0000000000
0.6390020600 0.0000000000 0.0000000000
0.6407415885 0.0000000000 0.0000000000
0.6424505989 0.0000000000 0.0000000000
0.6437628748 0.0000000000 0.0000000000
0.6446784161 0.0000000000 0.0000000000
0.6455024033 0.0000000000 0.0000000000
0.6462958724 0.0000000000 0.0000000000
0.6462043183 0.0000000000 0.0000000000
0.6460212100 0.0000000000 0.0000000000
0.6461432822 0.0000000000 0.0000000000
0.6462653544 0.0000000000 0.0000000000
0.6481269551 0.0000000000 0.0000000000
0.6502021820 0.0000000000 0.0000000000
0.0094605936 0.0199893187 0.0162355993
0.0105287251 0.0191348135 0.0151369497
0.0158388647 0.0231326772 0.0184328985
0.0187380789 0.0236820020 0.0182803082
0.0251468681 0.0262760357 0.0198977646
0.0322575723 0.0267948425 0.0189211872
0.0387579156 0.0281986725 0.0193179217
0.0470283055 0.0285954070 0.0186160067
0.0555733577 0.0294804303 0.0182497902
0.0631113146 0.0303959716 0.0187075608
0.0716868849 0.0318913558 0.0191348135
0.0818188754 0.0330205234 0.0188601511
0.0909742885 0.0345464256 0.0190737774
0.0996414130 0.0356145571 0.0194094759
0.1117570764 0.0372625315 0.0189517052
0.1267109178 0.0386968795 0.0178530556
0.1429770352 0.0388799878 0.0165712978
0.1648584726 0.0375371939 0.0137636378
0.1834134432 0.0369878691 0.0121766995
0.2008392462 0.0363469902 0.0108339055
0.2203402762 0.0331120775 0.0083009079
0.2454566262 0.0280460822 0.0039673457
0.2692301823 0.0223392081 0.0005798428
0.2969405661 0.0132143130 0.0000000000
0.3230334936 0.0037232013 0.0000000000
0.3399099718 0.0000000000 0.0000000000
0.3558403906 0.0000000000 0.0000000000
0.3716792554 0.0000000000 0.0000000000
0.3859616999 0.0000000000 0.0000000000
0.3996643015 0.0000000000 0.0000000000
0.4137941558 0.0000000000 0.0000000000
0.4307011521 0.0000000000 0.0000000000
0.4469672694 0.0000000000 0.0000000000
0.4632333867 0.0000000000 0.0000000000
0.4790112154 0.0000000000 0.0000000000
0.4943617914 0.0000000000 0.0000000000
0.5102464332 0.0000000000 0.0000000000
0.5228198672 0.0000000000 0.0000000000
0.5336537728 0.0000000000 0.0000000000
0.5439383536 0.0000000000 0.0000000000
0.5535820554 0.0000000000 0.0000000000
0.5637750820 0.0000000000 0.0000000000
0.5748226139 0.0000000000 0.0000000000
0.5866330968 0.0000000000 0.0000000000
0.5975890745 0.0000000000 0.0000000000
0.6084534981 0.0000000000 0.0000000000
0.6164492256 0.0000000000 0.0000000000
0.6235904479 0.0000000000 0.0000000000
0.6295109483 0.0000000000 0.0000000000
0.6343327993 0.0000000000 0.0000000000
0.6369878691 0.0000000000 0.0000000000
0.6390936141 0.0000000000 0.0000000000
0.6407415885 0.0000000000 0.0000000000
0.6424505989 0.0000000000 0.0000000000
0.6437628748 0.0000000000 0.0000000000
0.6447089342 0.0000000000 0.0000000000
0.6454413672 0.0000000000 0.0000000000
0.6462348363 0.0000000000 0.0000000000
0.6461432822 0.0000000000 0.0000000000
0.6459601740 0.0000000000 0.0000000000
0.6461432822 0.0000000000 0.0000000000
0.6462653544 0.0000000000 0.0000000000
0.6500801099 0.0000000000 0.0000000000
0.6523079271 0.0000000000 0.0000000000
0.0126039521 0.0296025025 0.0235294118
0.0148622873 0.0289311055 0.0222171359
0.0171511406 0.0281986725 0.0209964141
0.0202334630 0.0287174792 0.0207827878
0.0256961929 0.0294499123 0.0203555352
0.0329594873 0.0299687190 0.0193179217
0.0397039750 0.0303349355 0.0183108263
0.0478217746 0.0306706340 0.0176089113
0.0563363088 0.0312199588 0.0170595865
0.0641794461 0.0322575723 0.0174563210
0.0727244984 0.0331731136 0.0176394293
0.0831006332 0.0342107271 0.0173952850
0.0936293584 0.0353398947 0.0173037308
0.1026932174 0.0365300984 0.0176394293
0.1147783627 0.0382085908 0.0173037308
0.1301289387 0.0396429389 0.0161745632
0.1490196078 0.0394903487 0.0144960708
0.1701686122 0.0380254826 0.0116273747
0.1890897993 0.0366216526 0.0093385214
0.2053253986 0.0364385443 0.0084840162
0.2231479362 0.0345159075 0.0070191501
0.2482032502 0.0292973220 0.0025635157
0.2725566491 0.0233157855 0.0000000000
0.2984054322 0.0161135271 0.0000000000
0.3212329290 0.0099488823 0.0000000000
0.3386587320 0.0051575494 0.0000000000
0.3549553674 0.0000000000 0.0000000000
0.3709773404 0.0000000000 0.0000000000
0.3844968338 0.0000000000 0.0000000000
0.3981689174 0.0000000000 0.0000000000
0.4131837949 0.0000000000 0.0000000000
0.4303349355 0.0000000000 0.0000000000
0.4470893416 0.0000000000 0.0000000000
0.4632944228 0.0000000000 0.0000000000
0.4787975891 0.0000000000 0.0000000000
0.4941481651 0.0000000000 0.0000000000
0.5100022889 0.0000000000 0.0000000000
0.5226062409 0.0000000000 0.0000000000
0.5335317006 0.0000000000 0.0000000000
0.5440604257 0.0000000000 0.0000000000
0.5538872358 0.0000000000 0.0000000000
0.5637445640 0.0000000000 0.0000000000
0.5746089876 0.0000000000 0.0000000000
0.5867246509 0.0000000000 0.0000000000
0.5976806287 0.0000000000 0.0000000000
0.6083314260 0.0000000000 0.0000000000
0.6163881895 0.0000000000 0.0000000000
0.6235294118 0.0000000000 0.0000000000
0.6295109483 0.0000000000 0.0000000000
0.6343022812 0.0000000000 0.0000000000
0.6369878691 0.0000000000 0.0000000000
0.6391546502 0.0000000000 0.0000000000
0.6408026246 0.0000000000 0.0000000000
0.6424200809 0.0000000000 0.0000000000
0.6437323568 0.0000000000 0.0000000000
0.6447089342 0.0000000000 0.0000000000
0.6454413672 0.0000000000 0.0000000000
0.6462043183 0.0000000000 0.0000000000
0.6460822461 0.0000000000 0.0000000000
0.6459296559 0.0000000000 0.0000000000
0.6461432822 0.0000000000 0.0000000000
0.6462958724 0.0000000000 0.0000000000
0.6501716640 0.0000000000 0.0000000000
0.6544441901 0.0000000000 0.0000000000
0.0137941558 0.0365606165 0.0257877470
0.0162050813 0.0353093767 0.0242923629
0.0185244526 0.0340276188 0.0230106050
0.0209964141 0.0331731136 0.0218509194
0.0274357214 0.0341496910 0.0214236667
0.0333562219 0.0342717632 0.0206301976
0.0404058900 0.0345464256 0.0195925841
0.0480964370 0.0342717632 0.0186770428
0.0566720073 0.0345159075 0.0180361639
0.0648203250 0.0352788586 0.0178835737
0.0733958953 0.0362859541 0.0180056458
0.0832837415 0.0366521706 0.0173037308
0.0936293584 0.0375982300 0.0172121767
0.1049820706 0.0386358434 0.0170595865
0.1169756619 0.0400701915 0.0165102617
0.1333638514 0.0409552148 0.0141908904
0.1518883040 0.0411688411 0.0129091325
0.1703212024 0.0410467689 0.0116578927
0.1900358587 0.0395819028 0.0090638590
0.2072785534 0.0385748074 0.0075074388
0.2252536812 0.0370183871 0.0059510185
0.2490882734 0.0320744640 0.0015869383
0.2716105898 0.0276493477 0.0000000000
0.2932173648 0.0233768215 0.0000000000
0.3174486915 0.0166933700 0.0000000000
0.3367055772 0.0108033875 0.0000000000
0.3526665141 0.0057679103 0.0000000000
0.3679255360 0.0000000000 0.0000000000
0.3826047150 0.0000000000 0.0000000000
0.3963683528 0.0000000000 0.0000000000
0.4112916762 0.0000000000 0.0000000000
0.4294804303 0.0000000000 0.0000000000
0.4466010529 0.0000000000 0.0000000000
0.4630807965 0.0000000000 0.0000000000
0.4786144808 0.0000000000 0.0000000000
0.4939650568 0.0000000000 0.0000000000
0.5095750362 0.0000000000 0.0000000000
0.5223315785 0.0000000000 0.0000000000
0.5335622187 0.0000000000 0.0000000000
0.5443961242 0.0000000000 0.0000000000
0.5539787900 0.0000000000 0.0000000000
0.5636835279 0.0000000000 0.0000000000
0.5744869154 0.0000000000 0.0000000000
0.5866025788 0.0000000000 0.0000000000
0.5977111467 0.0000000000 0.0000000000
0.6084534981 0.0000000000 0.0000000000
0.6162661173 0.0000000000 0.0000000000
0.6234073396 0.0000000000 0.0000000000
0.6294804303 0.0000000000 0.0000000000
0.6343327993 0.0000000000 0.0000000000
0.6370183871 0.0000000000 0.0000000000
0.6391851682 0.0000000000 0.0000000000
0.6408636606 0.0000000000 0.0000000000
0.6424200809 0.0000000000 0.0000000000
0.6437628748 0.0000000000 0.0000000000
0.6447394522 0.0000000000 0.0000000000
0.6454413672 0.0000000000 0.0000000000
0.6461432822 0.0000000000 0.0000000000
0.6460517281 0.0000000000 0.0000000000
0.6459296559 0.0000000000 0.0000000000
0.6476081483 0.0000000000 0.0000000000
0.6479438468 0.0000000000 0.0000000000
0.6521858549 0.0000000000 0.0000000000
0.6565194171 0.0000000000 0.0000000000
0.0146486610 0.0438239109 0.0280766003
0.0173037308 0.0427557794 0.0266727703
0.0197146563 0.0413824674 0.0252689403
0.0238345922 0.0407110704 0.0240482185
0.0290226596 0.0402838178 0.0228274968
0.0353093767 0.0404364080 0.0220035096
0.0410162509 0.0404364080 0.0211795224
0.0489814603 0.0402838178 0.0202639811
0.0572823682 0.0401617456 0.0193789578
0.0655222400 0.0408331426 0.0191958495
0.0741283284 0.0413824674 0.0187991150
0.0841687648 0.0413824674 0.0179140917
0.0939650568 0.0412298772 0.0172732128
0.1050125887 0.0419012741 0.0171206226
0.1188067445 0.0429083696 0.0162050813
0.1353780423 0.0433356222 0.0135500114
0.1550011444 0.0429083696 0.0110780499
0.1727321279 0.0431830320 0.0102845808
0.1905851835 0.0429083696 0.0089723049
0.2083772030 0.0415960937 0.0072022583
0.2271152819 0.0395208667 0.0050659953
0.2502174411 0.0346684977 0.0007324331
0.2722819867 0.0309758145 0.0000000000
0.2917219806 0.0279850462 0.0000000000
0.3125352865 0.0240787366 0.0000000000
0.3332875563 0.0180361639 0.0000000000
0.3506523232 0.0116273747 0.0000000000
0.3655451286 0.0060425727 0.0000000000
0.3809262226 0.0001831083 0.0000000000
0.3945372702 0.0000000000 0.0000000000
0.4095216297 0.0000000000 0.0000000000
0.4269169146 0.0000000000 0.0000000000
0.4455024033 0.0000000000 0.0000000000
0.4624399176 0.0000000000 0.0000000000
0.4784618906 0.0000000000 0.0000000000
0.4936903944 0.0000000000 0.0000000000
0.5092698558 0.0000000000 0.0000000000
0.5220874342 0.0000000000 0.0000000000
0.5333485924 0.0000000000 0.0000000000
0.5444876783 0.0000000000 0.0000000000
0.5543144884 0.0000000000 0.0000000000
0.5638361181 0.0000000000 0.0000000000
0.5744869154 0.0000000000 0.0000000000
0.5864805066 0.0000000000 0.0000000000
0.5976501106 0.0000000000 0.0000000000
0.6084840162 0.0000000000 0.0000000000
0.6162661173 0.0000000000 0.0000000000
0.6232852674 0.0000000000 0.0000000000
0.6293888762 0.0000000000 0.0000000000
0.6343327993 0.0000000000 0.0000000000
0.6370489052 0.0000000000 0.0000000000
0.6392767224 0.0000000000 0.0000000000
0.6408941787 0.0000000000 0.0000000000
0.6424505989 0.0000000000 0.0000000000
0.6438544289 0.0000000000 0.0000000000
0.6448615244 0.0000000000 0.0000000000
0.6455329213 0.0000000000 0.0000000000
0.6462043183 0.0000000000 0.0000000000
0.6461432822 0.0000000000 0.0000000000
0.6460212100 0.0000000000 0.0000000000
0.6477912566 0.0000000000 0.0000000000
0.6496833753 0.0000000000 0.0000000000
0.6541084916 0.0000000000 0.0000000000
0.6588082704 0.0000000000 0.0000000000
0.0151369497 0.0496223392 0.0296635386
0.0176394293 0.0492561227 0.0288700694
0.0204165713 0.0480964370 0.0274967575
0.0248111696 0.0479438468 0.0269169146
0.0297550927 0.0473945220 0.0256961929
0.0359197375 0.0470283055 0.0247196155
0.0420538643 0.0471503777 0.0238956283
0.0492866407 0.0473640040 0.0228885328
0.0582589456 0.0473640040 0.0219119554
0.0663157092 0.0472419318 0.0209048600
0.0745860990 0.0477302205 0.0205691615
0.0843823911 0.0476386664 0.0195315480
0.0945143816 0.0476081483 0.0187075608
0.1051956970 0.0473334859 0.0176089113
0.1185626001 0.0481879911 0.0168459602
0.1336079957 0.0487678340 0.0150453956
0.1527733272 0.0488899062 0.0123598077
0.1711451896 0.0493171588 0.0112306401
0.1897917144 0.0491340505 0.0096437018
0.2102388037 0.0471198596 0.0062561990
0.2280003052 0.0453498131 0.0046997787
0.2468604562 0.0419928283 0.0020447089
0.2681925689 0.0376897841 0.0000000000
0.2865644312 0.0358892195 0.0000000000
0.3076523995 0.0317998016 0.0000000000
0.3292896925 0.0256961929 0.0000000000
0.3467154955 0.0196231022 0.0000000000
0.3613031205 0.0147707332 0.0000000000
0.3776607919 0.0087586786 0.0000000000
0.3928282597 0.0023498894 0.0000000000
0.4072022583 0.0000000000 0.0000000000
0.4235904479 0.0000000000 0.0000000000
0.4417181659 0.0000000000 0.0000000000
0.4585336080 0.0000000000 0.0000000000
0.4751964599 0.0000000000 0.0000000000
0.4917372396 0.0000000000 0.0000000000
0.5072251469 0.0000000000 0.0000000000
0.5211108568 0.0000000000 0.0000000000
0.5330128939 0.0000000000 0.0000000000
0.5445487144 0.0000000000 0.0000000000
0.5544670787 0.0000000000 0.0000000000
0.5641412985 0.0000000000 0.0000000000
0.5743038071 0.0000000000 0.0000000000
0.5860837720 0.0000000000 0.0000000000
0.5975890745 0.0000000000 0.0000000000
0.6087281605 0.0000000000 0.0000000000
0.6161440452 0.0000000000 0.0000000000
0.6230411231 0.0000000000 0.0000000000
0.6293278401 0.0000000000 0.0000000000
0.6343633173 0.0000000000 0.0000000000
0.6372014954 0.0000000000 0.0000000000
0.6394598306 0.0000000000 0.0000000000
0.6412909133 0.0000000000 0.0000000000
0.6428473335 0.0000000000 0.0000000000
0.6448004883 0.0000000000 0.0000000000
0.6458991379 0.0000000000 0.0000000000
0.6470893416 0.0000000000 0.0000000000
0.6477912566 0.0000000000 0.0000000000
0.6485542077 0.0000000000 0.0000000000
0.6485236896 0.0000000000 0.0000000000
0.6511177234 0.0000000000 0.0000000000
0.6532539864 0.0000000000 0.0000000000
0.6573434043 0.0000000000 0.0000000000
0.6621347372 0.0000000000 0.0000000000
0.0154116121 0.0567635615 0.0317082475
0.0179140917 0.0562752728 0.0308842603
0.0215152209 0.0556954299 0.0300297551
0.0264591440 0.0554207675 0.0292973220
0.0308537423 0.0551766232 0.0286869612
0.0367437247 0.0543221180 0.0276188296
0.0424505989 0.0537117571 0.0266117342
0.0502021820 0.0539864195 0.0255436027
0.0584725719 0.0542610819 0.0244449531
0.0670786603 0.0542000458 0.0232852674
0.0751964599 0.0540474556 0.0221560998
0.0848096437 0.0539559014 0.0210574502
0.0947890440 0.0538643473 0.0200808728
0.1056229496 0.0535591669 0.0187685969
0.1184710460 0.0534370947 0.0171816587
0.1328450446 0.0540169375 0.0155031662
0.1496910048 0.0545662623 0.0136110475
0.1690394446 0.0551461051 0.0121766995
0.1880216678 0.0551766232 0.0104371710
0.2095674067 0.0536507210 0.0065613794
0.2293736172 0.0509956512 0.0037232013
0.2472571908 0.0486152438 0.0016174563
0.2646829938 0.0458991379 0.0000000000
0.2814679179 0.0442511635 0.0000000000
0.3024948501 0.0414740215 0.0000000000
0.3246814679 0.0352483406 0.0000000000
0.3432364385 0.0300297551 0.0000000000
0.3577630274 0.0257572290 0.0000000000
0.3740291447 0.0197451743 0.0000000000
0.3911192493 0.0125429160 0.0000000000
0.4055542840 0.0045777066 0.0000000000
0.4211490043 0.0000000000 0.0000000000
0.4384527352 0.0000000000 0.0000000000
0.4556649119 0.0000000000 0.0000000000
0.4731212329 0.0000000000 0.0000000000
0.4896009766 0.0000000000 0.0000000000
0.5051499199 0.0000000000 0.0000000000
0.5202258335 0.0000000000 0.0000000000
0.5323109789 0.0000000000 0.0000000000
0.5443350881 0.0000000000 0.0000000000
0.5546196689 0.0000000000 0.0000000000
0.5644159609 0.0000000000 0.0000000000
0.5746089876 0.0000000000 0.0000000000
0.5859311818 0.0000000000 0.0000000000
0.5972838941 0.0000000000 0.0000000000
0.6086976425 0.0000000000 0.0000000000
0.6163881895 0.0000000000 0.0000000000
0.6231021592 0.0000000000 0.0000000000
0.6293583581 0.0000000000 0.0000000000
0.6345159075 0.0000000000 0.0000000000
0.6375371939 0.0000000000 0.0000000000
0.6400091554 0.0000000000 0.0000000000
0.6418707561 0.0000000000 0.0000000000
0.6435492485 0.0000000000 0.0000000000
0.6455634394 0.0000000000 0.0000000000
0.6472724498 0.0000000000 0.0000000000
0.6484321355 0.0000000000 0.0000000000
0.6496833753 0.0000000000 0.0000000000
0.6504158083 0.0000000000 0.0000000000
0.6512703136 0.0000000000 0.0000000000
0.6540169375 0.0000000000 0.0000000000
0.6569161517 0.0000000000 0.0000000000
0.6611886778 0.0000000000 0.0000000000
0.6653086137 0.0000000000 0.0000000000
0.0163576715 0.0632333867 0.0339055467
0.0187075608 0.0630502785 0.0332036316
0.0235904479 0.0626230259 0.0322880903
0.0276188296 0.0625009537 0.0316166934
0.0326848249 0.0623178454 0.0309147784
0.0373540856 0.0618600748 0.0300297551
0.0429388876 0.0610971237 0.0290226596
0.0495002670 0.0607309071 0.0277714199
0.0584725719 0.0611581598 0.0266117342
0.0670481422 0.0612191958 0.0253299763
0.0753490501 0.0609445335 0.0241092546
0.0849317159 0.0608224613 0.0225833524
0.0948500801 0.0604867628 0.0215152209
0.1054093233 0.0603646906 0.0205691615
0.1180132753 0.0603036545 0.0189822232
0.1320210575 0.0609140154 0.0176394293
0.1464255741 0.0613412680 0.0156252384
0.1669031815 0.0610055695 0.0125734340
0.1862821393 0.0612802319 0.0108644236
0.2062714580 0.0604562448 0.0080872816
0.2264133669 0.0591134508 0.0050049592
0.2436560616 0.0574349584 0.0031738766
0.2619363699 0.0547798886 0.0003051804
0.2795147631 0.0516060121 0.0000000000
0.2981307698 0.0494697490 0.0000000000
0.3183947509 0.0462043183 0.0000000000
0.3377126726 0.0409246967 0.0000000000
0.3539482719 0.0365606165 0.0000000000
0.3708552682 0.0308232242 0.0000000000
0.3902342260 0.0228274968 0.0000000000
0.4042114900 0.0169680323 0.0000000000
0.4181887541 0.0109864958 0.0000000000
0.4350347143 0.0013733120 0.0000000000
0.4539559014 0.0000000000 0.0000000000
0.4709239338 0.0000000000 0.0000000000
0.4873731594 0.0000000000 0.0000000000
0.5029221027 0.0000000000 0.0000000000
0.5185473411 0.0000000000 0.0000000000
0.5317616541 0.0000000000 0.0000000000
0.5433890288 0.0000000000 0.0000000000
0.5546196689 0.0000000000 0.0000000000
0.5648126955 0.0000000000 0.0000000000
0.5747615778 0.0000000000 0.0000000000
0.5857480735 0.0000000000 0.0000000000
0.5971007858 0.0000000000 0.0000000000
0.6085755703 0.0000000000 0.0000000000
0.6177004654 0.0000000000 0.0000000000
0.6248111696 0.0000000000 0.0000000000
0.6314641032 0.0000000000 0.0000000000
0.6368963149 0.0000000000 0.0000000000
0.6414129854 0.0000000000 0.0000000000
0.6439765011 0.0000000000 0.0000000000
0.6460822461 0.0000000000 0.0000000000
0.6478522927 0.0000000000 0.0000000000
0.6497749294 0.0000000000 0.0000000000
0.6516975662 0.0000000000 0.0000000000
0.6527351797 0.0000000000 0.0000000000
0.6538643473 0.0000000000 0.0000000000
0.6545967803 0.0000000000 0.0000000000
0.6553597314 0.0000000000 0.0000000000
0.6583810178 0.0000000000 0.0000000000
0.6614633402 0.0000000000 0.0000000000
0.6650644694 0.0000000000 0.0000000000
0.6690623331 0.0000000000 0.0000000000
0.0174258030 0.0695506218 0.0367132067
0.0214541848 0.0694590677 0.0355840391
0.0255436027 0.0693064775 0.0345769436
0.0295414664 0.0690928511 0.0338750286
0.0336919203 0.0690318151 0.0332036316
0.0390630961 0.0686961166 0.0322575723
0.0435797665 0.0683299001 0.0314030671
0.0501411460 0.0679331655 0.0301518273
0.0578622110 0.0678110933 0.0289005875
0.0672617685 0.0681162737 0.0275272755
0.0755626764 0.0681773098 0.0262149996
0.0849622339 0.0681467918 0.0246585794
0.0952468147 0.0680552377 0.0231937133
0.1058365759 0.0681162737 0.0222476539
0.1183184558 0.0681162737 0.0210269322
0.1327534905 0.0683604181 0.0194705119
0.1463340200 0.0687876707 0.0179140917
0.1650110628 0.0687876707 0.0144960708
0.1852140078 0.0682993820 0.0114442664
0.2052643626 0.0677195392 0.0087891966
0.2243381399 0.0664988174 0.0062256809
0.2414587625 0.0656137942 0.0043030442
0.2591897459 0.0636911574 0.0017700465
0.2773174640 0.0604257267 0.0000000000
0.2951094835 0.0571908141 0.0000000000
0.3138475624 0.0543831540 0.0000000000
0.3315785458 0.0513923857 0.0000000000
0.3487602045 0.0472724498 0.0000000000
0.3667048142 0.0418707561 0.0000000000
0.3866941329 0.0340581369 0.0000000000
0.4033569848 0.0272220951 0.0000000000
0.4164797436 0.0231631952 0.0000000000
0.4317082475 0.0164797436 0.0000000000
0.4506599527 0.0046692607 0.0000000000
0.4690318151 0.0000000000 0.0000000000
0.4855420768 0.0000000000 0.0000000000
0.5008163577 0.0000000000 0.0000000000
0.5163500420 0.0000000000 0.0000000000
0.5318532082 0.0000000000 0.0000000000
0.5435416190 0.0000000000 0.0000000000
0.5550469215 0.0000000000 0.0000000000
0.5659723812 0.0000000000 0.0000000000
0.5763179980 0.0000000000 0.0000000000
0.5869077592 0.0000000000 0.0000000000
0.5979552911 0.0000000000 0.0000000000
0.6091248951 0.0000000000 0.0000000000
0.6194399939 0.0000000000 0.0000000000
0.6266727703 0.0000000000 0.0000000000
0.6339971008 0.0000000000 0.0000000000
0.6396734569 0.0000000000 0.0000000000
0.6448310063 0.0000000000 0.0000000000
0.6479133288 0.0000000000 0.0000000000
0.6501716640 0.0000000000 0.0000000000
0.6521858549 0.0000000000 0.0000000000
0.6540474556 0.0000000000 0.0000000000
0.6560616464 0.0000000000 0.0000000000
0.6573128862 0.0000000000 0.0000000000
0.6582284276 0.0000000000 0.0000000000
0.6589913787 0.0000000000 0.0000000000
0.6598153658 0.0000000000 0.0000000000
0.6628061341 0.0000000000 0.0000000000
0.6657969024 0.0000000000 0.0000000000
0.6692759594 0.0000000000 0.0000000000
0.6732433051 0.0000000000 0.0000000000
0.0185244526 0.0759594110 0.0394293126
0.0221560998 0.0758373388 0.0384222171
0.0261844816 0.0756542306 0.0373235676
0.0299076829 0.0752269780 0.0361943999
0.0339971008 0.0750133516 0.0351262684
0.0389715419 0.0747997253 0.0339971008
0.0444037537 0.0746166171 0.0331120775
0.0505989166 0.0747692073 0.0321049821
0.0581063554 0.0746166171 0.0308537423
0.0666819257 0.0749828336 0.0296330205
0.0759594110 0.0751659419 0.0281376364
0.0856946670 0.0755626764 0.0264591440
0.0959792477 0.0755931945 0.0249637598
0.1070572976 0.0760509651 0.0238040742
0.1192645151 0.0760814832 0.0226138705
0.1347981994 0.0759594110 0.0202639811
0.1486228733 0.0763256275 0.0187991150
0.1647058824 0.0767528801 0.0165712978
0.1840238041 0.0767833982 0.0132143130
0.2028839551 0.0766002899 0.0106813153
0.2232089723 0.0759899290 0.0072327764
0.2416113527 0.0737621118 0.0037842374
0.2589456016 0.0727244984 0.0015564202
0.2760051881 0.0705271992 0.0000000000
0.2929121843 0.0676279850 0.0000000000
0.3098191806 0.0650339513 0.0000000000
0.3278248264 0.0610971237 0.0000000000
0.3471122301 0.0566109712 0.0000000000
0.3638971542 0.0521553368 0.0000000000
0.3817502098 0.0468451972 0.0000000000
0.4007629511 0.0402532998 0.0000000000
0.4150453956 0.0345464256 0.0000000000
0.4301823453 0.0282597086 0.0000000000
0.4480048829 0.0183108263 0.0000000000
0.4659800107 0.0089723049 0.0000000000
0.4826428626 0.0022278172 0.0000000000
