LUTs/SPK Cube Block1 S64/TheBrim_SPK_Type-L_Block 1_S64.cube
TITLE "TheBrim® Industrial Imaging Burau"
# © Copyright 2022 - TheBrim® d.o.o. Croatia
LUT_3D_SIZE 8
0.0073548486 0.0089417868 0.0091554131
0.0354009308 0.0178225376 0.0149538415
0.1330891890 0.0237735561 0.0131227588
0.3099717708 0.0000000000 0.0000000000
0.4714427405 0.0000000000 0.0000000000
0.5912108034 0.0000000000 0.0000000000
0.6332341497 0.0000000000 0.0000000000
0.6421149004 0.0000000000 0.0000000000
0.0051270314 0.0559395743 0.0409246967
0.0346684977 0.0557259480 0.0322270542
0.1460593576 0.0602121004 0.0184939345
0.3165636683 0.0389105058 0.0000305180
0.4782482643 0.0000000000 0.0000000000
0.5992675669 0.0000000000 0.0000000000
0.6447394522 0.0000000000 0.0000000000
0.6613717861 0.0000000000 0.0000000000
0.0000000000 0.1362630655 0.0943312734
0.0000000000 0.1314717327 0.0778515297
0.1224994278 0.1391622797 0.0531319142
0.3167772946 0.1444113832 0.0160830091
0.5093003738 0.1191119249 0.0000000000
0.6476386664 0.0588082704 0.0000000000
0.7026626993 0.0000000000 0.0000000000
0.7069962615 0.0000000000 0.0000000000
0.0000000000 0.2812542916 0.2244602121
0.0000000000 0.2619058518 0.1864042115
0.0000000000 0.2616006714 0.1466086824
0.2908369574 0.2836957351 0.0874036774
0.5437247272 0.2877241169 0.0000000000
0.7171587701 0.2730449378 0.0000000000
0.7848783093 0.2410315099 0.0000000000
0.7914091707 0.2171053635 0.0000000000
0.0000000000 0.4321049821 0.3426565957
0.0000000000 0.4271305409 0.3235828183
0.0000000000 0.4319523919 0.2698100252
0.1950408179 0.4776989395 0.2133211261
0.5568780041 0.5003585870 0.1087052720
0.7821927214 0.4966811627 0.0000000000
0.8737773709 0.4753490501 0.0000000000
0.8891889830 0.4454718853 0.0000000000
0.0000000000 0.5037155718 0.3930418860
0.0000000000 0.5009994659 0.3859311818
0.0000000000 0.5236743725 0.3676203555
0.0000000000 0.6045166705 0.3380178531
0.5167467765 0.6856336309 0.2497291524
0.8090180819 0.7049210346 0.0699168383
0.9385671778 0.6970473793 0.0000000000
0.9689936675 0.6735790036 0.0000000000
0.0000000000 0.5351186389 0.3672846571
0.0000000000 0.5492484932 0.3657892729
0.0000000000 0.5918822004 0.3618829633
0.0748302434 0.6589608606 0.3422293431
0.5313344015 0.7345845731 0.2947737850
0.8039215686 0.7854581521 0.1874418250
0.9567559319 0.7995269703 0.0000000000
0.9992980850 0.7859769589 0.0000000000
0.0000000000 0.6074464027 0.3590447852
0.0000000000 0.6205691615 0.3550774395
0.0000000000 0.6524299992 0.3449149310
0.3885862516 0.7046768902 0.3212634470
0.6356450752 0.7557335775 0.2668802930
0.8291599908 0.7897001602 0.1688868544
0.9482108797 0.8071564813 0.0000000000
0.9999389639 0.8076447700 0.0000000000
0.0067750057 0.0211184863 0.0483710994
0.0278324559 0.0203860533 0.0434271763
0.1340047303 0.0213015946 0.0346990158
0.3171129931 0.0000000000 0.0140383001
0.4741283284 0.0000000000 0.0000000000
0.5950560769 0.0000000000 0.0000000000
0.6343633173 0.0000000000 0.0000000000
0.6431525139 0.0000000000 0.0000000000
0.0000000000 0.0579842832 0.0755016403
0.0233463035 0.0516670481 0.0556954299
0.1532921340 0.0557564660 0.0390936141
0.3224231327 0.0260318914 0.0167238880
0.4831311513 0.0000000000 0.0000000000
0.6008239872 0.0000000000 0.0000000000
0.6411078050 0.0000000000 0.0000000000
0.6630502785 0.0000000000 0.0000000000
0.0000000000 0.1500267033 0.1255512322
0.0000000000 0.1358968490 0.0966506447
0.1204547189 0.1389486534 0.0676890211
0.3222705425 0.1413290608 0.0292362860
0.5114366369 0.1088578622 0.0000000000
0.6484931716 0.0407721065 0.0000000000
0.6987563897 0.0000000000 0.0000000000
0.7077286946 0.0000000000 0.0000000000
0.0000000000 0.2790569924 0.2268711376
0.0000000000 0.2622415503 0.1884184024
0.0000000000 0.2602883955 0.1456321050
0.2980392157 0.2818341344 0.0840161746
0.5471427481 0.2835736629 0.0000000000
0.7161516747 0.2638284886 0.0000000000
0.7831387808 0.2343175402 0.0000000000
0.7891203174 0.2099641413 0.0000000000
0.0000000000 0.4317387655 0.3437857633
0.0000000000 0.4267338064 0.3233386740
0.0000000000 0.4315861753 0.2684061952
0.2016937514 0.4768749523 0.2118562600
0.5598077363 0.4979324025 0.1054703593
0.7839627680 0.4912794690 0.0000000000
0.8736247807 0.4712596323 0.0000000000
0.8858625162 0.4370489052 0.0000000000
0.0000000000 0.5036240177 0.3927977417
0.0000000000 0.5009994659 0.3855649653
0.0000000000 0.5238574807 0.3674677653
0.0000000000 0.6047302968 0.3376516365
0.5197680629 0.6851758602 0.2478065156
0.8119172961 0.7040360113 0.0642404822
0.9390554665 0.6950637064 0.0000000000
0.9677424277 0.6681162737 0.0000000000
0.0000000000 0.5379568170 0.3669794766
0.0000000000 0.5526054780 0.3656977188
0.0000000000 0.5953002213 0.3613641566
0.1154497597 0.6617074846 0.3408865492
0.5382009613 0.7360494392 0.2934004730
0.8083772030 0.7862211032 0.1844815747
0.9582207980 0.7995880064 0.0000000000
0.9995117113 0.7858548867 0.0000000000
0.0000000000 0.6128175784 0.3572442206
0.0000000000 0.6258793011 0.3535210193
0.0518806744 0.6573128862 0.3429007401
0.4046997787 0.7080949111 0.3186083772
0.6469367514 0.7580224308 0.2626688029
0.8349584192 0.7907072557 0.1646448463
0.9498588540 0.8072785534 0.0000000000
0.9985046159 0.8173800259 0.0000000000
0.0000000000 0.0228274968 0.1363546197
0.0144350347 0.0177920195 0.1314106966
0.1151750973 0.0177004654 0.1164263371
0.3000839246 0.0000000000 0.1028152895
0.4878309300 0.0000000000 0.0858777752
0.6076295109 0.0000000000 0.0692454414
0.6443427176 0.0000000000 0.0450751507
0.6534676127 0.0000000000 0.0429083696
0.0000000000 0.0545052262 0.1539635309
0.0031433585 0.0471503777 0.1393148699
0.1177386130 0.0505073625 0.1236591135
0.3087205310 0.0303349355 0.1052872511
0.4930189975 0.0000000000 0.0799877928
0.6115358206 0.0000000000 0.0612802319
0.6495307851 0.0000000000 0.0379949645
0.6729991608 0.0000000000 0.0389410239
0.0000000000 0.1520103761 0.2032806897
0.0000000000 0.1409628443 0.1792324712
0.0970473793 0.1437705043 0.1568627451
0.3128404669 0.1468833448 0.1279926757
0.5196459907 0.1173418784 0.0976577401
0.6610666056 0.0473945220 0.0716868849
0.7040665293 0.0000000000 0.0403448539
0.7154497597 0.0000000000 0.0330815595
0.0000000000 0.2869306477 0.2824139773
0.0000000000 0.2753032731 0.2554055085
0.0000000000 0.2704509041 0.2143587396
0.2855268177 0.2922102693 0.1785000381
0.5523613336 0.2941939422 0.1287861448
0.7213702602 0.2678568704 0.0774547951
0.7873197528 0.2331273365 0.0307011521
0.7941863127 0.2088044556 0.0185549706
0.0000000000 0.4314335851 0.3564812696
0.0000000000 0.4283207446 0.3293507286
0.0000000000 0.4309147784 0.2811017014
0.1919279774 0.4720531014 0.2316014343
0.5600213626 0.5002975509 0.1704432746
0.7857633326 0.4939650568 0.0627145800
0.8734111543 0.4704051270 0.0000000000
0.8873884184 0.4407110704 0.0000000000
0.0000000000 0.5036850538 0.3927672236
0.0000000000 0.5010299840 0.3832761120
0.0000000000 0.5239490349 0.3674677653
0.0000000000 0.6052491035 0.3377737087
0.5277943084 0.6824292363 0.2415808347
0.8116121157 0.6980544747 0.0696116579
0.9365529870 0.6970168612 0.0000000000
0.9675593194 0.6802319371 0.0000000000
0.0000000000 0.5429922942 0.3659418631
0.0000000000 0.5598077363 0.3655756466
0.0000000000 0.6006713970 0.3605706874
0.1504539559 0.6642404822 0.3401541161
0.5386282139 0.7360189212 0.2932173648
0.8066987106 0.7882047761 0.2007171740
0.9555962463 0.8066987106 0.0060730907
0.9971007858 0.8044098573 0.0000000000
0.0000000000 0.6214847028 0.3547722591
0.0000000000 0.6340886549 0.3506523232
0.1538414588 0.6644541085 0.3395132372
0.4369878691 0.7149004349 0.3135118639
0.6678721294 0.7622034028 0.2548561837
0.8447547112 0.7925078202 0.1577782864
0.9501945525 0.8134126802 0.0195620661
0.9953002213 0.8366369116 0.1310749981
0.0000000000 0.0414129854 0.2334325170
0.0009765774 0.0400701915 0.2435339895
0.1148088808 0.0432440681 0.2464637217
0.3060654612 0.0241397726 0.2433813993
0.5071030747 0.0000000000 0.2273289082
0.6239871824 0.0000000000 0.1950102998
0.6519111925 0.0000000000 0.1561913481
0.6614938582 0.0000000000 0.1474937057
0.0000000000 0.0740978103 0.2602273594
0.0000000000 0.0607919432 0.2654764630
0.1150225071 0.0569771878 0.2672770275
0.3244678416 0.0286564431 0.2498512245
0.5206530861 0.0000000000 0.2203402762
0.6278934920 0.0000000000 0.1872281987
0.6614633402 0.0000000000 0.1547570001
0.6788281071 0.0000000000 0.1502708476
0.0000000000 0.1618677043 0.3125047684
0.0000000000 0.1530174716 0.3049057755
0.0700083925 0.1554894331 0.2955062181
0.3200427253 0.1598229953 0.2757000076
0.5398489357 0.1276264591 0.2467078660
0.6731212329 0.0504768444 0.2136568246
0.7158159762 0.0000000000 0.1806057832
0.7237201495 0.0000000000 0.1632104982
0.0000000000 0.2958419165 0.3678644999
0.0000000000 0.2893110552 0.3559929808
0.0000000000 0.2899214160 0.3366445411
0.2815899901 0.3113450828 0.3167467765
0.5591058213 0.3111924926 0.2771343557
0.7292133974 0.2821087968 0.2440527962
0.7919279774 0.2407568475 0.2045014115
0.7992523079 0.2152132448 0.1822842756
0.0000000000 0.4482490272 0.4509346151
0.0000000000 0.4489509422 0.4427862974
0.0000000000 0.4545967803 0.4092164492
0.1380331121 0.4997634852 0.3873044938
0.5537651637 0.5233691920 0.3399099718
0.7845731289 0.5144884413 0.2777141985
0.8714885176 0.4825818265 0.2245517662
0.8885481041 0.4532234684 0.1982452125
0.0000000000 0.5250476844 0.4946974899
0.0000000000 0.5228809033 0.4886243992
0.0000000000 0.5408560311 0.4633249409
0.0000000000 0.6283512627 0.4529182879
0.5032883192 0.7076676585 0.4124818799
0.7997711147 0.7280231937 0.3448538949
0.9306019684 0.7204242008 0.2675211719
0.9642938888 0.7021438926 0.2018158236
0.0000000000 0.5552910658 0.4451667048
0.0000000000 0.5708857862 0.4462653544
0.0000000000 0.6132448310 0.4502937362
0.0000000000 0.6804455634 0.4533455406
0.5052719921 0.7598535134 0.4432745861
0.7934843977 0.8184786755 0.4077515831
0.9451895933 0.8369115740 0.3486686503
0.9905394064 0.8290989548 0.2652018006
0.0000000000 0.6294499123 0.3650873579
0.0000000000 0.6411688411 0.3656366827
0.1509422446 0.6736400397 0.3690852216
0.4330205234 0.7260395209 0.3655451286
0.6565804532 0.7777065690 0.3558403906
0.8283665217 0.8191805905 0.3642328527
0.9421683070 0.8455786984 0.3527885863
0.9883115892 0.8623331044 0.3587396048
0.0000000000 0.0750133516 0.3413138018
0.0000000000 0.0693980316 0.3518730449
0.1427634089 0.0653391318 0.3562676432
0.3347524224 0.0443121996 0.3533379110
0.5173876555 0.0000000000 0.3249256123
0.6335393301 0.0000000000 0.2858319982
0.6647287709 0.0000000000 0.2540321965
0.6751049058 0.0000000000 0.2455481804
0.0000000000 0.1036087587 0.3719844358
0.0000000000 0.0850537881 0.3727473869
0.1384298466 0.0765392538 0.3742427710
0.3502555886 0.0496833753 0.3613031205
0.5356374456 0.0000000000 0.3301747158
0.6451667048 0.0000000000 0.2991378653
0.6778820478 0.0000000000 0.2706645304
0.6909437705 0.0000000000 0.2626382849
0.0000000000 0.1843289845 0.4277103838
0.0000000000 0.1721828031 0.4268558785
0.0451972229 0.1741054398 0.4363164721
0.3477836271 0.1734035248 0.4310978866
0.5654535744 0.1347066453 0.3975585565
0.6870984970 0.0358587015 0.3529106584
0.7250629435 0.0000000000 0.3174486915
0.7335164416 0.0000000000 0.2946517128
0.0000000000 0.3191577020 0.4708628977
0.0000000000 0.3152819104 0.4746776532
0.0000000000 0.3208667124 0.4768444343
0.3000534066 0.3383840696 0.4719920653
0.5773250935 0.3365835050 0.4452277409
0.7392843519 0.2996871901 0.4077821012
0.7967193103 0.2506446937 0.3646601053
0.8026398108 0.2230869001 0.3338063630
0.0000000000 0.4593575952 0.5224536507
0.0000000000 0.4606393530 0.5205920500
0.0000000000 0.4801098650 0.5193713283
0.0630197604 0.5224841688 0.5219958801
0.5605401694 0.5453727016 0.4883802548
0.7835965515 0.5353933013 0.4480659190
0.8710002289 0.5020370794 0.4090333410
0.8863813230 0.4661326009 0.3783321889
0.0000000000 0.5349050126 0.5605401694
0.0000000000 0.5361867704 0.5573357748
0.0000000000 0.5587701228 0.5485770962
0.0000000000 0.6524605173 0.5670405127
0.4862134737 0.7248493172 0.5491569390
0.7945525292 0.7471580072 0.4973830777
0.9221789883 0.7428244450 0.4527962158
0.9564202335 0.7230792706 0.4091554131
0.0000000000 0.5780575265 0.5387808042
0.0000000000 0.5938658732 0.5433890288
0.0000000000 0.6391851682 0.5555352102
0.0000000000 0.7087052720 0.5672846571
0.5049362936 0.7864042115 0.5708857862
0.7872281987 0.8406958114 0.5498283360
0.9362172885 0.8560158694 0.4970778973
0.9819638361 0.8519569696 0.4460822461
0.0000000000 0.6582894636 0.5170519570
0.0000000000 0.6698558022 0.5184863050
0.0000000000 0.7060502022 0.5220874342
0.3997253376 0.7548180362 0.5249256123
0.6366826886 0.8051117723 0.5205004959
0.8276340887 0.8436255436 0.5088731212
0.9377737087 0.8686503395 0.5057297627
0.9801632715 0.8836652171 0.5118944076
0.0000000000 0.1320820935 0.4128480964
0.0000000000 0.1311055161 0.4172426947
0.1594262608 0.1255817502 0.4167544060
0.3294117647 0.1173418784 0.4118104829
0.4969863432 0.0698863203 0.3854123751
0.6189517052 0.0000000000 0.3578545815
0.6860914015 0.0000000000 0.3340199893
0.7107194629 0.0000000000 0.3090257115
0.0000000000 0.1502403296 0.4264896620
0.0000000000 0.1491721981 0.4297856107
0.1463340200 0.1471274891 0.4339971008
0.3309681849 0.1411154345 0.4317082475
0.5070725566 0.1039139391 0.4048523690
0.6294499123 0.0222781720 0.3749141680
0.6972915236 0.0000000000 0.3483024338
0.7218585489 0.0000000000 0.3215381094
0.0000000000 0.2077973602 0.4663157092
0.0000000000 0.2043793393 0.4672922866
0.0957045853 0.2078583963 0.4751049058
0.3370717937 0.2064240482 0.4766002899
0.5313038834 0.1852445258 0.4578927291
0.6650949874 0.1412375067 0.4200198367
0.7322957198 0.1018997482 0.3863584344
0.7541771572 0.0625925078 0.3570305943
0.0000000000 0.3360952163 0.5424429694
0.0000000000 0.3356374456 0.5525444419
0.0000000000 0.3398489357 0.5575494011
0.3257801175 0.3579156176 0.5641412985
0.5922484169 0.3459525444 0.5442740520
0.7399862669 0.3086594949 0.5087205310
0.7981536584 0.2763714046 0.4642404822
0.8099336233 0.2438391699 0.4252994583
0.0000000000 0.4699473564 0.5860227359
0.0000000000 0.4795910582 0.5961547265
0.0000000000 0.5018844892 0.6092774853
0.1058365759 0.5449759670 0.6218204013
0.5712825208 0.5671625849 0.6162050813
0.7845731289 0.5503776608 0.5893186847
0.8703288319 0.5165941863 0.5542534524
0.8853131914 0.4823987182 0.5190966659
0.0000000000 0.5423819333 0.6108949416
0.0000000000 0.5468986038 0.6126039521
0.0000000000 0.5821469444 0.6254215305
0.0000000000 0.6753490501 0.6545967803
0.5071335927 0.7428549630 0.6542305638
0.7974517433 0.7674830243 0.6341191730
0.9162279698 0.7615014878 0.6041809720
0.9477225910 0.7392233158 0.5743648432
0.0000000000 0.5999084459 0.6112306401
0.0000000000 0.6156862745 0.6173952850
0.0000000000 0.6607003891 0.6337529564
0.0000000000 0.7304341192 0.6550850690
0.4963454643 0.8058747234 0.6713511864
0.7867093919 0.8591592279 0.6675059129
0.9276417182 0.8735027085 0.6391241321
0.9716487373 0.8734416724 0.6122072175
0.0000000000 0.6827344167 0.6072022583
0.0000000000 0.6971389334 0.6113832303
0.0000000000 0.7316548409 0.6205386435
0.4004272526 0.7792935073 0.6311284047
0.6395208667 0.8264438849 0.6355230030
0.8282749676 0.8650797284 0.6374151217
0.9335927367 0.8899824521 0.6439459831
0.9723506523 0.9025864042 0.6492256046
0.0000000000 0.1791103990 0.4497138933
0.0000000000 0.1795986877 0.4521553368
0.1341878386 0.1810025177 0.4565194171
0.2952010376 0.1775844968 0.4580453193
0.4528267338 0.1578698405 0.4411688411
0.5739375906 0.1231097887 0.4141603723
0.6666208896 0.0509956512 0.3796139467
0.7190508888 0.0107728695 0.3612726024
0.0000000000 0.1936369879 0.4608224613
0.0000000000 0.1945830472 0.4633554589
0.1254901961 0.1967193103 0.4674448768
0.2940413519 0.1953459983 0.4694285496
0.4551766232 0.1790188449 0.4559395743
0.5853818570 0.1439841306 0.4276188296
0.6760509651 0.0925612268 0.3964904250
0.7306172274 0.0676279850 0.3747310597
0.0000000000 0.2373998627 0.4901503014
0.0000000000 0.2374914168 0.4918898299
0.0851148241 0.2424353399 0.4972610056
0.2917524987 0.2434424353 0.4986953536
0.4660715648 0.2304112306 0.4853894865
0.6036926833 0.2059967956 0.4634164950
0.7077897307 0.1842069123 0.4377508202
0.7631494621 0.1752651255 0.4139467460
0.0000000000 0.3261768521 0.5476920729
0.0000000000 0.3269703212 0.5489738308
0.0000000000 0.3341725795 0.5548943313
0.2896162356 0.3457999542 0.5583123522
0.5078355077 0.3555657282 0.5545891508
0.6778210117 0.3556267643 0.5439383536
0.7769436179 0.3424429694 0.5194323644
0.8228122377 0.3300526436 0.4874647135
0.0000000000 0.4858777752 0.6244449531
0.0000000000 0.4900892653 0.6282597086
0.0000000000 0.5157701991 0.6470283055
0.2420080873 0.5561760891 0.6662241550
0.5920958267 0.5710994125 0.6554207675
0.7730373083 0.5579156176 0.6271305409
0.8578164340 0.5509575036 0.6028381781
0.8906538491 0.5324025330 0.5752498665
0.0000000000 0.5569085222 0.6513313497
0.0000000000 0.5695429923 0.6609750515
0.0000000000 0.6140077821 0.6830701152
0.0000000000 0.6968642710 0.7176165408
0.5331654841 0.7587853819 0.7336079957
0.8060273136 0.7792629892 0.7246967269
0.9131456474 0.7722743572 0.6952773327
0.9442130159 0.7539940490 0.6603036545
0.0000000000 0.6195620661 0.6643930724
0.0000000000 0.6377508202 0.6734874495
0.0000000000 0.6810864424 0.6940871290
0.0000000000 0.7522545205 0.7232318608
0.5128099489 0.8235141527 0.7467917906
0.7965056840 0.8724345769 0.7535057603
0.9254444190 0.8859235523 0.7380636301
0.9638056001 0.8869306477 0.7229266804
0.0000000000 0.7090409705 0.6859998474
0.0000000000 0.7222247654 0.6910353246
0.0662241550 0.7574731060 0.7023575189
0.4034180209 0.7969329366 0.7113908598
0.6520027466 0.8444495308 0.7209124895
0.8351415274 0.8816205081 0.7308308537
0.9330739300 0.9050278477 0.7422446021
0.9663385977 0.9158922713 0.7518272679
0.0000000000 0.2145113298 0.4753490501
0.0000000000 0.2143892576 0.4768444343
0.0943923095 0.2169527733 0.4816052491
0.2563210498 0.2160372320 0.4824902724
0.4023804074 0.2080109865 0.4759288930
0.5377737087 0.1859769589 0.4577706569
0.6407721065 0.1488670176 0.4272831312
0.7085221637 0.1170366979 0.4000610361
0.0000000000 0.2258640421 0.4835889220
0.0000000000 0.2267795834 0.4853284504
0.0843823911 0.2297703517 0.4895399405
0.2554055085 0.2280003052 0.4899366751
0.4037842374 0.2208590829 0.4827954528
0.5421683070 0.2052643626 0.4681773098
0.6472114137 0.1689173724 0.4380865187
0.7214923323 0.1494163424 0.4148317693
0.0000000000 0.2612649729 0.5060654612
0.0000000000 0.2617532616 0.5070115206
0.0625314717 0.2659952697 0.5111009384
0.2520790417 0.2671244373 0.5129015030
0.4083924620 0.2623331044 0.5070420386
0.5531548028 0.2475928893 0.4933546960
0.6749217975 0.2380712596 0.4777904936
0.7559472038 0.2381322957 0.4586861982
0.0000000000 0.3285877775 0.5503166247
0.0000000000 0.3295033188 0.5512321660
0.0000000000 0.3312733654 0.5532463569
0.2469825284 0.3390249485 0.5559319448
0.4328374151 0.3544670787 0.5571221485
0.6099488823 0.3739070726 0.5582513161
0.7419699397 0.3824216068 0.5483329519
0.8178377966 0.3913023575 0.5328908217
0.0000000000 0.4646677348 0.6231631952
0.0000000000 0.4723887999 0.6289005875
0.0000000000 0.4948805982 0.6412298772
0.3169604028 0.5250171664 0.6497138933
0.5476615549 0.5478446632 0.6488288701
0.7028152895 0.5664606699 0.6400701915
0.8182040131 0.5770504311 0.6265201801
0.8799725338 0.5817807279 0.6086060883
0.0000000000 0.6076295109 0.6904249638
0.0000000000 0.6254520485 0.6991836423
0.0000000000 0.6635385672 0.7151750973
0.2782024872 0.7165484092 0.7320515755
0.6083314260 0.7551842527 0.7353780423
0.8088349737 0.7710536355 0.7239032578
0.8898298619 0.7752346075 0.7069657435
0.9334401465 0.7817349508 0.6896620127
0.0000000000 0.6622262913 0.7201800565
0.0000000000 0.6769359884 0.7280231937
0.0000000000 0.7144121462 0.7467307546
0.1107499809 0.7794766155 0.7739528496
0.5829098955 0.8424963760 0.7909819181
0.8222323949 0.8784771496 0.7856412604
0.9263599603 0.8873273823 0.7680628672
0.9576104372 0.8913252461 0.7573510338
0.0000000000 0.7318684672 0.7321126116
0.0000000000 0.7428244450 0.7365072099
0.1670252537 0.7758754864 0.7485313191
0.4539559014 0.8165255207 0.7615014878
0.6802929732 0.8604715038 0.7755397879
0.8502479591 0.8944686046 0.7870756085
0.9357289998 0.9145189593 0.7971770809
0.9633783474 0.9213855192 0.8003509575
