LUTs/SPK Cube Block1 S64/TheBrim_SPK_Type-W_Block1_S64.cube
TITLE "TheBrim® Industrial Imaging Burau"
# © Copyright 2022 - TheBrim® d.o.o. Croatia
LUT_3D_SIZE 64
DOMAIN_MIN 0.000000 0.000000 0.000000
DOMAIN_MAX 1.000000 1.000000 1.000000
0.038086 0.065277 0.119720
0.038239 0.065216 0.119690
0.038452 0.065155 0.119598
0.038971 0.065125 0.119507
0.039490 0.065125 0.119446
0.040375 0.065125 0.119354
0.041382 0.065125 0.119293
0.043152 0.065216 0.119202
0.045105 0.065277 0.119110
0.048431 0.065399 0.119019
0.052032 0.065521 0.118958
0.056702 0.065613 0.118866
0.061798 0.065704 0.118774
0.068298 0.065704 0.118622
0.075531 0.065704 0.118469
0.085175 0.065460 0.118317
0.096527 0.065186 0.118195
0.109619 0.064728 0.118164
0.124542 0.064117 0.118164
0.141907 0.063690 0.118164
0.161743 0.063293 0.118164
0.186310 0.063171 0.118164
0.214996 0.063171 0.118164
0.245087 0.063171 0.118164
0.276245 0.063171 0.118164
0.305359 0.063171 0.118164
0.333038 0.063171 0.118164
0.361511 0.063171 0.118164
0.390442 0.063171 0.118164
0.417236 0.063171 0.118164
0.442169 0.063171 0.118164
0.461578 0.063171 0.118164
0.476105 0.063171 0.118164
0.489166 0.063171 0.118164
0.500671 0.063171 0.118164
0.511353 0.063171 0.118164
0.521057 0.063171 0.118164
0.530090 0.063171 0.118164
0.538300 0.063171 0.118164
0.545746 0.063171 0.118164
0.552155 0.063171 0.118164
0.557739 0.063171 0.118164
0.561859 0.063171 0.118164
0.565460 0.063171 0.118164
0.568024 0.063171 0.118164
0.570343 0.063171 0.118164
0.572144 0.063171 0.118164
0.573944 0.063171 0.118164
0.575531 0.063171 0.118164
0.577087 0.063171 0.118164
0.578522 0.063171 0.118164
0.579987 0.063171 0.118164
0.581299 0.063171 0.118164
0.582642 0.063171 0.118164
0.583740 0.063171 0.118164
0.584839 0.063171 0.118164
0.585938 0.063171 0.118164
0.586975 0.063171 0.118164
0.587891 0.063171 0.118164
0.588806 0.063171 0.118164
0.589539 0.063171 0.118164
0.590332 0.063171 0.118164
0.591248 0.063171 0.118164
0.592194 0.063171 0.118164
0.038147 0.065948 0.119781
0.038330 0.065735 0.119659
0.038544 0.065674 0.119629
0.039062 0.065613 0.119537
0.039551 0.065613 0.119476
0.040558 0.065613 0.119354
0.041595 0.065643 0.119293
0.043365 0.065704 0.119232
0.045288 0.065765 0.119141
0.048218 0.065887 0.119080
0.051788 0.066010 0.118988
0.056335 0.066162 0.118896
0.061401 0.066254 0.118805
0.067688 0.066345 0.118652
0.074860 0.066345 0.118469
0.083862 0.066223 0.118317
0.094788 0.066010 0.118195
0.107391 0.065613 0.118164
0.121979 0.065094 0.118164
0.138641 0.064240 0.118164
0.157928 0.063690 0.118164
0.181763 0.063293 0.118164
0.209869 0.063171 0.118164
0.240326 0.063171 0.118164
0.271698 0.063171 0.118164
0.301208 0.063171 0.118164
0.329071 0.063171 0.118164
0.357330 0.063171 0.118164
0.386200 0.063171 0.118164
0.414032 0.063171 0.118164
0.439850 0.063171 0.118164
0.461060 0.063171 0.118164
0.477081 0.063171 0.118164
0.490204 0.063171 0.118164
0.501923 0.063171 0.118164
0.513000 0.063171 0.118164
0.523224 0.063171 0.118164
0.532532 0.063171 0.118164
0.541138 0.063171 0.118164
0.548798 0.063171 0.118164
0.555603 0.063171 0.118164
0.561401 0.063171 0.118164
0.565918 0.063171 0.118164
0.569550 0.063171 0.118164
0.572174 0.063171 0.118164
0.574554 0.063171 0.118164
0.576447 0.063171 0.118164
0.578186 0.063171 0.118164
0.579803 0.063171 0.118164
0.581299 0.063171 0.118164
0.582764 0.063171 0.118164
0.584198 0.063171 0.118164
0.585449 0.063171 0.118164
0.586761 0.063171 0.118164
0.587952 0.063171 0.118164
0.589081 0.063171 0.118164
0.590149 0.063171 0.118164
0.591125 0.063171 0.118164
0.591736 0.063171 0.118164
0.592621 0.063171 0.118164
0.593079 0.063171 0.118164
0.593842 0.063171 0.118164
0.594391 0.063171 0.118164
0.595306 0.063171 0.118164
0.038177 0.066559 0.119843
0.038391 0.066406 0.119751
0.038605 0.066193 0.119659
0.039154 0.066162 0.119598
0.039703 0.066101 0.119476
0.040710 0.066101 0.119385
0.041718 0.066132 0.119324
0.043518 0.066193 0.119232
0.045441 0.066284 0.119171
0.048401 0.066406 0.119080
0.051575 0.066467 0.119019
0.056061 0.066620 0.118896
0.061035 0.066742 0.118805
0.067261 0.066864 0.118683
0.074188 0.066925 0.118500
0.083099 0.066864 0.118347
0.093323 0.066711 0.118225
0.105530 0.066406 0.118164
0.119507 0.066010 0.118164
0.135742 0.065186 0.118164
0.154327 0.064240 0.118164
0.177551 0.063690 0.118164
0.204865 0.063293 0.118164
0.234802 0.063171 0.118164
0.266754 0.063171 0.118164
0.296509 0.063171 0.118164
0.324799 0.063171 0.118164
0.353363 0.063171 0.118164
0.381989 0.063171 0.118164
0.409851 0.063171 0.118164
0.436707 0.063171 0.118164
0.458740 0.063171 0.118164
0.476501 0.063171 0.118164
0.491180 0.063171 0.118164
0.503021 0.063171 0.118164
0.514191 0.063171 0.118164
0.524841 0.063171 0.118164
0.534637 0.063171 0.118164
0.543518 0.063171 0.118164
0.551605 0.063171 0.118164
0.558594 0.063171 0.118164
0.564728 0.063171 0.118164
0.569489 0.063171 0.118164
0.573517 0.063171 0.118164
0.576233 0.063171 0.118164
0.578705 0.063171 0.118164
0.580627 0.063171 0.118164
0.582397 0.063171 0.118164
0.584015 0.063171 0.118164
0.585510 0.063171 0.118164
0.586945 0.063171 0.118164
0.588318 0.063171 0.118164
0.589569 0.063171 0.118164
0.590851 0.063171 0.118164
0.592041 0.063171 0.118164
0.593231 0.063171 0.118164
0.594299 0.063171 0.118164
0.595306 0.063171 0.118164
0.595856 0.063171 0.118164
0.596405 0.063171 0.118164
0.596863 0.063171 0.118164
0.597351 0.063171 0.118164
0.597900 0.063171 0.118164
0.598450 0.063171 0.118164
0.038177 0.067566 0.119904
0.038483 0.067261 0.119781
0.038696 0.067047 0.119659
0.039276 0.066895 0.119598
0.039795 0.066833 0.119537
0.040894 0.066864 0.119446
0.041931 0.066895 0.119354
0.043854 0.066986 0.119263
0.045715 0.067078 0.119202
0.048645 0.067169 0.119110
0.051788 0.067322 0.119049
0.055878 0.067444 0.118927
0.060760 0.067627 0.118866
0.066803 0.067841 0.118713
0.073669 0.067932 0.118530
0.082184 0.068024 0.118347
0.092255 0.067932 0.118225
0.104034 0.067688 0.118164
0.117706 0.067322 0.118164
0.133087 0.066681 0.118164
0.151062 0.065826 0.118164
0.173004 0.064606 0.118164
0.199432 0.063934 0.118164
0.229614 0.063385 0.118164
0.261658 0.063171 0.118164
0.292450 0.063171 0.118164
0.321320 0.063171 0.118164
0.349182 0.063171 0.118164
0.377380 0.063171 0.118164
0.405975 0.063171 0.118164
0.433411 0.063171 0.118164
0.457275 0.063171 0.118164
0.476501 0.063171 0.118164
0.491913 0.063171 0.118164
0.504272 0.063171 0.118164
0.515594 0.063171 0.118164
0.526276 0.063171 0.118164
0.536407 0.063171 0.118164
0.545685 0.063171 0.118164
0.554108 0.063171 0.118164
0.561646 0.063171 0.118164
0.568024 0.063171 0.118164
0.573029 0.063171 0.118164
0.577362 0.063171 0.118164
0.580658 0.063171 0.118164
0.583130 0.063171 0.118164
0.585052 0.063171 0.118164
0.586884 0.063171 0.118164
0.588623 0.063171 0.118164
0.590149 0.063171 0.118164
0.591522 0.063171 0.118164
0.592896 0.063171 0.118164
0.594086 0.063171 0.118164
0.595337 0.063171 0.118164
0.596558 0.063171 0.118164
0.597717 0.063171 0.118164
0.598663 0.063171 0.118164
0.599701 0.063171 0.118164
0.600098 0.063171 0.118164
0.600647 0.063171 0.118164
0.601044 0.063171 0.118164
0.601501 0.063171 0.118164
0.601959 0.063171 0.118164
0.602509 0.063171 0.118164
0.038177 0.068573 0.119965
0.038483 0.068298 0.119843
0.038788 0.067963 0.119720
0.039337 0.067810 0.119690
0.039886 0.067627 0.119568
0.040985 0.067657 0.119476
0.042145 0.067719 0.119385
0.044037 0.067841 0.119324
0.046051 0.067932 0.119232
0.048920 0.068054 0.119171
0.052063 0.068176 0.119110
0.056091 0.068329 0.118988
0.060516 0.068420 0.118896
0.066467 0.068665 0.118744
0.073181 0.068878 0.118561
0.081604 0.069000 0.118378
0.091278 0.069061 0.118225
0.102844 0.068878 0.118164
0.116089 0.068573 0.118164
0.131104 0.068085 0.118164
0.148102 0.067383 0.118164
0.169312 0.066254 0.118164
0.194489 0.064880 0.118164
0.223816 0.064026 0.118164
0.256195 0.063385 0.118164
0.287140 0.063171 0.118164
0.317139 0.063171 0.118164
0.345703 0.063171 0.118164
0.373199 0.063171 0.118164
0.401367 0.063171 0.118164
0.429626 0.063171 0.118164
0.454132 0.063171 0.118164
0.475128 0.063171 0.118164
0.491974 0.063171 0.118164
0.504974 0.063171 0.118164
0.516815 0.063171 0.118164
0.527649 0.063171 0.118164
0.537842 0.063171 0.118164
0.547394 0.063171 0.118164
0.556244 0.063171 0.118164
0.564148 0.063171 0.118164
0.570984 0.063171 0.118164
0.576233 0.063171 0.118164
0.580872 0.063171 0.118164
0.584442 0.063171 0.118164
0.587494 0.063171 0.118164
0.589447 0.063171 0.118164
0.591278 0.063171 0.118164
0.593079 0.063171 0.118164
0.594727 0.063171 0.118164
0.596100 0.063171 0.118164
0.597473 0.063171 0.118164
0.598663 0.063171 0.118164
0.599884 0.063171 0.118164
0.601044 0.063171 0.118164
0.602203 0.063171 0.118164
0.603149 0.063171 0.118164
0.604004 0.063171 0.118164
0.604431 0.063171 0.118164
0.604858 0.063171 0.118164
0.605225 0.063171 0.118164
0.605652 0.063171 0.118164
0.606110 0.063171 0.118164
0.606567 0.063171 0.118164
0.038147 0.070190 0.120026
0.038483 0.069702 0.119873
0.038788 0.069397 0.119781
0.039459 0.069122 0.119659
0.040009 0.068970 0.119598
0.041077 0.068848 0.119537
0.042206 0.068878 0.119415
0.044250 0.069061 0.119354
0.046265 0.069153 0.119293
0.049286 0.069305 0.119202
0.052429 0.069427 0.119110
0.056335 0.069580 0.119019
0.060760 0.069763 0.118927
0.066040 0.069977 0.118774
0.072601 0.070190 0.118591
0.080688 0.070496 0.118378
0.090240 0.070587 0.118225
0.101776 0.070587 0.118164
0.114929 0.070343 0.118164
0.129181 0.069916 0.118164
0.145721 0.069275 0.118164
0.165405 0.068390 0.118164
0.189514 0.067169 0.118164
0.218475 0.065674 0.118164
0.250641 0.064758 0.118164
0.282715 0.063629 0.118164
0.313354 0.063171 0.118164
0.341705 0.063171 0.118164
0.369049 0.063171 0.118164
0.397308 0.063171 0.118164
0.425781 0.063171 0.118164
0.451660 0.063171 0.118164
0.473755 0.063171 0.118164
0.491760 0.063171 0.118164
0.505646 0.063171 0.118164
0.518005 0.063171 0.118164
0.529297 0.063171 0.118164
0.539673 0.063171 0.118164
0.549530 0.063171 0.118164
0.558746 0.063171 0.118164
0.567200 0.063171 0.118164
0.574280 0.063171 0.118164
0.579834 0.063171 0.118164
0.584747 0.063171 0.118164
0.588867 0.063171 0.118164
0.592041 0.063171 0.118164
0.594177 0.063171 0.118164
0.596069 0.063171 0.118164
0.597778 0.063171 0.118164
0.599457 0.063171 0.118164
0.600922 0.063171 0.118164
0.602295 0.063171 0.118164
0.603577 0.063171 0.118164
0.604736 0.063171 0.118164
0.605896 0.063171 0.118164
0.606995 0.063171 0.118164
0.607758 0.063171 0.118164
0.608643 0.063171 0.118164
0.609131 0.063171 0.118164
0.609558 0.063171 0.118164
0.609955 0.063171 0.118164
0.610382 0.063171 0.118164
0.610626 0.063171 0.118164
0.611084 0.063171 0.118164
0.038055 0.071838 0.120056
0.038391 0.071350 0.119904
0.038788 0.070862 0.119781
0.039459 0.070587 0.119690
0.040161 0.070343 0.119629
0.041260 0.070251 0.119568
0.042328 0.070129 0.119476
0.044373 0.070251 0.119385
0.046509 0.070435 0.119324
0.049561 0.070557 0.119232
0.052826 0.070740 0.119141
0.056793 0.070892 0.119019
0.060974 0.071075 0.118896
0.066284 0.071289 0.118805
0.072083 0.071533 0.118622
0.080048 0.071808 0.118439
0.089142 0.072113 0.118225
0.100555 0.072144 0.118164
0.113800 0.072113 0.118164
0.127960 0.071686 0.118164
0.143585 0.071198 0.118164
0.162781 0.070374 0.118164
0.185120 0.069458 0.118164
0.213043 0.068054 0.118164
0.245087 0.066406 0.118164
0.277008 0.064972 0.118164
0.308929 0.063629 0.118164
0.337921 0.063171 0.118164
0.365021 0.063171 0.118164
0.393158 0.063171 0.118164
0.421906 0.063171 0.118164
0.447937 0.063171 0.118164
0.471497 0.063171 0.118164
0.490479 0.063171 0.118164
0.505432 0.063171 0.118164
0.518707 0.063171 0.118164
0.530457 0.063171 0.118164
0.541351 0.063171 0.118164
0.551392 0.063171 0.118164
0.560852 0.063171 0.118164
0.569702 0.063171 0.118164
0.577301 0.063171 0.118164
0.583099 0.063171 0.118164
0.588348 0.063171 0.118164
0.592773 0.063171 0.118164
0.596436 0.063171 0.118164
0.598694 0.063171 0.118164
0.600769 0.063171 0.118164
0.602478 0.063171 0.118164
0.604095 0.063171 0.118164
0.605621 0.063171 0.118164
0.607056 0.063171 0.118164
0.608337 0.063171 0.118164
0.609619 0.063171 0.118164
0.610748 0.063171 0.118164
0.611816 0.063171 0.118164
0.612518 0.063171 0.118164
0.613190 0.063171 0.118164
0.613708 0.063171 0.118164
0.614258 0.063171 0.118164
0.614655 0.063171 0.118164
0.615021 0.063171 0.118164
0.615356 0.063171 0.118164
0.615662 0.063171 0.118164
0.037781 0.074249 0.120026
0.038239 0.073608 0.119904
0.038635 0.073151 0.119781
0.039520 0.072784 0.119690
0.040222 0.072540 0.119629
0.041534 0.072357 0.119568
0.042603 0.072266 0.119476
0.044434 0.072174 0.119415
0.046600 0.072296 0.119354
0.049866 0.072479 0.119232
0.053192 0.072662 0.119141
0.057312 0.072876 0.119019
0.061554 0.073029 0.118896
0.066650 0.073212 0.118774
0.072449 0.073425 0.118591
0.079498 0.073700 0.118439
0.088379 0.074005 0.118225
0.099609 0.074188 0.118164
0.112732 0.074219 0.118164
0.127014 0.074036 0.118164
0.142578 0.073517 0.118164
0.160431 0.072906 0.118164
0.182037 0.072052 0.118164
0.208313 0.070984 0.118164
0.239471 0.069397 0.118164
0.272247 0.067627 0.118164
0.304504 0.066101 0.118164
0.334625 0.064301 0.118164
0.362213 0.063660 0.118164
0.389709 0.063354 0.118164
0.418091 0.063171 0.118164
0.444916 0.063171 0.118164
0.469055 0.063171 0.118164
0.489899 0.063171 0.118164
0.506165 0.063171 0.118164
0.519623 0.063171 0.118164
0.531616 0.063171 0.118164
0.542999 0.063171 0.118164
0.553589 0.063171 0.118164
0.563293 0.063171 0.118164
0.572449 0.063171 0.118164
0.580414 0.063171 0.118164
0.586700 0.063171 0.118164
0.592133 0.063171 0.118164
0.596802 0.063171 0.118164
0.600861 0.063171 0.118164
0.603760 0.063171 0.118164
0.605865 0.063171 0.118164
0.607574 0.063171 0.118164
0.609192 0.063171 0.118164
0.610657 0.063171 0.118164
0.612183 0.063171 0.118164
0.613586 0.063171 0.118164
0.614838 0.063171 0.118164
0.615906 0.063171 0.118164
0.616943 0.063171 0.118164
0.617554 0.063171 0.118164
0.618195 0.063171 0.118164
0.618713 0.063171 0.118164
0.619263 0.063171 0.118164
0.619781 0.063171 0.118164
0.620148 0.063171 0.118164
0.620239 0.063171 0.118164
0.620544 0.063171 0.118164
0.037506 0.076813 0.120026
0.038025 0.076172 0.119904
0.038513 0.075531 0.119781
0.039398 0.075195 0.119690
0.040253 0.074829 0.119629
0.041565 0.074677 0.119568
0.042877 0.074524 0.119507
0.044739 0.074371 0.119446
0.046631 0.074249 0.119354
0.049957 0.074463 0.119263
0.053528 0.074677 0.119141
0.057678 0.074860 0.119019
0.062195 0.075073 0.118927
0.067261 0.075287 0.118744
0.072845 0.075470 0.118561
0.079865 0.075745 0.118378
0.087769 0.076019 0.118225
0.098755 0.076233 0.118164
0.111725 0.076385 0.118164
0.125885 0.076233 0.118164
0.141571 0.075958 0.118164
0.159332 0.075348 0.118164
0.179443 0.074707 0.118164
0.204956 0.073608 0.118164
0.234406 0.072418 0.118164
0.266357 0.070740 0.118164
0.299744 0.068817 0.118164
0.330322 0.066864 0.118164
0.359039 0.064819 0.118164
0.387024 0.063873 0.118164
0.414673 0.063354 0.118164
0.441284 0.063171 0.118164
0.466248 0.063171 0.118164
0.487671 0.063171 0.118164
0.505798 0.063171 0.118164
0.520538 0.063171 0.118164
0.532623 0.063171 0.118164
0.544189 0.063171 0.118164
0.555267 0.063171 0.118164
0.565491 0.063171 0.118164
0.574890 0.063171 0.118164
0.583160 0.063171 0.118164
0.589844 0.063171 0.118164
0.595764 0.063171 0.118164
0.600586 0.063171 0.118164
0.604889 0.063171 0.118164
0.608215 0.063171 0.118164
0.610931 0.063171 0.118164
0.612671 0.063171 0.118164
0.614288 0.063171 0.118164
0.615784 0.063171 0.118164
0.617188 0.063171 0.118164
0.618683 0.063171 0.118164
0.620056 0.063171 0.118164
0.621124 0.063171 0.118164
0.622131 0.063171 0.118164
0.622681 0.063171 0.118164
0.623230 0.063171 0.118164
0.623718 0.063171 0.118164
0.624237 0.063171 0.118164
0.624756 0.063171 0.118164
0.625214 0.063171 0.118164
0.625336 0.063171 0.118164
0.625458 0.063171 0.118164
0.037018 0.080078 0.119995
0.037537 0.079620 0.119873
0.038055 0.078949 0.119781
0.039154 0.078522 0.119659
0.040009 0.078186 0.119598
0.041626 0.077911 0.119537
0.042969 0.077728 0.119476
0.045166 0.077576 0.119385
0.047058 0.077454 0.119324
0.050171 0.077209 0.119232
0.053741 0.077454 0.119110
0.058197 0.077728 0.118958
0.062653 0.077942 0.118835
0.067963 0.078247 0.118683
0.073547 0.078430 0.118469
0.080292 0.078674 0.118378
0.088104 0.078888 0.118225
0.098022 0.079071 0.118164
0.110748 0.079254 0.118164
0.125397 0.079346 0.118164
0.141174 0.079102 0.118164
0.158936 0.078857 0.118164
0.178925 0.078278 0.118164
0.202515 0.077545 0.118164
0.231110 0.076385 0.118164
0.262665 0.075073 0.118164
0.295929 0.073303 0.118164
0.328125 0.071381 0.118164
0.357635 0.069305 0.118164
0.385468 0.067017 0.118164
0.412872 0.065918 0.118164
0.440002 0.064331 0.118164
0.465515 0.063385 0.118164
0.488159 0.063293 0.118164
0.506989 0.063171 0.118164
0.522583 0.063171 0.118164
0.535034 0.063171 0.118164
0.546631 0.063171 0.118164
0.557861 0.063171 0.118164
0.568359 0.063171 0.118164
0.578003 0.063171 0.118164
0.586731 0.063171 0.118164
0.593964 0.063171 0.118164
0.600037 0.063171 0.118164
0.604950 0.063171 0.118164
0.609528 0.063171 0.118164
0.613220 0.063171 0.118164
0.616241 0.063171 0.118164
0.618164 0.063171 0.118164
0.619812 0.063171 0.118164
0.621277 0.063171 0.118164
0.622742 0.063171 0.118164
0.624207 0.063171 0.118164
0.625610 0.063171 0.118164
0.626495 0.063171 0.118164
0.627533 0.063171 0.118164
0.628052 0.063171 0.118164
0.628601 0.063171 0.118164
0.629089 0.063171 0.118164
0.629578 0.063171 0.118164
0.629974 0.063171 0.118164
0.630493 0.063171 0.118164
0.630585 0.063171 0.118164
0.630707 0.063171 0.118164
0.036530 0.083496 0.119904
0.037018 0.083069 0.119812
0.037537 0.082642 0.119720
0.038666 0.082184 0.119659
0.039795 0.081757 0.119568
0.041412 0.081482 0.119476
0.043030 0.081268 0.119415
0.045258 0.081055 0.119354
0.047516 0.080841 0.119263
0.050659 0.080627 0.119171
0.054047 0.080414 0.119049
0.058441 0.080688 0.118927
0.063171 0.081024 0.118774
0.068481 0.081299 0.118561
0.074249 0.081604 0.118378
0.081055 0.081787 0.118286
0.088562 0.082031 0.118225
0.098450 0.082214 0.118164
0.109924 0.082336 0.118164
0.124237 0.082397 0.118164
0.140747 0.082428 0.118164
0.158630 0.082245 0.118164
0.178589 0.082031 0.118164
0.202087 0.081329 0.118164
0.228516 0.080597 0.118164
0.259247 0.079315 0.118164
0.292419 0.077942 0.118164
0.324585 0.076080 0.118164
0.355896 0.074097 0.118164
0.384491 0.071838 0.118164
0.411438 0.069366 0.118164
0.438354 0.067139 0.118164
0.464722 0.064575 0.118164
0.487854 0.063538 0.118164
0.507965 0.063293 0.118164
0.524231 0.063171 0.118164
0.537231 0.063171 0.118164
0.549164 0.063171 0.118164
0.560455 0.063171 0.118164
0.571014 0.063171 0.118164
0.580994 0.063171 0.118164
0.589935 0.063171 0.118164
0.597626 0.063171 0.118164
0.604218 0.063171 0.118164
0.609253 0.063171 0.118164
0.613922 0.063171 0.118164
0.617920 0.063171 0.118164
0.621307 0.063171 0.118164
0.623444 0.063171 0.118164
0.625366 0.063171 0.118164
0.626801 0.063171 0.118164
0.628265 0.063171 0.118164
0.629700 0.063171 0.118164
0.631104 0.063171 0.118164
0.632019 0.063171 0.118164
0.632935 0.063171 0.118164
0.633423 0.063171 0.118164
0.633942 0.063171 0.118164
0.634460 0.063171 0.118164
0.634949 0.063171 0.118164
0.635315 0.063171 0.118164
0.635742 0.063171 0.118164
0.635864 0.063171 0.118164
0.635986 0.063171 0.118164
0.036316 0.087494 0.119781
0.036469 0.087006 0.119690
0.036957 0.086578 0.119629
0.038147 0.086334 0.119537
0.039307 0.085876 0.119446
0.041229 0.085602 0.119354
0.042847 0.085388 0.119263
0.045532 0.085144 0.119171
0.047821 0.084930 0.119110
0.051453 0.084625 0.118988
0.054840 0.084351 0.118927
0.058838 0.084137 0.118805
0.063599 0.084473 0.118652
0.069153 0.084869 0.118500
0.075012 0.085144 0.118317
0.082031 0.085449 0.118256
0.089661 0.085663 0.118195
0.099213 0.085846 0.118164
0.110748 0.085968 0.118164
0.124451 0.086151 0.118164
0.140869 0.086243 0.118164
0.159088 0.086334 0.118164
0.179077 0.086090 0.118164
0.202454 0.085815 0.118164
0.228821 0.085114 0.118164
0.258453 0.084229 0.118164
0.291260 0.082916 0.118164
0.323761 0.081573 0.118164
0.355225 0.079681 0.118164
0.384735 0.077850 0.118164
0.411896 0.075531 0.118164
0.438782 0.072998 0.118164
0.465210 0.070374 0.118164
0.489136 0.067474 0.118164
0.509674 0.066193 0.118164
0.527008 0.064911 0.118164
0.540558 0.063934 0.118164
0.552582 0.063599 0.118164
0.563812 0.063263 0.118164
0.574554 0.063232 0.118164
0.584595 0.063171 0.118164
0.593933 0.063171 0.118164
0.601990 0.063171 0.118164
0.608887 0.063171 0.118164
0.614075 0.063171 0.118164
0.618774 0.063171 0.118164
0.622772 0.063171 0.118164
0.626495 0.063171 0.118164
0.629181 0.063171 0.118164
0.631134 0.063171 0.118164
0.632660 0.063171 0.118164
0.634064 0.063171 0.118164
0.635468 0.063171 0.118164
0.636810 0.063171 0.118164
0.637604 0.063171 0.118164
0.638489 0.063171 0.118164
0.639038 0.063171 0.118164
0.639526 0.063171 0.118164
0.640045 0.063171 0.118164
0.640503 0.063171 0.118164
0.640747 0.063171 0.118164
0.641113 0.063171 0.118164
0.641235 0.063171 0.118164
0.641388 0.063171 0.118164
0.036163 0.091705 0.119690
0.036224 0.091187 0.119598
0.036377 0.090698 0.119476
0.037537 0.090515 0.119354
0.038696 0.090302 0.119263
0.040680 0.090057 0.119202
0.042633 0.089783 0.119110
0.045349 0.089539 0.119019
0.048157 0.089264 0.118896
0.051758 0.088959 0.118835
0.055634 0.088593 0.118744
0.059723 0.088379 0.118591
0.064056 0.088165 0.118469
0.069641 0.088531 0.118347
0.075714 0.088989 0.118225
0.082825 0.089233 0.118195
0.090790 0.089539 0.118195
0.100494 0.089722 0.118164
0.111603 0.089874 0.118164
0.125427 0.090088 0.118164
0.141388 0.090302 0.118164
0.159515 0.090424 0.118164
0.179779 0.090515 0.118164
0.203217 0.090240 0.118164
0.229340 0.089874 0.118164
0.258911 0.089081 0.118164
0.290955 0.088165 0.118164
0.323181 0.086884 0.118164
0.355011 0.085571 0.118164
0.384644 0.083801 0.118164
0.412415 0.082062 0.118164
0.439514 0.079620 0.118164
0.466003 0.076935 0.118164
0.489960 0.073914 0.118164
0.511230 0.070709 0.118164
0.528961 0.068359 0.118164
0.543579 0.065826 0.118164
0.556183 0.064514 0.118164
0.567322 0.063690 0.118164
0.577972 0.063293 0.118164
0.588257 0.063232 0.118164
0.597687 0.063171 0.118164
0.606140 0.063171 0.118164
0.613403 0.063171 0.118164
0.618774 0.063171 0.118164
0.623627 0.063171 0.118164
0.627625 0.063171 0.118164
0.631378 0.063171 0.118164
0.634430 0.063171 0.118164
0.636963 0.063171 0.118164
0.638489 0.063171 0.118164
0.639923 0.063171 0.118164
0.641266 0.063171 0.118164
0.642548 0.063171 0.118164
0.643280 0.063171 0.118164
0.644043 0.063171 0.118164
0.644623 0.063171 0.118164
0.645172 0.063171 0.118164
0.645660 0.063171 0.118164
0.646057 0.063171 0.118164
0.646301 0.063171 0.118164
0.646515 0.063171 0.118164
0.646667 0.063171 0.118164
0.646790 0.063171 0.118164
0.036133 0.096588 0.119415
0.036133 0.096161 0.119293
0.036224 0.095612 0.119202
0.036804 0.095459 0.119080
0.037964 0.095245 0.118988
0.040100 0.095276 0.118927
0.042145 0.095001 0.118835
0.045319 0.094757 0.118774
0.048157 0.094482 0.118683
0.052460 0.094025 0.118622
0.056396 0.093628 0.118500
0.060822 0.093323 0.118469
0.065216 0.093109 0.118347
0.070251 0.092804 0.118317
0.076385 0.093231 0.118195
0.083710 0.093536 0.118164
0.091736 0.093872 0.118164
0.101776 0.094269 0.118164
0.113037 0.094452 0.118164
0.126923 0.094727 0.118164
0.143097 0.095001 0.118164
0.160522 0.095123 0.118164
0.180725 0.095215 0.118164
0.204285 0.095245 0.118164
0.230499 0.094940 0.118164
0.260040 0.094482 0.118164
0.292175 0.093658 0.118164
0.324036 0.092712 0.118164
0.355865 0.091370 0.118164
0.385895 0.090057 0.118164
0.413757 0.088348 0.118164
0.440735 0.086578 0.118164
0.467010 0.084015 0.118164
0.491547 0.081451 0.118164
0.513184 0.078400 0.118164
0.532074 0.075287 0.118164
0.547302 0.072693 0.118164
0.560211 0.070251 0.118164
0.571259 0.068878 0.118164
0.582031 0.067413 0.118164
0.592346 0.066345 0.118164
0.602020 0.065369 0.118164
0.610718 0.064240 0.118164
0.618286 0.063965 0.118164
0.623932 0.063538 0.118164
0.628967 0.063446 0.118164
0.633118 0.063232 0.118164
0.636902 0.063232 0.118164
0.640167 0.063171 0.118164
0.642975 0.063171 0.118164
