LUTs/SPK Cube Block1 S64/TheBrim_SPK_Type-Z_Block1_S64.cube
TITLE "TheBrim® Industrial Imaging Burau"
# © Copyright 2022 - TheBrim® d.o.o. Croatia
LUT_3D_SIZE 4
DOMAIN_MIN 0.000000 0.000000 0.000000
DOMAIN_MAX 1.000000 1.000000 1.000000
0.000000 0.000000 0.000000
0.000000 0.000000 0.000000
0.008636 0.008636 0.008636
0.101624 0.101624 0.101624
0.008606 0.008606 0.008606
0.093475 0.093475 0.093475
0.354706 0.354706 0.354706
0.631195 0.631195 0.631195
0.347473 0.347473 0.347473
0.621216 0.621216 0.621216
0.808472 0.808472 0.808472
0.940704 0.940704 0.940704
0.803711 0.803711 0.803711
0.938354 0.938354 0.938354
0.992157 0.992157 0.992157
1.000000 1.000000 1.000000
0.000000 0.000000 0.000000
0.000000 0.000000 0.000000
0.025879 0.025879 0.025879
0.196198 0.196198 0.196198
0.023712 0.023712 0.023712
0.187683 0.187683 0.187683
0.454895 0.454895 0.454895
0.702728 0.702728 0.702728
0.446838 0.446838 0.446838
0.697937 0.697937 0.697937
0.864990 0.864990 0.864990
0.970947 0.970947 0.970947
0.860291 0.860291 0.860291
0.968567 0.968567 0.968567
1.000000 1.000000 1.000000
1.000000 1.000000 1.000000
0.000000 0.000000 0.000000
0.002594 0.002594 0.002594
0.056885 0.056885 0.056885
0.295624 0.295624 0.295624
0.054108 0.054108 0.054108
0.286469 0.286469 0.286469
0.555634 0.555634 0.555634
0.768341 0.768341 0.768341
0.548920 0.548920 0.548920
0.762299 0.762299 0.762299
0.913696 0.913696 0.913696
0.985504 0.985504 0.985504
0.908936 0.908936 0.908936
0.984314 0.984314 0.984314
1.000000 1.000000 1.000000
1.000000 1.000000 1.000000
0.000000 0.000000 0.000000
0.011932 0.011932 0.011932
0.126099 0.126099 0.126099
0.390717 0.390717 0.390717
0.118011 0.118011 0.118011
0.381927 0.381927 0.381927
0.651550 0.651550 0.651550
0.831482 0.831482 0.831482
0.644379 0.644379 0.644379
0.824341 0.824341 0.824341
0.947845 0.947845 0.947845
0.996063 0.996063 0.996063
0.945526 0.945526 0.945526
0.996063 0.996063 0.996063
1.000000 1.000000 1.000000
1.000000 1.000000 1.000000
