LUTs/SPK Cube Block1 S64/TheBrim_SPK_Type-D_Block1_S64.cube
TITLE "TheBrim® SPK Block 1"
# TheBrim® d.o.o. Croatia
# Copyright: (C) Copyright 2020 TheBrim® d.o.o. Croatia
LUT_3D_SIZE 4
0.0066220000 0.0100400000 0.0125730000
0.1307680000 0.0280150000 0.0000000000
0.5018010000 0.1072690000 0.0094910000
0.5883480000 0.1204830000 0.0037230000
0.0000000000 0.0829770000 0.0163880000
0.1970210000 0.1339110000 0.0000000000
0.6702270000 0.2692570000 0.0050050000
0.7543030000 0.3236690000 0.0008850000
0.0115660000 0.4263920000 0.1884770000
0.3201900000 0.5732730000 0.0000000000
0.8766480000 0.7192380000 0.0140990000
0.9402770000 0.7457280000 0.0247190000
0.0000000000 0.5433650000 0.2090450000
0.3825380000 0.6687620000 0.0000000000
0.8861390000 0.8022160000 0.0080870000
0.9773250000 0.8161320000 0.0066530000
0.0000000000 0.0436710000 0.1221920000
0.1238100000 0.0000000000 0.1103820000
0.5238650000 0.0000000000 0.1130680000
0.6178590000 0.0000000000 0.1419370000
0.0000000000 0.1527400000 0.2003780000
0.2034300000 0.1820980000 0.1597600000
0.6954040000 0.2297360000 0.1460880000
0.8174130000 0.2746890000 0.2194210000
0.0101320000 0.5016780000 0.3540950000
0.0490720000 0.5988770000 0.2403870000
0.8948970000 0.7660220000 0.0000000000
1.0000000000 0.8060000000 0.1900330000
0.0000000000 0.6479190000 0.5396420000
0.0000000000 0.7268980000 0.4801640000
0.8637390000 0.8797910000 0.4699400000
1.0000000000 0.9034420000 0.4876710000
0.0036010000 0.1881710000 0.3850100000
0.1462400000 0.0000000000 0.4065250000
0.5670780000 0.0000000000 0.4677430000
0.6598510000 0.0000000000 0.4990230000
0.0000000000 0.3358760000 0.5374450000
0.0641780000 0.2687680000 0.5940250000
0.7011110000 0.2764280000 0.6561890000
0.8280940000 0.3141780000 0.7045590000
0.0136110000 0.6206050000 0.7069400000
0.0000000000 0.7352600000 0.7708130000
0.8218080000 0.8706050000 0.8212890000
0.9821470000 0.8702090000 0.8512880000
0.0000000000 0.7142330000 0.7869260000
0.0174560000 0.8152470000 0.8520200000
0.8156130000 0.9539490000 0.9051510000
0.9999390000 0.9843440000 0.9173280000
0.0000000000 0.2549440000 0.5023500000
0.1225280000 0.0000000000 0.5467830000
0.5798030000 0.0000000000 0.6253360000
0.7016910000 0.0000000000 0.6580510000
0.0000000000 0.3868410000 0.6262210000
0.0019840000 0.3678280000 0.7040710000
0.6950990000 0.3204650000 0.8236390000
0.8405760000 0.3472900000 0.8442690000
0.0022280000 0.6223450000 0.7571720000
0.0128480000 0.7402650000 0.8611150000
0.7873840000 0.8595890000 0.9665220000
0.9746090000 0.8831480000 0.9772030000
0.0063780000 0.7248540000 0.8344730000
0.0000000000 0.8220210000 0.9087520000
0.7926030000 0.9658810000 0.9873960000
0.9974370000 0.9978330000 0.9984130000
