LUTs/SPK Cube Block1 S64/TheBrim_SPK_Type-H_Block1_S64.cube
TITLE "TheBrim® SPK Block 1"
# © Copyright 2021 - TheBrim® d.o.o. Croatia
LUT_3D_SIZE 8
DOMAIN_MIN 0.000000 0.000000 0.000000
DOMAIN_MAX 1.000000 1.000000 1.000000
0.068330 0.020264 0.046204
0.086732 0.021332 0.044831
0.165774 0.024323 0.038087
0.392584 0.012207 0.018524
0.617884 0.017456 0.015930
0.759152 0.021576 0.015229
0.798642 0.022736 0.015473
0.803555 0.022889 0.015534
0.069306 0.052033 0.060212
0.080720 0.047852 0.051850
0.163149 0.041474 0.038849
0.334417 0.026978 0.020966
0.575586 0.016236 0.016175
0.748867 0.021271 0.015259
0.805112 0.022919 0.015534
0.816800 0.023285 0.015656
0.075593 0.143648 0.101778
0.073732 0.122591 0.079805
0.136660 0.117952 0.051423
0.299718 0.108614 0.023651
0.507561 0.070039 0.016419
0.751156 0.021332 0.015259
0.846677 0.024170 0.015961
0.851804 0.024323 0.016022
0.099763 0.330480 0.203708
0.095766 0.309819 0.189914
0.087678 0.260685 0.124666
0.277195 0.272953 0.035035
0.489204 0.251682 0.018769
0.699153 0.204990 0.015900
0.852537 0.149081 0.018921
0.866850 0.130159 0.019043
0.118288 0.413672 0.256901
0.118135 0.412940 0.253147
0.119417 0.415869 0.188266
0.289982 0.462165 0.080720
0.509697 0.488960 0.044495
0.708644 0.491218 0.043153
0.827604 0.462593 0.046906
0.843656 0.413519 0.041657
0.140475 0.503136 0.259861
0.141360 0.506493 0.254887
0.161563 0.526513 0.222660
0.377050 0.576562 0.140261
0.565911 0.653651 0.069001
0.775692 0.706294 0.079591
0.887449 0.725612 0.086702
0.898589 0.676814 0.080690
0.229953 0.537102 0.207736
0.284764 0.549828 0.194949
0.372351 0.578149 0.165438
0.474556 0.623346 0.114504
0.618524 0.704768 0.075227
0.784054 0.777066 0.088869
0.904204 0.815457 0.096864
0.937530 0.797360 0.096284
0.394812 0.587243 0.156802
0.414618 0.595300 0.151888
0.462867 0.617914 0.120851
0.556237 0.668269 0.071168
0.669703 0.731746 0.078584
0.796994 0.784787 0.090272
0.895171 0.819486 0.096895
0.941985 0.847898 0.100252
0.067903 0.023224 0.078431
0.074678 0.021393 0.066438
0.155154 0.023102 0.050202
0.418524 0.012146 0.019104
0.629664 0.017792 0.015869
0.762661 0.021698 0.015198
0.798642 0.022736 0.015473
0.804746 0.022919 0.015534
0.066163 0.043702 0.084840
0.075227 0.036133 0.062318
0.170108 0.032441 0.044465
0.344396 0.022492 0.022950
0.588251 0.016602 0.016083
0.755612 0.021485 0.015229
0.802945 0.022858 0.015503
0.818540 0.023316 0.015686
0.077852 0.168338 0.119478
0.074464 0.131258 0.090455
0.135012 0.113405 0.053773
0.304265 0.101503 0.026062
0.518547 0.056977 0.016388
0.755184 0.021454 0.015229
0.842924 0.024048 0.015930
0.853269 0.024353 0.016022
0.099580 0.329503 0.203311
0.096437 0.313298 0.192111
0.087495 0.259281 0.124056
0.280613 0.270024 0.034333
0.492958 0.245731 0.018555
0.702907 0.194034 0.015839
0.856107 0.140230 0.018708
0.871611 0.122011 0.018982
0.118196 0.413275 0.256931
0.118013 0.412360 0.253056
0.119448 0.415961 0.187076
0.292424 0.461738 0.078553
0.511650 0.486732 0.044068
0.709102 0.484291 0.042023
0.827970 0.456092 0.046082
0.845029 0.403540 0.040406
0.140566 0.503502 0.259434
0.141360 0.506554 0.254673
0.162661 0.526665 0.222385
0.377447 0.576623 0.139376
0.566217 0.652705 0.068849
0.777249 0.705959 0.079622
0.888029 0.724361 0.086580
0.902556 0.687068 0.082155
0.243473 0.539391 0.204257
0.294041 0.552239 0.191592
0.377447 0.580194 0.163363
0.479835 0.626184 0.110842
0.621271 0.706172 0.075410
0.786374 0.778561 0.089143
0.906279 0.820890 0.097322
0.944488 0.822141 0.098360
0.402899 0.590539 0.154940
0.422827 0.599145 0.149111
0.471504 0.621973 0.116243
0.562951 0.672023 0.071565
0.676478 0.735317 0.079316
0.800015 0.786557 0.090547
0.896513 0.819425 0.096956
0.945647 0.878050 0.102632
0.071138 0.039826 0.194766
0.071168 0.044251 0.213321
0.137148 0.038941 0.170077
0.355138 0.025696 0.132723
0.663844 0.014710 0.097749
0.793301 0.021180 0.043275
0.817197 0.023285 0.015656
0.822568 0.023438 0.015869
0.070222 0.047059 0.189517
0.070588 0.042145 0.178378
0.134249 0.036957 0.136172
0.331273 0.028290 0.108980
0.621729 0.014618 0.075563
0.778866 0.021332 0.031800
0.819516 0.023346 0.015686
0.837095 0.023865 0.016205
0.077241 0.157931 0.239414
0.073793 0.124453 0.189090
0.122927 0.104952 0.138064
0.283482 0.095125 0.098482
0.524163 0.057282 0.066712
0.769436 0.021210 0.028504
0.857664 0.024506 0.016083
0.869841 0.024842 0.016205
0.100008 0.335882 0.280491
0.097108 0.320745 0.268528
0.086885 0.262516 0.195285
0.262882 0.265232 0.132753
0.504143 0.240269 0.070558
0.715785 0.191592 0.016480
0.873228 0.131594 0.019623
0.885924 0.116457 0.019837
0.118196 0.413306 0.259525
0.118044 0.412604 0.257939
0.118929 0.414282 0.203311
0.284092 0.457496 0.128084
0.512016 0.494087 0.045289
0.712184 0.488930 0.042939
0.833555 0.446357 0.045228
0.849393 0.401160 0.040467
0.140719 0.504082 0.260441
0.141390 0.506676 0.254185
0.162661 0.526665 0.222385
0.379065 0.578302 0.146273
0.566827 0.656764 0.069398
0.780117 0.733333 0.083345
0.893370 0.752865 0.090486
0.913878 0.721920 0.087068
0.266239 0.544671 0.200320
0.312444 0.557153 0.185306
0.386908 0.584802 0.165011
0.484077 0.631037 0.142092
0.620905 0.720699 0.143587
0.787930 0.812314 0.091981
0.910704 0.865354 0.100832
0.949523 0.877562 0.102693
0.415991 0.595941 0.151400
0.435584 0.605005 0.141054
0.485512 0.629389 0.105898
0.576898 0.680018 0.072389
0.690883 0.743557 0.080964
0.806302 0.795895 0.091524
0.901366 0.865751 0.100649
0.948699 0.913420 0.146548
0.075380 0.066590 0.301915
0.076570 0.071015 0.324376
0.105318 0.071839 0.326909
0.299626 0.060883 0.297307
0.608728 0.010040 0.262425
0.851133 0.014801 0.206149
0.871366 0.018128 0.151308
0.875212 0.018738 0.141939
0.076265 0.072816 0.315740
0.077028 0.073213 0.332372
0.102602 0.074311 0.340642
0.323522 0.058930 0.293889
0.630549 0.010376 0.246494
0.844938 0.015381 0.190738
0.877134 0.018738 0.142550
0.889067 0.019135 0.141878
0.082429 0.136324 0.377874
0.079469 0.116487 0.339849
0.112764 0.103517 0.287480
0.289372 0.097932 0.235813
0.556481 0.063233 0.213779
0.840696 0.015656 0.182589
0.919127 0.019867 0.145480
0.923919 0.020172 0.141848
0.107210 0.355200 0.461341
0.104250 0.340063 0.445319
0.089143 0.271489 0.356359
0.250492 0.263127 0.282322
0.505364 0.230533 0.218265
0.758999 0.178134 0.182681
0.920989 0.125460 0.145174
0.929259 0.110597 0.138643
0.128176 0.450782 0.448829
0.128054 0.450477 0.449531
0.126467 0.440833 0.396918
0.245609 0.487373 0.361151
0.493721 0.504753 0.296300
0.726040 0.492226 0.238712
0.862333 0.438117 0.172122
0.897002 0.404547 0.169863
0.149935 0.534874 0.418738
0.150210 0.536065 0.416419
0.151553 0.542931 0.386725
0.310735 0.601038 0.357855
0.557092 0.687251 0.315587
0.773587 0.768643 0.290349
0.894591 0.792599 0.235508
0.914336 0.756313 0.194247
0.157290 0.567987 0.366217
0.205844 0.579431 0.361089
0.337713 0.605158 0.343816
0.455848 0.655695 0.336156
0.622156 0.744442 0.338933
0.790738 0.830503 0.346929
0.912993 0.894255 0.303655
0.950134 0.903532 0.283177
0.414801 0.611261 0.236271
0.432868 0.620050 0.233158
0.484352 0.648035 0.229618
0.575525 0.701747 0.229984
0.683223 0.777432 0.264866
0.807401 0.837583 0.299657
0.903990 0.889220 0.351720
0.951995 0.921386 0.401984
0.082399 0.084443 0.424292
0.082918 0.085359 0.434882
0.128023 0.084871 0.433051
0.288731 0.079683 0.414252
0.572320 0.024079 0.381384
0.862943 0.012909 0.335363
0.915282 0.013245 0.283696
0.927855 0.013733 0.279210
0.083406 0.092836 0.437720
0.083497 0.090333 0.442206
0.129976 0.089509 0.438544
0.302068 0.081697 0.415106
0.598016 0.019715 0.380743
0.866148 0.012848 0.331395
0.934020 0.013581 0.293400
0.946715 0.014130 0.285771
0.087373 0.144289 0.489601
0.086671 0.133852 0.482490
0.104067 0.124666 0.476387
0.301305 0.112581 0.439338
0.589532 0.072419 0.397070
0.899107 0.013367 0.352819
0.986542 0.014618 0.316320
0.987915 0.015015 0.300633
0.110811 0.353246 0.598199
0.110658 0.352422 0.598016
0.095216 0.271550 0.518303
0.259159 0.254734 0.456123
0.532067 0.236088 0.399878
0.812924 0.187198 0.366491
0.980133 0.128511 0.327306
0.982452 0.115419 0.310857
0.134005 0.478828 0.608240
0.133944 0.478462 0.608118
0.131014 0.468666 0.568627
0.146242 0.517327 0.578515
0.502464 0.524132 0.484749
0.744106 0.494057 0.429755
0.888273 0.443336 0.382483
0.915923 0.404730 0.361151
0.151247 0.559716 0.577264
0.151339 0.559777 0.575280
0.155398 0.575006 0.566644
0.201450 0.655055 0.581262
0.554559 0.720211 0.525139
0.781064 0.788602 0.515190
0.899870 0.795407 0.474617
0.917174 0.756130 0.437720
0.165255 0.609491 0.527947
0.168429 0.622278 0.530755
0.288609 0.652949 0.512596
0.461738 0.706966 0.504417
0.626947 0.770901 0.500725
0.795499 0.843900 0.510613
0.913878 0.891844 0.495796
0.950225 0.901915 0.487251
0.387671 0.652430 0.425544
0.415473 0.663264 0.424323
0.480720 0.692317 0.425696
0.577447 0.733822 0.434943
0.692378 0.792142 0.453315
0.814939 0.845670 0.470283
0.911315 0.894438 0.502647
0.955138 0.924346 0.553643
0.085267 0.113527 0.466529
0.095460 0.112459 0.465949
0.145296 0.106538 0.453803
0.270237 0.101717 0.435248
0.468910 0.077028 0.402106
0.731716 0.013245 0.380255
0.928710 0.013367 0.347814
0.976532 0.014069 0.326818
0.086061 0.124208 0.476173
0.089693 0.120607 0.473762
0.141146 0.114504 0.462074
0.270726 0.109133 0.441840
0.471931 0.087861 0.409461
0.744747 0.013947 0.388586
0.942901 0.013733 0.357031
0.989593 0.014221 0.336156
0.089265 0.169100 0.514916
0.088472 0.157839 0.506157
0.134279 0.149416 0.494606
0.279759 0.139498 0.465095
0.488441 0.121584 0.431861
0.763119 0.061219 0.407599
0.991608 0.015991 0.389441
1.000000 0.016968 0.373358
0.107149 0.325109 0.631159
0.106325 0.320592 0.628016
0.098421 0.277012 0.599420
0.272648 0.268711 0.562249
0.543206 0.245426 0.508446
0.804715 0.208316 0.482490
0.980713 0.164736 0.453956
1.000000 0.139010 0.423102
0.140230 0.494453 0.714473
0.140200 0.494148 0.714626
0.140444 0.494240 0.720455
0.151400 0.545830 0.758541
0.497719 0.544762 0.676234
0.753994 0.514153 0.605859
0.910277 0.449775 0.561669
0.936919 0.414862 0.536126
0.154208 0.572412 0.704250
0.154726 0.575097 0.704921
0.159915 0.599054 0.719600
0.180484 0.680598 0.756680
0.569726 0.759304 0.723293
0.778714 0.811460 0.682399
0.910735 0.819150 0.658900
0.929900 0.775265 0.630945
0.168795 0.639704 0.664759
0.172732 0.655543 0.669947
0.182284 0.692256 0.685115
0.438727 0.738399 0.655573
0.637110 0.801236 0.660731
0.801907 0.874723 0.667140
0.922271 0.915282 0.674586
0.956176 0.921508 0.669520
0.368231 0.703700 0.599023
0.405829 0.715145 0.601221
0.471199 0.736568 0.601801
0.590143 0.775235 0.597803
0.709834 0.826596 0.611810
0.829953 0.880491 0.632959
0.924529 0.923613 0.663478
0.957702 0.943816 0.701381
0.087129 0.138949 0.489631
0.095247 0.136599 0.487404
0.144381 0.132418 0.478035
0.240757 0.125643 0.458656
0.397864 0.110903 0.430488
0.576715 0.081575 0.407904
0.847227 0.014618 0.384588
0.983795 0.014160 0.363073
0.087709 0.147097 0.496803
0.094911 0.144930 0.494636
0.144289 0.142000 0.486366
0.239231 0.136080 0.467231
0.395880 0.122835 0.439216
0.581262 0.093080 0.414496
0.850980 0.015778 0.396368
0.998474 0.014649 0.373327
0.090303 0.183444 0.527337
0.090059 0.179599 0.525078
0.138308 0.173190 0.514885
0.243687 0.164309 0.489876
0.409064 0.153079 0.460212
0.587274 0.127504 0.432776
0.847166 0.082277 0.417639
1.000000 0.033570 0.412604
0.100771 0.289891 0.607355
0.097414 0.271550 0.594812
0.096559 0.264775 0.591028
0.251530 0.259495 0.560143
0.434852 0.260380 0.532433
0.638056 0.258335 0.509667
0.852171 0.244175 0.495888
0.979278 0.221683 0.480171
0.136995 0.474617 0.724575
0.137606 0.477089 0.729000
0.145052 0.509972 0.764706
0.185885 0.549584 0.791257
0.512413 0.546471 0.719417
0.731472 0.525628 0.643519
0.844419 0.516564 0.622675
0.915343 0.483986 0.593103
0.153872 0.555108 0.778866
0.154452 0.557641 0.781460
0.173404 0.630060 0.844877
0.196475 0.708309 0.890898
0.568139 0.775509 0.842557
0.779934 0.824979 0.772396
0.904631 0.828611 0.756649
0.927642 0.787472 0.731594
0.177890 0.663447 0.805875
0.182345 0.678950 0.815061
0.190890 0.709957 0.834470
0.425025 0.755032 0.808499
0.627131 0.815488 0.807492
0.811490 0.896117 0.777554
0.925109 0.932403 0.786801
0.952331 0.934508 0.784848
0.319280 0.722683 0.749233
0.374945 0.729915 0.742123
0.472297 0.760006 0.743282
0.589929 0.794858 0.746853
0.722347 0.848234 0.730678
0.844236 0.906615 0.751278
0.930083 0.941070 0.770718
0.958068 0.955169 0.786557
0.088838 0.162417 0.510613
0.090211 0.159792 0.508629
0.136843 0.155825 0.500084
0.209567 0.149477 0.481788
0.347509 0.139742 0.456703
0.499123 0.120882 0.430396
0.691615 0.080201 0.410651
0.914305 0.016449 0.399420
0.089448 0.170993 0.518059
0.090517 0.168673 0.516686
0.136446 0.163943 0.507347
0.209140 0.156863 0.488106
0.350958 0.147951 0.462684
0.504784 0.130953 0.436530
0.694392 0.091341 0.415259
0.922484 0.033539 0.408789
0.091524 0.201724 0.541344
0.091402 0.199680 0.540398
0.129976 0.195590 0.533349
0.215183 0.184176 0.509331
0.352911 0.175631 0.485389
0.510216 0.160372 0.456428
0.693965 0.148531 0.444739
0.904967 0.130709 0.440925
0.097353 0.271183 0.594690
0.096864 0.267887 0.592706
0.096132 0.260594 0.587823
0.228305 0.256413 0.563775
0.362249 0.262303 0.543877
0.560174 0.278202 0.526787
0.745327 0.291295 0.522698
0.899687 0.298405 0.518059
0.132418 0.450050 0.723232
0.134096 0.457435 0.731960
0.138979 0.479530 0.752987
0.289616 0.502922 0.741146
0.463752 0.515679 0.711788
0.639765 0.538262 0.677485
0.783261 0.555016 0.651362
0.872862 0.565270 0.638514
0.171084 0.620661 0.843992
0.176059 0.636652 0.855009
0.187686 0.674891 0.878599
0.370611 0.720150 0.858244
0.614618 0.776120 0.832151
0.782223 0.818204 0.768734
0.877226 0.831144 0.762112
0.923156 0.839139 0.756649
0.192264 0.689876 0.889189
0.195834 0.702052 0.897673
0.202670 0.732143 0.913298
0.444739 0.776059 0.880705
0.661799 0.840299 0.868589
0.828153 0.906065 0.814664
0.925139 0.935454 0.816709
0.950286 0.940520 0.813718
0.325689 0.741299 0.852110
0.367468 0.747280 0.846036
0.474647 0.776303 0.839780
0.601892 0.814481 0.839200
0.750576 0.874418 0.813504
0.860166 0.924559 0.812863
0.936034 0.952728 0.825010
0.959869 0.964752 0.831968
