LUTs/SPK Cube Block1 S64/TheBrim_SPK_Type-S_Block1_S64.cube
TITLE "TheBrim® Industrial Imaging Burau"
# © Copyright 2022 - TheBrim® d.o.o. Croatia
LUT_3D_SIZE 64
DOMAIN_MIN 0.000000 0.000000 0.000000
DOMAIN_MAX 1.000000 1.000000 1.000000
0.000061 0.000061 0.000031
0.000061 0.000061 0.000031
0.000488 0.000061 0.000031
0.001587 0.000061 0.000031
0.003357 0.000061 0.000031
0.006531 0.000061 0.000031
0.011108 0.000061 0.000031
0.016571 0.000061 0.000031
0.022705 0.000061 0.000031
0.030212 0.000061 0.000031
0.039185 0.000061 0.000031
0.049286 0.000061 0.000031
0.060547 0.000061 0.000031
0.073029 0.000061 0.000031
0.086639 0.000061 0.000031
0.100952 0.000061 0.000031
0.116089 0.000061 0.000031
0.132385 0.000061 0.000031
0.150024 0.000061 0.000031
0.170258 0.000061 0.000031
0.193451 0.000061 0.000031
0.217590 0.000061 0.000031
0.242523 0.000061 0.000031
0.267944 0.000061 0.000031
0.294556 0.000061 0.000031
0.322388 0.000061 0.000031
0.350189 0.000061 0.000031
0.377106 0.000061 0.000031
0.402496 0.000061 0.000031
0.428345 0.000061 0.000031
0.456909 0.000061 0.000031
0.488953 0.000061 0.000031
0.520874 0.000061 0.000031
0.549377 0.000061 0.000031
0.576538 0.000061 0.000031
0.604279 0.000061 0.000031
0.632751 0.000061 0.000031
0.660950 0.000061 0.000031
0.689301 0.000061 0.000031
0.717529 0.000061 0.000031
0.745148 0.000061 0.000031
0.771484 0.000061 0.000031
0.797211 0.000061 0.000031
0.826447 0.000061 0.000031
0.853729 0.000061 0.000031
0.879028 0.000061 0.000031
0.905670 0.000061 0.000031
0.923004 0.000061 0.000031
0.938660 0.000061 0.000031
0.952667 0.000061 0.000031
0.964752 0.000061 0.000031
0.976562 0.000061 0.000031
0.984314 0.000061 0.000031
0.989563 0.000061 0.000031
0.992767 0.000061 0.000031
0.995178 0.000061 0.000031
0.997131 0.000061 0.000031
0.998657 0.000061 0.000031
0.999817 0.000061 0.000031
0.999878 0.000061 0.000031
0.999878 0.000061 0.000031
0.999878 0.000061 0.000031
0.999878 0.000061 0.000031
0.999878 0.000061 0.000031
0.000061 0.000061 0.000031
0.000061 0.000061 0.000031
0.000488 0.000061 0.000031
0.001587 0.000061 0.000031
0.003357 0.000061 0.000031
0.006531 0.000061 0.000031
0.011108 0.000061 0.000031
0.016571 0.000061 0.000031
0.022705 0.000061 0.000031
0.030212 0.000061 0.000031
0.039185 0.000061 0.000031
0.049286 0.000061 0.000031
0.060547 0.000061 0.000031
0.073029 0.000061 0.000031
0.086639 0.000061 0.000031
0.100952 0.000061 0.000031
0.116089 0.000061 0.000031
0.132385 0.000061 0.000031
0.150024 0.000061 0.000031
0.170258 0.000061 0.000031
0.193451 0.000061 0.000031
0.217590 0.000061 0.000031
0.242523 0.000061 0.000031
0.267944 0.000061 0.000031
0.294556 0.000061 0.000031
0.322388 0.000061 0.000031
0.350189 0.000061 0.000031
0.377106 0.000061 0.000031
0.402496 0.000061 0.000031
0.428345 0.000061 0.000031
0.456909 0.000061 0.000031
0.488953 0.000061 0.000031
0.520874 0.000061 0.000031
0.549377 0.000061 0.000031
0.576538 0.000061 0.000031
0.604279 0.000061 0.000031
0.632751 0.000061 0.000031
0.660950 0.000061 0.000031
0.689301 0.000061 0.000031
0.717529 0.000061 0.000031
0.745148 0.000061 0.000031
0.771484 0.000061 0.000031
0.797211 0.000061 0.000031
0.826447 0.000061 0.000031
0.853729 0.000061 0.000031
0.879028 0.000061 0.000031
0.905670 0.000061 0.000031
0.923004 0.000061 0.000031
0.938660 0.000061 0.000031
0.952667 0.000061 0.000031
0.964752 0.000061 0.000031
0.976562 0.000061 0.000031
0.984314 0.000061 0.000031
0.989563 0.000061 0.000031
0.992767 0.000061 0.000031
0.995178 0.000061 0.000031
0.997131 0.000061 0.000031
0.998657 0.000061 0.000031
0.999817 0.000061 0.000031
0.999878 0.000061 0.000031
0.999878 0.000061 0.000031
0.999878 0.000061 0.000031
0.999878 0.000061 0.000031
0.999878 0.000061 0.000031
0.000061 0.000732 0.000031
0.000061 0.000732 0.000031
0.000488 0.000732 0.000031
0.001587 0.000732 0.000031
0.003357 0.000732 0.000031
0.006531 0.000732 0.000031
0.011108 0.000732 0.000031
0.016571 0.000732 0.000031
0.022705 0.000732 0.000031
0.030212 0.000732 0.000031
0.039185 0.000732 0.000031
0.049286 0.000732 0.000031
0.060547 0.000732 0.000031
0.073029 0.000732 0.000031
0.086639 0.000732 0.000031
0.100952 0.000732 0.000031
0.116089 0.000732 0.000031
0.132385 0.000732 0.000031
0.150024 0.000732 0.000031
0.170258 0.000732 0.000031
0.193451 0.000732 0.000031
0.217590 0.000732 0.000031
0.242523 0.000732 0.000031
0.267944 0.000732 0.000031
0.294556 0.000732 0.000031
0.322388 0.000732 0.000031
0.350189 0.000732 0.000031
0.377106 0.000732 0.000031
0.402496 0.000732 0.000031
0.428345 0.000732 0.000031
0.456909 0.000732 0.000031
0.488953 0.000732 0.000031
0.520874 0.000732 0.000031
0.549377 0.000732 0.000031
0.576538 0.000732 0.000031
0.604279 0.000732 0.000031
0.632751 0.000732 0.000031
0.660950 0.000732 0.000031
0.689301 0.000732 0.000031
0.717529 0.000732 0.000031
0.745148 0.000732 0.000031
0.771484 0.000732 0.000031
0.797211 0.000732 0.000031
0.826447 0.000732 0.000031
0.853729 0.000732 0.000031
0.879028 0.000732 0.000031
0.905670 0.000732 0.000031
0.923004 0.000732 0.000031
0.938660 0.000732 0.000031
0.952667 0.000732 0.000031
0.964752 0.000732 0.000031
0.976562 0.000732 0.000031
0.984314 0.000732 0.000031
0.989563 0.000732 0.000031
0.992767 0.000732 0.000031
0.995178 0.000732 0.000031
0.997131 0.000732 0.000031
0.998657 0.000732 0.000031
0.999817 0.000732 0.000031
0.999878 0.000732 0.000031
0.999878 0.000732 0.000031
0.999878 0.000732 0.000031
0.999878 0.000732 0.000031
0.999878 0.000732 0.000031
0.000061 0.002960 0.000031
0.000061 0.002960 0.000031
0.000488 0.002960 0.000031
0.001587 0.002960 0.000031
0.003357 0.002960 0.000031
0.006531 0.002960 0.000031
0.011108 0.002960 0.000031
0.016571 0.002960 0.000031
0.022705 0.002960 0.000031
0.030212 0.002960 0.000031
0.039185 0.002960 0.000031
0.049286 0.002960 0.000031
0.060547 0.002960 0.000031
0.073029 0.002960 0.000031
0.086639 0.002960 0.000031
0.100952 0.002960 0.000031
0.116089 0.002960 0.000031
0.132385 0.002960 0.000031
0.150024 0.002960 0.000031
0.170258 0.002960 0.000031
0.193451 0.002960 0.000031
0.217590 0.002960 0.000031
0.242523 0.002960 0.000031
0.267944 0.002960 0.000031
0.294556 0.002960 0.000031
0.322388 0.002960 0.000031
0.350189 0.002960 0.000031
0.377106 0.002960 0.000031
0.402496 0.002960 0.000031
0.428345 0.002960 0.000031
0.456909 0.002960 0.000031
0.488953 0.002960 0.000031
0.520874 0.002960 0.000031
0.549377 0.002960 0.000031
0.576538 0.002960 0.000031
0.604279 0.002960 0.000031
0.632751 0.002960 0.000031
0.660950 0.002960 0.000031
0.689301 0.002960 0.000031
0.717529 0.002960 0.000031
0.745148 0.002960 0.000031
0.771484 0.002960 0.000031
0.797211 0.002960 0.000031
0.826447 0.002960 0.000031
0.853729 0.002960 0.000031
0.879028 0.002960 0.000031
0.905670 0.002960 0.000031
0.923004 0.002960 0.000031
0.938660 0.002960 0.000031
0.952667 0.002960 0.000031
0.964752 0.002960 0.000031
0.976562 0.002960 0.000031
0.984314 0.002960 0.000031
0.989563 0.002960 0.000031
0.992767 0.002960 0.000031
0.995178 0.002960 0.000031
0.997131 0.002960 0.000031
0.998657 0.002960 0.000031
0.999817 0.002960 0.000031
0.999878 0.002960 0.000031
0.999878 0.002960 0.000031
0.999878 0.002960 0.000031
0.999878 0.002960 0.000031
0.999878 0.002960 0.000031
0.000061 0.007568 0.000031
0.000061 0.007568 0.000031
0.000488 0.007568 0.000031
0.001587 0.007568 0.000031
0.003357 0.007568 0.000031
0.006531 0.007568 0.000031
0.011108 0.007568 0.000031
0.016571 0.007568 0.000031
0.022705 0.007568 0.000031
0.030212 0.007568 0.000031
0.039185 0.007568 0.000031
0.049286 0.007568 0.000031
0.060547 0.007568 0.000031
0.073029 0.007568 0.000031
0.086639 0.007568 0.000031
0.100952 0.007568 0.000031
0.116089 0.007568 0.000031
0.132385 0.007568 0.000031
0.150024 0.007568 0.000031
0.170258 0.007568 0.000031
0.193451 0.007568 0.000031
0.217590 0.007568 0.000031
0.242523 0.007568 0.000031
0.267944 0.007568 0.000031
0.294556 0.007568 0.000031
0.322388 0.007568 0.000031
0.350189 0.007568 0.000031
0.377106 0.007568 0.000031
0.402496 0.007568 0.000031
0.428345 0.007568 0.000031
0.456909 0.007568 0.000031
0.488953 0.007568 0.000031
0.520874 0.007568 0.000031
0.549377 0.007568 0.000031
0.576538 0.007568 0.000031
0.604279 0.007568 0.000031
0.632751 0.007568 0.000031
0.660950 0.007568 0.000031
0.689301 0.007568 0.000031
0.717529 0.007568 0.000031
0.745148 0.007568 0.000031
0.771484 0.007568 0.000031
0.797211 0.007568 0.000031
0.826447 0.007568 0.000031
0.853729 0.007568 0.000031
0.879028 0.007568 0.000031
0.905670 0.007568 0.000031
0.923004 0.007568 0.000031
0.938660 0.007568 0.000031
0.952667 0.007568 0.000031
0.964752 0.007568 0.000031
0.976562 0.007568 0.000031
0.984314 0.007568 0.000031
0.989563 0.007568 0.000031
0.992767 0.007568 0.000031
0.995178 0.007568 0.000031
0.997131 0.007568 0.000031
0.998657 0.007568 0.000031
0.999817 0.007568 0.000031
0.999878 0.007568 0.000031
0.999878 0.007568 0.000031
0.999878 0.007568 0.000031
0.999878 0.007568 0.000031
0.999878 0.007568 0.000031
0.000061 0.014954 0.000031
0.000061 0.014954 0.000031
0.000488 0.014954 0.000031
0.001587 0.014954 0.000031
0.003357 0.014954 0.000031
0.006531 0.014954 0.000031
0.011108 0.014954 0.000031
0.016571 0.014954 0.000031
0.022705 0.014954 0.000031
0.030212 0.014954 0.000031
0.039185 0.014954 0.000031
0.049286 0.014954 0.000031
0.060547 0.014954 0.000031
0.073029 0.014954 0.000031
0.086639 0.014954 0.000031
0.100952 0.014954 0.000031
0.116089 0.014954 0.000031
0.132385 0.014954 0.000031
0.150024 0.014954 0.000031
0.170258 0.014954 0.000031
0.193451 0.014954 0.000031
0.217590 0.014954 0.000031
0.242523 0.014954 0.000031
0.267944 0.014954 0.000031
0.294556 0.014954 0.000031
0.322388 0.014954 0.000031
0.350189 0.014954 0.000031
0.377106 0.014954 0.000031
0.402496 0.014954 0.000031
0.428345 0.014954 0.000031
0.456909 0.014954 0.000031
0.488953 0.014954 0.000031
0.520874 0.014954 0.000031
0.549377 0.014954 0.000031
0.576538 0.014954 0.000031
0.604279 0.014954 0.000031
0.632751 0.014954 0.000031
0.660950 0.014954 0.000031
0.689301 0.014954 0.000031
0.717529 0.014954 0.000031
0.745148 0.014954 0.000031
0.771484 0.014954 0.000031
0.797211 0.014954 0.000031
0.826447 0.014954 0.000031
0.853729 0.014954 0.000031
0.879028 0.014954 0.000031
0.905670 0.014954 0.000031
0.923004 0.014954 0.000031
0.938660 0.014954 0.000031
0.952667 0.014954 0.000031
0.964752 0.014954 0.000031
0.976562 0.014954 0.000031
0.984314 0.014954 0.000031
0.989563 0.014954 0.000031
0.992767 0.014954 0.000031
0.995178 0.014954 0.000031
0.997131 0.014954 0.000031
0.998657 0.014954 0.000031
0.999817 0.014954 0.000031
0.999878 0.014954 0.000031
0.999878 0.014954 0.000031
0.999878 0.014954 0.000031
0.999878 0.014954 0.000031
0.999878 0.014954 0.000031
0.000061 0.025238 0.000031
0.000061 0.025238 0.000031
0.000488 0.025238 0.000031
0.001587 0.025238 0.000031
0.003357 0.025238 0.000031
0.006531 0.025238 0.000031
0.011108 0.025238 0.000031
0.016571 0.025238 0.000031
0.022705 0.025238 0.000031
0.030212 0.025238 0.000031
0.039185 0.025238 0.000031
0.049286 0.025238 0.000031
0.060547 0.025238 0.000031
0.073029 0.025238 0.000031
0.086639 0.025238 0.000031
0.100952 0.025238 0.000031
0.116089 0.025238 0.000031
0.132385 0.025238 0.000031
0.150024 0.025238 0.000031
0.170258 0.025238 0.000031
0.193451 0.025238 0.000031
0.217590 0.025238 0.000031
0.242523 0.025238 0.000031
0.267944 0.025238 0.000031
0.294556 0.025238 0.000031
0.322388 0.025238 0.000031
0.350189 0.025238 0.000031
0.377106 0.025238 0.000031
0.402496 0.025238 0.000031
0.428345 0.025238 0.000031
0.456909 0.025238 0.000031
0.488953 0.025238 0.000031
0.520874 0.025238 0.000031
0.549377 0.025238 0.000031
0.576538 0.025238 0.000031
0.604279 0.025238 0.000031
0.632751 0.025238 0.000031
0.660950 0.025238 0.000031
0.689301 0.025238 0.000031
0.717529 0.025238 0.000031
0.745148 0.025238 0.000031
0.771484 0.025238 0.000031
0.797211 0.025238 0.000031
0.826447 0.025238 0.000031
0.853729 0.025238 0.000031
0.879028 0.025238 0.000031
0.905670 0.025238 0.000031
0.923004 0.025238 0.000031
0.938660 0.025238 0.000031
0.952667 0.025238 0.000031
0.964752 0.025238 0.000031
0.976562 0.025238 0.000031
0.984314 0.025238 0.000031
0.989563 0.025238 0.000031
0.992767 0.025238 0.000031
0.995178 0.025238 0.000031
0.997131 0.025238 0.000031
0.998657 0.025238 0.000031
0.999817 0.025238 0.000031
0.999878 0.025238 0.000031
0.999878 0.025238 0.000031
0.999878 0.025238 0.000031
0.999878 0.025238 0.000031
0.999878 0.025238 0.000031
0.000061 0.036469 0.000031
0.000061 0.036469 0.000031
0.000488 0.036469 0.000031
0.001587 0.036469 0.000031
0.003357 0.036469 0.000031
0.006531 0.036469 0.000031
0.011108 0.036469 0.000031
0.016571 0.036469 0.000031
0.022705 0.036469 0.000031
0.030212 0.036469 0.000031
0.039185 0.036469 0.000031
0.049286 0.036469 0.000031
0.060547 0.036469 0.000031
0.073029 0.036469 0.000031
0.086639 0.036469 0.000031
0.100952 0.036469 0.000031
0.116089 0.036469 0.000031
0.132385 0.036469 0.000031
0.150024 0.036469 0.000031
0.170258 0.036469 0.000031
0.193451 0.036469 0.000031
0.217590 0.036469 0.000031
0.242523 0.036469 0.000031
0.267944 0.036469 0.000031
0.294556 0.036469 0.000031
0.322388 0.036469 0.000031
0.350189 0.036469 0.000031
0.377106 0.036469 0.000031
0.402496 0.036469 0.000031
0.428345 0.036469 0.000031
0.456909 0.036469 0.000031
0.488953 0.036469 0.000031
0.520874 0.036469 0.000031
0.549377 0.036469 0.000031
0.576538 0.036469 0.000031
0.604279 0.036469 0.000031
0.632751 0.036469 0.000031
0.660950 0.036469 0.000031
0.689301 0.036469 0.000031
0.717529 0.036469 0.000031
0.745148 0.036469 0.000031
0.771484 0.036469 0.000031
0.797211 0.036469 0.000031
0.826447 0.036469 0.000031
0.853729 0.036469 0.000031
0.879028 0.036469 0.000031
0.905670 0.036469 0.000031
0.923004 0.036469 0.000031
0.938660 0.036469 0.000031
0.952667 0.036469 0.000031
0.964752 0.036469 0.000031
0.976562 0.036469 0.000031
0.984314 0.036469 0.000031
0.989563 0.036469 0.000031
0.992767 0.036469 0.000031
0.995178 0.036469 0.000031
0.997131 0.036469 0.000031
0.998657 0.036469 0.000031
0.999817 0.036469 0.000031
0.999878 0.036469 0.000031
0.999878 0.036469 0.000031
0.999878 0.036469 0.000031
0.999878 0.036469 0.000031
0.999878 0.036469 0.000031
0.000061 0.047607 0.000031
0.000061 0.047607 0.000031
0.000488 0.047607 0.000031
0.001587 0.047607 0.000031
0.003357 0.047607 0.000031
0.006531 0.047607 0.000031
0.011108 0.047607 0.000031
0.016571 0.047607 0.000031
0.022705 0.047607 0.000031
0.030212 0.047607 0.000031
0.039185 0.047607 0.000031
0.049286 0.047607 0.000031
0.060547 0.047607 0.000031
0.073029 0.047607 0.000031
0.086639 0.047607 0.000031
0.100952 0.047607 0.000031
0.116089 0.047607 0.000031
0.132385 0.047607 0.000031
0.150024 0.047607 0.000031
0.170258 0.047607 0.000031
0.193451 0.047607 0.000031
0.217590 0.047607 0.000031
0.242523 0.047607 0.000031
0.267944 0.047607 0.000031
0.294556 0.047607 0.000031
0.322388 0.047607 0.000031
0.350189 0.047607 0.000031
0.377106 0.047607 0.000031
0.402496 0.047607 0.000031
0.428345 0.047607 0.000031
0.456909 0.047607 0.000031
0.488953 0.047607 0.000031
0.520874 0.047607 0.000031
0.549377 0.047607 0.000031
0.576538 0.047607 0.000031
0.604279 0.047607 0.000031
0.632751 0.047607 0.000031
0.660950 0.047607 0.000031
0.689301 0.047607 0.000031
0.717529 0.047607 0.000031
0.745148 0.047607 0.000031
0.771484 0.047607 0.000031
0.797211 0.047607 0.000031
0.826447 0.047607 0.000031
0.853729 0.047607 0.000031
0.879028 0.047607 0.000031
0.905670 0.047607 0.000031
0.923004 0.047607 0.000031
0.938660 0.047607 0.000031
0.952667 0.047607 0.000031
0.964752 0.047607 0.000031
0.976562 0.047607 0.000031
0.984314 0.047607 0.000031
0.989563 0.047607 0.000031
0.992767 0.047607 0.000031
0.995178 0.047607 0.000031
0.997131 0.047607 0.000031
0.998657 0.047607 0.000031
0.999817 0.047607 0.000031
0.999878 0.047607 0.000031
0.999878 0.047607 0.000031
0.999878 0.047607 0.000031
0.999878 0.047607 0.000031
0.999878 0.047607 0.000031
0.000061 0.058594 0.000031
0.000061 0.058594 0.000031
0.000488 0.058594 0.000031
0.001587 0.058594 0.000031
0.003357 0.058594 0.000031
0.006531 0.058594 0.000031
0.011108 0.058594 0.000031
0.016571 0.058594 0.000031
0.022705 0.058594 0.000031
0.030212 0.058594 0.000031
0.039185 0.058594 0.000031
0.049286 0.058594 0.000031
0.060547 0.058594 0.000031
0.073029 0.058594 0.000031
0.086639 0.058594 0.000031
0.100952 0.058594 0.000031
0.116089 0.058594 0.000031
0.132385 0.058594 0.000031
0.150024 0.058594 0.000031
0.170258 0.058594 0.000031
0.193451 0.058594 0.000031
0.217590 0.058594 0.000031
0.242523 0.058594 0.000031
0.267944 0.058594 0.000031
0.294556 0.058594 0.000031
0.322388 0.058594 0.000031
0.350189 0.058594 0.000031
0.377106 0.058594 0.000031
0.402496 0.058594 0.000031
0.428345 0.058594 0.000031
0.456909 0.058594 0.000031
0.488953 0.058594 0.000031
0.520874 0.058594 0.000031
0.549377 0.058594 0.000031
0.576538 0.058594 0.000031
0.604279 0.058594 0.000031
0.632751 0.058594 0.000031
0.660950 0.058594 0.000031
0.689301 0.058594 0.000031
0.717529 0.058594 0.000031
0.745148 0.058594 0.000031
0.771484 0.058594 0.000031
0.797211 0.058594 0.000031
0.826447 0.058594 0.000031
0.853729 0.058594 0.000031
0.879028 0.058594 0.000031
0.905670 0.058594 0.000031
0.923004 0.058594 0.000031
0.938660 0.058594 0.000031
0.952667 0.058594 0.000031
0.964752 0.058594 0.000031
0.976562 0.058594 0.000031
0.984314 0.058594 0.000031
0.989563 0.058594 0.000031
0.992767 0.058594 0.000031
0.995178 0.058594 0.000031
0.997131 0.058594 0.000031
0.998657 0.058594 0.000031
0.999817 0.058594 0.000031
0.999878 0.058594 0.000031
0.999878 0.058594 0.000031
0.999878 0.058594 0.000031
0.999878 0.058594 0.000031
0.999878 0.058594 0.000031
0.000061 0.069824 0.000031
0.000061 0.069824 0.000031
0.000488 0.069824 0.000031
0.001587 0.069824 0.000031
0.003357 0.069824 0.000031
0.006531 0.069824 0.000031
0.011108 0.069824 0.000031
0.016571 0.069824 0.000031
0.022705 0.069824 0.000031
0.030212 0.069824 0.000031
0.039185 0.069824 0.000031
0.049286 0.069824 0.000031
0.060547 0.069824 0.000031
0.073029 0.069824 0.000031
0.086639 0.069824 0.000031
0.100952 0.069824 0.000031
0.116089 0.069824 0.000031
0.132385 0.069824 0.000031
0.150024 0.069824 0.000031
0.170258 0.069824 0.000031
0.193451 0.069824 0.000031
0.217590 0.069824 0.000031
0.242523 0.069824 0.000031
0.267944 0.069824 0.000031
0.294556 0.069824 0.000031
0.322388 0.069824 0.000031
0.350189 0.069824 0.000031
0.377106 0.069824 0.000031
0.402496 0.069824 0.000031
0.428345 0.069824 0.000031
0.456909 0.069824 0.000031
0.488953 0.069824 0.000031
0.520874 0.069824 0.000031
0.549377 0.069824 0.000031
0.576538 0.069824 0.000031
0.604279 0.069824 0.000031
0.632751 0.069824 0.000031
0.660950 0.069824 0.000031
0.689301 0.069824 0.000031
0.717529 0.069824 0.000031
0.745148 0.069824 0.000031
0.771484 0.069824 0.000031
0.797211 0.069824 0.000031
0.826447 0.069824 0.000031
0.853729 0.069824 0.000031
0.879028 0.069824 0.000031
0.905670 0.069824 0.000031
0.923004 0.069824 0.000031
0.938660 0.069824 0.000031
0.952667 0.069824 0.000031
0.964752 0.069824 0.000031
0.976562 0.069824 0.000031
0.984314 0.069824 0.000031
0.989563 0.069824 0.000031
0.992767 0.069824 0.000031
0.995178 0.069824 0.000031
0.997131 0.069824 0.000031
0.998657 0.069824 0.000031
0.999817 0.069824 0.000031
0.999878 0.069824 0.000031
0.999878 0.069824 0.000031
0.999878 0.069824 0.000031
0.999878 0.069824 0.000031
0.999878 0.069824 0.000031
0.000061 0.081329 0.000031
0.000061 0.081329 0.000031
0.000488 0.081329 0.000031
0.001587 0.081329 0.000031
0.003357 0.081329 0.000031
0.006531 0.081329 0.000031
0.011108 0.081329 0.000031
0.016571 0.081329 0.000031
0.022705 0.081329 0.000031
0.030212 0.081329 0.000031
0.039185 0.081329 0.000031
0.049286 0.081329 0.000031
0.060547 0.081329 0.000031
0.073029 0.081329 0.000031
0.086639 0.081329 0.000031
0.100952 0.081329 0.000031
0.116089 0.081329 0.000031
0.132385 0.081329 0.000031
0.150024 0.081329 0.000031
0.170258 0.081329 0.000031
0.193451 0.081329 0.000031
0.217590 0.081329 0.000031
0.242523 0.081329 0.000031
0.267944 0.081329 0.000031
0.294556 0.081329 0.000031
0.322388 0.081329 0.000031
0.350189 0.081329 0.000031
0.377106 0.081329 0.000031
0.402496 0.081329 0.000031
0.428345 0.081329 0.000031
0.456909 0.081329 0.000031
0.488953 0.081329 0.000031
0.520874 0.081329 0.000031
0.549377 0.081329 0.000031
0.576538 0.081329 0.000031
0.604279 0.081329 0.000031
0.632751 0.081329 0.000031
0.660950 0.081329 0.000031
0.689301 0.081329 0.000031
0.717529 0.081329 0.000031
0.745148 0.081329 0.000031
0.771484 0.081329 0.000031
0.797211 0.081329 0.000031
0.826447 0.081329 0.000031
0.853729 0.081329 0.000031
0.879028 0.081329 0.000031
0.905670 0.081329 0.000031
0.923004 0.081329 0.000031
0.938660 0.081329 0.000031
0.952667 0.081329 0.000031
0.964752 0.081329 0.000031
0.976562 0.081329 0.000031
0.984314 0.081329 0.000031
0.989563 0.081329 0.000031
0.992767 0.081329 0.000031
0.995178 0.081329 0.000031
0.997131 0.081329 0.000031
0.998657 0.081329 0.000031
0.999817 0.081329 0.000031
0.999878 0.081329 0.000031
0.999878 0.081329 0.000031
0.999878 0.081329 0.000031
0.999878 0.081329 0.000031
0.999878 0.081329 0.000031
0.000061 0.093781 0.000031
0.000061 0.093781 0.000031
0.000488 0.093781 0.000031
0.001587 0.093781 0.000031
0.003357 0.093781 0.000031
0.006531 0.093781 0.000031
0.011108 0.093781 0.000031
0.016571 0.093781 0.000031
0.022705 0.093781 0.000031
0.030212 0.093781 0.000031
0.039185 0.093781 0.000031
0.049286 0.093781 0.000031
0.060547 0.093781 0.000031
0.073029 0.093781 0.000031
0.086639 0.093781 0.000031
0.100952 0.093781 0.000031
0.116089 0.093781 0.000031
0.132385 0.093781 0.000031
0.150024 0.093781 0.000031
0.170258 0.093781 0.000031
0.193451 0.093781 0.000031
0.217590 0.093781 0.000031
0.242523 0.093781 0.000031
0.267944 0.093781 0.000031
0.294556 0.093781 0.000031
0.322388 0.093781 0.000031
0.350189 0.093781 0.000031
0.377106 0.093781 0.000031
0.402496 0.093781 0.000031
0.428345 0.093781 0.000031
0.456909 0.093781 0.000031
0.488953 0.093781 0.000031
0.520874 0.093781 0.000031
0.549377 0.093781 0.000031
0.576538 0.093781 0.000031
0.604279 0.093781 0.000031
0.632751 0.093781 0.000031
0.660950 0.093781 0.000031
0.689301 0.093781 0.000031
0.717529 0.093781 0.000031
0.745148 0.093781 0.000031
0.771484 0.093781 0.000031
0.797211 0.093781 0.000031
0.826447 0.093781 0.000031
0.853729 0.093781 0.000031
0.879028 0.093781 0.000031
0.905670 0.093781 0.000031
0.923004 0.093781 0.000031
0.938660 0.093781 0.000031
0.952667 0.093781 0.000031
0.964752 0.093781 0.000031
0.976562 0.093781 0.000031
0.984314 0.093781 0.000031
0.989563 0.093781 0.000031
0.992767 0.093781 0.000031
0.995178 0.093781 0.000031
0.997131 0.093781 0.000031
0.998657 0.093781 0.000031
0.999817 0.093781 0.000031
0.999878 0.093781 0.000031
0.999878 0.093781 0.000031
0.999878 0.093781 0.000031
0.999878 0.093781 0.000031
0.999878 0.093781 0.000031
0.000061 0.107025 0.000031
0.000061 0.107025 0.000031
0.000488 0.107025 0.000031
0.001587 0.107025 0.000031
0.003357 0.107025 0.000031
0.006531 0.107025 0.000031
0.011108 0.107025 0.000031
0.016571 0.107025 0.000031
0.022705 0.107025 0.000031
0.030212 0.107025 0.000031
0.039185 0.107025 0.000031
0.049286 0.107025 0.000031
0.060547 0.107025 0.000031
0.073029 0.107025 0.000031
0.086639 0.107025 0.000031
0.100952 0.107025 0.000031
0.116089 0.107025 0.000031
0.132385 0.107025 0.000031
0.150024 0.107025 0.000031
0.170258 0.107025 0.000031
0.193451 0.107025 0.000031
0.217590 0.107025 0.000031
0.242523 0.107025 0.000031
0.267944 0.107025 0.000031
0.294556 0.107025 0.000031
0.322388 0.107025 0.000031
0.350189 0.107025 0.000031
0.377106 0.107025 0.000031
0.402496 0.107025 0.000031
0.428345 0.107025 0.000031
0.456909 0.107025 0.000031
0.488953 0.107025 0.000031
0.520874 0.107025 0.000031
0.549377 0.107025 0.000031
0.576538 0.107025 0.000031
0.604279 0.107025 0.000031
0.632751 0.107025 0.000031
0.660950 0.107025 0.000031
0.689301 0.107025 0.000031
0.717529 0.107025 0.000031
0.745148 0.107025 0.000031
0.771484 0.107025 0.000031
0.797211 0.107025 0.000031
0.826447 0.107025 0.000031
0.853729 0.107025 0.000031
0.879028 0.107025 0.000031
0.905670 0.107025 0.000031
0.923004 0.107025 0.000031
0.938660 0.107025 0.000031
0.952667 0.107025 0.000031
