LUTs/SPK Cube Block1 S64/TheBrim_SPK_Type-M_Block1_S64.cube
TITLE "TheBrim® SPK Block 1"
# © Copyright 2021 - TheBrim® d.o.o. Croatia
LUT_3D_SIZE 4
DOMAIN_MIN 0.000000 0.000000 0.000000
DOMAIN_MAX 1.000000 1.000000 1.000000
0.011200 0.001984 0.018219
0.135561 0.005035 0.017731
0.481849 0.004730 0.016266
0.637385 0.020722 0.027955
0.007446 0.135409 0.022309
0.142153 0.157015 0.030030
0.562890 0.168093 0.023346
0.724666 0.119478 0.027253
0.007446 0.409583 0.023743
0.063447 0.463569 0.039704
0.638727 0.605982 0.046052
0.891417 0.613458 0.035279
0.017060 0.510369 0.039185
0.064363 0.569116 0.043549
0.577752 0.733669 0.064515
0.913512 0.777035 0.050446
0.009857 0.000610 0.165957
0.138186 0.003143 0.163058
0.514031 0.004486 0.136629
0.666224 0.011048 0.086885
0.007446 0.171359 0.222538
0.155154 0.180972 0.209598
0.600519 0.177829 0.169924
0.751766 0.117769 0.116762
0.007446 0.476051 0.253300
0.072084 0.531487 0.233463
0.667384 0.659205 0.231785
0.911315 0.653620 0.085237
0.007446 0.568841 0.255680
0.071290 0.640742 0.235843
0.624598 0.797452 0.303166
0.922606 0.833433 0.137972
0.018128 0.003052 0.369635
0.138979 0.003967 0.408301
0.520500 0.006104 0.428992
0.683558 0.010040 0.408911
0.007446 0.194614 0.500969
0.079347 0.200534 0.522362
0.609400 0.193790 0.541070
0.771176 0.133333 0.520653
0.007446 0.534173 0.585260
0.070344 0.594476 0.612970
0.695277 0.705837 0.636561
0.904631 0.705470 0.616876
0.007446 0.625666 0.592279
0.070375 0.700252 0.624414
0.691096 0.855772 0.651514
0.910307 0.885801 0.675868
0.023194 0.006683 0.462867
0.125612 0.007416 0.503502
0.510399 0.009033 0.552789
0.688441 0.019562 0.555596
0.007446 0.203464 0.599817
0.067079 0.211643 0.632898
0.606348 0.202487 0.682338
0.779934 0.148653 0.678065
0.007446 0.547417 0.692470
0.067750 0.608179 0.733150
0.679713 0.728115 0.795743
0.897765 0.733944 0.794430
0.007446 0.635004 0.699947
0.074617 0.723507 0.750515
0.713680 0.874266 0.807279
0.913725 0.896391 0.807614
