LUTs/SPK Cube Block1 S64/TheBrim_SPK_Type-S_Block1_S64.cube
TITLE "TheBrim® Industrial Imaging Burau"
# © Copyright 2022 - TheBrim® d.o.o. Croatia
LUT_3D_SIZE 8
DOMAIN_MIN 0.000000 0.000000 0.000000
DOMAIN_MAX 1.000000 1.000000 1.000000
0.000061 0.000061 0.000031
0.030212 0.000061 0.000031
0.150024 0.000061 0.000031
0.377106 0.000061 0.000031
0.632751 0.000061 0.000031
0.879028 0.000061 0.000031
0.992767 0.000061 0.000031
0.999878 0.000061 0.000031
0.000061 0.058594 0.000031
0.030212 0.058594 0.000031
0.150024 0.058594 0.000031
0.377106 0.058594 0.000031
0.632751 0.058594 0.000031
0.879028 0.058594 0.000031
0.992767 0.058594 0.000031
0.999878 0.058594 0.000031
0.000061 0.180725 0.000031
0.030212 0.180725 0.000031
0.150024 0.180725 0.000031
0.377106 0.180725 0.000031
0.632751 0.180725 0.000031
0.879028 0.180725 0.000031
0.992767 0.180725 0.000031
0.999878 0.180725 0.000031
0.000061 0.378876 0.000031
0.030212 0.378876 0.000031
0.150024 0.378876 0.000031
0.377106 0.378876 0.000031
0.632751 0.378876 0.000031
0.879028 0.378876 0.000031
0.992767 0.378876 0.000031
0.999878 0.378876 0.000031
0.000061 0.614349 0.000031
0.030212 0.614349 0.000031
0.150024 0.614349 0.000031
0.377106 0.614349 0.000031
0.632751 0.614349 0.000031
0.879028 0.614349 0.000031
0.992767 0.614349 0.000031
0.999878 0.614349 0.000031
0.000061 0.873444 0.000031
0.030212 0.873444 0.000031
0.150024 0.873444 0.000031
0.377106 0.873444 0.000031
0.632751 0.873444 0.000031
0.879028 0.873444 0.000031
0.992767 0.873444 0.000031
0.999878 0.873444 0.000031
0.000061 0.985870 0.000031
0.030212 0.985870 0.000031
0.150024 0.985870 0.000031
0.377106 0.985870 0.000031
0.632751 0.985870 0.000031
0.879028 0.985870 0.000031
0.992767 0.985870 0.000031
0.999878 0.985870 0.000031
0.000061 0.997498 0.000031
0.030212 0.997498 0.000031
0.150024 0.997498 0.000031
0.377106 0.997498 0.000031
0.632751 0.997498 0.000031
0.879028 0.997498 0.000031
0.992767 0.997498 0.000031
0.999878 0.997498 0.000031
0.000061 0.000061 0.067383
0.030212 0.000061 0.067383
0.150024 0.000061 0.067383
0.377106 0.000061 0.067383
0.632751 0.000061 0.067383
0.879028 0.000061 0.067383
0.992767 0.000061 0.067383
0.999878 0.000061 0.067383
0.000061 0.058594 0.067383
0.030212 0.058594 0.067383
0.150024 0.058594 0.067383
0.377106 0.058594 0.067383
0.632751 0.058594 0.067383
0.879028 0.058594 0.067383
0.992767 0.058594 0.067383
0.999878 0.058594 0.067383
0.000061 0.180725 0.067383
0.030212 0.180725 0.067383
0.150024 0.180725 0.067383
0.377106 0.180725 0.067383
0.632751 0.180725 0.067383
0.879028 0.180725 0.067383
0.992767 0.180725 0.067383
0.999878 0.180725 0.067383
0.000061 0.378876 0.067383
0.030212 0.378876 0.067383
0.150024 0.378876 0.067383
0.377106 0.378876 0.067383
0.632751 0.378876 0.067383
0.879028 0.378876 0.067383
0.992767 0.378876 0.067383
0.999878 0.378876 0.067383
0.000061 0.614349 0.067383
0.030212 0.614349 0.067383
0.150024 0.614349 0.067383
0.377106 0.614349 0.067383
0.632751 0.614349 0.067383
0.879028 0.614349 0.067383
0.992767 0.614349 0.067383
0.999878 0.614349 0.067383
0.000061 0.873444 0.067383
0.030212 0.873444 0.067383
0.150024 0.873444 0.067383
0.377106 0.873444 0.067383
0.632751 0.873444 0.067383
0.879028 0.873444 0.067383
0.992767 0.873444 0.067383
0.999878 0.873444 0.067383
0.000061 0.985870 0.067383
0.030212 0.985870 0.067383
0.150024 0.985870 0.067383
0.377106 0.985870 0.067383
0.632751 0.985870 0.067383
0.879028 0.985870 0.067383
0.992767 0.985870 0.067383
0.999878 0.985870 0.067383
0.000061 0.997498 0.067383
0.030212 0.997498 0.067383
0.150024 0.997498 0.067383
0.377106 0.997498 0.067383
0.632751 0.997498 0.067383
0.879028 0.997498 0.067383
0.992767 0.997498 0.067383
0.999878 0.997498 0.067383
0.000061 0.000061 0.196686
0.030212 0.000061 0.196686
0.150024 0.000061 0.196686
0.377106 0.000061 0.196686
0.632751 0.000061 0.196686
0.879028 0.000061 0.196686
0.992767 0.000061 0.196686
0.999878 0.000061 0.196686
0.000061 0.058594 0.196686
0.030212 0.058594 0.196686
0.150024 0.058594 0.196686
0.377106 0.058594 0.196686
0.632751 0.058594 0.196686
0.879028 0.058594 0.196686
0.992767 0.058594 0.196686
0.999878 0.058594 0.196686
0.000061 0.180725 0.196686
0.030212 0.180725 0.196686
0.150024 0.180725 0.196686
0.377106 0.180725 0.196686
0.632751 0.180725 0.196686
0.879028 0.180725 0.196686
0.992767 0.180725 0.196686
0.999878 0.180725 0.196686
0.000061 0.378876 0.196686
0.030212 0.378876 0.196686
0.150024 0.378876 0.196686
0.377106 0.378876 0.196686
0.632751 0.378876 0.196686
0.879028 0.378876 0.196686
0.992767 0.378876 0.196686
0.999878 0.378876 0.196686
0.000061 0.614349 0.196686
0.030212 0.614349 0.196686
0.150024 0.614349 0.196686
0.377106 0.614349 0.196686
0.632751 0.614349 0.196686
0.879028 0.614349 0.196686
0.992767 0.614349 0.196686
0.999878 0.614349 0.196686
0.000061 0.873444 0.196686
0.030212 0.873444 0.196686
0.150024 0.873444 0.196686
0.377106 0.873444 0.196686
0.632751 0.873444 0.196686
0.879028 0.873444 0.196686
0.992767 0.873444 0.196686
0.999878 0.873444 0.196686
0.000061 0.985870 0.196686
0.030212 0.985870 0.196686
0.150024 0.985870 0.196686
0.377106 0.985870 0.196686
0.632751 0.985870 0.196686
0.879028 0.985870 0.196686
0.992767 0.985870 0.196686
0.999878 0.985870 0.196686
0.000061 0.997498 0.196686
0.030212 0.997498 0.196686
0.150024 0.997498 0.196686
0.377106 0.997498 0.196686
0.632751 0.997498 0.196686
0.879028 0.997498 0.196686
0.992767 0.997498 0.196686
0.999878 0.997498 0.196686
0.000061 0.000061 0.387970
0.030212 0.000061 0.387970
0.150024 0.000061 0.387970
0.377106 0.000061 0.387970
0.632751 0.000061 0.387970
0.879028 0.000061 0.387970
0.992767 0.000061 0.387970
0.999878 0.000061 0.387970
0.000061 0.058594 0.387970
0.030212 0.058594 0.387970
0.150024 0.058594 0.387970
0.377106 0.058594 0.387970
0.632751 0.058594 0.387970
0.879028 0.058594 0.387970
0.992767 0.058594 0.387970
0.999878 0.058594 0.387970
0.000061 0.180725 0.387970
0.030212 0.180725 0.387970
0.150024 0.180725 0.387970
0.377106 0.180725 0.387970
0.632751 0.180725 0.387970
0.879028 0.180725 0.387970
0.992767 0.180725 0.387970
0.999878 0.180725 0.387970
0.000061 0.378876 0.387970
0.030212 0.378876 0.387970
0.150024 0.378876 0.387970
0.377106 0.378876 0.387970
0.632751 0.378876 0.387970
0.879028 0.378876 0.387970
0.992767 0.378876 0.387970
0.999878 0.378876 0.387970
0.000061 0.614349 0.387970
0.030212 0.614349 0.387970
0.150024 0.614349 0.387970
0.377106 0.614349 0.387970
0.632751 0.614349 0.387970
0.879028 0.614349 0.387970
0.992767 0.614349 0.387970
0.999878 0.614349 0.387970
0.000061 0.873444 0.387970
0.030212 0.873444 0.387970
0.150024 0.873444 0.387970
0.377106 0.873444 0.387970
0.632751 0.873444 0.387970
0.879028 0.873444 0.387970
0.992767 0.873444 0.387970
0.999878 0.873444 0.387970
0.000061 0.985870 0.387970
0.030212 0.985870 0.387970
0.150024 0.985870 0.387970
0.377106 0.985870 0.387970
0.632751 0.985870 0.387970
0.879028 0.985870 0.387970
0.992767 0.985870 0.387970
0.999878 0.985870 0.387970
0.000061 0.997498 0.387970
0.030212 0.997498 0.387970
0.150024 0.997498 0.387970
0.377106 0.997498 0.387970
0.632751 0.997498 0.387970
0.879028 0.997498 0.387970
0.992767 0.997498 0.387970
0.999878 0.997498 0.387970
0.000061 0.000061 0.584595
0.030212 0.000061 0.584595
0.150024 0.000061 0.584595
0.377106 0.000061 0.584595
0.632751 0.000061 0.584595
0.879028 0.000061 0.584595
0.992767 0.000061 0.584595
0.999878 0.000061 0.584595
0.000061 0.058594 0.584595
0.030212 0.058594 0.584595
0.150024 0.058594 0.584595
0.377106 0.058594 0.584595
0.632751 0.058594 0.584595
0.879028 0.058594 0.584595
0.992767 0.058594 0.584595
0.999878 0.058594 0.584595
0.000061 0.180725 0.584595
0.030212 0.180725 0.584595
0.150024 0.180725 0.584595
0.377106 0.180725 0.584595
0.632751 0.180725 0.584595
0.879028 0.180725 0.584595
0.992767 0.180725 0.584595
0.999878 0.180725 0.584595
0.000061 0.378876 0.584595
0.030212 0.378876 0.584595
0.150024 0.378876 0.584595
0.377106 0.378876 0.584595
0.632751 0.378876 0.584595
0.879028 0.378876 0.584595
0.992767 0.378876 0.584595
0.999878 0.378876 0.584595
0.000061 0.614349 0.584595
0.030212 0.614349 0.584595
0.150024 0.614349 0.584595
0.377106 0.614349 0.584595
0.632751 0.614349 0.584595
0.879028 0.614349 0.584595
0.992767 0.614349 0.584595
0.999878 0.614349 0.584595
0.000061 0.873444 0.584595
0.030212 0.873444 0.584595
0.150024 0.873444 0.584595
0.377106 0.873444 0.584595
0.632751 0.873444 0.584595
0.879028 0.873444 0.584595
0.992767 0.873444 0.584595
0.999878 0.873444 0.584595
0.000061 0.985870 0.584595
0.030212 0.985870 0.584595
0.150024 0.985870 0.584595
0.377106 0.985870 0.584595
0.632751 0.985870 0.584595
0.879028 0.985870 0.584595
0.992767 0.985870 0.584595
0.999878 0.985870 0.584595
0.000061 0.997498 0.584595
0.030212 0.997498 0.584595
0.150024 0.997498 0.584595
0.377106 0.997498 0.584595
0.632751 0.997498 0.584595
0.879028 0.997498 0.584595
0.992767 0.997498 0.584595
0.999878 0.997498 0.584595
0.000061 0.000061 0.801971
0.030212 0.000061 0.801971
0.150024 0.000061 0.801971
0.377106 0.000061 0.801971
0.632751 0.000061 0.801971
0.879028 0.000061 0.801971
0.992767 0.000061 0.801971
0.999878 0.000061 0.801971
0.000061 0.058594 0.801971
0.030212 0.058594 0.801971
0.150024 0.058594 0.801971
0.377106 0.058594 0.801971
0.632751 0.058594 0.801971
0.879028 0.058594 0.801971
0.992767 0.058594 0.801971
0.999878 0.058594 0.801971
0.000061 0.180725 0.801971
0.030212 0.180725 0.801971
0.150024 0.180725 0.801971
0.377106 0.180725 0.801971
0.632751 0.180725 0.801971
0.879028 0.180725 0.801971
0.992767 0.180725 0.801971
0.999878 0.180725 0.801971
0.000061 0.378876 0.801971
0.030212 0.378876 0.801971
0.150024 0.378876 0.801971
0.377106 0.378876 0.801971
0.632751 0.378876 0.801971
0.879028 0.378876 0.801971
0.992767 0.378876 0.801971
0.999878 0.378876 0.801971
0.000061 0.614349 0.801971
0.030212 0.614349 0.801971
0.150024 0.614349 0.801971
0.377106 0.614349 0.801971
0.632751 0.614349 0.801971
0.879028 0.614349 0.801971
0.992767 0.614349 0.801971
0.999878 0.614349 0.801971
0.000061 0.873444 0.801971
0.030212 0.873444 0.801971
0.150024 0.873444 0.801971
0.377106 0.873444 0.801971
0.632751 0.873444 0.801971
0.879028 0.873444 0.801971
0.992767 0.873444 0.801971
0.999878 0.873444 0.801971
0.000061 0.985870 0.801971
0.030212 0.985870 0.801971
0.150024 0.985870 0.801971
0.377106 0.985870 0.801971
0.632751 0.985870 0.801971
0.879028 0.985870 0.801971
0.992767 0.985870 0.801971
0.999878 0.985870 0.801971
0.000061 0.997498 0.801971
0.030212 0.997498 0.801971
0.150024 0.997498 0.801971
0.377106 0.997498 0.801971
0.632751 0.997498 0.801971
0.879028 0.997498 0.801971
0.992767 0.997498 0.801971
0.999878 0.997498 0.801971
0.000061 0.000061 0.972412
0.030212 0.000061 0.972412
0.150024 0.000061 0.972412
0.377106 0.000061 0.972412
0.632751 0.000061 0.972412
0.879028 0.000061 0.972412
0.992767 0.000061 0.972412
0.999878 0.000061 0.972412
0.000061 0.058594 0.972412
0.030212 0.058594 0.972412
0.150024 0.058594 0.972412
0.377106 0.058594 0.972412
0.632751 0.058594 0.972412
0.879028 0.058594 0.972412
0.992767 0.058594 0.972412
0.999878 0.058594 0.972412
0.000061 0.180725 0.972412
0.030212 0.180725 0.972412
0.150024 0.180725 0.972412
0.377106 0.180725 0.972412
0.632751 0.180725 0.972412
0.879028 0.180725 0.972412
0.992767 0.180725 0.972412
0.999878 0.180725 0.972412
0.000061 0.378876 0.972412
0.030212 0.378876 0.972412
0.150024 0.378876 0.972412
0.377106 0.378876 0.972412
0.632751 0.378876 0.972412
0.879028 0.378876 0.972412
0.992767 0.378876 0.972412
0.999878 0.378876 0.972412
0.000061 0.614349 0.972412
0.030212 0.614349 0.972412
0.150024 0.614349 0.972412
0.377106 0.614349 0.972412
0.632751 0.614349 0.972412
0.879028 0.614349 0.972412
0.992767 0.614349 0.972412
0.999878 0.614349 0.972412
0.000061 0.873444 0.972412
0.030212 0.873444 0.972412
0.150024 0.873444 0.972412
0.377106 0.873444 0.972412
0.632751 0.873444 0.972412
0.879028 0.873444 0.972412
0.992767 0.873444 0.972412
0.999878 0.873444 0.972412
0.000061 0.985870 0.972412
0.030212 0.985870 0.972412
0.150024 0.985870 0.972412
0.377106 0.985870 0.972412
0.632751 0.985870 0.972412
0.879028 0.985870 0.972412
0.992767 0.985870 0.972412
0.999878 0.985870 0.972412
0.000061 0.997498 0.972412
0.030212 0.997498 0.972412
0.150024 0.997498 0.972412
0.377106 0.997498 0.972412
0.632751 0.997498 0.972412
0.879028 0.997498 0.972412
0.992767 0.997498 0.972412
0.999878 0.997498 0.972412
0.000061 0.000061 0.986267
0.030212 0.000061 0.986267
0.150024 0.000061 0.986267
0.377106 0.000061 0.986267
0.632751 0.000061 0.986267
0.879028 0.000061 0.986267
0.992767 0.000061 0.986267
0.999878 0.000061 0.986267
0.000061 0.058594 0.986267
0.030212 0.058594 0.986267
0.150024 0.058594 0.986267
0.377106 0.058594 0.986267
0.632751 0.058594 0.986267
0.879028 0.058594 0.986267
0.992767 0.058594 0.986267
0.999878 0.058594 0.986267
0.000061 0.180725 0.986267
0.030212 0.180725 0.986267
0.150024 0.180725 0.986267
0.377106 0.180725 0.986267
0.632751 0.180725 0.986267
0.879028 0.180725 0.986267
0.992767 0.180725 0.986267
0.999878 0.180725 0.986267
0.000061 0.378876 0.986267
0.030212 0.378876 0.986267
0.150024 0.378876 0.986267
0.377106 0.378876 0.986267
0.632751 0.378876 0.986267
0.879028 0.378876 0.986267
0.992767 0.378876 0.986267
0.999878 0.378876 0.986267
0.000061 0.614349 0.986267
0.030212 0.614349 0.986267
0.150024 0.614349 0.986267
0.377106 0.614349 0.986267
0.632751 0.614349 0.986267
0.879028 0.614349 0.986267
0.992767 0.614349 0.986267
0.999878 0.614349 0.986267
0.000061 0.873444 0.986267
0.030212 0.873444 0.986267
0.150024 0.873444 0.986267
0.377106 0.873444 0.986267
0.632751 0.873444 0.986267
0.879028 0.873444 0.986267
0.992767 0.873444 0.986267
0.999878 0.873444 0.986267
0.000061 0.985870 0.986267
0.030212 0.985870 0.986267
0.150024 0.985870 0.986267
0.377106 0.985870 0.986267
0.632751 0.985870 0.986267
0.879028 0.985870 0.986267
0.992767 0.985870 0.986267
0.999878 0.985870 0.986267
0.000061 0.997498 0.986267
0.030212 0.997498 0.986267
0.150024 0.997498 0.986267
0.377106 0.997498 0.986267
0.632751 0.997498 0.986267
0.879028 0.997498 0.986267
0.992767 0.997498 0.986267
0.999878 0.997498 0.986267
