LUTs/SPK Cube Block1 S64/TheBrim_SPK_Type-F_Block1_S64.cube
TITLE "TheBrim® SPK Block 1"
# © Copyright 2021 - TheBrim® d.o.o. Croatia
LUT_3D_SIZE 8
DOMAIN_MIN 0.000000 0.000000 0.000000
DOMAIN_MAX 1.000000 1.000000 1.000000
0.005615 0.006592 0.005554
0.034089 0.006958 0.003143
0.188754 0.003296 0.000000
0.395453 0.000000 0.000000
0.518975 0.000000 0.000000
0.565881 0.000000 0.000000
0.579736 0.000000 0.000000
0.588708 0.000000 0.000000
0.002777 0.050782 0.006531
0.040101 0.041779 0.003876
0.168978 0.048798 0.000000
0.372015 0.025452 0.000000
0.531273 0.000000 0.000000
0.607599 0.000000 0.000000
0.627375 0.000000 0.000000
0.631830 0.000000 0.000000
0.000000 0.179416 0.000000
0.042664 0.164187 0.000000
0.183810 0.159731 0.000000
0.379767 0.163027 0.000000
0.564843 0.139254 0.000000
0.666194 0.100526 0.000000
0.694636 0.069337 0.000000
0.695827 0.045960 0.000000
0.000000 0.329473 0.000000
0.000000 0.333654 0.000000
0.223972 0.334447 0.000000
0.430854 0.344945 0.000000
0.632837 0.338323 0.000000
0.749050 0.309178 0.000000
0.788998 0.282811 0.000000
0.787961 0.258274 0.000000
0.000000 0.407996 0.000000
0.000000 0.450996 0.000000
0.263706 0.498329 0.000000
0.489326 0.531914 0.000000
0.696864 0.545708 0.000000
0.830564 0.535088 0.000000
0.886351 0.515709 0.000000
0.887907 0.474342 0.000000
0.000000 0.454108 0.000000
0.000000 0.516747 0.000000
0.322301 0.583642 0.000000
0.544701 0.637598 0.000000
0.741604 0.668940 0.000000
0.879789 0.681392 0.000000
0.944793 0.677089 0.000000
0.958068 0.651118 0.000000
0.000000 0.461860 0.000000
0.046326 0.540154 0.000000
0.343969 0.610224 0.000000
0.558007 0.669917 0.000000
0.754726 0.714809 0.000000
0.896147 0.738643 0.000000
0.966705 0.744778 0.000000
0.991760 0.747738 0.000000
0.000000 0.461189 0.000000
0.049592 0.539544 0.000000
0.345037 0.613611 0.000000
0.545159 0.675990 0.000000
0.732082 0.729305 0.000000
0.884276 0.766323 0.000000
0.967803 0.780117 0.000000
0.997162 0.775082 0.000000
0.000702 0.008453 0.074281
0.031312 0.009491 0.047028
0.195804 0.004730 0.028229
0.417945 0.000000 0.000092
0.548425 0.000000 0.000000
0.586389 0.000000 0.000000
0.597498 0.000000 0.000000
0.601678 0.000000 0.000000
0.000000 0.055085 0.067872
0.028077 0.045319 0.042695
0.155093 0.052216 0.031037
0.359075 0.031952 0.006989
0.536767 0.000000 0.000000
0.623163 0.000000 0.000000
0.647578 0.000000 0.000000
0.649470 0.000000 0.000000
0.000000 0.198062 0.086885
0.013397 0.153811 0.054139
0.166720 0.155795 0.039002
0.361730 0.160037 0.008484
0.556451 0.141268 0.000000
0.675349 0.099123 0.000000
0.713344 0.067262 0.000000
0.714412 0.046113 0.000000
0.000000 0.358831 0.086610
0.000000 0.315953 0.044556
0.196231 0.329015 0.009522
0.410803 0.341161 0.000000
0.616785 0.334783 0.000000
0.747311 0.309148 0.000000
0.800839 0.283085 0.000000
0.803128 0.262821 0.000000
0.000000 0.445686 0.093172
0.000000 0.479072 0.028565
0.221195 0.508354 0.000000
0.465705 0.537560 0.000000
0.680171 0.548882 0.000000
0.828977 0.539818 0.000000
0.890410 0.510307 0.000000
0.899260 0.484230 0.000000
0.000000 0.503746 0.128481
0.000000 0.561517 0.081270
0.270695 0.617700 0.000000
0.513725 0.663600 0.000000
0.725124 0.692348 0.000000
0.875334 0.701503 0.000000
0.948455 0.693568 0.000000
0.967346 0.673487 0.000000
0.000000 0.523064 0.126894
0.000000 0.599298 0.114137
0.308965 0.660578 0.101076
0.539300 0.713375 0.033661
0.744839 0.751583 0.000000
0.892668 0.774044 0.000000
0.967773 0.778317 0.000000
0.993713 0.771603 0.000000
0.000000 0.518364 0.091585
0.000000 0.592157 0.079774
0.308934 0.661433 0.065797
0.525170 0.720119 0.072938
0.719661 0.768490 0.089235
0.879118 0.801999 0.064454
0.965515 0.813291 0.003113
0.996826 0.807218 0.000000
0.000000 0.000000 0.248264
0.024506 0.000000 0.226078
0.185519 0.000000 0.201144
0.413275 0.000000 0.162203
0.570550 0.000000 0.117067
0.610193 0.000000 0.065248
0.621149 0.000000 0.015930
0.623255 0.000000 0.000000
0.000000 0.070222 0.245090
0.005310 0.057099 0.179171
0.147158 0.063416 0.156985
0.357122 0.044709 0.138552
0.548821 0.000000 0.110201
0.642573 0.000000 0.069551
0.669520 0.000000 0.024201
0.670863 0.000000 0.001160
0.000000 0.209323 0.260655
0.000000 0.163088 0.179171
0.149386 0.171206 0.174594
0.353979 0.173953 0.155581
0.555627 0.156008 0.128298
0.686336 0.116457 0.089845
0.733181 0.079438 0.028077
0.734035 0.057923 0.000000
0.000000 0.383459 0.279576
0.000000 0.341192 0.218204
0.157473 0.346349 0.194797
0.397833 0.358190 0.175448
0.612512 0.351720 0.141299
0.753536 0.327794 0.098085
0.815244 0.300816 0.024659
0.820188 0.280858 0.000000
0.000000 0.484382 0.285832
0.000000 0.503838 0.237247
0.136110 0.533654 0.210239
0.442084 0.565301 0.177127
0.671473 0.578607 0.126467
0.826383 0.564477 0.049073
0.895995 0.534020 0.000000
0.910307 0.508263 0.000000
0.000000 0.544244 0.312596
0.000000 0.599847 0.284581
0.184604 0.652827 0.260105
0.484504 0.696223 0.212802
0.710658 0.725368 0.148013
0.867948 0.732906 0.038880
0.947417 0.720974 0.000000
0.970916 0.696803 0.000000
0.000000 0.576074 0.324254
0.000000 0.648463 0.329015
0.257939 0.702480 0.330114
0.524102 0.753048 0.317876
0.735988 0.789181 0.274266
0.885100 0.807401 0.209476
0.963409 0.805203 0.068788
0.991730 0.795743 0.000000
0.000000 0.580255 0.300145
0.000000 0.655604 0.320958
0.286259 0.716091 0.343633
0.525689 0.768185 0.362737
0.724788 0.808713 0.366400
0.876249 0.833860 0.352667
0.959716 0.841062 0.312963
0.991272 0.835874 0.245823
0.000000 0.000000 0.343755
0.023224 0.000000 0.354009
0.161013 0.000000 0.370397
0.398932 0.000000 0.367437
0.575616 0.000000 0.339147
0.626795 0.000000 0.251072
0.640131 0.000000 0.185733
0.643397 0.000000 0.131930
0.000000 0.069184 0.387762
0.000000 0.055818 0.344274
0.134798 0.055421 0.340856
0.347082 0.041474 0.326085
0.544457 0.000000 0.294987
0.654475 0.000000 0.259922
0.687312 0.000000 0.210208
0.690059 0.000000 0.168460
0.000000 0.214694 0.415045
0.000000 0.184390 0.352087
0.124697 0.188052 0.344610
0.347967 0.190646 0.335058
0.556634 0.174166 0.318090
0.695766 0.137636 0.291447
0.748714 0.104311 0.244602
0.751980 0.085908 0.200290
0.000000 0.405615 0.456916
0.000000 0.360204 0.392706
0.072541 0.370855 0.381415
0.380621 0.382971 0.373114
0.606622 0.375799 0.354955
0.755337 0.352728 0.329870
0.823697 0.326848 0.283909
0.833188 0.310765 0.226688
0.000000 0.514580 0.462837
0.000000 0.531884 0.421973
0.000000 0.563561 0.412482
0.409522 0.595880 0.401190
0.656367 0.610224 0.382147
0.818997 0.595056 0.355749
0.895750 0.566430 0.316106
0.914275 0.541802 0.239445
0.000000 0.569574 0.474342
0.000000 0.630457 0.454261
0.000000 0.682582 0.446509
0.448066 0.728084 0.431373
0.690150 0.757961 0.407630
0.854520 0.766476 0.375830
0.938689 0.755337 0.335027
0.966583 0.733639 0.259159
0.000000 0.611261 0.481788
0.000000 0.682918 0.488899
0.172061 0.734707 0.499947
0.501305 0.784024 0.494087
0.722316 0.820157 0.470863
0.871550 0.837491 0.438209
0.951843 0.837705 0.389258
0.983764 0.826352 0.320623
0.000000 0.628748 0.465736
0.000000 0.702144 0.492958
0.256046 0.752987 0.516014
0.528557 0.801724 0.533410
0.729152 0.838865 0.539757
0.873350 0.861143 0.530205
0.951141 0.867460 0.497505
0.983185 0.860227 0.423194
0.000000 0.000000 0.387030
0.016022 0.000000 0.400427
0.127077 0.000000 0.434852
0.340215 0.000000 0.456764
0.544518 0.000000 0.451240
0.637232 0.000000 0.411841
0.654047 0.000000 0.360388
0.659052 0.000000 0.307378
0.000000 0.070436 0.452674
0.000000 0.052918 0.450294
0.118807 0.044892 0.466163
0.325444 0.029053 0.470436
0.534783 0.000000 0.459205
0.661646 0.000000 0.436927
0.700649 0.000000 0.399573
0.705989 0.000000 0.355657
0.000000 0.220951 0.514244
0.000000 0.197848 0.493629
0.091890 0.200137 0.495003
0.339117 0.203220 0.499367
0.555200 0.186862 0.492744
0.701259 0.151797 0.476539
0.759335 0.121187 0.443336
0.765499 0.111238 0.406256
0.000000 0.407233 0.569055
0.000000 0.375952 0.535760
0.000000 0.391028 0.542565
0.361975 0.403815 0.546471
0.598779 0.398566 0.539849
0.754910 0.376867 0.523919
0.828244 0.353246 0.492348
0.840330 0.341253 0.452522
0.000000 0.530053 0.587396
0.000000 0.554711 0.576013
0.000000 0.585016 0.578027
0.375769 0.619287 0.583032
0.639338 0.633204 0.577295
0.809110 0.621271 0.562432
0.891447 0.595911 0.532952
0.912322 0.577020 0.480781
0.000000 0.582361 0.591180
0.000000 0.649409 0.596033
0.000000 0.705867 0.604242
0.411810 0.751492 0.606226
0.669032 0.782437 0.598352
0.839841 0.795132 0.583978
0.927611 0.785977 0.559228
0.956909 0.767575 0.504906
0.000000 0.632258 0.601404
0.000000 0.701625 0.620905
0.000000 0.757351 0.635889
0.480415 0.807401 0.638544
0.706905 0.842527 0.630365
0.856962 0.860410 0.614496
0.938476 0.864134 0.589929
0.971038 0.854276 0.542077
0.000000 0.663966 0.599145
0.000000 0.732204 0.624659
0.236027 0.777493 0.645350
0.524437 0.823758 0.661494
0.734737 0.860166 0.668330
0.870329 0.880674 0.664668
0.941375 0.887999 0.646632
0.971496 0.885222 0.603510
0.000000 0.000000 0.404089
0.010101 0.000000 0.422370
0.105043 0.000000 0.455299
0.277745 0.000000 0.486397
0.495430 0.000000 0.502953
0.635004 0.000000 0.498482
0.663081 0.000000 0.477150
0.670405 0.000000 0.448127
0.000000 0.074128 0.475380
0.000000 0.071992 0.494667
0.095674 0.066590 0.524071
0.300298 0.047730 0.551507
0.517632 0.000000 0.557946
0.663661 0.000000 0.548547
0.713100 0.000000 0.534203
0.718471 0.000000 0.509361
0.000000 0.220218 0.550378
0.000000 0.214725 0.565423
0.031647 0.218997 0.586511
0.323369 0.223056 0.604303
0.549401 0.208194 0.610071
0.704829 0.173556 0.604913
0.768399 0.136812 0.588647
0.776364 0.123720 0.569421
0.000000 0.395361 0.613031
0.000000 0.392065 0.622278
0.000000 0.408392 0.642390
0.339727 0.424842 0.659998
0.590387 0.423377 0.665797
0.755245 0.403021 0.661097
0.831785 0.377844 0.646509
0.845457 0.365759 0.625116
0.000000 0.531884 0.646143
0.000000 0.562554 0.664027
0.000000 0.599664 0.685359
0.345068 0.635431 0.701808
0.624323 0.652003 0.708156
0.801480 0.644862 0.705379
0.888029 0.621515 0.691981
0.909819 0.607538 0.663569
0.000000 0.586694 0.655024
0.000000 0.660609 0.686000
0.000000 0.717128 0.706630
0.380468 0.763546 0.720027
0.652186 0.797116 0.726528
0.827634 0.812619 0.726284
0.919158 0.807492 0.714870
0.947601 0.793362 0.683925
0.000000 0.642969 0.676417
0.000000 0.710292 0.704036
0.000000 0.769741 0.723873
0.461769 0.820096 0.736538
0.693202 0.855314 0.739712
0.845518 0.874479 0.736446
0.929015 0.879759 0.725856
0.960082 0.874846 0.702296
0.000000 0.684230 0.689693
0.000000 0.748440 0.715511
0.200900 0.792294 0.732784
0.521904 0.837644 0.747982
0.736507 0.873350 0.755428
0.865721 0.892546 0.754299
0.933318 0.900938 0.748836
0.962066 0.901762 0.731472
0.000000 0.000000 0.413886
0.015930 0.000000 0.435584
0.100679 0.000000 0.468421
0.251377 0.000000 0.499763
0.451820 0.000000 0.519799
0.612238 0.000000 0.523949
0.666590 0.000000 0.512047
0.673793 0.000000 0.504295
0.000000 0.063569 0.483894
0.000000 0.073243 0.510521
0.094240 0.079377 0.541833
0.281895 0.075715 0.571679
0.492042 0.033265 0.591638
0.654749 0.000000 0.596124
0.719326 0.000000 0.586664
0.723781 0.000000 0.575616
0.000000 0.209445 0.556725
0.000000 0.222019 0.584314
0.001373 0.237339 0.613977
0.306584 0.247227 0.641932
0.537133 0.237827 0.657679
0.702144 0.207919 0.660639
0.773800 0.165286 0.654841
0.784024 0.140749 0.645930
0.000000 0.382361 0.624750
0.000000 0.402258 0.654871
0.000000 0.425605 0.682887
0.312291 0.446723 0.708370
0.578027 0.452399 0.723720
0.754513 0.435615 0.726680
0.834958 0.406043 0.719875
0.851286 0.390295 0.711818
0.000000 0.526513 0.668666
0.000000 0.569482 0.704097
0.000000 0.610925 0.733913
0.309545 0.647700 0.756588
0.608423 0.670222 0.770382
0.796872 0.667384 0.773373
0.886076 0.645258 0.768276
0.910307 0.633570 0.760647
0.000000 0.594476 0.689265
0.000000 0.660426 0.727810
0.000000 0.722683 0.757931
0.351354 0.770199 0.777401
0.637263 0.805722 0.790036
0.819852 0.822507 0.793912
0.913664 0.821530 0.791073
0.942626 0.811429 0.782345
0.000000 0.643732 0.711513
0.000000 0.708797 0.743771
0.000000 0.772641 0.770230
0.437903 0.823362 0.786954
0.680354 0.859770 0.795102
0.838346 0.880491 0.798123
0.923339 0.887205 0.796078
0.953735 0.885161 0.787594
0.000000 0.688777 0.733150
0.000000 0.750729 0.761135
0.136934 0.797787 0.779507
0.515648 0.844266 0.795010
0.730983 0.879332 0.802884
0.860777 0.898650 0.804196
0.928985 0.907530 0.802426
0.957244 0.909697 0.795132
0.000000 0.000000 0.417121
0.028382 0.000000 0.440223
0.108095 0.000000 0.472114
0.245518 0.000000 0.503044
0.430091 0.000000 0.524315
0.589349 0.000000 0.531090
0.663050 0.000000 0.521263
0.667750 0.000000 0.503349
0.000000 0.050172 0.487037
0.000000 0.059815 0.516625
0.113161 0.072023 0.548943
0.282261 0.074098 0.578454
0.477272 0.042756 0.598901
0.638911 0.000000 0.605615
0.714595 0.000000 0.596735
0.718593 0.000000 0.579919
0.000000 0.194949 0.559228
0.000000 0.213718 0.592126
0.061189 0.238651 0.624079
0.309361 0.254765 0.651728
0.526238 0.253208 0.669551
0.693507 0.223789 0.674311
0.772427 0.180026 0.668605
0.782010 0.129946 0.657099
0.000000 0.361151 0.627497
0.000000 0.392004 0.662684
0.000000 0.427710 0.693690
0.313024 0.454688 0.719814
0.570764 0.465400 0.736385
0.749264 0.453223 0.740993
0.835325 0.425483 0.737057
0.850675 0.389380 0.728176
0.000000 0.517082 0.677028
0.000000 0.563806 0.713771
0.000000 0.611963 0.744228
0.298436 0.652308 0.768154
0.597894 0.678889 0.784360
0.790799 0.682460 0.790646
0.886473 0.666621 0.789609
0.909026 0.634516 0.783658
0.000000 0.603449 0.704585
0.000000 0.664637 0.741360
0.000000 0.721126 0.769986
0.326604 0.769955 0.791897
0.623438 0.807370 0.806729
0.812497 0.826871 0.813870
0.911162 0.830259 0.815549
0.940490 0.815427 0.813260
0.000000 0.655879 0.727993
0.000000 0.715938 0.759640
0.000000 0.772305 0.784756
0.421424 0.823728 0.804074
0.669429 0.861173 0.816068
0.831418 0.882658 0.822019
0.919432 0.890959 0.823850
0.950896 0.889891 0.823270
0.000000 0.679530 0.739651
0.000000 0.740414 0.770138
0.014740 0.794430 0.792447
0.496620 0.843839 0.809689
0.721553 0.880552 0.820432
0.855161 0.900908 0.825284
0.927245 0.910735 0.826871
0.954589 0.913756 0.826810
