LUTs/SPK Cube Block1 S64/TheBrim_SPK_Type-R_Block1_S64.cube
TITLE "TheBrim® SPK Block 1"
# © Copyright 2021 - TheBrim® d.o.o. Croatia
LUT_3D_SIZE 8
DOMAIN_MIN 0.000000 0.000000 0.000000
DOMAIN_MAX 1.000000 1.000000 1.000000
0.001068 0.004303 0.006806
0.010101 0.008392 0.014466
0.052461 0.015015 0.023865
0.407904 0.000000 0.004608
0.578393 0.000000 0.016724
0.637385 0.000000 0.031525
0.652979 0.000000 0.038972
0.664179 0.000000 0.051606
0.000000 0.018311 0.017273
0.012757 0.015442 0.013031
0.092226 0.017731 0.020081
0.413092 0.000000 0.004089
0.577569 0.000000 0.016846
0.636805 0.000000 0.031434
0.652674 0.000000 0.039033
0.664179 0.000000 0.051606
0.000000 0.166079 0.063020
0.000000 0.151064 0.059297
0.087037 0.125002 0.041962
0.408637 0.090120 0.021271
0.579248 0.000000 0.016876
0.636439 0.000000 0.031495
0.651301 0.000000 0.038972
0.664179 0.000000 0.051606
0.000000 0.400916 0.162814
0.000000 0.398383 0.159976
0.000000 0.374701 0.151980
0.251377 0.401648 0.103120
0.684077 0.370550 0.000000
0.771389 0.230838 0.000000
0.715663 0.092317 0.028656
0.695705 0.033448 0.047608
0.000000 0.506920 0.227481
0.000000 0.508537 0.227543
0.000000 0.508751 0.225986
0.000000 0.546380 0.197665
0.638727 0.725277 0.069795
0.917449 0.754940 0.000000
0.945892 0.684443 0.000000
0.903014 0.531029 0.000000
0.000000 0.516228 0.235752
0.000000 0.517266 0.233982
0.000000 0.526452 0.222629
0.000000 0.654108 0.222812
0.695308 0.796719 0.163851
0.935943 0.846067 0.025666
0.984710 0.841428 0.000000
0.983703 0.834195 0.000000
0.000000 0.529564 0.220371
0.000000 0.530388 0.216373
0.000000 0.610468 0.217594
0.403662 0.728634 0.208499
0.752316 0.807034 0.143038
0.934813 0.846159 0.030518
0.985351 0.846952 0.000000
0.985626 0.854490 0.000000
0.000000 0.654383 0.223087
0.095766 0.678248 0.221927
0.368963 0.721675 0.210605
0.621698 0.777035 0.175967
0.822141 0.820890 0.103639
0.946410 0.848173 0.000000
0.985077 0.844968 0.000000
0.985443 0.848508 0.000000
0.000000 0.007019 0.022217
0.001190 0.007996 0.025971
0.054597 0.014435 0.041657
0.426886 0.000000 0.054932
0.582483 0.000000 0.048524
0.637232 0.000000 0.038117
0.653834 0.000000 0.043580
0.664546 0.000000 0.078492
0.000000 0.010407 0.026001
0.005097 0.008972 0.023041
0.091585 0.017060 0.037018
0.434943 0.000000 0.041810
0.583368 0.000000 0.030243
0.637659 0.000000 0.033234
0.653529 0.000000 0.040009
0.664576 0.000000 0.079469
0.000000 0.179171 0.067628
0.000000 0.159670 0.065736
0.089235 0.117739 0.052705
0.413764 0.071321 0.033204
0.581079 0.000000 0.021851
0.637720 0.000000 0.032563
0.652399 0.000000 0.039918
0.664637 0.000000 0.075807
0.000000 0.399023 0.162173
0.000000 0.397620 0.159609
0.000000 0.373236 0.151492
0.265171 0.400153 0.100221
0.688167 0.358709 0.000000
0.760525 0.205753 0.000732
0.708797 0.074708 0.031128
0.693202 0.022126 0.064973
0.000000 0.507256 0.227756
0.000000 0.508934 0.227909
0.000000 0.508049 0.225437
0.000000 0.549584 0.196963
0.643885 0.724788 0.064912
0.918029 0.747341 0.000000
0.943145 0.673671 0.000000
0.901366 0.523156 0.000000
0.000000 0.516136 0.235691
0.000000 0.517296 0.233921
0.000000 0.526513 0.222477
0.000000 0.654658 0.222873
0.697932 0.797208 0.162356
0.937865 0.846220 0.019104
0.984680 0.841245 0.000000
0.984009 0.840208 0.000000
0.000000 0.530175 0.220310
0.000000 0.530510 0.215610
0.000000 0.623346 0.220127
0.418341 0.731624 0.206851
0.757290 0.807980 0.141085
0.936950 0.846616 0.028565
0.985504 0.850248 0.000000
0.985687 0.861479 0.031006
0.000000 0.664118 0.224155
0.166629 0.687251 0.219059
0.395209 0.726894 0.209354
0.638361 0.781491 0.173404
0.830076 0.822629 0.095094
0.948425 0.848264 0.000000
0.985168 0.845518 0.000000
0.985260 0.865354 0.104067
0.000000 0.011170 0.134524
0.000000 0.013519 0.153292
0.014374 0.018280 0.157778
0.329870 0.009400 0.195163
0.589197 0.000000 0.204501
0.643153 0.000000 0.173739
0.659663 0.000000 0.173526
0.667781 0.000000 0.185122
0.000000 0.011505 0.124514
0.000000 0.012421 0.131044
0.046876 0.016052 0.144472
0.361700 0.000000 0.179690
0.590600 0.000000 0.184421
0.642664 0.000000 0.161166
0.659144 0.000000 0.163333
0.667720 0.000000 0.177707
0.000000 0.126009 0.165194
0.000000 0.109163 0.159518
0.078767 0.081331 0.130098
0.388128 0.038605 0.137148
0.587823 0.000000 0.150149
0.641901 0.000000 0.139040
0.657954 0.000000 0.144656
0.666468 0.000000 0.164523
0.000000 0.407111 0.229709
0.000000 0.403906 0.229709
0.000000 0.378485 0.231998
0.271824 0.395209 0.217868
0.690120 0.339391 0.192813
0.756924 0.179477 0.153079
0.706905 0.042847 0.136141
0.690517 0.000000 0.155459
0.000000 0.508690 0.230442
0.000000 0.510216 0.230961
0.000000 0.509270 0.232761
0.000000 0.548760 0.213779
0.651637 0.729793 0.195621
0.921782 0.757534 0.126986
0.940185 0.658015 0.066621
0.901122 0.517693 0.200870
0.000000 0.516350 0.236179
0.000000 0.517906 0.234470
0.000000 0.527031 0.224460
0.000000 0.657984 0.227512
0.704829 0.807218 0.244297
0.939208 0.861387 0.240116
0.983368 0.875517 0.268009
0.981262 0.870756 0.295079
0.000000 0.530755 0.220401
0.000000 0.548394 0.216220
0.000000 0.644343 0.227420
0.442145 0.738155 0.216892
0.766079 0.821683 0.261418
0.937957 0.861692 0.243992
0.983276 0.879911 0.294011
0.981201 0.889586 0.379034
0.110689 0.680049 0.221408
0.259251 0.699611 0.214328
0.432502 0.734493 0.205600
0.669856 0.790127 0.171908
0.844907 0.826230 0.078645
0.951904 0.851560 0.026764
0.983795 0.877165 0.266850
0.980957 0.890227 0.385840
0.000000 0.039490 0.239170
0.000000 0.042512 0.259739
0.000000 0.044129 0.275303
0.161257 0.047547 0.320104
0.533318 0.000000 0.364233
0.656947 0.000000 0.343450
0.646571 0.000000 0.306737
0.656519 0.000000 0.310460
0.000000 0.040864 0.244358
0.000000 0.047059 0.270634
0.000000 0.047059 0.286778
0.189822 0.047364 0.327550
0.560174 0.000000 0.358343
0.656092 0.000000 0.327153
0.648829 0.000000 0.295140
0.657069 0.000000 0.298955
0.000000 0.044892 0.228885
0.000000 0.041901 0.230594
0.004395 0.040894 0.235630
0.280247 0.036072 0.284520
0.581079 0.000000 0.319463
0.652979 0.000000 0.281834
0.651392 0.000000 0.268467
0.659937 0.000000 0.276585
0.000000 0.397498 0.388556
0.000000 0.387945 0.383825
0.000000 0.348394 0.370031
0.291752 0.336217 0.372808
0.658900 0.263432 0.347845
0.743465 0.132753 0.298680
0.702602 0.000000 0.261418
0.688930 0.000000 0.260075
0.000000 0.539239 0.407782
0.000000 0.539147 0.407935
0.000000 0.538293 0.409735
0.000000 0.596460 0.427283
0.656580 0.756130 0.476265
0.917906 0.772824 0.458717
0.932647 0.650324 0.390967
0.898405 0.515984 0.383551
0.000000 0.541192 0.371283
0.000000 0.543481 0.371344
0.000000 0.554864 0.371099
0.000000 0.698878 0.430304
0.708614 0.837766 0.484138
0.935546 0.895323 0.524010
0.975891 0.902373 0.514977
0.973632 0.891325 0.516136
0.000000 0.554650 0.346197
0.000000 0.568200 0.352209
0.000000 0.672511 0.391455
0.413092 0.766751 0.429786
0.768582 0.847288 0.458991
0.937530 0.890074 0.476967
0.976135 0.906096 0.523186
0.974304 0.910765 0.564569
0.133974 0.707332 0.313664
0.286534 0.722774 0.316045
0.464607 0.759365 0.324254
0.680842 0.813199 0.341100
0.861051 0.858518 0.372717
0.948272 0.886351 0.426062
0.977539 0.902403 0.491127
0.974670 0.910155 0.557366
0.000000 0.059846 0.348333
0.000000 0.057679 0.367407
0.000000 0.057527 0.379644
0.088991 0.055665 0.413275
0.471901 0.000000 0.471138
0.668299 0.000000 0.465461
0.638239 0.000000 0.402441
0.640223 0.000000 0.403418
0.000000 0.058900 0.358679
0.000000 0.058869 0.380499
0.000000 0.056764 0.392554
0.116487 0.054871 0.427588
0.505241 0.000000 0.474708
0.666285 0.000000 0.459937
0.637079 0.000000 0.401434
0.639338 0.000000 0.398688
0.000000 0.059205 0.357610
0.000000 0.055177 0.369055
0.000000 0.057099 0.374884
0.175479 0.050050 0.422705
0.542229 0.000000 0.454200
0.657130 0.000000 0.426947
0.628717 0.000000 0.376745
0.640925 0.000000 0.376715
0.000000 0.299046 0.456733
0.000000 0.279942 0.448371
0.000000 0.242283 0.430854
0.243717 0.221225 0.462684
0.611170 0.170108 0.468971
0.733028 0.064912 0.440131
0.693385 0.000000 0.387396
0.677089 0.000000 0.373022
0.000000 0.553429 0.542504
0.000000 0.551965 0.541619
0.000000 0.553307 0.541619
0.000000 0.628565 0.596796
0.665583 0.758053 0.658778
0.906981 0.753292 0.648005
0.923613 0.636255 0.594232
0.892180 0.504051 0.558831
0.000000 0.564050 0.501946
0.000000 0.569543 0.505638
0.000000 0.580499 0.512169
0.000000 0.739559 0.609339
0.717769 0.863828 0.671504
0.931426 0.915251 0.711208
0.966217 0.920653 0.709041
0.964721 0.906401 0.697597
0.000000 0.580835 0.479042
0.000000 0.588769 0.485084
0.000000 0.712642 0.554101
0.471107 0.806607 0.599298
0.786526 0.874388 0.631952
0.934905 0.910277 0.656886
0.967987 0.924346 0.692226
0.966033 0.927916 0.727932
0.205112 0.746365 0.502861
0.295567 0.760647 0.509453
0.511833 0.803311 0.530236
0.696956 0.844205 0.555230
0.856748 0.884092 0.592554
0.947753 0.910185 0.626001
0.969390 0.921691 0.666438
0.967620 0.924895 0.698451
0.000000 0.063172 0.392523
0.000000 0.061250 0.397742
0.000000 0.056764 0.399512
0.100618 0.056275 0.427649
0.405524 0.008911 0.472023
0.627283 0.000000 0.486702
0.650446 0.000000 0.425330
0.637629 0.000000 0.404181
0.000000 0.062348 0.394598
0.000000 0.060883 0.398474
0.000000 0.056947 0.398871
0.115816 0.055543 0.431586
0.423804 0.002350 0.473854
0.636042 0.000000 0.486488
0.647822 0.000000 0.420722
0.636713 0.000000 0.403937
0.000000 0.061738 0.397498
0.000000 0.059846 0.401709
0.000000 0.057801 0.398932
0.163699 0.052125 0.442145
0.464729 0.000000 0.475715
0.651972 0.000000 0.488533
0.642329 0.000000 0.407599
0.640253 0.000000 0.406683
0.000000 0.237827 0.495644
0.000000 0.224338 0.488045
0.000000 0.197604 0.470436
0.257359 0.186130 0.541131
0.603388 0.139834 0.557427
0.731167 0.031281 0.520562
0.715450 0.000000 0.485115
0.687037 0.000000 0.452583
0.000000 0.556451 0.635248
0.000000 0.554589 0.634058
0.000000 0.554498 0.632349
0.000000 0.643580 0.716548
0.679103 0.747524 0.779660
0.904814 0.732967 0.771725
0.914794 0.612329 0.725338
0.885557 0.483406 0.679347
0.000000 0.581292 0.599481
0.000000 0.583886 0.601129
0.000000 0.603723 0.615106
0.000000 0.764065 0.732662
0.736904 0.883299 0.800015
0.932555 0.928283 0.836027
0.959686 0.930724 0.835721
0.957488 0.914855 0.825834
0.000000 0.615930 0.588281
0.000000 0.642573 0.609155
0.000000 0.741787 0.673579
0.487434 0.824308 0.717830
0.796384 0.889738 0.757473
0.936919 0.925902 0.791318
0.961852 0.936187 0.815457
0.961120 0.938018 0.834226
0.240421 0.777127 0.650416
0.347143 0.794369 0.660700
0.524804 0.826566 0.677211
0.735866 0.872618 0.705348
0.870146 0.902922 0.728145
0.949523 0.927886 0.764004
0.963134 0.933623 0.788022
0.962310 0.935454 0.805936
0.000000 0.060273 0.400092
0.000000 0.057740 0.401587
0.000000 0.057527 0.399145
0.090425 0.056550 0.425177
0.330205 0.028534 0.467109
0.545708 0.000000 0.482277
0.666560 0.000000 0.470863
0.643244 0.000000 0.407416
0.000000 0.059510 0.401923
0.000000 0.056397 0.401099
0.000000 0.058015 0.398657
0.104829 0.056214 0.428748
0.338231 0.027955 0.467872
0.553429 0.000000 0.482002
0.667201 0.000000 0.470314
0.645075 0.000000 0.408911
0.000000 0.063539 0.406867
0.000000 0.060700 0.405371
0.000000 0.060151 0.400397
0.136751 0.054658 0.438636
0.371710 0.020111 0.470497
0.572015 0.000000 0.480232
0.668086 0.000000 0.464210
0.647700 0.000000 0.410559
0.000000 0.202731 0.473426
0.000000 0.191775 0.466804
0.000000 0.171176 0.476997
0.208255 0.167239 0.520653
0.499672 0.172183 0.553948
0.702144 0.155306 0.567712
0.770779 0.140108 0.557977
0.763912 0.105287 0.537224
0.000000 0.546319 0.666621
0.000000 0.545769 0.666133
0.000000 0.550652 0.666651
0.000000 0.671046 0.780240
0.715053 0.749660 0.819577
0.892821 0.734401 0.809079
0.933135 0.723690 0.795224
0.917876 0.629938 0.755367
0.000000 0.610590 0.684962
0.000000 0.611933 0.685542
0.000000 0.623377 0.692012
0.000000 0.796841 0.832731
0.768856 0.900389 0.889494
0.935515 0.934783 0.910765
0.955505 0.934325 0.906828
0.954314 0.920684 0.889036
0.000000 0.630671 0.662562
0.000000 0.683772 0.709316
0.000000 0.767147 0.768154
0.534966 0.846128 0.812253
0.808560 0.902586 0.845029
0.939879 0.936278 0.878569
0.958526 0.943297 0.891447
0.957641 0.945006 0.911864
0.307652 0.803098 0.749935
0.392462 0.815274 0.756619
0.578149 0.848386 0.774746
0.748989 0.884886 0.795621
0.881743 0.915953 0.823239
0.953338 0.937316 0.848142
0.959716 0.940948 0.864744
0.959106 0.941924 0.877592
0.000000 0.057435 0.401526
0.000000 0.056275 0.400977
0.000000 0.058259 0.398291
0.074952 0.057038 0.421210
0.270665 0.042084 0.458473
0.475715 0.000000 0.476295
0.629541 0.000000 0.486641
0.663905 0.000000 0.450507
0.000000 0.056947 0.402350
0.000000 0.056825 0.400946
0.000000 0.058717 0.397650
0.086580 0.056641 0.424201
0.282994 0.039887 0.460548
0.483101 0.000000 0.476600
0.633326 0.000000 0.486549
0.664027 0.000000 0.446479
0.000000 0.080507 0.413916
0.000000 0.076814 0.411780
0.000000 0.074037 0.410620
0.112520 0.068879 0.444831
0.315404 0.045289 0.474556
0.504570 0.000000 0.480812
0.651087 0.000000 0.488624
0.677913 0.000000 0.451362
0.000000 0.191409 0.466316
0.000000 0.183932 0.462898
0.000000 0.161440 0.474342
0.156588 0.159884 0.508415
0.407507 0.177890 0.548241
0.647974 0.203098 0.589075
0.779507 0.232609 0.603510
0.824826 0.284855 0.613214
0.000000 0.490608 0.638636
0.000000 0.491615 0.638239
0.000000 0.515679 0.662776
0.099672 0.617151 0.760067
0.639918 0.694179 0.799741
0.844266 0.752926 0.819089
0.934691 0.800046 0.828244
0.941436 0.785214 0.816312
0.000000 0.627649 0.707088
0.000000 0.633783 0.709194
0.000000 0.742916 0.802609
0.484077 0.847715 0.866758
0.827512 0.911498 0.898741
0.937194 0.934020 0.911131
0.955810 0.937774 0.913970
0.955474 0.933440 0.904417
0.000000 0.699886 0.764248
0.000000 0.741604 0.798489
0.067201 0.802670 0.839628
0.609522 0.869596 0.876188
0.856840 0.918059 0.902312
0.949493 0.943511 0.917662
0.957244 0.945769 0.920531
0.957183 0.945861 0.921324
0.394202 0.826108 0.827054
0.462470 0.838010 0.833829
0.614221 0.866941 0.848112
0.783902 0.899901 0.865415
0.906249 0.928222 0.889220
0.955688 0.944427 0.912016
0.957366 0.945403 0.917632
0.957214 0.946410 0.923156
