LUTs/SPK Cube Block1 S64/TheBrim_SPK_Type-P_Block 1_S64.cube
TITLE "TheBrim® Industrial Imaging Burau"
# © Copyright 2022 - TheBrim® d.o.o. Croatia
LUT_3D_SIZE 4
0.0000000000 0.0000000000 0.0000000000
0.3197985809 0.0257267109 0.0108949416
0.8271152819 0.1333943694 0.1071488518
1.0000000000 0.2588845655 0.1999237049
0.0000000000 0.2530861372 0.1001602197
0.1938506142 0.2332188907 0.0443121996
0.7454795148 0.2993209735 0.0738231479
1.0000000000 0.4351262684 0.1429159991
0.0000000000 0.7724879835 0.3569390402
0.1073929961 0.7250019074 0.2844892042
0.6012817578 0.6976272221 0.1528038453
1.0000000000 0.7975127794 0.1000076295
0.1847562371 0.8591287098 0.3012741283
0.2660868238 0.8907454032 0.2835736629
0.5960326543 0.9863279164 0.2314183261
1.0000000000 1.0000000000 0.1612573434
0.0660410468 0.0149233234 0.2171969177
0.2688639658 0.0000000000 0.1712062257
0.8305943389 0.0524605173 0.2393835355
1.0000000000 0.1570458534 0.3241626612
0.0000000000 0.2488136110 0.2608682383
0.2275730526 0.2295567254 0.2291905089
0.7593347066 0.2809185931 0.2533913176
1.0000000000 0.4152895399 0.3480888075
0.0000000000 0.7590600443 0.3966735332
0.1047379263 0.7110856794 0.3395742733
0.6109559777 0.6754100862 0.2732585641
1.0000000000 0.7781643397 0.3556572824
0.2098115511 0.8684672313 0.2958419165
0.2858014801 0.8994125277 0.2784466316
0.6234988937 0.9882810712 0.2962081331
1.0000000000 1.0000000000 0.4703440909
0.1865262837 0.1515220874 0.5774776837
0.3775692378 0.1010147250 0.5326466773
0.7123369192 0.0339665827 0.4426031891
1.0000000000 0.1672693980 0.5187304494
0.0327458610 0.3152819104 0.7386434730
0.3668268864 0.2895246815 0.6719615473
0.7499046311 0.2007476921 0.5345998322
1.0000000000 0.3213550011 0.5894407568
0.0000000000 0.7280231937 0.7606775006
0.1099565118 0.6862134737 0.7285420005
0.6721446555 0.6644541085 0.6707408255
1.0000000000 0.7580224308 0.7282063020
0.2189669642 0.8669413291 0.6494392309
0.2999008164 0.8977645533 0.6617685206
0.6816357671 0.9931944762 0.7123369192
1.0000000000 1.0000000000 0.8561989776
0.2287632563 0.2825970855 0.6887159533
0.3610589761 0.2715190356 0.6567330434
0.5575494011 0.2034637980 0.5676813916
0.8820172427 0.2060273136 0.5333180743
0.2478675517 0.3472648203 0.7461203937
0.3641718166 0.3365224689 0.7151140612
0.5673151751 0.2874494545 0.6273746853
0.9233386740 0.3402761883 0.6100709545
0.2472571908 0.6638132296 1.0000000000
0.4044556344 0.6730296788 1.0000000000
0.7564660105 0.6820019837 0.9350576028
1.0000000000 0.7094377050 0.8673075456
0.3613336385 0.8986190585 1.0000000000
0.4762951095 0.9322804608 1.0000000000
0.8003509575 1.0000000000 1.0000000000
1.0000000000 1.0000000000 1.0000000000
