LUTs/SPK Cube Block1 S64/TheBrim_SPK_Type-W_Block1_S64.cube
TITLE "TheBrim® Industrial Imaging Burau"
# © Copyright 2022 - TheBrim® d.o.o. Croatia
LUT_3D_SIZE 4
DOMAIN_MIN 0.000000 0.000000 0.000000
DOMAIN_MAX 1.000000 1.000000 1.000000
0.038086 0.065277 0.119720
0.186310 0.063171 0.118164
0.561859 0.063171 0.118164
0.592194 0.063171 0.118164
0.036133 0.188690 0.118164
0.189575 0.165985 0.118164
0.658875 0.141602 0.118164
0.706573 0.106506 0.118164
0.036133 0.427795 0.118164
0.333191 0.576996 0.118164
0.801392 0.634430 0.118164
0.905701 0.598450 0.118164
0.036133 0.453674 0.118164
0.376587 0.624268 0.118164
0.812256 0.722382 0.118164
0.961090 0.737518 0.118164
0.036133 0.063171 0.271942
0.180969 0.063171 0.241577
0.611420 0.063171 0.166412
0.629730 0.063171 0.126465
0.036133 0.218384 0.305542
0.150757 0.182098 0.225281
0.665039 0.158173 0.184357
0.745178 0.120575 0.137878
0.036133 0.536499 0.339020
0.188477 0.635223 0.278595
0.784393 0.677582 0.196960
0.920959 0.641327 0.119843
0.036133 0.594574 0.342194
0.319977 0.713013 0.398193
0.803040 0.789703 0.409241
0.953064 0.796600 0.288177
0.036133 0.063171 0.389893
0.105713 0.063171 0.457733
0.608063 0.063171 0.482666
0.660339 0.063171 0.397766
0.036133 0.225250 0.556396
0.107300 0.219269 0.576141
0.671173 0.198517 0.580902
0.771118 0.157867 0.534302
0.036133 0.571411 0.609833
0.044769 0.678406 0.642029
0.754456 0.726593 0.642548
0.905945 0.700928 0.600067
0.036133 0.661163 0.633728
0.283508 0.762939 0.666992
0.797882 0.831970 0.679565
0.929871 0.843475 0.650208
0.036133 0.063171 0.410492
0.097168 0.063171 0.482330
0.552643 0.063171 0.528290
0.660889 0.063171 0.502838
0.036133 0.193573 0.571411
0.100891 0.256897 0.626160
0.662292 0.258148 0.652893
0.779663 0.174133 0.642578
0.036133 0.579651 0.652222
0.036377 0.686615 0.705536
0.736237 0.750580 0.731537
0.898529 0.726807 0.730042
0.036133 0.660736 0.682068
0.185669 0.768982 0.725189
0.784821 0.841187 0.743866
0.919952 0.858521 0.746124
