LUTs/SPK Cube Block1 S16/TheBrim_SPK_Type-M_Block1_S16.cube
TITLE "TheBrim® SPK Block 1"
# © Copyright 2021 - TheBrim® d.o.o. Croatia
LUT_3D_SIZE 16
DOMAIN_MIN 0.000000 0.000000 0.000000
DOMAIN_MAX 1.000000 1.000000 1.000000
0.011200 0.001984 0.018219
0.025318 0.002234 0.018457
0.040522 0.002625 0.018592
0.058863 0.003363 0.018470
0.087941 0.004279 0.018433
0.135561 0.005035 0.017731
0.195383 0.004150 0.016327
0.272337 0.002362 0.015839
0.345959 0.002985 0.015973
0.422950 0.003912 0.016052
0.481849 0.004730 0.016266
0.535515 0.006268 0.016730
0.571704 0.008808 0.018347
0.600073 0.012549 0.021210
0.621418 0.016663 0.024720
0.637385 0.020722 0.027955
0.011835 0.017407 0.019153
0.024903 0.017780 0.019861
0.040491 0.018109 0.019879
0.059870 0.018488 0.019452
0.089747 0.019483 0.019025
0.138088 0.020404 0.018354
0.199106 0.019648 0.016669
0.279527 0.015521 0.016217
0.356237 0.015845 0.016291
0.435035 0.016260 0.016248
0.495924 0.016870 0.016382
0.549718 0.017774 0.016950
0.585364 0.019580 0.018689
0.614777 0.022498 0.021955
0.634821 0.026020 0.025617
0.650159 0.029377 0.029126
0.012665 0.034907 0.020160
0.024726 0.035370 0.022010
0.039362 0.036005 0.023218
0.059730 0.036524 0.022492
0.090907 0.037836 0.021277
0.140945 0.039692 0.020111
0.202499 0.040449 0.018170
0.284355 0.035023 0.017762
0.362322 0.029957 0.017871
0.442829 0.030249 0.017932
0.506297 0.030536 0.018097
0.560638 0.030945 0.018408
0.597003 0.031989 0.019721
0.626398 0.033899 0.022663
0.646473 0.036469 0.026380
0.661946 0.039014 0.029908
0.012598 0.057569 0.021302
0.024079 0.058302 0.024005
0.038038 0.059193 0.026819
0.058491 0.061158 0.027338
0.091713 0.063203 0.025122
0.144967 0.067262 0.022425
0.209201 0.070765 0.019513
0.292705 0.068904 0.019373
0.372302 0.058338 0.019519
0.455207 0.044569 0.019660
0.519359 0.044782 0.019855
0.575268 0.045093 0.019995
0.611414 0.045594 0.020813
0.641254 0.046662 0.023047
0.661335 0.048267 0.026441
0.676594 0.050007 0.029822
0.010559 0.091139 0.022400
0.021540 0.092232 0.025318
0.035688 0.092866 0.029200
0.055964 0.096242 0.031666
0.088930 0.101076 0.030762
0.146719 0.107088 0.025830
0.216355 0.113179 0.021851
0.303954 0.116976 0.021271
0.387018 0.114180 0.021247
0.472596 0.102040 0.021332
0.538250 0.081184 0.021503
0.596338 0.059443 0.021704
0.633033 0.059730 0.022217
0.663038 0.060273 0.023517
0.682795 0.061122 0.026105
0.697365 0.062086 0.028705
0.007446 0.135409 0.022309
0.017456 0.137130 0.025190
0.029737 0.137411 0.029566
0.050080 0.141695 0.033356
0.083119 0.147695 0.034504
0.142153 0.157015 0.030030
0.219651 0.166555 0.026282
0.315111 0.175125 0.024030
0.405182 0.178219 0.023297
0.494820 0.175857 0.023230
0.562890 0.168093 0.023346
0.623127 0.156277 0.023517
0.660932 0.144643 0.023816
0.691493 0.132784 0.024469
0.710921 0.124770 0.025830
0.724666 0.119478 0.027253
0.007446 0.187198 0.019556
0.016645 0.190603 0.022095
0.029456 0.189981 0.026361
0.040839 0.194687 0.030634
0.068000 0.202249 0.034620
0.130520 0.214401 0.033906
0.213101 0.229331 0.032428
0.317394 0.241617 0.028962
0.421527 0.249021 0.026294
0.517748 0.251560 0.025397
0.589697 0.249058 0.025330
0.653107 0.243980 0.025537
0.692592 0.237925 0.025715
0.724306 0.231986 0.026001
0.743990 0.227195 0.026435
0.757418 0.223819 0.026899
0.007446 0.243888 0.019727
0.015369 0.249583 0.022132
0.029383 0.247098 0.025013
0.040839 0.252982 0.029273
0.052100 0.262443 0.033668
0.110829 0.277848 0.037104
0.201266 0.297142 0.038007
0.306352 0.316350 0.035767
0.428785 0.330394 0.031604
0.538647 0.336669 0.028785
0.617682 0.337664 0.027753
0.684816 0.336071 0.027655
0.726693 0.332256 0.027784
0.759591 0.328130 0.028028
0.780447 0.324260 0.028272
0.793820 0.320793 0.028376
0.007446 0.304820 0.020856
0.013642 0.313164 0.023346
0.029108 0.309471 0.025464
0.040894 0.316313 0.029645
0.052088 0.327501 0.034229
0.071955 0.346123 0.038502
0.183261 0.369866 0.041736
0.289342 0.394574 0.042231
0.421619 0.418476 0.039173
0.544524 0.429792 0.034394
0.641621 0.433045 0.031354
0.714546 0.433173 0.030262
0.759774 0.430469 0.030170
0.794089 0.427472 0.030304
0.816397 0.424005 0.030481
0.830216 0.420832 0.030689
0.007446 0.364099 0.022181
0.011444 0.375164 0.024726
0.028644 0.370715 0.026038
0.040827 0.378705 0.030060
0.052210 0.391675 0.034675
0.063355 0.412897 0.039191
0.159774 0.439808 0.043439
0.271757 0.468556 0.046467
0.403052 0.498973 0.046442
0.529711 0.518630 0.042658
0.651215 0.528673 0.037440
0.735763 0.529094 0.034040
0.788266 0.527581 0.032892
0.824649 0.525554 0.032728
0.848789 0.523021 0.032807
0.863536 0.520592 0.032972
0.007446 0.409583 0.023743
0.008801 0.420764 0.026349
0.027979 0.415985 0.026819
0.040693 0.425385 0.030463
0.052198 0.439973 0.035035
0.063447 0.463569 0.039704
0.128164 0.493251 0.044147
0.260105 0.524620 0.048316
0.383288 0.558849 0.051124
0.507790 0.586304 0.050568
0.638727 0.605982 0.046052
0.737966 0.613056 0.040455
0.807077 0.614795 0.036847
0.848222 0.615051 0.035584
0.875486 0.614820 0.035285
0.891417 0.613458 0.035279
0.007446 0.444154 0.025812
0.008014 0.452070 0.028608
0.027289 0.450556 0.028028
0.040595 0.461335 0.031116
0.052186 0.477089 0.035474
0.063453 0.502257 0.040076
0.094655 0.534264 0.044648
0.253288 0.567840 0.049110
0.375378 0.604065 0.053175
0.490602 0.635645 0.055640
0.614704 0.659651 0.054377
0.721517 0.672169 0.049317
0.809189 0.678328 0.043635
0.856797 0.677266 0.039753
0.888774 0.676405 0.038190
0.906395 0.675093 0.037610
0.007446 0.467359 0.028595
0.008679 0.474897 0.031543
0.027472 0.474165 0.030280
0.040845 0.485029 0.032282
0.052277 0.501070 0.036182
0.063459 0.526897 0.040620
0.082551 0.560052 0.045130
0.247953 0.594446 0.049689
0.373242 0.631476 0.054047
0.483766 0.663923 0.057954
0.591974 0.690425 0.059883
0.699123 0.707637 0.057746
0.793143 0.716829 0.052363
0.851499 0.718758 0.046796
0.892613 0.718654 0.042499
0.914507 0.718099 0.040027
0.007813 0.485292 0.032190
0.012543 0.491389 0.035187
0.028626 0.492793 0.033845
0.041785 0.503587 0.034491
0.052790 0.519463 0.037458
0.063655 0.545269 0.041358
0.079921 0.578485 0.045686
0.243430 0.613519 0.050184
0.371936 0.651142 0.054719
0.482081 0.684102 0.058997
0.582074 0.711171 0.062495
0.682374 0.732149 0.063532
0.769613 0.742684 0.060682
0.840165 0.746908 0.054994
0.887535 0.747622 0.048634
0.916942 0.745766 0.043049
0.012415 0.499159 0.035895
0.017700 0.504857 0.038752
0.030408 0.507762 0.037952
0.043342 0.518706 0.037409
0.053779 0.534105 0.039307
0.064051 0.558886 0.042457
0.078419 0.591077 0.046284
0.239084 0.625934 0.050703
0.370575 0.663868 0.055232
0.481514 0.697279 0.059693
0.578820 0.724355 0.063740
0.672840 0.747066 0.066627
0.749398 0.759811 0.066853
0.825962 0.766067 0.062879
0.878477 0.765640 0.054969
0.916039 0.764468 0.046748
0.017060 0.510369 0.039185
0.023456 0.515587 0.042835
0.033796 0.521324 0.043287
0.045325 0.531328 0.040845
0.054768 0.545635 0.041352
0.064363 0.569116 0.043549
0.077095 0.600354 0.046943
0.234977 0.634974 0.051240
0.368353 0.673066 0.055793
0.480763 0.706734 0.060279
0.577752 0.733669 0.064515
0.667176 0.757070 0.068476
0.734322 0.772195 0.071186
0.810410 0.781326 0.069374
0.869157 0.779367 0.060835
0.913512 0.777035 0.050446
0.011334 0.002344 0.032825
0.024775 0.002661 0.032721
0.040131 0.003058 0.032551
0.058875 0.003534 0.032337
0.088026 0.004492 0.031952
0.136593 0.005084 0.031208
0.197745 0.004053 0.029291
0.278251 0.001959 0.027826
0.354253 0.002582 0.027649
0.433130 0.003241 0.027405
0.495119 0.003705 0.027185
0.548162 0.004920 0.027356
0.583655 0.007617 0.028290
0.611829 0.011450 0.030457
0.630182 0.015924 0.033057
0.645441 0.020008 0.035712
0.011682 0.017957 0.033832
0.025086 0.018170 0.033851
0.040797 0.018317 0.033619
0.059992 0.018805 0.033130
0.090230 0.019800 0.032673
0.138979 0.020697 0.031763
0.200296 0.019928 0.029664
0.280882 0.015546 0.028278
0.357946 0.015894 0.028199
0.437238 0.016278 0.028144
0.499693 0.016791 0.028125
0.552892 0.017426 0.028217
0.589319 0.018915 0.029102
0.618280 0.021680 0.031189
0.637952 0.025220 0.034064
0.653230 0.028644 0.036866
0.011933 0.035828 0.035145
0.024799 0.036048 0.035688
0.040900 0.035975 0.035608
0.061012 0.036567 0.034949
0.093495 0.037867 0.033845
0.144472 0.039680 0.032465
0.207614 0.040089 0.030085
0.289940 0.033930 0.028870
0.368194 0.029487 0.028925
0.448145 0.029755 0.028925
0.511742 0.030011 0.028956
0.564105 0.030451 0.029151
0.600287 0.031330 0.029841
0.628644 0.033075 0.031598
0.648096 0.035584 0.034351
0.663526 0.038093 0.037177
0.011475 0.059199 0.036670
0.024073 0.059510 0.037891
0.039808 0.059620 0.038856
0.060261 0.061555 0.039777
0.094832 0.063795 0.037842
0.148867 0.067768 0.035169
0.213779 0.070893 0.031641
0.298552 0.068421 0.030372
0.378412 0.057124 0.030408
0.460414 0.044160 0.030475
0.524669 0.044379 0.030542
0.578808 0.044623 0.030665
0.614899 0.045081 0.031116
0.643568 0.046040 0.032447
0.662977 0.047565 0.034681
0.678071 0.049220 0.037183
0.008331 0.094215 0.038172
0.020569 0.094752 0.039881
0.037031 0.094203 0.041462
0.057722 0.097639 0.044056
0.091853 0.102425 0.044007
0.150710 0.108406 0.039326
0.221524 0.114003 0.033222
0.310369 0.117403 0.032050
0.393213 0.113906 0.032026
0.478389 0.100618 0.032099
0.544012 0.078920 0.032166
0.600696 0.059028 0.032239
0.636634 0.059297 0.032496
0.665632 0.059797 0.033271
0.684590 0.060572 0.034791
0.698836 0.061421 0.036561
0.007446 0.139168 0.038611
0.018012 0.140615 0.040565
0.031220 0.139638 0.042438
0.050684 0.143923 0.046412
0.085566 0.150234 0.048688
0.146017 0.159792 0.045649
0.224949 0.168637 0.035889
0.322106 0.176474 0.034284
0.411774 0.178909 0.033735
0.501027 0.175869 0.033722
0.568652 0.167752 0.033759
0.627863 0.155526 0.033851
0.664558 0.143703 0.033997
0.694240 0.132338 0.034339
0.712959 0.123574 0.035029
0.726375 0.117433 0.035846
0.007446 0.191806 0.036628
0.017133 0.195029 0.038648
0.030958 0.192868 0.040223
0.042609 0.197604 0.044587
0.068891 0.205594 0.049195
0.134658 0.218228 0.047932
0.218412 0.232987 0.041010
0.324565 0.244840 0.038288
0.428119 0.250828 0.036219
0.524559 0.252525 0.035523
0.595599 0.249625 0.035523
0.657954 0.244181 0.035566
0.696352 0.237821 0.035676
0.727242 0.231760 0.035785
0.746401 0.226957 0.036023
0.759628 0.223484 0.036286
0.007446 0.249479 0.030726
0.015583 0.255406 0.032758
0.030707 0.251023 0.033838
0.042628 0.256699 0.037458
0.053669 0.266715 0.042206
0.113167 0.282536 0.044190
0.205948 0.302049 0.045502
0.312938 0.321062 0.044154
0.435566 0.333696 0.040699
0.545318 0.339086 0.038215
0.623456 0.339208 0.037372
0.689870 0.337127 0.037287
0.730556 0.332915 0.037360
0.763082 0.328740 0.037458
0.783182 0.324816 0.037604
0.796481 0.321538 0.037702
0.007446 0.310887 0.031281
0.013739 0.319359 0.033191
0.030243 0.314189 0.033924
0.042493 0.321166 0.037000
0.053669 0.332818 0.041102
0.069844 0.351958 0.045258
0.187143 0.375995 0.048548
0.295592 0.400757 0.049506
0.428052 0.423688 0.047388
0.552227 0.434052 0.043226
0.647529 0.435975 0.040320
0.720143 0.435334 0.039374
0.763888 0.432044 0.039246
0.797842 0.428705 0.039307
0.819437 0.425208 0.039405
0.833127 0.422150 0.039466
0.007446 0.370404 0.032044
0.011182 0.381860 0.034327
0.029548 0.376403 0.034510
0.042420 0.384198 0.037317
0.053706 0.397833 0.041382
0.064753 0.419965 0.045716
0.159835 0.447254 0.049897
0.276396 0.476136 0.053034
0.409485 0.506343 0.053565
0.537188 0.524938 0.050636
0.657319 0.533568 0.045948
0.741799 0.532891 0.042640
0.792612 0.530242 0.041462
0.828751 0.527721 0.041273
0.852189 0.525084 0.041291
0.866551 0.522557 0.041309
0.007446 0.415772 0.032856
0.008545 0.428156 0.035694
0.028595 0.422260 0.035218
0.042188 0.431464 0.037647
0.053687 0.446802 0.041675
0.064826 0.471327 0.046040
0.123513 0.501482 0.050434
0.263871 0.533227 0.054554
0.390240 0.567553 0.057514
0.513753 0.593988 0.057502
0.645136 0.612659 0.053846
0.744399 0.618610 0.048786
0.811759 0.618726 0.045093
0.852366 0.618073 0.043708
0.878904 0.617426 0.043342
0.894548 0.616156 0.043293
0.007446 0.449744 0.034095
0.007758 0.459089 0.037342
0.027680 0.456648 0.036213
0.041932 0.467543 0.038105
0.053657 0.484199 0.041932
0.064814 0.510405 0.046345
0.091109 0.542846 0.050813
0.256022 0.576696 0.055177
0.381750 0.613507 0.059254
0.495726 0.644794 0.061897
0.620764 0.668086 0.061140
0.727431 0.679121 0.056910
0.814005 0.684053 0.051710
0.861430 0.681953 0.047810
0.892345 0.680018 0.046040
0.909477 0.678151 0.045277
0.007446 0.473396 0.036139
0.007648 0.481581 0.039545
0.027240 0.480409 0.038080
0.041938 0.491023 0.038990
0.053693 0.508080 0.042444
0.064826 0.535180 0.046693
0.083571 0.568634 0.051136
0.250803 0.603534 0.055592
0.379608 0.641315 0.059962
0.488209 0.673445 0.063880
0.598401 0.699940 0.065968
0.703774 0.716030 0.064436
0.799008 0.723769 0.059773
0.856034 0.724355 0.054633
0.896489 0.723043 0.050288
0.917546 0.721303 0.047510
0.007446 0.491078 0.039069
0.010761 0.497740 0.042365
0.028040 0.498518 0.041047
0.042536 0.509148 0.040717
0.054035 0.526122 0.043421
0.064942 0.553344 0.047193
0.081050 0.587097 0.051484
0.246537 0.622614 0.055952
0.378576 0.661036 0.060414
0.486781 0.693556 0.064710
0.588232 0.720937 0.068244
0.686445 0.741176 0.069538
0.774795 0.751095 0.067213
0.844218 0.753469 0.062177
0.892021 0.753054 0.056159
0.920226 0.749734 0.050373
0.010578 0.504771 0.042286
0.016059 0.510900 0.045338
0.029596 0.513353 0.044593
0.043720 0.523815 0.043238
0.054713 0.540215 0.044868
0.065180 0.566461 0.047919
0.079304 0.599561 0.051887
0.243082 0.635035 0.056306
0.377649 0.673841 0.060822
0.486470 0.706557 0.065217
0.585309 0.734151 0.069294
0.677192 0.756332 0.072273
0.753994 0.769027 0.072755
0.829453 0.774282 0.069300
0.882774 0.771737 0.061994
0.919408 0.768862 0.053925
0.015784 0.515764 0.045100
0.022571 0.522142 0.049189
0.033204 0.527605 0.049793
0.045753 0.536803 0.046503
0.055720 0.551830 0.046760
0.065431 0.576452 0.048731
0.077723 0.608765 0.052320
0.239884 0.643983 0.056648
0.376043 0.683003 0.061176
0.486165 0.715865 0.065644
0.584381 0.743429 0.069929
0.672181 0.766403 0.073835
0.738460 0.781418 0.076576
0.814072 0.790109 0.075068
0.873234 0.786337 0.067243
0.917290 0.781991 0.057350
0.010980 0.002649 0.050483
0.023890 0.003192 0.050220
0.039771 0.003302 0.049580
0.058576 0.003864 0.049104
0.088356 0.004700 0.048695
0.136922 0.005621 0.047797
0.199344 0.004291 0.045942
0.280674 0.002069 0.041798
0.357421 0.002625 0.039722
0.436939 0.003223 0.039515
0.499025 0.003857 0.039240
0.551659 0.004828 0.039045
0.587341 0.006769 0.039295
0.615186 0.010224 0.040339
0.633063 0.014466 0.042084
0.648737 0.018860 0.044025
0.011090 0.018579 0.052399
0.024201 0.018793 0.051881
0.040229 0.018946 0.050959
0.059736 0.019336 0.050282
0.090340 0.020301 0.049586
0.140017 0.021216 0.048615
0.202353 0.020282 0.046516
0.283647 0.015619 0.042158
0.361352 0.015924 0.040345
0.441126 0.016358 0.040223
0.503740 0.016718 0.040082
0.556359 0.017359 0.040021
0.592694 0.018506 0.040333
0.621399 0.020777 0.041456
0.641102 0.024103 0.043293
0.656727 0.027527 0.045313
0.010864 0.036988 0.054847
0.023792 0.037220 0.054371
0.040613 0.036915 0.053309
0.061091 0.037464 0.052351
0.093965 0.038795 0.051319
0.145681 0.040607 0.049952
0.209458 0.040955 0.047510
0.292943 0.034351 0.042615
0.372137 0.029554 0.040919
0.452314 0.029810 0.040851
0.516057 0.030054 0.040821
0.568219 0.030414 0.040839
0.604163 0.031073 0.041120
0.632123 0.032514 0.042066
0.651508 0.034730 0.043812
0.666847 0.037153 0.045667
0.009192 0.062061 0.058033
0.022156 0.062123 0.057868
0.039411 0.061653 0.057081
0.061549 0.062617 0.056391
0.097670 0.065010 0.054768
0.152883 0.069136 0.052375
0.219290 0.071998 0.048902
0.305553 0.068379 0.042695
0.385992 0.055964 0.041468
0.467585 0.043708 0.041498
0.532012 0.043922 0.041505
0.584466 0.044184 0.041541
0.620209 0.044556 0.041736
0.647755 0.045356 0.042426
0.666871 0.046662 0.043775
0.681727 0.048121 0.045313
0.007446 0.098866 0.061384
0.018787 0.099263 0.061677
0.035419 0.097865 0.061091
0.058735 0.099696 0.061579
0.095216 0.104793 0.062269
0.154885 0.110780 0.058186
0.226780 0.115889 0.052198
0.317247 0.118648 0.043372
0.400800 0.114339 0.042927
0.485682 0.099812 0.042951
0.551427 0.076533 0.043000
0.606519 0.058601 0.043037
0.642438 0.058845 0.043146
0.670442 0.059242 0.043531
0.688771 0.059870 0.044318
0.702669 0.060597 0.045258
0.007446 0.145107 0.063966
0.018073 0.146529 0.064979
0.032160 0.144552 0.064082
0.050422 0.146920 0.065162
0.088661 0.153103 0.069020
0.150478 0.163259 0.067500
0.230765 0.171664 0.056739
0.329406 0.178982 0.044929
0.419129 0.180526 0.044489
0.508449 0.176858 0.044477
0.576342 0.167996 0.044489
0.634583 0.155428 0.044550
0.670796 0.143215 0.044630
0.699605 0.131118 0.044776
0.717604 0.121798 0.045100
0.730660 0.114675 0.045490
0.007446 0.198709 0.063972
0.016883 0.202280 0.065980
0.031891 0.198849 0.063929
0.044495 0.201602 0.065241
0.068714 0.209860 0.071009
0.139815 0.223185 0.071888
0.224143 0.237546 0.062702
0.332378 0.248569 0.048225
0.435511 0.253849 0.046650
0.532122 0.254771 0.046107
0.603290 0.251243 0.046052
0.665229 0.245414 0.046088
0.702974 0.238962 0.046125
0.733107 0.232621 0.046198
0.751626 0.227524 0.046332
0.764547 0.223783 0.046436
0.007446 0.257835 0.059553
0.015369 0.264073 0.062708
0.031440 0.258354 0.059321
0.044318 0.261949 0.059742
0.055628 0.272215 0.065675
0.117488 0.288969 0.069630
0.211844 0.308391 0.064131
0.320848 0.327190 0.053040
0.442792 0.338439 0.050446
0.553167 0.342943 0.048426
0.631171 0.342437 0.047761
0.697285 0.340002 0.047663
0.737337 0.335436 0.047694
0.769216 0.330846 0.047767
0.788614 0.326647 0.047834
0.801712 0.323412 0.047901
0.007446 0.319969 0.049030
0.013263 0.329381 0.052998
0.030732 0.322588 0.047993
0.044166 0.327642 0.046918
0.055598 0.339763 0.050391
0.071315 0.360040 0.054707
0.192074 0.384155 0.055811
0.303020 0.408832 0.057276
0.434730 0.430549 0.056043
0.560797 0.439973 0.052802
0.654585 0.440949 0.050312
0.727474 0.439698 0.049488
0.770474 0.436060 0.049335
0.804208 0.432178 0.049384
0.824790 0.428260 0.049458
0.838248 0.424976 0.049482
0.007446 0.380060 0.042939
0.010736 0.392309 0.045338
0.029895 0.385547 0.044715
0.043922 0.391858 0.045875
0.055586 0.405975 0.048994
0.066517 0.429487 0.052906
0.161501 0.457075 0.056880
0.283110 0.486061 0.060078
0.416925 0.515828 0.061097
0.545281 0.533251 0.059095
0.663832 0.540002 0.055256
0.748977 0.538817 0.052363
0.798782 0.535430 0.051319
0.834830 0.532549 0.051106
0.857456 0.529424 0.051118
0.871611 0.526561 0.051167
0.007446 0.425495 0.043482
0.008301 0.439051 0.046418
0.028894 0.431666 0.045368
0.043525 0.439826 0.046265
0.055506 0.455622 0.049220
0.066572 0.481929 0.053132
0.126149 0.512346 0.057288
0.268724 0.544292 0.061311
0.398419 0.579052 0.064369
0.520046 0.604297 0.064845
0.651887 0.621546 0.062129
0.751254 0.625830 0.057856
0.817234 0.624897 0.054578
0.858006 0.623780 0.053285
0.883830 0.622626 0.052930
0.899290 0.621247 0.052857
0.007446 0.458759 0.044196
0.007575 0.469471 0.047657
0.027588 0.465693 0.046235
0.043091 0.476112 0.046748
0.055427 0.493492 0.049470
0.066554 0.521593 0.053364
0.092616 0.554437 0.057539
0.259629 0.588434 0.061781
0.389477 0.625812 0.065791
0.501466 0.655940 0.068580
0.626801 0.678865 0.068397
0.733278 0.688594 0.065058
0.818717 0.691444 0.060572
0.866679 0.688753 0.057014
0.897087 0.686238 0.055366
0.913945 0.683931 0.054646
0.007446 0.482264 0.045484
0.007446 0.491579 0.049030
0.026673 0.489357 0.047596
0.042695 0.499519 0.047535
0.055335 0.517314 0.049830
0.066560 0.546545 0.053571
0.083912 0.580377 0.057771
0.253880 0.615698 0.062074
0.387005 0.653950 0.066383
0.493483 0.684920 0.070253
0.605560 0.711592 0.072523
0.708376 0.726796 0.071583
0.804343 0.733449 0.067732
0.860642 0.731948 0.063239
0.900694 0.729574 0.059254
0.921599 0.727077 0.056617
0.007446 0.499620 0.047456
0.008295 0.507524 0.050916
0.026954 0.507030 0.049769
0.042799 0.517107 0.048908
0.055409 0.534942 0.050526
0.066566 0.564410 0.053925
0.080720 0.598865 0.058009
0.249375 0.634894 0.062348
0.386188 0.673872 0.066725
0.491975 0.705190 0.070961
0.595087 0.732638 0.074501
0.690468 0.752059 0.076033
0.779745 0.761990 0.074305
0.847935 0.763009 0.069972
0.896416 0.760586 0.064619
0.924089 0.756027 0.059144
0.008093 0.513384 0.049897
0.012866 0.520574 0.053211
0.027893 0.521923 0.052552
0.043445 0.531389 0.050843
0.055732 0.548315 0.051545
0.066670 0.577185 0.054395
0.078315 0.611218 0.058289
0.245701 0.647364 0.062605
0.384851 0.686586 0.067012
0.491688 0.718111 0.071351
0.592114 0.745882 0.075380
0.680903 0.767184 0.078419
0.758566 0.780020 0.079188
0.832358 0.784781 0.076332
0.886882 0.780764 0.069831
0.922948 0.775448 0.062403
0.013050 0.524236 0.052149
0.020227 0.532140 0.062739
0.031598 0.536883 0.057447
0.045289 0.544616 0.053791
0.056648 0.560052 0.053248
0.067012 0.587622 0.055219
0.077559 0.620502 0.058674
0.242600 0.656336 0.062831
0.383728 0.695821 0.067298
0.491365 0.727395 0.071681
0.591290 0.755178 0.075898
0.676222 0.777133 0.079786
0.743099 0.791940 0.082649
0.817594 0.800870 0.081636
0.876970 0.797024 0.075013
0.921068 0.790188 0.066633
0.010407 0.002869 0.077864
0.022834 0.003284 0.077864
0.038880 0.003607 0.075776
0.057978 0.004157 0.074293
0.088045 0.005158 0.073341
0.137905 0.005731 0.072145
0.200638 0.004450 0.069587
0.283171 0.002264 0.064784
0.360827 0.002814 0.057990
0.440888 0.003436 0.051667
0.503801 0.004022 0.051362
0.556933 0.004804 0.051051
0.593005 0.006128 0.050916
0.621167 0.008832 0.051209
0.638795 0.012665 0.052009
0.653394 0.016925 0.053132
0.010010 0.019208 0.082564
0.022535 0.019538 0.081068
0.039094 0.019507 0.078419
0.058863 0.019959 0.076442
0.090053 0.020935 0.075111
0.140627 0.021656 0.073518
0.203677 0.020685 0.070881
0.286571 0.015711 0.065736
0.365063 0.016107 0.058705
0.445649 0.016461 0.052399
0.508898 0.016852 0.052241
0.562048 0.017328 0.052125
0.598267 0.018146 0.052076
0.626911 0.019892 0.052503
0.646131 0.022663 0.053455
0.661396 0.025818 0.054615
0.008789 0.038672 0.087453
0.021265 0.038972 0.086268
0.038672 0.038526 0.082936
0.059785 0.038917 0.080537
0.093629 0.040143 0.078798
0.146218 0.041877 0.076857
0.211325 0.041987 0.073823
0.295775 0.035035 0.067860
0.376043 0.029603 0.060096
0.457234 0.029828 0.053065
0.521581 0.030146 0.053010
0.574157 0.030445 0.052961
0.610333 0.030951 0.052985
0.637928 0.031995 0.053352
0.656788 0.033710 0.054212
0.671473 0.035718 0.055201
0.007446 0.065876 0.093800
0.018756 0.066261 0.093196
0.036292 0.065046 0.089381
0.059779 0.065614 0.086757
0.097328 0.068025 0.084614
0.153841 0.072053 0.081752
0.221616 0.074647 0.077638
0.309166 0.070497 0.070204
0.390942 0.057148 0.060859
0.473207 0.043671 0.053455
0.538427 0.043885 0.053443
0.590948 0.044129 0.053419
0.627002 0.044434 0.053474
0.654090 0.044977 0.053706
0.672493 0.045930 0.054298
0.686500 0.046949 0.055018
0.007446 0.105574 0.100673
0.018231 0.106099 0.100685
0.032874 0.103780 0.096455
0.055714 0.104463 0.094362
0.097115 0.108266 0.093275
0.158926 0.113960 0.089339
0.232132 0.118422 0.082893
0.324065 0.120540 0.072712
0.408783 0.115370 0.060774
0.493446 0.099757 0.054108
0.559985 0.074488 0.054121
0.613867 0.058167 0.054145
0.650056 0.058381 0.054200
0.677205 0.058698 0.054328
0.694917 0.059138 0.054615
0.708058 0.059626 0.055000
0.007446 0.153213 0.106447
0.017359 0.155111 0.107808
0.032526 0.151705 0.102669
0.045985 0.152840 0.101228
0.090010 0.157656 0.102254
0.154647 0.168136 0.102907
0.236655 0.175918 0.093068
0.336498 0.182553 0.077180
0.426770 0.183212 0.059950
0.516387 0.178689 0.055525
0.584778 0.169277 0.055561
0.641981 0.156338 0.055592
0.678566 0.143307 0.055640
0.706630 0.130721 0.055702
0.724111 0.120125 0.055811
0.736831 0.111891 0.055952
0.007446 0.208634 0.110213
0.016052 0.212955 0.113204
0.032111 0.207944 0.106569
0.045600 0.209799 0.104714
0.065315 0.216129 0.106752
0.144735 0.229831 0.111080
0.230576 0.243821 0.106838
0.340526 0.254240 0.082966
0.443030 0.258384 0.057453
0.539904 0.258396 0.057063
0.611579 0.254307 0.057032
0.673066 0.247819 0.057063
0.710549 0.240671 0.057099
0.740237 0.234165 0.057142
0.758260 0.228714 0.057197
0.771078 0.224802 0.057234
0.007446 0.269718 0.110896
0.014319 0.277366 0.116262
