LUTs/SPK Cube Block1 S16/TheBrim_SPK_Type-Q_Block1_S16.cube
TITLE "TheBrim® SPK Block 1"
# © Copyright 2021 - TheBrim® d.o.o. Croatia
LUT_3D_SIZE 6
DOMAIN_MIN 0.000000 0.000000 0.000000
DOMAIN_MAX 1.000000 1.000000 1.000000
0.000000 0.000000 0.000000
0.168106 0.000000 0.000000
0.496855 0.000000 0.000000
0.839377 0.000000 0.000000
1.000000 0.000000 0.000000
1.000000 0.007019 0.000000
0.000000 0.134548 0.000000
0.072059 0.117556 0.000000
0.399493 0.112605 0.000000
0.748342 0.133199 0.000000
1.000000 0.208927 0.000000
1.000000 0.261564 0.000000
0.000000 0.445655 0.000000
0.000000 0.411615 0.000000
0.307854 0.393085 0.000000
0.664027 0.399133 0.000000
1.000000 0.456733 0.000000
1.000000 0.515807 0.000000
0.000000 0.751681 0.019892
0.000000 0.714028 0.012073
0.197885 0.705745 0.000000
0.572088 0.675062 0.000000
0.950738 0.706227 0.000000
1.000000 0.759341 0.027662
0.000000 0.997839 0.055756
0.014282 0.997693 0.064576
0.213773 0.997345 0.067848
0.436231 0.996869 0.069007
0.858756 0.989599 0.047761
1.000000 1.000000 0.077119
0.000000 1.000000 0.021851
0.009979 1.000000 0.030707
0.216495 1.000000 0.042878
0.427863 1.000000 0.059742
0.743404 1.000000 0.085341
1.000000 1.000000 0.105562
0.000000 0.000000 0.090236
0.140645 0.000000 0.050245
0.460017 0.000000 0.046784
0.803732 0.000000 0.072181
1.000000 0.000000 0.118672
1.000000 0.000000 0.158895
0.000000 0.108437 0.118544
0.098970 0.098659 0.098799
0.413513 0.094771 0.078987
0.751656 0.122451 0.087239
1.000000 0.201706 0.136226
1.000000 0.256376 0.177652
0.000000 0.404340 0.165182
0.003003 0.381018 0.153683
0.328960 0.368225 0.128115
0.673622 0.385296 0.125093
1.000000 0.444154 0.162600
1.000000 0.510375 0.207858
0.000000 0.734249 0.241337
0.003296 0.690675 0.231028
0.208792 0.675563 0.206583
0.585394 0.658991 0.179245
0.959954 0.696107 0.200607
1.000000 0.757522 0.244596
0.000000 0.997693 0.277342
0.021082 0.997577 0.285087
0.219895 0.997235 0.288872
0.461939 0.996771 0.286308
0.867436 0.979394 0.259654
1.000000 0.998993 0.287736
0.000000 1.000000 0.246641
0.026886 1.000000 0.254636
0.226792 1.000000 0.265873
0.435523 1.000000 0.279588
0.761874 1.000000 0.299388
1.000000 1.000000 0.317559
0.000000 0.000000 0.375366
0.175064 0.000000 0.330791
0.434607 0.000000 0.285722
0.772934 0.000000 0.299132
1.000000 0.000000 0.322557
1.000000 0.000000 0.360107
0.000000 0.100478 0.357116
0.145003 0.096693 0.342260
0.391650 0.044581 0.274650
0.721260 0.073194 0.278923
1.000000 0.151473 0.320488
1.000000 0.210196 0.358862
0.000000 0.383038 0.394977
0.045545 0.362737 0.382000
0.357397 0.355938 0.357092
0.690675 0.374450 0.356298
1.000000 0.437287 0.389953
1.000000 0.505052 0.434998
0.000000 0.713021 0.469984
0.008496 0.670210 0.456733
0.246476 0.656831 0.433234
0.607410 0.645203 0.406696
0.974212 0.686122 0.427143
1.000000 0.752444 0.471498
0.000000 0.997363 0.510375
0.030072 0.997223 0.514958
0.230723 0.996924 0.520018
0.516439 0.987524 0.510375
0.884001 0.961480 0.481196
1.000000 0.993243 0.514171
0.000000 1.000000 0.473884
0.043653 1.000000 0.479817
0.237894 1.000000 0.492216
0.444752 1.000000 0.507890
0.794809 1.000000 0.529094
1.000000 1.000000 0.542095
0.015344 0.000000 0.697762
0.239121 0.000000 0.647071
0.485112 0.000000 0.591522
0.740066 0.000000 0.530993
1.000000 0.000000 0.538909
1.000000 0.000000 0.569757
0.000000 0.117690 0.629883
0.215488 0.115712 0.610602
0.448920 0.066548 0.543578
0.696004 0.024762 0.471766
1.000000 0.099818 0.515319
1.000000 0.161733 0.554363
0.000000 0.385034 0.661225
0.145779 0.377386 0.643409
0.423804 0.373480 0.621820
0.671620 0.322808 0.549920
1.000000 0.385809 0.580151
1.000000 0.456806 0.619550
0.000000 0.683436 0.708962
0.015088 0.650477 0.691981
0.328624 0.638630 0.666847
0.637757 0.632435 0.637958
0.989899 0.677162 0.660011
1.000000 0.746181 0.696004
0.000000 0.996710 0.760482
0.036292 0.995911 0.762026
0.241270 0.988159 0.761062
0.576330 0.965936 0.734847
0.909245 0.944537 0.708516
1.000000 0.989239 0.736440
0.000000 1.000000 0.720723
0.057929 1.000000 0.723989
0.250352 1.000000 0.734279
0.456843 1.000000 0.747475
0.837137 1.000000 0.758688
1.000000 1.000000 0.767617
0.122017 0.000000 0.924437
0.327404 0.000000 0.893004
0.555261 0.000000 0.861552
0.800742 0.000000 0.830112
1.000000 0.000000 0.767636
1.000000 0.000000 0.788602
0.075215 0.141994 0.932134
0.316216 0.145840 0.927996
0.537176 0.102150 0.872136
0.774673 0.062354 0.785824
1.000000 0.042231 0.735189
1.000000 0.105702 0.770492
0.025959 0.399030 0.971337
0.255686 0.403229 0.965490
0.519811 0.403803 0.948266
0.753707 0.359258 0.862730
0.998627 0.331560 0.782803
1.000000 0.404584 0.813266
0.000000 0.669679 1.000000
0.179696 0.671943 0.999829
0.442432 0.668299 0.987329
0.727895 0.665156 0.953936
0.976434 0.622382 0.862608
1.000000 0.696852 0.890300
0.000000 0.953088 1.000000
0.069398 0.946032 1.000000
0.318968 0.948656 1.000000
0.636060 0.943304 0.985534
0.940111 0.929870 0.942101
1.000000 0.980591 0.974884
0.000000 1.000000 1.000000
0.072407 1.000000 1.000000
0.273729 1.000000 1.000000
0.498024 1.000000 1.000000
0.888957 1.000000 1.000000
1.000000 1.000000 1.000000
0.180087 0.000000 0.985077
0.391528 0.000000 0.985077
0.620282 0.000000 0.985077
0.863474 0.000000 0.985077
1.000000 0.000000 0.985077
1.000000 0.000000 0.985077
0.151443 0.168643 1.000000
0.388690 0.179574 1.000000
0.610291 0.139638 1.000000
0.849564 0.101253 0.986004
1.000000 0.074104 0.985077
1.000000 0.030542 0.985077
0.118685 0.409204 1.000000
0.349230 0.418354 1.000000
0.607300 0.426545 1.000000
0.840916 0.383447 1.000000
1.000000 0.357177 1.000000
1.000000 0.340911 1.000000
0.057972 0.694380 1.000000
0.285832 0.695357 1.000000
0.540703 0.695949 1.000000
0.815360 0.696468 1.000000
1.000000 0.650690 1.000000
1.000000 0.612689 1.000000
0.000000 0.995477 1.000000
0.181631 0.993957 1.000000
0.451191 0.991925 1.000000
0.733059 0.985956 1.000000
1.000000 0.972332 1.000000
1.000000 0.914940 1.000000
0.000000 1.000000 1.000000
0.072731 1.000000 1.000000
0.275303 1.000000 1.000000
0.617792 1.000000 1.000000
0.928740 1.000000 1.000000
1.000000 1.000000 1.000000
