LUTs/SPK Cube Block1 S16/TheBrim_SPK_Type-A_Block1_S16.cube
TITLE "TheBrim® Industrial Imaging Burau"
# © Copyright 2022 - TheBrim® d.o.o. Croatia
LUT_3D_SIZE 6
DOMAIN_MIN 0.000000 0.000000 0.000000
DOMAIN_MAX 1.000000 1.000000 1.000000
0.004913 0.003448 0.003296
0.021137 0.008270 0.006573
0.208618 0.002912 0.001153
0.519458 0.000000 0.000000
0.643469 0.000000 0.000000
0.681183 0.000000 0.006104
0.002869 0.029486 0.020533
0.017688 0.037164 0.019666
0.226001 0.073187 0.011408
0.569220 0.073383 0.000000
0.730725 0.094208 0.000000
0.764172 0.154541 0.000000
0.000000 0.149902 0.112451
0.000000 0.153931 0.111109
0.170270 0.204016 0.090680
0.632818 0.310925 0.012903
0.836597 0.365082 0.000000
0.865313 0.394000 0.000000
0.000000 0.389533 0.297882
0.000000 0.392511 0.298114
0.000000 0.486896 0.293683
0.673602 0.590399 0.170093
0.931433 0.661792 0.000000
0.962311 0.669019 0.000000
0.000000 0.483221 0.359992
0.000000 0.497992 0.360785
0.029358 0.662164 0.401593
0.727143 0.789795 0.340790
0.954138 0.800409 0.055896
0.997174 0.796857 0.000000
0.000000 0.634583 0.398376
0.112561 0.677246 0.402289
0.515631 0.747394 0.387005
0.820575 0.806586 0.301635
0.957794 0.825916 0.175354
0.997650 0.829315 0.006134
0.004755 0.007990 0.020007
0.010846 0.008026 0.017316
0.159906 0.008148 0.020539
0.501263 0.000000 0.033930
0.641248 0.000000 0.057178
0.680029 0.000000 0.103058
0.000000 0.031281 0.040021
0.010724 0.036939 0.040411
0.230994 0.075751 0.052899
0.586505 0.070813 0.070086
0.737567 0.088055 0.114648
0.777911 0.173621 0.164709
0.000000 0.149909 0.115210
0.000000 0.152820 0.113428
0.174756 0.206079 0.107672
0.648871 0.318475 0.099103
0.847852 0.386352 0.134778
0.877557 0.428376 0.180585
0.000000 0.389404 0.298444
0.000000 0.391846 0.297864
0.000000 0.486884 0.292468
0.677716 0.585650 0.165326
0.934900 0.674042 0.095660
0.964063 0.701752 0.182349
0.000000 0.484961 0.360272
0.000000 0.502490 0.361762
0.051978 0.667627 0.402173
0.733392 0.790625 0.338477
0.955810 0.803424 0.086371
0.993787 0.826739 0.208569
0.000000 0.648999 0.400513
0.209064 0.689759 0.403125
0.547278 0.754187 0.382416
0.837720 0.809686 0.291681
0.959832 0.827374 0.186890
0.993170 0.850995 0.271375
0.001502 0.020233 0.108795
0.005054 0.022553 0.124017
0.104931 0.027503 0.130530
0.501343 0.000000 0.169165
0.639959 0.000000 0.163660
0.682355 0.000000 0.211322
0.000000 0.047076 0.144250
0.000000 0.045502 0.151868
0.133801 0.059601 0.154864
0.563507 0.054315 0.208356
0.725171 0.027466 0.244629
0.764478 0.128674 0.290973
0.000000 0.173260 0.229797
0.000000 0.176843 0.232935
0.162079 0.246368 0.265125
0.693415 0.371991 0.325732
0.865204 0.438117 0.371393
0.885205 0.467828 0.392548
0.000000 0.407580 0.381653
0.000000 0.409851 0.382050
0.000000 0.516931 0.414038
0.704767 0.644330 0.390991
0.937549 0.725879 0.401233
0.960822 0.742542 0.421777
0.000000 0.504816 0.438965
0.000000 0.531573 0.451379
0.016986 0.693487 0.518921
0.751282 0.827551 0.511432
0.951453 0.846997 0.426141
0.984955 0.857977 0.442590
0.059070 0.681342 0.434064
0.310284 0.714673 0.438208
0.598303 0.783765 0.450879
0.846039 0.839014 0.451550
0.955469 0.866754 0.456097
0.984729 0.880524 0.480206
0.000000 0.058918 0.266357
0.000000 0.059466 0.286548
0.145789 0.059162 0.296216
0.460412 0.000000 0.282318
0.674988 0.000000 0.295050
0.723572 0.000000 0.317078
0.000000 0.095459 0.313568
0.000000 0.085614 0.323535
0.171057 0.091608 0.334076
0.530683 0.055298 0.331391
0.724139 0.055182 0.350513
0.769226 0.139020 0.373999
0.000000 0.222504 0.404401
0.000000 0.230347 0.411694
0.174023 0.307275 0.473907
0.656775 0.356628 0.479040
0.845044 0.404645 0.501611
0.869769 0.435083 0.515124
0.000000 0.428442 0.492127
0.000000 0.433362 0.495288
0.000000 0.565332 0.562329
0.700812 0.664868 0.577509
0.927417 0.738953 0.593066
0.951251 0.757361 0.608447
0.000000 0.528107 0.532629
0.000000 0.560687 0.552393
0.041760 0.729040 0.629571
0.739203 0.846899 0.655811
0.938495 0.868640 0.618121
0.973004 0.879858 0.627338
0.014630 0.725470 0.591803
0.322803 0.757019 0.603229
0.634381 0.824353 0.622217
0.839191 0.867365 0.626495
0.946954 0.893591 0.634656
0.975226 0.902448 0.641162
0.000000 0.126337 0.366650
0.000000 0.133118 0.376672
0.152405 0.145862 0.387555
0.418616 0.144202 0.378913
0.653198 0.109509 0.368005
0.750543 0.149292 0.384204
0.000000 0.151208 0.390295
0.000000 0.161353 0.401501
0.158179 0.186835 0.426740
0.454108 0.190808 0.416382
0.688098 0.179157 0.404931
0.783570 0.232129 0.427215
0.000000 0.246118 0.457916
0.000000 0.263165 0.475177
0.181360 0.324493 0.523571
0.594061 0.368963 0.533087
0.805902 0.404858 0.535034
0.871966 0.467065 0.551709
0.000000 0.454791 0.582751
0.000000 0.462005 0.588397
0.030096 0.620190 0.679529
0.744226 0.702386 0.695422
0.909357 0.716351 0.670728
0.942920 0.745807 0.671539
0.000000 0.548590 0.612280
0.000000 0.597565 0.641803
0.077173 0.760211 0.723981
0.778497 0.867859 0.756122
0.926440 0.872497 0.735602
0.963324 0.883514 0.741345
0.189807 0.762677 0.694550
0.376697 0.790576 0.704425
0.674738 0.853150 0.730017
0.858832 0.892297 0.747870
0.936700 0.909021 0.751556
0.967468 0.914972 0.746637
0.000000 0.174072 0.409729
0.000000 0.182679 0.419519
0.115393 0.209247 0.446960
0.365142 0.217578 0.444952
0.601599 0.207941 0.426923
0.740875 0.211151 0.422302
0.000000 0.195544 0.428247
0.000000 0.206018 0.439062
0.113940 0.236041 0.466333
0.379822 0.248706 0.466620
0.619446 0.249615 0.452216
0.775000 0.281348 0.460962
0.000000 0.269275 0.478955
0.000000 0.281665 0.490814
0.106250 0.319067 0.520312
0.453796 0.370966 0.543536
0.749756 0.442481 0.564703
0.860858 0.498413 0.572583
0.000000 0.475537 0.608564
0.000000 0.518445 0.632788
0.367633 0.624268 0.681171
0.706891 0.675806 0.686414
0.877478 0.726520 0.687921
0.933868 0.754809 0.685096
0.000000 0.617968 0.690277
0.000000 0.692590 0.731238
0.460992 0.817126 0.781860
0.833319 0.878986 0.790088
0.930060 0.876538 0.768543
0.956470 0.876239 0.756769
0.350189 0.798828 0.757599
0.470178 0.821588 0.768249
0.729236 0.873150 0.788116
0.885742 0.906640 0.807483
0.941144 0.919769 0.818127
0.962372 0.919281 0.804932
