LUTs/SPK Cube Block1 S16/TheBrim_SPK_Type-E_Block 1_S16.cube
TITLE "TheBrim® Industrial Imaging Burau"
# © Copyright 2022 - TheBrim® d.o.o. Croatia
LUT_3D_SIZE 16
0.0077821012 0.0134279393 0.0119020371
0.0260257877 0.0234195468 0.0195742733
0.0575082017 0.0281986725 0.0197940032
0.0935683223 0.0343450065 0.0209170672
0.1545799954 0.0378362707 0.0170046540
0.2423743038 0.0271000229 0.0057679103
0.3443839170 0.0000000000 0.0000000000
0.4057862211 0.0000000000 0.0000000000
0.4728648814 0.0000000000 0.0000000000
0.5314503700 0.0000000000 0.0000000000
0.5747615778 0.0000000000 0.0000000000
0.6179629206 0.0000000000 0.0000000000
0.6377752346 0.0000000000 0.0000000000
0.6443121996 0.0000000000 0.0000000000
0.6460578317 0.0000000000 0.0000000000
0.6502021820 0.0000000000 0.0000000000
0.0147463188 0.0449835966 0.0283939879
0.0304020752 0.0416327153 0.0232059205
0.0607370108 0.0417120623 0.0196475166
0.1006301976 0.0427191577 0.0172793164
0.1688685435 0.0443549248 0.0106324865
0.2495460441 0.0361333639 0.0009948882
0.3359731441 0.0183535515 0.0000000000
0.4000671397 0.0000000000 0.0000000000
0.4714000153 0.0000000000 0.0000000000
0.5310292210 0.0000000000 0.0000000000
0.5744502937 0.0000000000 0.0000000000
0.6176211185 0.0000000000 0.0000000000
0.6379766537 0.0000000000 0.0000000000
0.6446662089 0.0000000000 0.0000000000
0.6465461204 0.0000000000 0.0000000000
0.6594735637 0.0000000000 0.0000000000
0.0178652628 0.0721141375 0.0377996490
0.0348088808 0.0713817044 0.0337468528
0.0613900969 0.0706797894 0.0291935607
0.1020889601 0.0712657359 0.0232486458
0.1611535821 0.0719737545 0.0160097658
0.2415197986 0.0688731212 0.0040955215
0.3158373388 0.0578561074 0.0000000000
0.3923216602 0.0365362020 0.0000000000
0.4604623484 0.0054566262 0.0000000000
0.5283741512 0.0000000000 0.0000000000
0.5768917372 0.0000000000 0.0000000000
0.6220767529 0.0000000000 0.0000000000
0.6478706035 0.0000000000 0.0000000000
0.6571969177 0.0000000000 0.0000000000
0.6617990387 0.0000000000 0.0000000000
0.6751964599 0.0000000000 0.0000000000
0.0202212558 0.1050064851 0.0474982834
0.0383978027 0.1040665293 0.0434088655
0.0670786603 0.1039139391 0.0374029145
0.1040543221 0.1040787366 0.0289066911
0.1627771420 0.1071366445 0.0202822919
0.2354345006 0.1072526131 0.0069336995
0.3072312505 0.1015213245 0.0000000000
0.3824216068 0.0900343328 0.0000000000
0.4561898222 0.0730174716 0.0000000000
0.5286488136 0.0460395209 0.0000000000
0.5858579385 0.0197390707 0.0000000000
0.6363042649 0.0009216449 0.0000000000
0.6682993820 0.0000000000 0.0000000000
0.6814160372 0.0000000000 0.0000000000
0.6865674830 0.0000000000 0.0000000000
0.6944655528 0.0000000000 0.0000000000
0.0103212024 0.1501243610 0.0567208362
0.0271671626 0.1496055543 0.0530769818
0.0652964065 0.1512352178 0.0469672694
0.1078324559 0.1526695659 0.0372564279
0.1566247044 0.1488731212 0.0276615549
0.2273350118 0.1503868162 0.0142519265
0.2961043717 0.1459433890 0.0030457008
0.3754512856 0.1417257954 0.0000000000
0.4570687419 0.1311970703 0.0000000000
0.5324696727 0.1208087282 0.0000000000
0.5998535134 0.1045609216 0.0000000000
0.6517280842 0.0883314260 0.0000000000
0.6898939498 0.0759716182 0.0000000000
0.7072220951 0.0674265660 0.0000000000
0.7117448692 0.0600778210 0.0000000000
0.7158464942 0.0720958267 0.0000000000
0.0000000000 0.2006561379 0.0878004120
0.0000000000 0.1951323720 0.0803723201
0.0424689097 0.1932036316 0.0713145647
0.0931105516 0.1990264744 0.0625375753
0.1540794995 0.1997650111 0.0491584649
0.2205539025 0.1996185245 0.0338139925
0.2982284276 0.2018158236 0.0151247425
0.3766170748 0.1985137713 0.0000000000
0.4648996719 0.1952849622 0.0000000000
0.5397146563 0.1877042802 0.0000000000
0.6183108263 0.1780422675 0.0000000000
0.6708934157 0.1681422141 0.0000000000
0.7139055467 0.1590356298 0.0000000000
0.7365560388 0.1525535973 0.0000000000
0.7450278477 0.1509849699 0.0000000000
0.7458152132 0.1500877394 0.0000000000
0.0000000000 0.3002548257 0.1392294194
0.0000000000 0.2835187304 0.1265949493
0.0000000000 0.2595620661 0.1107560845
0.0507209888 0.2534706645 0.0953994049
0.1391195544 0.2629800870 0.0813550011
0.2239108873 0.2666300450 0.0592782483
0.3025558862 0.2661051347 0.0305546654
0.3864316777 0.2654459449 0.0016845960
0.4785290303 0.2637125200 0.0000000000
0.5584893568 0.2612039368 0.0000000000
0.6395513848 0.2556374456 0.0000000000
0.6961745632 0.2490211337 0.0000000000
0.7449118791 0.2431982910 0.0000000000
0.7685328450 0.2357396811 0.0000000000
0.7812161440 0.2320286870 0.0000000000
0.7808133059 0.2282017243 0.0000000000
0.0000000000 0.3748287175 0.1872526131
0.0000000000 0.3767757687 0.1697047379
0.0000000000 0.3506157015 0.1482749676
0.0025696193 0.3294544900 0.1283100633
0.1251606012 0.3369253071 0.1129900053
0.2227450980 0.3476432441 0.0917067216
0.3172045472 0.3500175479 0.0586007477
0.4007934691 0.3494377050 0.0186160067
0.5002792401 0.3501029984 0.0000000000
0.5816281376 0.3454154269 0.0000000000
0.6656565194 0.3431448844 0.0000000000
0.7265949493 0.3363088426 0.0000000000
0.7773647669 0.3297840848 0.0000000000
0.8048798352 0.3231006332 0.0000000000
0.8201693751 0.3176134890 0.0000000000
0.8182406348 0.3090379187 0.0000000000
0.0000000000 0.4392034791 0.2227939269
0.0000000000 0.4431952392 0.2024139773
0.0000000000 0.4400579843 0.1839017319
0.0000000000 0.4357427329 0.1662256809
0.0719310292 0.4347417411 0.1464866102
0.2261570153 0.4392462043 0.1244037537
0.3318226902 0.4419806210 0.0877637903
0.4248783093 0.4402655070 0.0361150530
0.5227100023 0.4383001450 0.0000000000
0.6080994888 0.4373662928 0.0000000000
0.6953627832 0.4361516747 0.0000000000
0.7601281758 0.4339299611 0.0000000000
0.8125947967 0.4277286946 0.0000000000
0.8429053178 0.4217349508 0.0000000000
0.8605386435 0.4141908904 0.0000000000
0.8631021592 0.4106507973 0.0000000000
0.0000000000 0.4978652628 0.2583718624
0.0000000000 0.5046585794 0.2415930419
0.0000000000 0.5060746166 0.2192538338
0.0000000000 0.5067215991 0.1964446479
0.0364751659 0.5157091630 0.1764553292
0.2322056916 0.5205920500 0.1512230106
0.3428091859 0.5290821698 0.1163836118
0.4488960098 0.5369375143 0.0578255894
0.5519096666 0.5418753338 0.0000000000
0.6349858854 0.5353261616 0.0000000000
0.7249408713 0.5362294957 0.0000000000
0.7904448005 0.5309681849 0.0000000000
0.8453467613 0.5265796902 0.0000000000
0.8779034104 0.5192248417 0.0000000000
0.8994125277 0.5168352789 0.0000000000
0.9025131609 0.5067582208 0.0000000000
0.0000000000 0.5358815900 0.2871137560
0.0000000000 0.5430960555 0.2680338750
0.0000000000 0.5519279774 0.2428809033
0.0000000000 0.5634332799 0.2225619898
0.0252201114 0.5789181353 0.2039093614
0.2477759976 0.5944151980 0.1698023957
0.3588799878 0.6060181582 0.1334798199
0.4695078965 0.6155275807 0.0731822690
0.5767696651 0.6203982605 0.0010864424
0.6636118105 0.6208194095 0.0000000000
0.7509727626 0.6191958495 0.0000000000
0.8192355230 0.6176394293 0.0000000000
0.8772381170 0.6157900359 0.0000000000
0.9085984588 0.6109559777 0.0000000000
0.9309193561 0.6088807507 0.0000000000
0.9368276493 0.5982909895 0.0000000000
0.0000000000 0.5761959258 0.2674784466
0.0000000000 0.5806210422 0.2597085527
0.0000000000 0.5883970397 0.2489967193
0.0000000000 0.6013916228 0.2400305180
0.1462485695 0.6211245899 0.2242587930
0.2737346456 0.6362920577 0.1974212253
0.3825741970 0.6525642786 0.1636011292
0.4917677577 0.6704539559 0.1197772183
0.6038147555 0.6850293736 0.0411566339
0.6904066529 0.6915236133 0.0000000000
0.7812405585 0.6970778973 0.0000000000
0.8419897765 0.6939406424 0.0000000000
0.9002609293 0.6937636378 0.0000000000
0.9319569696 0.6868177310 0.0000000000
0.9554619669 0.6839185168 0.0000000000
0.9615777829 0.6705943389 0.0000000000
0.0158815900 0.6092591745 0.2342687114
0.0432135500 0.6134584573 0.2312962539
0.1408712902 0.6206179904 0.2244113832
0.2145052262 0.6293095293 0.2123262379
0.2892500191 0.6409063859 0.1954497597
0.3617608911 0.6545235370 0.1770962081
0.4453009842 0.6721690700 0.1536949722
0.5355886168 0.6927565423 0.1204303044
0.6223941405 0.7121477073 0.0663462272
0.7089555200 0.7284199283 0.0008361944
0.7950896468 0.7402609293 0.0000000000
0.8572854200 0.7412069886 0.0000000000
0.9124986648 0.7410421912 0.0000000000
0.9470145724 0.7375692378 0.0000000000
0.9710872053 0.7333272297 0.0000000000
0.9795468070 0.7281147478 0.0000000000
0.2255771725 0.6309514000 0.2101167315
0.2427954528 0.6334355688 0.2068818189
0.2708720531 0.6377935454 0.2004058900
0.3095994507 0.6445685512 0.1902128634
0.3628351263 0.6547737850 0.1766750591
0.4241519799 0.6676340887 0.1594811933
0.5038254368 0.6853833829 0.1329549096
0.5823971923 0.7033585107 0.0917982757
0.6465766384 0.7174944686 0.0448615244
0.7284321355 0.7341878386 0.0000000000
0.8083772030 0.7513267720 0.0000000000
0.8659830625 0.7632715343 0.0000000000
0.9255054551 0.7755031662 0.0000000000
0.9607293812 0.7760646983 0.0000000000
0.9822873274 0.7714503700 0.0000000000
0.9914366369 0.7700526436 0.0000000000
0.3251880674 0.6474372473 0.1862943465
0.3368886854 0.6495979248 0.1833218891
0.3579583429 0.6537483787 0.1780300603
0.3879270619 0.6599801633 0.1691004807
0.4309330892 0.6690562295 0.1579980163
0.4875806821 0.6816113527 0.1389730678
0.5519768063 0.6966079194 0.1135881590
0.6183596551 0.7112504768 0.0702830549
0.6843518730 0.7253253986 0.0142153048
0.7517174029 0.7390951400 0.0000000000
0.8167391470 0.7532860304 0.0000000000
0.8701884489 0.7641931792 0.0000000000
0.9230090791 0.7762661173 0.0000000000
0.9568902113 0.7826871138 0.0000000000
0.9820370794 0.7894560159 0.0000000000
0.9948119326 0.7964385443 0.0000000000
0.4063172351 0.6637216754 0.1633020523
0.4170778973 0.6661020829 0.1609826810
0.4357427329 0.6701060502 0.1569237812
0.4670420386 0.6768200198 0.1465293355
0.5067338064 0.6860303655 0.1315999084
0.5504386969 0.6962844282 0.1151140612
0.6010376135 0.7074479286 0.0797680629
0.6524422065 0.7187640192 0.0389959564
0.7145342184 0.7313618677 0.0000000000
0.7773952850 0.7446738384 0.0000000000
0.8267795834 0.7554283970 0.0000000000
0.8766338598 0.7656580453 0.0000000000
0.9246204318 0.7766140230 0.0000000000
0.9557976654 0.7825589380 0.0000000000
0.9789059281 0.7817959869 0.0000000000
0.9909971771 0.7941863127 0.0000000000
0.0096986343 0.0267643244 0.0404486152
0.0231265736 0.0270634012 0.0361943999
0.0531685359 0.0304264897 0.0358281834
0.0879346914 0.0352849622 0.0348699168
0.1544518196 0.0386297398 0.0297489891
0.2462867170 0.0261600671 0.0165957122
0.3582269017 0.0000000000 0.0000000000
0.4114076448 0.0000000000 0.0000000000
0.4759044785 0.0000000000 0.0000000000
0.5327443351 0.0000000000 0.0000000000
0.5761654078 0.0000000000 0.0000000000
0.6188601511 0.0000000000 0.0000000000
0.6382757305 0.0000000000 0.0000000000
0.6446540017 0.0000000000 0.0000000000
0.6461676967 0.0000000000 0.0000000000
0.6490730144 0.0000000000 0.0000000000
0.0068970779 0.0383978027 0.0398687724
0.0183474479 0.0327458610 0.0303837644
0.0554940108 0.0349980926 0.0266056306
0.0995681697 0.0396429389 0.0251102464
0.1733669032 0.0406012055 0.0179385061
0.2514198520 0.0323918517 0.0086549172
0.3436392767 0.0062989242 0.0000000000
0.4081605249 0.0000000000 0.0000000000
0.4762706950 0.0000000000 0.0000000000
0.5327809567 0.0000000000 0.0000000000
0.5760799573 0.0000000000 0.0000000000
0.6187930114 0.0000000000 0.0000000000
0.6385809110 0.0000000000 0.0000000000
0.6447577630 0.0000000000 0.0000000000
0.6463691157 0.0000000000 0.0000000000
0.6585336080 0.0000000000 0.0000000000
0.0035034714 0.0693308919 0.0456488899
0.0209109636 0.0685374228 0.0392767224
0.0558297093 0.0663157092 0.0322697795
0.1044510567 0.0662790875 0.0246585794
0.1683863584 0.0677622644 0.0197085527
0.2465613794 0.0630136568 0.0093018997
0.3228870069 0.0502327001 0.0000000000
0.3974425879 0.0278263523 0.0000000000
0.4651865415 0.0007141222 0.0000000000
0.5309864958 0.0000000000 0.0000000000
0.5780392157 0.0000000000 0.0000000000
0.6222415503 0.0000000000 0.0000000000
0.6464301518 0.0000000000 0.0000000000
0.6558480201 0.0000000000 0.0000000000
0.6601083391 0.0000000000 0.0000000000
0.6744579232 0.0000000000 0.0000000000
0.0009765774 0.1081132219 0.0557076371
0.0229190509 0.1053727016 0.0489448386
0.0596017395 0.1034866865 0.0406927596
0.1031509880 0.1029617762 0.0304264897
0.1665003433 0.1047684443 0.0227603571
0.2398901350 0.1035172045 0.0106202792
0.3118883040 0.0968032349 0.0000000000
0.3873777371 0.0841016251 0.0000000000
0.4581979095 0.0681162737 0.0000000000
0.5308705272 0.0413336385 0.0000000000
0.5871580072 0.0141664759 0.0000000000
0.6370061799 0.0000000000 0.0000000000
0.6678110933 0.0000000000 0.0000000000
0.6803234913 0.0000000000 0.0000000000
0.6848340581 0.0000000000 0.0000000000
0.6939589532 0.0000000000 0.0000000000
0.0000000000 0.1547936217 0.0636728466
0.0108522164 0.1500205997 0.0566231785
0.0525337606 0.1508140688 0.0497871366
0.1021988251 0.1515098802 0.0395941100
0.1563683528 0.1474021515 0.0270450904
0.2304478523 0.1483665217 0.0132265202
0.3004501411 0.1432944228 0.0020202945
0.3790829328 0.1388448920 0.0000000000
0.4589547570 0.1285236896 0.0000000000
0.5344960708 0.1181780728 0.0000000000
0.6012024109 0.1012466621 0.0000000000
0.6526985580 0.0846265354 0.0000000000
0.6898695354 0.0714366369 0.0000000000
0.7063797971 0.0633981842 0.0000000000
0.7102983139 0.0543526360 0.0000000000
0.7157000076 0.0712046998 0.0000000000
0.0000000000 0.2096284428 0.0965712978
0.0000000000 0.1993682765 0.0863416495
0.0267948425 0.1916472114 0.0736583505
0.0847119860 0.1978057527 0.0639902342
0.1508079652 0.1994048981 0.0495918212
0.2204074159 0.1984283207 0.0333318074
0.2996749828 0.2004730297 0.0141847868
0.3785275044 0.1971709773 0.0000000000
0.4661448081 0.1936797131 0.0000000000
0.5412893874 0.1854825666 0.0000000000
0.6191226062 0.1759548333 0.0000000000
0.6720225834 0.1657618067 0.0000000000
0.7143450065 0.1568261234 0.0000000000
0.7362874800 0.1500328069 0.0000000000
0.7438498512 0.1479087510 0.0000000000
0.7457419699 0.1497215229 0.0000000000
0.0000000000 0.3029831388 0.1444846265
0.0000000000 0.2881391623 0.1298908980
0.0000000000 0.2613260090 0.1122758831
0.0478339818 0.2527504387 0.0955336843
0.1374654765 0.2624734874 0.0815381094
0.2238620584 0.2657267109 0.0586861982
0.3028854810 0.2650919356 0.0294743267
0.3872373541 0.2642679484 0.0013183795
0.4792736706 0.2622293431 0.0000000000
0.5598809796 0.2597695888 0.0000000000
0.6410833906 0.2536720836 0.0000000000
0.6967666133 0.2472022583 0.0000000000
0.7451255055 0.2412268254 0.0000000000
0.7682825971 0.2336888685 0.0000000000
0.7804104677 0.2300572213 0.0000000000
0.7803189136 0.2269993133 0.0000000000
0.0000000000 0.3744380865 0.1878812848
0.0000000000 0.3765438315 0.1699366751
0.0000000000 0.3497550927 0.1479880980
0.0024170291 0.3287281605 0.1282368200
0.1252948806 0.3360769055 0.1127214466
0.2235385672 0.3465751125 0.0908949416
0.3182848859 0.3489066911 0.0573434043
0.4012573434 0.3483207446 0.0175967041
0.5010055695 0.3485160601 0.0000000000
0.5823605707 0.3437369345 0.0000000000
0.6664255741 0.3415457389 0.0000000000
0.7268146792 0.3343984131 0.0000000000
0.7774807355 0.3278248264 0.0000000000
0.8044647898 0.3209582666 0.0000000000
0.8195284962 0.3158556497 0.0000000000
0.8178255894 0.3079331655 0.0000000000
0.0000000000 0.4392217899 0.2227023728
0.0000000000 0.4430304417 0.2026031891
0.0000000000 0.4398443580 0.1840665293
0.0000000000 0.4355046921 0.1662378882
0.0746654459 0.4343755245 0.1463218128
0.2266697185 0.4385442893 0.1241412985
0.3318287938 0.4407843137 0.0872816052
0.4257084001 0.4390386816 0.0352239261
0.5229114214 0.4371831846 0.0000000000
0.6084657053 0.4359624628 0.0000000000
0.6958571756 0.4345220111 0.0000000000
0.7604211490 0.4323064012 0.0000000000
0.8128511482 0.4262333104 0.0000000000
0.8428259709 0.4203982605 0.0000000000
0.8599893187 0.4123231861 0.0000000000
0.8627664607 0.4093629358 0.0000000000
0.0000000000 0.4971725032 0.2598489357
0.0000000000 0.5044632639 0.2420386053
0.0000000000 0.5058365759 0.2192843519
0.0000000000 0.5064225223 0.1964812696
0.0372869459 0.5154467079 0.1763881895
0.2338414588 0.5204943923 0.1508690013
0.3436758984 0.5290028229 0.1159929808
0.4491950866 0.5363393606 0.0572640574
0.5525688563 0.5409353780 0.0000000000
0.6346684977 0.5338551919 0.0000000000
0.7249958038 0.5349416342 0.0000000000
0.7906401160 0.5294483864 0.0000000000
0.8452857252 0.5250720989 0.0000000000
0.8782513161 0.5185687037 0.0000000000
0.8993514916 0.5158525978 0.0000000000
0.9024155032 0.5063614862 0.0000000000
0.0000000000 0.5362355993 0.2869733730
0.0000000000 0.5435294118 0.2676493477
0.0000000000 0.5522331579 0.2424475471
0.0000000000 0.5633905547 0.2226840620
0.0280888075 0.5789425498 0.2033295186
0.2488685435 0.5943968872 0.1694544900
0.3593560693 0.6057068742 0.1329732204
0.4700450141 0.6152773327 0.0725291829
0.5772213321 0.6197756924 0.0007934691
0.6638315404 0.6198977646 0.0000000000
0.7515098802 0.6186160067 0.0000000000
0.8196871901 0.6167605097 0.0000000000
0.8777203021 0.6149660487 0.0000000000
0.9087937743 0.6104127565 0.0000000000
0.9309864958 0.6085084306 0.0000000000
0.9368337530 0.5982299535 0.0000000000
0.0000000000 0.5766903182 0.2665751125
0.0000000000 0.5810238804 0.2589456016
0.0000000000 0.5888487068 0.2487647822
0.0000000000 0.6016479744 0.2398474098
0.1496726940 0.6214236667 0.2238620584
0.2743144884 0.6363530938 0.1972564279
0.3836484321 0.6527168688 0.1631372549
0.4924147402 0.6705821317 0.1194476234
0.6045471885 0.6850720989 0.0403936828
0.6915358206 0.6915480278 0.0000000000
0.7818387121 0.6968703746 0.0000000000
0.8426306554 0.6937392233 0.0000000000
0.9008834974 0.6935255970 0.0000000000
0.9322133211 0.6865491722 0.0000000000
0.9555413138 0.6835461967 0.0000000000
0.9617608911 0.6705455100 0.0000000000
0.0206973373 0.6099610895 0.2337010758
0.0538277256 0.6142275120 0.2308079652
0.1464255741 0.6211917296 0.2236057069
0.2178011749 0.6297856107 0.2117036698
0.2922163729 0.6414618143 0.1947173266
0.3641474022 0.6549996185 0.1763820859
0.4467231250 0.6724986648 0.1533165484
0.5371084154 0.6931105516 0.1196673533
0.6232608530 0.7123308156 0.0656870375
0.7096696422 0.7285481041 0.0006652934
0.7959563592 0.7403585870 0.0000000000
0.8580178531 0.7412802319 0.0000000000
0.9129991608 0.7410849165 0.0000000000
0.9474174105 0.7374654765 0.0000000000
0.9712703136 0.7335774777 0.0000000000
0.9800839246 0.7291157397 0.0000000000
0.2296360723 0.6315373465 0.2093415732
0.2463477531 0.6340032044 0.2061921111
0.2740642405 0.6382635233 0.1995574884
0.3123704891 0.6450934615 0.1895597772
0.3655268177 0.6553353170 0.1759243153
0.4267460136 0.6681773098 0.1588525216
0.5056015869 0.6857618067 0.1322590982
0.5834287022 0.7035904479 0.0911268788
0.6474982834 0.7176653696 0.0438422217
0.7297261006 0.7344258793 0.0000000000
0.8092256046 0.7515098802 0.0000000000
0.8667704280 0.7634302281 0.0000000000
0.9262684062 0.7756496529 0.0000000000
0.9611932555 0.7761257343 0.0000000000
0.9824338140 0.7719386587 0.0000000000
0.9915220874 0.7723048753 0.0000000000
0.3285084306 0.6480292973 0.1854520485
0.3401907378 0.6502143893 0.1825528344
0.3610345617 0.6543892576 0.1771633478
0.3907774472 0.6605600061 0.1681483177
0.4338445106 0.6697032120 0.1573510338
0.4903822385 0.6822583352 0.1378988327
0.5538933394 0.6970778973 0.1125139239
0.6198733501 0.7115556573 0.0693003738
0.6860486763 0.7256610971 0.0126466773
0.7536461433 0.7395101854 0.0000000000
0.8176668956 0.7534996567 0.0000000000
0.8712260624 0.7644434272 0.0000000000
0.9235584039 0.7764431220 0.0000000000
0.9564446479 0.7855802243 0.0000000000
0.9815548943 0.7936430915 0.0000000000
0.9942381933 0.8015167468 0.0000000000
0.4109437705 0.6647470817 0.1621850919
0.4215152209 0.6670237278 0.1599145495
0.4401739528 0.6710643168 0.1560143435
0.4712230106 0.6777294575 0.1448691539
0.5103257801 0.6868787671 0.1303486687
0.5535149157 0.6970595865 0.1131242847
0.6032166018 0.7078751812 0.0786449989
0.6545296407 0.7192034791 0.0367925536
0.7169756619 0.7318318456 0.0000000000
0.7796231022 0.7451621271 0.0000000000
0.8279026474 0.7556298161 0.0000000000
0.8776043336 0.7658777752 0.0000000000
0.9253650721 0.7767910277 0.0000000000
0.9561516747 0.7825955596 0.0000000000
0.9791256580 0.7818448157 0.0000000000
0.9906431678 0.7982391089 0.0000000000
0.0072144656 0.0324284733 0.0724498360
0.0185915923 0.0319890135 0.0687083238
0.0458503090 0.0334782940 0.0650888838
0.0814404517 0.0364263371 0.0610543984
0.1579247730 0.0373785000 0.0552376593
0.2520485237 0.0227664607 0.0426703288
0.3628046082 0.0000000000 0.0176028077
0.4199465934 0.0000000000 0.0052491035
0.4838879988 0.0000000000 0.0000000000
0.5380178531 0.0000000000 0.0000000000
0.5795956359 0.0000000000 0.0000000000
0.6208987564 0.0000000000 0.0000000000
0.6391973754 0.0000000000 0.0000000000
0.6455207141 0.0000000000 0.0000000000
0.6472236210 0.0000000000 0.0000000000
0.6521248188 0.0000000000 0.0000000000
0.0018310826 0.0429938201 0.0794689860
0.0118471046 0.0389837491 0.0755199512
0.0473945220 0.0384405280 0.0651560235
0.0925551232 0.0423407340 0.0592233158
0.1721095598 0.0427252613 0.0494758526
0.2549782559 0.0327092393 0.0361150530
0.3483085374 0.0042236973 0.0166018158
0.4163820859 0.0000000000 0.0025207904
0.4827100023 0.0000000000 0.0000000000
0.5378591592 0.0000000000 0.0000000000
0.5793453880 0.0000000000 0.0000000000
0.6207705806 0.0000000000 0.0000000000
0.6393743801 0.0000000000 0.0000000000
0.6455573358 0.0000000000 0.0000000000
0.6472480354 0.0000000000 0.0000000000
0.6616647593 0.0000000000 0.0000000000
0.0000000000 0.0680857557 0.0782726787
0.0071107042 0.0652536812 0.0704966812
0.0435797665 0.0646860456 0.0626474403
0.0984512093 0.0666575113 0.0566598001
0.1636438544 0.0670115206 0.0473579004
0.2402685588 0.0627573053 0.0354314488
0.3158190280 0.0499641413 0.0199771115
0.3933592737 0.0261173419 0.0037415122
0.4633798734 0.0003418021 0.0000000000
0.5331349660 0.0000000000 0.0000000000
0.5804684520 0.0000000000 0.0000000000
0.6226871138 0.0000000000 0.0000000000
0.6428168154 0.0000000000 0.0000000000
0.6530891890 0.0000000000 0.0000000000
0.6603219654 0.0000000000 0.0000000000
0.6776501106 0.0000000000 0.0000000000
0.0000000000 0.1218768597 0.0908155947
0.0000000000 0.1077592126 0.0767833982
0.0428473335 0.1046219577 0.0667978943
0.0965285725 0.1039993896 0.0596932937
0.1619592584 0.1049942779 0.0501838712
0.2341649500 0.1026443885 0.0382879377
0.3059922179 0.0955458915 0.0233463035
0.3830746929 0.0833569848 0.0057312886
0.4574166476 0.0657236591 0.0000000000
0.5330800336 0.0369512474 0.0000000000
0.5888792248 0.0077698939 0.0000000000
0.6381414511 0.0000000000 0.0000000000
0.6664377813 0.0000000000 0.0000000000
0.6784435798 0.0000000000 0.0000000000
0.6846326390 0.0000000000 0.0000000000
0.6974013886 0.0000000000 0.0000000000
0.0000000000 0.1757900359 0.0921156634
0.0000000000 0.1608056764 0.0771618219
0.0259952697 0.1489036393 0.0642526894
0.0918654154 0.1486289769 0.0572030213
0.1520164797 0.1461814298 0.0477851530
0.2289707790 0.1464438849 0.0337346456
0.2996993973 0.1414328222 0.0199160754
0.3793881132 0.1362569619 0.0040344854
0.4599801633 0.1260761425 0.0000000000
0.5367544060 0.1140825513 0.0000000000
0.6028442817 0.0966506447 0.0000000000
0.6543648432 0.0783276112 0.0000000000
0.6894544900 0.0643137255 0.0000000000
0.7052628367 0.0564583810 0.0000000000
0.7092240787 0.0485664149 0.0000000000
0.7190325780 0.0702220188 0.0000000000
0.0000000000 0.2335240711 0.1162371252
0.0000000000 0.2105683986 0.0976699474
0.0035400931 0.1931548028 0.0787975891
0.0750865949 0.1962371252 0.0654795148
0.1471030747 0.1985870146 0.0505867094
0.2206942855 0.1972259098 0.0341802090
0.3005722133 0.1986541543 0.0170717937
0.3801632715 0.1952361334 0.0000000000
0.4677378500 0.1906889448 0.0000000000
0.5429251545 0.1820096132 0.0000000000
0.6204165713 0.1723476005 0.0000000000
0.6736339361 0.1621606775 0.0000000000
0.7149553674 0.1526634623 0.0000000000
0.7362203403 0.1469382773 0.0000000000
0.7427023728 0.1434653239 0.0000000000
0.7490318151 0.1502037079 0.0000000000
0.0000000000 0.2994674601 0.1533348592
0.0000000000 0.2953719387 0.1346578164
0.0000000000 0.2639322499 0.1145220111
0.0432562753 0.2518532082 0.0961135271
