LUTs/SPK Cube Block1 S16/TheBrim_SPK_Type-P_Block 1_S16.cube
TITLE "TheBrim® Industrial Imaging Burau"
# © Copyright 2022 - TheBrim® d.o.o. Croatia
LUT_3D_SIZE 16
0.0000000000 0.0000000000 0.0000000000
0.0000000000 0.0000000000 0.0000000000
0.0483283742 0.0000000000 0.0000000000
0.1137407492 0.0013000687 0.0000000000
0.1997711147 0.0123781186 0.0022095064
0.3197985809 0.0257267109 0.0108949416
0.4275761044 0.0335759518 0.0163149462
0.5055008774 0.0483222705 0.0307255665
0.5915648127 0.0690257115 0.0479621576
0.7042069123 0.1025467308 0.0769054704
0.8271152819 0.1333943694 0.1071488518
0.9689997711 0.1717067216 0.1396871901
1.0000000000 0.2100862135 0.1683131151
1.0000000000 0.2354528115 0.1870939193
1.0000000000 0.2488807507 0.1999481193
1.0000000000 0.2588845655 0.1999237049
0.0000000000 0.0000000000 0.0000000000
0.0000000000 0.0000000000 0.0000000000
0.0435980774 0.0045532921 0.0000000000
0.1222552834 0.0182131685 0.0000000000
0.2221347372 0.0286625467 0.0000000000
0.3305775540 0.0426215000 0.0000000000
0.4214358740 0.0532234684 0.0063904784
0.4994949264 0.0612069886 0.0271305409
0.5902037079 0.0712046998 0.0484199283
0.7026382849 0.1029373617 0.0770580606
0.8255649653 0.1334615091 0.1071000229
0.9668879225 0.1712367437 0.1393698024
1.0000000000 0.2102449073 0.1684168765
1.0000000000 0.2359838254 0.1870939193
1.0000000000 0.2501564050 0.1995147631
1.0000000000 0.2781902800 0.1965117876
0.0000000000 0.0399908446 0.0038635843
0.0003479057 0.0403631647 0.0011963073
0.0297611963 0.0393377584 0.0000000000
0.1028274968 0.0553536278 0.0000000000
0.2012176699 0.0696238651 0.0000000000
0.3087815671 0.0827100023 0.0000000000
0.4002685588 0.0885938811 0.0006775006
0.4862623026 0.0917189288 0.0192813001
0.5783382925 0.1002334630 0.0401556420
0.6893873503 0.1264667735 0.0703929198
0.8194308385 0.1537926299 0.1037857633
0.9575982300 0.1904509041 0.1358846418
1.0000000000 0.2308690013 0.1652735180
1.0000000000 0.2625284199 0.1837552453
1.0000000000 0.2814923323 0.1929228656
1.0000000000 0.3056748302 0.1838956283
0.0000000000 0.0989456016 0.0277470054
0.0003784237 0.0999465934 0.0240848402
0.0312260624 0.1017349508 0.0175661860
0.0829053178 0.1029068437 0.0062073701
0.1745448997 0.1207843137 0.0025329976
0.2764446479 0.1329182879 0.0000000000
0.3703303578 0.1358602274 0.0036194400
0.4604806592 0.1378011749 0.0162661173
0.5547234302 0.1430441749 0.0317143511
0.6698680095 0.1657618067 0.0591683833
0.7951689937 0.1922209506 0.0886243992
0.9353749905 0.2280796521 0.1199481193
1.0000000000 0.2681071183 0.1478721294
1.0000000000 0.3016403449 0.1649622339
1.0000000000 0.3249073014 0.1743495842
1.0000000000 0.3412283513 0.1701564050
0.0000000000 0.1743434806 0.0531685359
0.0000000000 0.1719752804 0.0488654917
0.0144472419 0.1723414969 0.0420782788
0.0727916381 0.1725062943 0.0307011521
0.1392233158 0.1705775540 0.0166506447
0.2360387579 0.1814663920 0.0166079194
0.3322987716 0.1874235142 0.0180117494
0.4290409705 0.1913359274 0.0231448844
0.5288075074 0.1954070344 0.0311223011
0.6451056687 0.2172945754 0.0523628595
0.7741481651 0.2421118486 0.0788952468
0.9113267720 0.2731609064 0.1062821393
1.0000000000 0.3132555123 0.1325215534
1.0000000000 0.3447318227 0.1469321736
1.0000000000 0.3723872740 0.1580529488
1.0000000000 0.3826718547 0.1563256275
0.0000000000 0.2530861372 0.1001602197
0.0000000000 0.2465308614 0.0943434806
0.0000000000 0.2395117113 0.0855786984
0.0416754406 0.2381811246 0.0755687800
0.1166094453 0.2362340734 0.0611337453
0.1938506142 0.2332188907 0.0443121996
0.2941817350 0.2431677729 0.0418646525
0.3960265507 0.2500221256 0.0390081636
0.4967391470 0.2559060044 0.0393743801
0.6155580987 0.2755413138 0.0531685359
0.7454795148 0.2993209735 0.0738231479
0.8843671321 0.3294422827 0.0969130999
1.0000000000 0.3641718166 0.1207721065
1.0000000000 0.3978576333 0.1334493019
1.0000000000 0.4276615549 0.1411215381
1.0000000000 0.4351262684 0.1429159991
0.0000000000 0.3473685817 0.1589379721
0.0000000000 0.3388662547 0.1515831235
0.0000000000 0.3282154574 0.1413046464
0.0017578393 0.3157213703 0.1267719539
0.0712291142 0.3135423819 0.1104570077
0.1679224842 0.3110337987 0.0926039521
0.2576516365 0.3072983902 0.0730846113
0.3623468376 0.3152452888 0.0646433204
0.4676523995 0.3226733806 0.0570138094
0.5843442435 0.3408438239 0.0615487907
0.7156389715 0.3649591821 0.0750072480
0.8527748531 0.3906981003 0.0913893339
0.9905516136 0.4247013046 0.1127641718
1.0000000000 0.4563912413 0.1226520180
1.0000000000 0.4869092851 0.1291340505
1.0000000000 0.4948409247 0.1303974975
0.0000000000 0.4352056153 0.2104890517
0.0000000000 0.4375982300 0.2029388876
0.0000000000 0.4231692988 0.1916533150
0.0000000000 0.4079896239 0.1761257343
0.0429816129 0.4019043259 0.1594934005
0.1224383917 0.4004577707 0.1399496452
0.2313389792 0.3950865949 0.1183001450
0.3301503014 0.3918760967 0.0965285725
0.4384405280 0.3977782864 0.0819897765
0.5564690623 0.4125123980 0.0788342107
0.6851453422 0.4361821927 0.0842603189
0.8204013123 0.4605294881 0.0942641337
0.9596246281 0.4885267414 0.1074418250
1.0000000000 0.5209704738 0.1165667201
1.0000000000 0.5506645304 0.1198992905
1.0000000000 0.5601617456 0.1206134127
0.0000000000 0.5391103990 0.2550087739
0.0000000000 0.5392874037 0.2461219196
0.0000000000 0.5248157473 0.2352758068
0.0000000000 0.5103257801 0.2219882506
0.0411261158 0.4973067826 0.2048798352
0.0966384375 0.4949507897 0.1847318227
0.1866666667 0.4916334783 0.1610193027
0.3044357977 0.4846509499 0.1365804532
0.4093995575 0.4816968032 0.1119157702
0.5268665599 0.4952193484 0.1024002441
0.6593820096 0.5144090944 0.1025040055
0.7907194629 0.5368459602 0.1046097505
0.9267505913 0.5608758679 0.1093888762
1.0000000000 0.5898558022 0.1132646677
1.0000000000 0.6186343175 0.1135332265
1.0000000000 0.6348088808 0.1129167620
0.0000000000 0.6590280003 0.3095872435
0.0000000000 0.6685069047 0.3024155032
0.0000000000 0.6499519341 0.2910017548
0.0000000000 0.6258854047 0.2749614710
0.0457343404 0.6102357519 0.2577798123
0.1009658961 0.6045899138 0.2369359884
0.1602319371 0.6005371176 0.2132051575
0.2634683757 0.5959655146 0.1871915770
0.3882383459 0.5900450141 0.1613916228
0.5003921569 0.5839902342 0.1332722972
0.6291813535 0.6004516670 0.1245685512
0.7623559930 0.6183413443 0.1204364080
0.8955001144 0.6411688411 0.1168719005
1.0000000000 0.6697276265 0.1153643091
1.0000000000 0.6970046540 0.1084550240
1.0000000000 0.7123064012 0.1054032197
0.0000000000 0.7724879835 0.3569390402
0.0000000000 0.7840848402 0.3476066224
0.0000000000 0.7707423514 0.3345021744
0.0000000000 0.7522667277 0.3214831769
0.0465339132 0.7328633555 0.3059922179
0.1073929961 0.7250019074 0.2844892042
0.1657862211 0.7209857328 0.2624856947
0.2312046998 0.7143144884 0.2366979477
0.3498344396 0.7072953384 0.2100679026
0.4824048219 0.7025833524 0.1824612802
0.6012817578 0.6976272221 0.1528038453
0.7375143053 0.7124223697 0.1412314031
0.8743389029 0.7340291447 0.1312275883
0.9932616159 0.7561547265 0.1212726024
1.0000000000 0.7794766155 0.1098710613
1.0000000000 0.7975127794 0.1000076295
0.0000000000 0.8330846113 0.3562859541
0.0000000000 0.8310337987 0.3529350729
0.0000915541 0.8285557336 0.3473136492
0.0168337530 0.8259128710 0.3405691615
0.0683360037 0.8250095369 0.3303578241
0.1152239261 0.8308201724 0.3166063935
0.1723781186 0.8354894331 0.2982589456
0.2348241398 0.8408606088 0.2789837491
0.3064011597 0.8395666438 0.2532692454
0.4496406500 0.8298069734 0.2250583658
0.5864988174 0.8219333181 0.1952300298
0.7087846189 0.8150301366 0.1632288090
0.8432959487 0.8319432364 0.1481040665
0.9736629282 0.8499122606 0.1320881971
1.0000000000 0.8710856794 0.1128984512
1.0000000000 0.8910383764 0.0985915923
0.0385137713 0.8233615625 0.3363576715
0.0493965057 0.8231845579 0.3343434806
0.0674937057 0.8246616312 0.3304005493
0.0906874189 0.8294773785 0.3245899138
0.1222674907 0.8386755169 0.3165819791
0.1596887160 0.8507972839 0.3073411154
0.2056305791 0.8671549554 0.2968734264
0.2569253071 0.8868451972 0.2854169528
0.3151537346 0.9123582818 0.2715068284
0.3893797208 0.9355458915 0.2541542687
0.5489982452 0.9417898833 0.2309300374
0.6878492409 0.9351491569 0.1990997177
0.8126741436 0.9327138170 0.1648157473
0.9470511940 0.9529289693 0.1441062028
1.0000000000 0.9791805905 0.1171343557
1.0000000000 0.9971984436 0.0965835050
0.0952346075 0.8304661631 0.3235950256
0.1018814374 0.8324498360 0.3218677043
0.1137529564 0.8359960327 0.3187182422
0.1323140307 0.8418005646 0.3142198825
0.1603723201 0.8509498741 0.3071885252
0.1943266957 0.8629556725 0.2994674601
0.2381322957 0.8791363394 0.2897566186
0.2862043183 0.8995590143 0.2783245594
0.3344533455 0.9208545052 0.2668863966
0.4086427100 0.9479728389 0.2528908217
0.5555718318 0.9753536278 0.2369298848
0.6764599069 1.0000000000 0.2198153658
0.8022186618 1.0000000000 0.1956511788
0.9335439078 1.0000000000 0.1584924086
1.0000000000 1.0000000000 0.1235492485
1.0000000000 1.0000000000 0.1032486458
0.1403036545 0.8444129091 0.3123826963
0.1464377813 0.8464454108 0.3106919966
0.1576623178 0.8500526436 0.3078171969
0.1743434806 0.8556069276 0.3037582971
0.1977935454 0.8642801556 0.2986861982
0.2289585718 0.8756694896 0.2917097734
0.2669962615 0.8911482414 0.2832135500
0.3118883040 0.9109239338 0.2723002976
0.3660456245 0.9338246738 0.2603250172
0.4486213474 0.9551323720 0.2487525750
0.5739559014 0.9803402762 0.2344029908
0.6846997787 1.0000000000 0.2184664683
0.7939482719 1.0000000000 0.1986968795
0.9078904402 1.0000000000 0.1736110475
1.0000000000 1.0000000000 0.1743434806
1.0000000000 1.0000000000 0.1553063249
0.1847562371 0.8591287098 0.3012741283
0.1905790799 0.8614114595 0.3002365148
0.2004180972 0.8653177691 0.2981795987
0.2174166476 0.8712687877 0.2939681086
0.2396276799 0.8796063172 0.2894575418
0.2660868238 0.8907454032 0.2835736629
0.2982955673 0.9047898070 0.2753154803
0.3391714351 0.9229175250 0.2657694362
0.3921446555 0.9436636912 0.2552773327
0.4985854887 0.9633051041 0.2437598230
0.5960326543 0.9863279164 0.2314183261
0.6973342489 1.0000000000 0.2165377279
0.7977813382 1.0000000000 0.1979156176
0.9035324636 1.0000000000 0.1747158007
0.9965514611 1.0000000000 0.1412375067
1.0000000000 1.0000000000 0.1612573434
0.0000000000 0.0000000000 0.0000000000
0.0000000000 0.0000000000 0.0000000000
0.0423468376 0.0000000000 0.0000000000
0.1058731975 0.0000000000 0.0072571908
0.1999481193 0.0031067369 0.0159914549
0.3223193713 0.0126466773 0.0264347295
0.4358648051 0.0132509346 0.0284184024
0.5112779431 0.0467841611 0.0340764477
0.5960082399 0.0705516136 0.0495674067
0.7071488518 0.1037430381 0.0781078813
0.8301426719 0.1345723659 0.1083207446
0.9717769131 0.1729152361 0.1407614252
1.0000000000 0.2112764172 0.1692164492
1.0000000000 0.2363439384 0.1879362173
1.0000000000 0.2490272374 0.2001373312
1.0000000000 0.2554726482 0.2009246967
0.0000000000 0.0000000000 0.0000000000
0.0000000000 0.0000000000 0.0000000000
0.0395208667 0.0000000000 0.0000000000
0.1195880064 0.0084657053 0.0033264668
0.2239047837 0.0203982605 0.0103150988
0.3298634318 0.0355168994 0.0209170672
0.4278995956 0.0421210040 0.0258365759
0.5093614099 0.0516853590 0.0329167620
0.5969115740 0.0718944076 0.0503120470
0.7069718471 0.1042862593 0.0787060349
0.8294224460 0.1347859922 0.1085893034
0.9709346151 0.1727138170 0.1407431144
1.0000000000 0.2116365301 0.1695948730
1.0000000000 0.2362706950 0.1879606317
1.0000000000 0.2496681163 0.1997589075
1.0000000000 0.2762493324 0.1984222171
0.0000000000 0.0390875105 0.0092591745
0.0000000000 0.0325627527 0.0033875029
0.0241031510 0.0297672999 0.0003479057
0.1110978866 0.0476386664 0.0012085145
0.2124727245 0.0621530480 0.0070496681
0.3184985122 0.0742320897 0.0117860685
0.4087403677 0.0799511711 0.0113344015
0.4930006867 0.0864332036 0.0225162127
0.5846677348 0.0966811627 0.0436224918
0.6960585946 0.1239887083 0.0743663691
0.8258091096 0.1519615473 0.1072526131
0.9639398795 0.1889738308 0.1389120317
1.0000000000 0.2279636835 0.1676234073
1.0000000000 0.2598977646 0.1855619135
1.0000000000 0.2787823301 0.1945342184
1.0000000000 0.3037949187 0.1856656748
0.0000000000 0.1081376364 0.0364629587
0.0000000000 0.0986831464 0.0291569390
0.0224124514 0.1001297017 0.0208804456
0.0823254749 0.0994216831 0.0078065156
0.1814541848 0.1162005035 0.0091493095
0.2848187991 0.1269977874 0.0094361791
0.3783443961 0.1307026780 0.0080201419
0.4679636835 0.1329365988 0.0176577401
0.5596063172 0.1404562448 0.0335881590
0.6751781491 0.1643579767 0.0618295567
0.8014923323 0.1910246433 0.0915053025
0.9408743420 0.2274509804 0.1223102159
1.0000000000 0.2666605631 0.1506126497
1.0000000000 0.2999801633 0.1667750057
1.0000000000 0.3217334249 0.1756862745
1.0000000000 0.3398672465 0.1717494469
0.0000000000 0.1838406958 0.0596200504
0.0000000000 0.1740932326 0.0530769818
0.0017578393 0.1720790417 0.0451789120
0.0656015869 0.1708400092 0.0328923476
0.1394796674 0.1688746471 0.0153933013
0.2414831769 0.1794277867 0.0154482338
0.3391958495 0.1850431067 0.0168764782
0.4344060426 0.1886564431 0.0230228122
0.5326894026 0.1933073930 0.0316533150
0.6491157397 0.2159334707 0.0538094148
0.7799099718 0.2409338521 0.0808728161
0.9166857404 0.2723735409 0.1082719158
1.0000000000 0.3122850385 0.1344930190
1.0000000000 0.3435416190 0.1484092470
1.0000000000 0.3701289387 0.1589257649
1.0000000000 0.3819394217 0.1577843900
0.0000000000 0.2607644770 0.1068619821
0.0000000000 0.2512489509 0.0989211872
0.0000000000 0.2398596170 0.0882642863
0.0320317388 0.2374792096 0.0768505379
0.1127519646 0.2358251316 0.0615243763
0.1943511101 0.2318394751 0.0432990005
0.2970199130 0.2419470512 0.0408758679
0.3990356298 0.2488990616 0.0381963836
0.4995040818 0.2546242466 0.0391302358
0.6195986877 0.2742534524 0.0537788968
0.7496116579 0.2984298466 0.0747631037
0.8895063706 0.3287220569 0.0985732815
1.0000000000 0.3641412985 0.1221576257
1.0000000000 0.3970580606 0.1345052262
1.0000000000 0.4264652476 0.1420065614
1.0000000000 0.4347783627 0.1438925765
0.0000000000 0.3490897993 0.1613611048
0.0000000000 0.3410025177 0.1537926299
0.0000000000 0.3290943771 0.1423361563
0.0010131991 0.3152086671 0.1268574044
0.0693003738 0.3130907149 0.1104997330
0.1681055924 0.3101731899 0.0918837263
0.2585244526 0.3063828489 0.0720286870
0.3639642939 0.3143480583 0.0637277790
0.4693186847 0.3214709697 0.0562325475
0.5875791562 0.3402212558 0.0613412680
0.7196673533 0.3638361181 0.0754222934
0.8564309148 0.3899717708 0.0921461814
0.9931883726 0.4244266423 0.1138017853
1.0000000000 0.4558236057 0.1235370413
1.0000000000 0.4860425727 0.1296101320
1.0000000000 0.4937361715 0.1312947280
0.0000000000 0.4345403220 0.2107454032
0.0000000000 0.4372808423 0.2030426490
0.0000000000 0.4224124514 0.1913786526
0.0000000000 0.4073121233 0.1759426261
0.0430243381 0.4009704738 0.1590661479
0.1239154650 0.3992431525 0.1390951400
0.2332066835 0.3940062562 0.1172320134
0.3313344015 0.3908323796 0.0954848554
0.4401800565 0.3965880827 0.0810437171
0.5587151904 0.4115175097 0.0781383993
0.6877393759 0.4353093767 0.0841565576
0.8232761120 0.4595590143 0.0943251698
0.9631342031 0.4878370336 0.1080338750
1.0000000000 0.5200915541 0.1170672160
1.0000000000 0.5501029984 0.1201312276
1.0000000000 0.5592523079 0.1216632334
0.0000000000 0.5389578088 0.2549660487
0.0000000000 0.5390005341 0.2462012665
0.0000000000 0.5244068055 0.2353124285
0.0000000000 0.5098924239 0.2220004578
0.0417730983 0.4969527733 0.2046967269
0.0968764782 0.4942000458 0.1843839170
0.1876432441 0.4903822385 0.1604028382
0.3059739071 0.4833875029 0.1358052949
0.4102174411 0.4807629511 0.1110856794
0.5284596017 0.4941512169 0.1017166400
0.6613839933 0.5132921340 0.1019302663
0.7930815595 0.5358937972 0.1043228809
0.9294789044 0.5601129168 0.1094438087
1.0000000000 0.5893430991 0.1133623255
1.0000000000 0.6176882582 0.1135210193
1.0000000000 0.6337529564 0.1164812696
0.0000000000 0.6576546883 0.3101365682
0.0000000000 0.6683970397 0.3026169223
0.0000000000 0.6492744335 0.2909102007
0.0000000000 0.6251102464 0.2748393988
0.0459357595 0.6097169451 0.2576089113
0.1016678111 0.6041687648 0.2365575647
0.1606469825 0.6002380407 0.2129121843
0.2649881743 0.5949645228 0.1866605631
0.3894956893 0.5887327382 0.1603845274
0.5007705806 0.5826047150 0.1322407874
0.6302250706 0.5994628824 0.1240009155
0.7642908370 0.6173708705 0.1199908446
0.8972152285 0.6402838178 0.1166948959
1.0000000000 0.6697947662 0.1153398947
1.0000000000 0.6967360952 0.1083695735
1.0000000000 0.7115190356 0.1075822080
0.0000000000 0.7732997635 0.3570794232
0.0000000000 0.7843961242 0.3475333791
0.0000000000 0.7706324865 0.3344228275
0.0000000000 0.7521751736 0.3215625238
0.0473823148 0.7320576791 0.3054917220
0.1079118029 0.7244831006 0.2841290913
0.1661280232 0.7203204395 0.2620828565
0.2315831235 0.7136125734 0.2363195239
0.3514335851 0.7063126574 0.2095185779
0.4834119173 0.7012954910 0.1816800183
0.6025879301 0.6967910277 0.1520592050
0.7394247349 0.7115922789 0.1407248035
0.8763836118 0.7334065766 0.1308674754
0.9940672923 0.7559288930 0.1210955978
1.0000000000 0.7794338903 0.1096757458
1.0000000000 0.7965178912 0.1037613489
0.0000000000 0.8327550164 0.3559014267
0.0000000000 0.8308628977 0.3526359960
0.0005432212 0.8285008011 0.3471610590
0.0174929427 0.8258762493 0.3404898146
0.0690379187 0.8251804379 0.3301747158
0.1155474174 0.8308812085 0.3165148394
0.1729274434 0.8355687800 0.2980148013
0.2352086671 0.8409277485 0.2788555734
0.3069932097 0.8394445716 0.2529884794
0.4515877012 0.8296177615 0.2246311131
0.5877378500 0.8213229572 0.1948088808
0.7103044175 0.8145418479 0.1626977951
0.8453772793 0.8319066148 0.1478233005
0.9754329747 0.8499488823 0.1318379492
1.0000000000 0.8708598459 0.1126726177
1.0000000000 0.8899824521 0.1056717784
0.0404974441 0.8232883192 0.3359365225
0.0513130388 0.8231601434 0.3339650568
0.0690257115 0.8248447395 0.3300282292
0.0920241093 0.8298130770 0.3242603189
0.1236774243 0.8391271839 0.3162218662
0.1609399557 0.8512123293 0.3069748989
0.2063874266 0.8675211719 0.2967452506
0.2579018845 0.8872419318 0.2851728084
0.3158251316 0.9126451514 0.2713725490
0.3899900816 0.9356435492 0.2540199893
0.5504997330 0.9418326085 0.2306858930
0.6892591745 0.9353383688 0.1987701228
0.8140474556 0.9327870603 0.1644800488
0.9490836957 0.9531853208 0.1437338827
1.0000000000 0.9789120317 0.1199542229
1.0000000000 0.9962096590 0.1174090181
0.0967605097 0.8309117266 0.3231494621
0.1033279927 0.8328831922 0.3215014878
0.1151201648 0.8363927672 0.3183459220
0.1336873426 0.8422461280 0.3139269093
0.1618127718 0.8514808881 0.3068589303
0.1956694896 0.8634317540 0.2991561761
0.2391699092 0.8794903487 0.2895307851
0.2868024720 0.8998458839 0.2781780728
0.3352040894 0.9211657893 0.2667093919
0.4103822385 0.9482841230 0.2526405737
0.5574395361 0.9758785382 0.2366491188
0.6780041199 1.0000000000 0.2195101854
0.8040192264 1.0000000000 0.1953337911
0.9355519951 1.0000000000 0.1580773632
1.0000000000 1.0000000000 0.1274372473
1.0000000000 1.0000000000 0.1157488365
0.1419882506 0.8450049592 0.3119371328
0.1481589990 0.8468970779 0.3102403296
0.1593408103 0.8506569009 0.3074326696
0.1759182116 0.8561318379 0.3033615625
0.1993865873 0.8648905165 0.2983138781
0.2304966812 0.8762798505 0.2914351110
0.2682169833 0.8916548409 0.2829571984
0.3131090257 0.9113756008 0.2720012207
0.3672724498 0.9344716564 0.2600625620
0.4527718013 0.9555901427 0.2483558404
0.5761532006 0.9808773938 0.2341222248
0.6867444877 1.0000000000 0.2181429770
0.7952422370 1.0000000000 0.1986846723
0.9081528954 1.0000000000 0.1886564431
1.0000000000 1.0000000000 0.1953643091
1.0000000000 1.0000000000 0.1879118029
0.1873258564 0.8601174945 0.3007553216
0.1929411765 0.8622903792 0.2997177081
0.2027496757 0.8661478599 0.2976668956
0.2197909514 0.8721232929 0.2934248875
0.2416906996 0.8803082322 0.2889631495
0.2679850462 0.8915327687 0.2830914778
0.2999862669 0.9055161364 0.2748577096
0.3408255131 0.9236255436 0.2653543908
0.3945067521 0.9444266423 0.2548622873
0.5022964828 0.9641229877 0.2432715343
0.5986755169 0.9870115206 0.2310826276
0.6991531243 1.0000000000 0.2161593042
0.7995269703 1.0000000000 0.1976226444
0.9049668116 1.0000000000 0.1743190661
0.9968078126 1.0000000000 0.1410910201
1.0000000000 1.0000000000 0.1952971695
0.0000000000 0.0000000000 0.0211673152
0.0043457694 0.0000000000 0.0182375830
0.0347966735 0.0000000000 0.0137514305
0.0978042267 0.0000000000 0.0258487831
0.2060517281 0.0000000000 0.0384893568
0.3252979324 0.0000000000 0.0500801099
0.4333440146 0.0000000000 0.0538277256
0.5090440223 0.0221255818 0.0614694438
0.5937926299 0.0531013962 0.0698191806
0.7080399786 0.0935500114 0.0912550546
0.8344762341 0.1316853590 0.1145342184
0.9762325475 0.1724391547 0.1447592889
1.0000000000 0.2111360342 0.1724635691
1.0000000000 0.2352513924 0.1911467155
1.0000000000 0.2451453422 0.2050202182
1.0000000000 0.2389806973 0.2187533379
0.0000000000 0.0017700465 0.0354314488
0.0010742351 0.0000000000 0.0285038529
0.0334782940 0.0000000000 0.0146242466
0.1122636759 0.0000000000 0.0286991684
0.2221347372 0.0030029755 0.0392156863
0.3296803235 0.0144106203 0.0488471809
0.4261112383 0.0189272908 0.0524177920
0.5081712062 0.0299320974 0.0579415579
0.5949584192 0.0573250935 0.0668589303
0.7105851835 0.0974013886 0.0890272374
0.8351842527 0.1342549783 0.1129350729
0.9758297093 0.1732387274 0.1440939956
1.0000000000 0.2120637827 0.1720790417
1.0000000000 0.2358251316 0.1906950484
1.0000000000 0.2464942397 0.2037933928
1.0000000000 0.2607400626 0.2181795987
0.0000000000 0.0344609751 0.0398687724
0.0000000000 0.0236514839 0.0270817121
0.0367009995 0.0358892195 0.0366643778
0.1056473640 0.0395880064 0.0369939727
0.2029571984 0.0523445487 0.0443549248
0.3064927138 0.0664988174 0.0537666896
0.3997680629 0.0732066835 0.0574898909
0.4878919661 0.0798840314 0.0601510643
0.5838437476 0.0914442664 0.0648691539
0.7025101091 0.1209552148 0.0853955901
0.8360509651 0.1452353704 0.1131975280
0.9736079957 0.1842252232 0.1431601434
1.0000000000 0.2198275731 0.1707850767
1.0000000000 0.2532143130 0.1892118715
1.0000000000 0.2769817655 0.1999298085
1.0000000000 0.2967513542 0.2164034485
0.0000000000 0.1253315023 0.0722545205
0.0000000000 0.1057694362 0.0572152285
0.0177370871 0.0919752804 0.0464240482
0.0807080186 0.0892042420 0.0375921263
0.1776455329 0.1050919356 0.0422430762
0.2781902800 0.1168902113 0.0488227665
0.3745662623 0.1227924010 0.0500984207
0.4659494926 0.1272236210 0.0495124743
0.5619745174 0.1365804532 0.0523018235
0.6812085145 0.1624658579 0.0701548791
0.8108247501 0.1885526818 0.0974868391
0.9502311742 0.2258213169 0.1270893416
1.0000000000 0.2636697948 0.1543602655
1.0000000000 0.2970138094 0.1717128252
1.0000000000 0.3198474098 0.1806790265
1.0000000000 0.3339711604 0.2020538643
0.0000000000 0.2034637980 0.0839856565
0.0000000000 0.1891630426 0.0724620432
0.0000000000 0.1665369650 0.0601754788
0.0590585183 0.1630029755 0.0504097047
0.1360494392 0.1589074540 0.0376165408
0.2408667124 0.1722743572 0.0394842451
0.3398001068 0.1790920882 0.0415167468
0.4364690623 0.1837308309 0.0422369726
0.5358327611 0.1901518273 0.0415716793
0.6546944381 0.2131197070 0.0601144427
0.7872648203 0.2389013504 0.0851270314
0.9259143969 0.2711100938 0.1117570764
1.0000000000 0.3102647440 0.1374288548
1.0000000000 0.3417898833 0.1529259174
1.0000000000 0.3679072251 0.1623498894
1.0000000000 0.3779049363 0.1876432441
0.0000000000 0.2686442359 0.1182513161
0.0000000000 0.2610025177 0.1074540322
0.0000000000 0.2435461967 0.0925429160
0.0208072023 0.2365819791 0.0781383993
0.1086869612 0.2345555810 0.0621591516
0.1954192416 0.2299595636 0.0435248341
0.3000534066 0.2394262608 0.0440802625
0.4025696193 0.2465308614 0.0410589761
0.5041733425 0.2516273747 0.0426947433
0.6248905165 0.2718425269 0.0565499351
0.7567895018 0.2968307012 0.0772289616
0.8970382238 0.3276295109 0.1006485084
1.0000000000 0.3640009155 0.1247699702
1.0000000000 0.3962340734 0.1367757687
1.0000000000 0.4242252232 0.1485374228
1.0000000000 0.4316472114 0.1745143816
0.0000000000 0.3434744793 0.1652063783
0.0000000000 0.3444510567 0.1570641642
0.0000000000 0.3299183642 0.1437521935
0.0000000000 0.3147020676 0.1273579004
