LUTs/SPK Cube Block1 S16/TheBrim_SPK_Type-X_Block1_S16.cube
TITLE "TheBrim® SPK Block 1"
# © Copyright 2021 - TheBrim® d.o.o. Croatia
LUT_3D_SIZE 16
DOMAIN_MIN 0.000000 0.000000 0.000000
DOMAIN_MAX 1.000000 1.000000 1.000000
0.000000 0.000000 0.000000
0.019080 0.017987 0.017475
0.037806 0.039448 0.037800
0.060737 0.071913 0.066804
0.104060 0.128524 0.123848
0.180819 0.208621 0.205814
0.294206 0.313835 0.310082
0.430298 0.436365 0.421619
0.570910 0.565991 0.533349
0.686116 0.686036 0.625715
0.784787 0.778653 0.706661
0.850736 0.838157 0.763583
0.896574 0.879515 0.811637
0.929888 0.908312 0.845212
0.953375 0.929998 0.873985
0.972717 0.947753 0.894072
0.000787 0.000751 0.000720
0.020557 0.019513 0.018958
0.038135 0.039844 0.038148
0.061042 0.072383 0.067250
0.104524 0.129018 0.124367
0.181308 0.209104 0.206308
0.294774 0.314330 0.310576
0.430744 0.436829 0.422016
0.571325 0.566406 0.533715
0.686403 0.686293 0.625928
0.784952 0.778854 0.706856
0.850895 0.838285 0.763711
0.896641 0.879570 0.811710
0.929924 0.908330 0.845261
0.953399 0.930028 0.874015
0.972717 0.947753 0.894072
0.002313 0.002148 0.002106
0.021442 0.020478 0.019892
0.038691 0.040522 0.038782
0.061524 0.073194 0.067982
0.105367 0.129915 0.125270
0.182223 0.209982 0.207187
0.295860 0.315257 0.311534
0.431617 0.437678 0.422705
0.572082 0.567144 0.534343
0.686958 0.686775 0.626325
0.785251 0.779190 0.707185
0.851145 0.838480 0.763906
0.896782 0.879673 0.811856
0.930016 0.908403 0.845353
0.953460 0.930077 0.874064
0.972717 0.947753 0.894072
0.004712 0.004431 0.004291
0.022705 0.021906 0.021247
0.039637 0.041675 0.039820
0.062318 0.074507 0.069166
0.106734 0.131368 0.126784
0.183731 0.211441 0.208646
0.297581 0.316747 0.313024
0.433051 0.439075 0.423853
0.573272 0.568347 0.535351
0.687880 0.687581 0.627002
0.785702 0.779721 0.707668
0.851505 0.838816 0.764218
0.896965 0.879869 0.812070
0.930144 0.908507 0.845487
0.953552 0.930175 0.874168
0.972717 0.947753 0.894072
0.008161 0.007660 0.007416
0.024469 0.023847 0.023139
0.040937 0.043244 0.041236
0.063453 0.076387 0.070887
0.108687 0.133419 0.128927
0.185892 0.213541 0.210739
0.300084 0.318920 0.315227
0.435102 0.441083 0.425525
0.575055 0.570086 0.536815
0.689143 0.688698 0.627912
0.786392 0.780520 0.708382
0.852030 0.839255 0.764669
0.897264 0.880125 0.812412
0.930333 0.908702 0.845713
0.953674 0.930303 0.874302
0.972717 0.947753 0.894072
0.012543 0.011749 0.011383
0.026624 0.026246 0.025440
0.042591 0.045338 0.043091
0.064930 0.078816 0.073127
0.111305 0.136172 0.131801
0.188693 0.216251 0.213504
0.303520 0.321892 0.318218
0.437891 0.443818 0.427778
0.577423 0.572418 0.538799
0.690883 0.690242 0.629163
0.787289 0.781521 0.709346
0.852769 0.839890 0.765286
0.897642 0.880461 0.812808
0.930584 0.908922 0.846000
0.953863 0.930468 0.874510
0.972717 0.947753 0.894072
0.016962 0.015882 0.015424
0.029029 0.029059 0.028101
0.044666 0.048035 0.045509
0.067097 0.082142 0.076332
0.114583 0.139651 0.135396
0.192337 0.219791 0.217020
0.307756 0.325554 0.321904
0.441297 0.447169 0.430542
0.580371 0.575360 0.541265
0.693068 0.692158 0.630756
0.788418 0.782815 0.710542
0.853642 0.840629 0.766049
0.898149 0.880888 0.813339
0.930889 0.909221 0.846372
0.954095 0.930663 0.874748
0.972717 0.947753 0.894072
0.021015 0.020014 0.019452
0.031702 0.032178 0.031061
0.047095 0.051221 0.048322
0.069960 0.086342 0.080482
0.118904 0.144375 0.140310
0.197226 0.224479 0.221616
0.313048 0.330077 0.326427
0.445631 0.451398 0.434040
0.583978 0.579040 0.544323
0.695766 0.694508 0.632703
0.789816 0.784421 0.712007
0.854728 0.841581 0.766995
0.898741 0.881395 0.813950
0.931292 0.909575 0.846812
0.954376 0.930913 0.875041
0.972717 0.947753 0.894072
0.024732 0.024134 0.023413
0.034662 0.035676 0.034345
0.049909 0.055262 0.051875
0.073274 0.091188 0.085280
0.123958 0.149899 0.146011
0.203128 0.230240 0.227182
0.319817 0.335644 0.331908
0.450831 0.456403 0.438221
0.587848 0.583362 0.547790
0.698970 0.697188 0.634998
0.791434 0.786264 0.713722
0.855979 0.842667 0.768106
0.899455 0.882017 0.814725
0.931743 0.909966 0.847324
0.954705 0.931218 0.875389
0.972717 0.947753 0.894072
0.028473 0.028357 0.027454
0.038160 0.039869 0.038202
0.052992 0.059687 0.055744
0.077467 0.097102 0.091316
0.129689 0.156197 0.152554
0.209976 0.236905 0.233646
0.327575 0.342028 0.338189
0.456886 0.462232 0.443091
0.592419 0.588458 0.551855
0.702705 0.700319 0.637714
0.793417 0.788547 0.715834
0.857481 0.843986 0.769424
0.900279 0.882731 0.815604
0.932299 0.910460 0.847935
0.955090 0.931572 0.875822
0.972717 0.947753 0.894072
0.032197 0.032715 0.031586
0.041993 0.044556 0.042390
0.056556 0.065113 0.060597
0.082185 0.103713 0.098116
0.136245 0.163400 0.160012
0.217746 0.244450 0.240940
0.336443 0.349340 0.345403
0.463813 0.468904 0.448640
0.597601 0.594238 0.556487
0.707002 0.703938 0.640790
0.795590 0.791012 0.718166
0.859171 0.845457 0.770944
0.901250 0.883574 0.816641
0.932897 0.911034 0.848667
0.955517 0.931975 0.876274
0.972717 0.947753 0.894072
0.036072 0.037336 0.035908
0.046003 0.049671 0.046967
0.060682 0.071803 0.066688
0.088411 0.111354 0.106020
0.143459 0.171408 0.168283
0.226346 0.252830 0.249033
0.346288 0.357501 0.353381
0.471620 0.476399 0.454914
0.603528 0.600812 0.561749
0.711824 0.707991 0.644251
0.798129 0.793912 0.720839
0.860996 0.847019 0.772537
0.902190 0.884404 0.817649
0.933404 0.911492 0.849259
0.955822 0.932244 0.876591
0.972717 0.947753 0.894072
0.040558 0.042811 0.040839
0.050379 0.055958 0.052479
0.065113 0.079097 0.073371
0.095851 0.119893 0.114852
0.152071 0.180484 0.177548
0.235850 0.262052 0.257987
0.356603 0.366320 0.361761
0.479902 0.484187 0.461543
0.609351 0.607312 0.566955
0.716310 0.711751 0.647486
0.800156 0.796243 0.722988
0.862431 0.848289 0.773825
0.902928 0.885014 0.818436
0.933910 0.911931 0.849802
0.956152 0.932561 0.876976
0.972717 0.947753 0.894072
0.044105 0.047108 0.044733
0.053816 0.060908 0.056818
0.069209 0.085371 0.079438
0.102602 0.126992 0.122255
0.159353 0.187680 0.184842
0.242795 0.268791 0.264518
0.364312 0.372857 0.367999
0.486281 0.490065 0.466578
0.613635 0.611994 0.570538
0.720034 0.714864 0.650135
0.802109 0.798483 0.725069
0.863969 0.849583 0.775161
0.903771 0.885765 0.819327
0.934441 0.912432 0.850413
0.956542 0.932891 0.877348
0.972717 0.947753 0.894072
0.047181 0.051350 0.048450
0.056898 0.065589 0.061006
0.073365 0.091402 0.085463
0.108663 0.133388 0.128908
0.166171 0.194473 0.191635
0.251255 0.276268 0.272081
0.372222 0.379620 0.374432
0.493031 0.496236 0.471894
0.618268 0.617005 0.574292
0.723586 0.718135 0.652973
0.804074 0.800705 0.727138
0.865422 0.850883 0.776431
0.904552 0.886455 0.820188
0.934923 0.912847 0.850956
0.956854 0.933190 0.877702
0.972717 0.947753 0.894072
0.050141 0.055604 0.052186
0.060163 0.070997 0.065968
0.077742 0.097499 0.091737
0.114595 0.139693 0.135463
0.173050 0.201120 0.198306
0.259495 0.283513 0.279423
0.379370 0.385968 0.380212
0.499129 0.501820 0.476728
0.622443 0.621546 0.577704
0.726833 0.721138 0.655598
0.805875 0.802121 0.728511
0.866691 0.851969 0.777572
0.905241 0.887028 0.820902
0.935320 0.913225 0.851444
0.957116 0.933452 0.877989
0.972717 0.947753 0.894072
0.000000 0.000000 0.000000
0.014331 0.013422 0.013037
0.036030 0.037317 0.035846
0.060529 0.071553 0.066468
0.106368 0.130971 0.126394
0.184219 0.211905 0.209122
0.298497 0.317528 0.313811
0.433790 0.439796 0.424451
0.573901 0.568963 0.535882
0.688344 0.687990 0.627326
0.785910 0.779965 0.707875
0.851670 0.838968 0.764388
0.897063 0.879954 0.812192
0.930205 0.908586 0.845566
0.953606 0.930224 0.874229
0.972717 0.947753 0.894072
0.000000 0.000000 0.000000
0.018012 0.016950 0.016461
0.037568 0.039179 0.037537
0.061762 0.073585 0.068330
0.107503 0.132180 0.127626
0.184860 0.212509 0.209726
0.299040 0.318004 0.314281
0.434205 0.440217 0.424787
0.574328 0.569378 0.536223
0.688582 0.688203 0.627503
0.786099 0.780166 0.708070
0.851804 0.839091 0.764486
0.897136 0.880003 0.812241
0.930248 0.908617 0.845621
0.953655 0.930236 0.874253
0.972717 0.947753 0.894072
0.002985 0.002783 0.002704
0.022315 0.021497 0.020850
0.039924 0.042036 0.040143
0.063185 0.075935 0.070491
0.108467 0.133181 0.128688
0.185849 0.213486 0.210690
0.300108 0.318926 0.315221
0.435090 0.441077 0.425513
0.575024 0.570074 0.536803
0.689162 0.688698 0.627918
0.786368 0.780465 0.708345
0.852018 0.839268 0.764663
0.897252 0.880113 0.812387
0.930340 0.908690 0.845719
0.953698 0.930278 0.874314
0.972717 0.947753 0.894072
0.009650 0.009033 0.008765
0.025299 0.024781 0.024024
0.041596 0.044062 0.041962
0.064118 0.077467 0.071882
0.109975 0.134762 0.130343
0.187375 0.214951 0.212180
0.301878 0.320470 0.316783
0.436542 0.442487 0.426673
0.576269 0.571331 0.537853
0.690047 0.689491 0.628553
0.786850 0.781021 0.708870
0.852421 0.839597 0.764993
0.897453 0.880284 0.812601
0.930462 0.908800 0.845835
0.953783 0.930376 0.874412
0.972717 0.947753 0.894072
0.013257 0.012403 0.012036
0.027002 0.026685 0.025861
0.042945 0.045795 0.043519
0.065296 0.079377 0.073652
0.111965 0.136867 0.132528
0.189511 0.217014 0.214243
0.304393 0.322649 0.318968
0.438593 0.444501 0.428351
0.578082 0.573114 0.539355
0.691328 0.690614 0.629493
0.787509 0.781778 0.709566
0.852934 0.840049 0.765451
0.897752 0.880540 0.812912
0.930657 0.908965 0.846079
0.953906 0.930510 0.874553
0.972717 0.947753 0.894072
0.016889 0.015808 0.015375
0.029004 0.028986 0.028052
0.044654 0.047999 0.045478
0.067085 0.082094 0.076271
0.114516 0.139583 0.135329
0.192288 0.219687 0.216941
0.307750 0.325536 0.321910
0.441279 0.447150 0.430518
0.580395 0.575384 0.541271
0.693043 0.692158 0.630744
0.788431 0.782827 0.710555
0.853642 0.840629 0.766055
0.898125 0.880882 0.813321
0.930895 0.909209 0.846366
0.954101 0.930663 0.874730
0.972717 0.947753 0.894072
0.020331 0.019269 0.018708
0.031189 0.031574 0.030481
0.046595 0.050562 0.047761
0.069410 0.085536 0.079689
0.118056 0.143441 0.139327
0.196201 0.223502 0.220676
0.311992 0.329204 0.325566
0.444746 0.450544 0.433326
0.583337 0.578308 0.543749
0.695253 0.694075 0.632331
0.789535 0.784097 0.711720
0.854508 0.841392 0.766848
0.898625 0.881315 0.813840
0.931194 0.909483 0.846714
0.954327 0.930871 0.874986
0.972717 0.947753 0.894072
0.023590 0.022895 0.022205
0.033759 0.034565 0.033320
0.048975 0.053919 0.050703
0.072200 0.089638 0.083760
0.122280 0.148080 0.144143
0.201169 0.228354 0.225351
0.317595 0.333831 0.330126
0.449104 0.454737 0.436841
0.586633 0.581982 0.546685
0.697939 0.696321 0.634272
0.790933 0.785708 0.713210
0.855558 0.842319 0.767758
0.899223 0.881810 0.814469
0.931572 0.909831 0.847141
0.954595 0.931109 0.875273
0.972717 0.947753 0.894072
0.026954 0.026600 0.025794
0.036646 0.038019 0.036524
0.051673 0.057807 0.054084
0.075654 0.094582 0.088746
0.127230 0.153494 0.149752
0.207083 0.234092 0.230912
0.324254 0.339300 0.335509
0.454328 0.459791 0.441035
0.590509 0.586310 0.550152
0.701155 0.699019 0.636585
0.792593 0.787601 0.714961
0.856840 0.843430 0.768893
0.899931 0.882432 0.815238
0.932049 0.910253 0.847684
0.954937 0.931432 0.875651
0.972717 0.947753 0.894072
0.030365 0.030603 0.029584
0.040107 0.042261 0.040339
0.054792 0.062458 0.058235
0.079847 0.100429 0.094746
0.132930 0.159756 0.156240
0.213852 0.240671 0.237290
0.332006 0.345696 0.341796
0.460365 0.465583 0.445887
0.595038 0.591357 0.554186
0.704829 0.702113 0.639216
0.794504 0.789773 0.716994
0.858323 0.844700 0.770175
0.900774 0.883165 0.816135
0.932592 0.910747 0.848307
0.955322 0.931780 0.876060
0.972717 0.947753 0.894072
0.033863 0.034705 0.033478
0.043745 0.046778 0.044385
0.058326 0.067951 0.063148
0.084608 0.106947 0.101436
0.139437 0.166958 0.163687
0.221561 0.248148 0.244529
0.340728 0.352898 0.348876
0.467225 0.472175 0.451380
0.600214 0.597137 0.558807
0.709151 0.705727 0.642322
0.796707 0.792294 0.719319
0.860038 0.846195 0.771713
0.901732 0.883989 0.817154
0.933202 0.911302 0.849027
0.955731 0.932152 0.876493
0.972717 0.947753 0.894072
0.037891 0.039551 0.037897
0.047736 0.052155 0.049152
0.062434 0.074672 0.069325
0.091328 0.114723 0.109511
0.146603 0.174881 0.171865
0.230076 0.256431 0.252531
0.350396 0.361065 0.356707
0.475032 0.479683 0.457661
0.606091 0.603674 0.564056
0.713979 0.709780 0.645789
0.799246 0.795212 0.722042
0.861839 0.847758 0.773288
0.902666 0.884800 0.818143
0.933733 0.911778 0.849607
0.956048 0.932445 0.876829
0.972717 0.947753 0.894072
0.042213 0.044825 0.042652
0.051948 0.058192 0.054438
0.067121 0.082136 0.076332
0.099123 0.123311 0.118416
0.155685 0.184042 0.181143
0.239371 0.265483 0.261295
0.360699 0.369842 0.365063
0.483394 0.487367 0.464283
0.611810 0.610022 0.569067
0.718398 0.713491 0.648969
0.801260 0.797513 0.724160
0.863285 0.849021 0.774569
0.903410 0.885441 0.818936
0.934209 0.912218 0.850163
0.956390 0.932781 0.877220
0.972717 0.947753 0.894072
0.045667 0.049207 0.046571
0.055378 0.063246 0.058894
0.071156 0.088289 0.082277
0.105702 0.130269 0.125649
0.162826 0.191135 0.188290
0.247092 0.272612 0.268345
0.368353 0.376349 0.371289
0.489717 0.493172 0.469300
0.616022 0.614582 0.572479
0.721950 0.716597 0.651649
0.803183 0.799704 0.726210
0.864750 0.850291 0.775875
0.904247 0.886180 0.819828
0.934716 0.912688 0.850755
0.956744 0.933074 0.877574
0.972717 0.947753 0.894072
0.048688 0.053529 0.050361
0.058589 0.068354 0.063551
0.075624 0.094545 0.088698
0.111623 0.136507 0.132131
0.169772 0.197940 0.195132
0.255644 0.280143 0.275981
0.376251 0.383093 0.377697
0.496461 0.499367 0.474611
0.620600 0.619532 0.576196
0.725472 0.719899 0.654530
0.805185 0.801590 0.727987
0.866258 0.851591 0.777176
0.905028 0.886857 0.820676
0.935198 0.913127 0.851322
0.957079 0.933391 0.877946
0.972717 0.947753 0.894072
0.051606 0.057667 0.053986
0.061787 0.073658 0.068403
0.079957 0.100594 0.094899
0.117720 0.143087 0.138973
0.176541 0.204477 0.201694
0.263688 0.287211 0.283159
0.382947 0.389532 0.383154
0.502614 0.504994 0.479469
0.624829 0.624140 0.579632
0.728670 0.722878 0.657118
0.806931 0.802951 0.729335
0.867326 0.852567 0.778299
0.905724 0.887456 0.821415
0.935637 0.913524 0.851792
0.957348 0.933623 0.878245
0.972717 0.947753 0.894072
0.000000 0.000000 0.000000
0.004614 0.004303 0.004193
0.027143 0.026844 0.026001
0.055262 0.063178 0.058888
0.100008 0.124276 0.119417
0.180868 0.208652 0.205893
0.298082 0.317205 0.313463
0.436054 0.442005 0.426276
0.577716 0.572723 0.539043
0.691804 0.691035 0.629834
0.787930 0.782266 0.709999
0.853349 0.840403 0.765811
0.897972 0.880735 0.813138
0.930791 0.909105 0.846238
0.954009 0.930584 0.874656
0.972717 0.947753 0.894072
0.000000 0.000000 0.000000
0.004926 0.004627 0.004486
0.031391 0.031800 0.030726
0.057716 0.067048 0.062379
0.102583 0.126973 0.122219
0.182583 0.210336 0.207559
0.299431 0.318352 0.314653
0.436890 0.442853 0.426978
0.578283 0.573309 0.539525
0.692177 0.691359 0.630103
0.788083 0.782437 0.710164
0.853452 0.840476 0.765890
0.898015 0.880778 0.813199
0.930816 0.909129 0.846275
0.954052 0.930626 0.874699
0.972717 0.947753 0.894072
0.000000 0.000000 0.000000
0.013782 0.012909 0.012537
0.036072 0.037330 0.035883
0.060499 0.071504 0.066426
0.105904 0.130471 0.125869
0.185116 0.212766 0.209989
0.301701 0.320336 0.316637
0.438379 0.444276 0.428168
0.579376 0.574359 0.540429
0.692769 0.691890 0.630530
0.788388 0.782779 0.710500
0.853672 0.840684 0.766085
0.898149 0.880882 0.813352
0.930883 0.909203 0.846360
0.954101 0.930669 0.874748
0.972717 0.947753 0.894072
0.002814 0.002661 0.002570
0.022199 0.021357 0.020716
0.039832 0.041907 0.040040
0.063124 0.075819 0.070381
0.109456 0.134212 0.129781
0.188290 0.215848 0.213101
0.304839 0.323040 0.319377
0.440522 0.446400 0.429908
0.580908 0.575921 0.541729
0.693739 0.692744 0.631244
0.788882 0.783365 0.711031
0.854026 0.840989 0.766397
0.898332 0.881059 0.813535
0.931023 0.909331 0.846519
0.954205 0.930748 0.874858
0.972717 0.947753 0.894072
0.012055 0.011310 0.010974
0.026569 0.026215 0.025403
0.042860 0.045667 0.043391
0.065510 0.079780 0.074012
0.113143 0.138100 0.133816
0.191916 0.219358 0.216580
0.308684 0.326390 0.322741
0.443336 0.449165 0.432184
0.582867 0.577826 0.543334
0.695131 0.693965 0.632239
0.789566 0.784134 0.711757
0.854539 0.841428 0.766860
0.898637 0.881309 0.813858
0.931212 0.909502 0.846738
0.954314 0.930858 0.874986
0.972717 0.947753 0.894072
0.018286 0.017133 0.016645
0.029944 0.030091 0.029096
0.045606 0.049274 0.046607
0.068519 0.084248 0.078401
0.117336 0.142654 0.138534
0.196280 0.223581 0.220761
0.313359 0.330333 0.326671
0.446784 0.452509 0.434968
0.585138 0.580322 0.545354
0.696913 0.695460 0.633527
0.790469 0.785165 0.712721
0.855222 0.842033 0.767459
0.899016 0.881645 0.814279
0.931463 0.909715 0.847001
0.954504 0.931023 0.875187
0.972717 0.947753 0.894072
0.022528 0.021704 0.021070
0.032972 0.033643 0.032453
0.048365 0.053059 0.049934
0.071705 0.088899 0.083003
0.121975 0.147744 0.143801
0.201553 0.228708 0.225711
0.318956 0.334960 0.331231
0.450617 0.456202 0.438032
0.587927 0.583435 0.547832
0.699178 0.697371 0.635157
0.791617 0.786477 0.713918
0.856059 0.842771 0.768215
0.899504 0.882072 0.814774
0.931774 0.910021 0.847391
0.954736 0.931249 0.875425
0.972717 0.947753 0.894072
0.026233 0.025812 0.025025
0.036005 0.037244 0.035816
0.051228 0.057148 0.053516
0.075203 0.093965 0.088093
0.127016 0.153256 0.149496
0.207340 0.234342 0.231144
0.325060 0.339965 0.336150
0.455164 0.460566 0.441694
0.591217 0.587103 0.550780
0.701912 0.699660 0.637122
0.793002 0.788058 0.715389
0.857121 0.843668 0.769143
0.900096 0.882591 0.815421
0.932171 0.910350 0.847831
0.955016 0.931499 0.875724
0.972717 0.947753 0.894072
0.029737 0.029853 0.028870
0.039484 0.041486 0.039637
0.054292 0.061707 0.057575
0.079298 0.099654 0.093953
0.132467 0.159261 0.155715
0.213590 0.240409 0.237040
0.331872 0.345592 0.341680
0.460365 0.465595 0.445887
0.595196 0.591528 0.554333
0.705110 0.702345 0.639417
0.794632 0.789926 0.717140
0.858396 0.844767 0.770260
0.900822 0.883207 0.816178
0.932628 0.910771 0.848350
0.955334 0.931798 0.876078
0.972717 0.947753 0.894072
0.033124 0.033826 0.032630
0.043006 0.045832 0.043561
0.057636 0.066798 0.062116
0.083674 0.105776 0.100240
0.138442 0.165853 0.162521
0.220426 0.247056 0.243455
0.339684 0.352032 0.348028
0.466511 0.471498 0.450837
0.599750 0.596612 0.558392
0.708779 0.705422 0.642054
0.796555 0.792117 0.719167
0.859873 0.846055 0.771572
0.901653 0.883928 0.817050
0.933165 0.911260 0.848978
0.955731 0.932158 0.876493
0.972717 0.947753 0.894072
0.036780 0.038221 0.036670
0.046723 0.050703 0.047877
0.061408 0.072987 0.067793
0.089644 0.112776 0.107472
0.144894 0.172982 0.169906
0.228061 0.254508 0.250651
0.348290 0.359210 0.354998
0.473378 0.478102 0.456355
0.604895 0.602350 0.562976
0.713039 0.708998 0.645118
0.798746 0.794632 0.721498
0.861588 0.847538 0.773074
0.902605 0.884770 0.818076
0.933788 0.911839 0.849680
0.956133 0.932531 0.876933
0.972717 0.947753 0.894072
0.040821 0.043116 0.041108
0.050605 0.056275 0.052741
0.065437 0.079597 0.073872
0.096400 0.120461 0.115431
0.152706 0.181088 0.178170
0.236551 0.262742 0.258647
0.357781 0.367370 0.362701
0.481398 0.485548 0.462715
0.610718 0.608820 0.568139
0.717855 0.713033 0.648585
0.801260 0.797501 0.724166
0.863383 0.849107 0.774661
0.903557 0.885563 0.819077
0.934289 0.912303 0.850254
0.956451 0.932811 0.877269
0.972717 0.947753 0.894072
0.044941 0.048225 0.045704
0.054701 0.062245 0.058021
0.070472 0.087208 0.081263
0.104610 0.129110 0.124453
0.161941 0.190237 0.187405
0.246397 0.272013 0.267735
0.368035 0.376123 0.371032
0.489815 0.493196 0.469343
0.616193 0.614765 0.572601
0.722109 0.716762 0.651777
0.803268 0.799789 0.726296
0.864799 0.850321 0.775912
0.904283 0.886198 0.819846
0.934759 0.912737 0.850816
0.956793 0.933135 0.877641
0.972717 0.947753 0.894072
0.048518 0.053297 0.050141
0.058387 0.068019 0.063252
0.075325 0.094118 0.088264
0.111232 0.136110 0.131704
0.169339 0.197519 0.194717
0.255064 0.279606 0.275456
0.375634 0.382586 0.377203
0.496052 0.498915 0.474269
0.620374 0.619281 0.575964
0.725386 0.719820 0.654456
0.805222 0.801633 0.728017
0.866288 0.851621 0.777230
0.905113 0.886918 0.820743
0.935290 0.913207 0.851408
0.957177 0.933465 0.878044
0.972717 0.947753 0.894072
0.051435 0.057435 0.053791
0.061567 0.073274 0.068049
0.079664 0.100172 0.094484
0.117415 0.142782 0.138631
0.176272 0.204221 0.201437
0.263407 0.286955 0.282902
0.382843 0.389416 0.383062
0.502693 0.505006 0.479524
0.624921 0.624219 0.579681
0.728896 0.723110 0.657337
0.807181 0.803171 0.729519
0.867509 0.852738 0.778518
0.905895 0.887602 0.821567
0.935778 0.913664 0.851957
0.957482 0.933770 0.878373
0.972717 0.947753 0.894072
0.054182 0.061366 0.057227
0.064619 0.078291 0.072645
0.083943 0.106007 0.100472
0.123360 0.149227 0.145333
0.182876 0.210599 0.207816
0.271391 0.293974 0.290019
0.389374 0.395911 0.388391
0.508699 0.510524 0.484266
0.629017 0.628669 0.583001
0.732094 0.726094 0.659931
0.808951 0.804526 0.730843
0.868455 0.853635 0.779623
0.906529 0.888145 0.822214
0.936187 0.914006 0.852433
0.957757 0.934008 0.878666
0.972717 0.947753 0.894072
0.000000 0.000000 0.000000
0.004614 0.004303 0.004193
0.009229 0.008655 0.008399
0.040540 0.042768 0.040797
0.083363 0.105263 0.099721
0.166921 0.195163 0.192355
0.287657 0.308141 0.304363
0.431073 0.437147 0.422266
0.575787 0.570770 0.537420
0.691981 0.691218 0.629975
0.788772 0.783218 0.710921
0.854508 0.841392 0.766812
0.898900 0.881547 0.814133
0.931548 0.909801 0.847111
0.954632 0.931145 0.875309
0.972717 0.947753 0.894072
0.000000 0.000000 0.000000
0.004614 0.004303 0.004193
0.010004 0.009393 0.009094
0.046217 0.050086 0.047333
0.087868 0.110933 0.105568
0.170864 0.198990 0.196213
0.290636 0.310741 0.306957
0.432789 0.438819 0.423639
0.576825 0.571820 0.538280
0.692567 0.691725 0.630402
0.789041 0.783536 0.711208
0.854649 0.841532 0.766946
0.898991 0.881614 0.814243
0.931585 0.909837 0.847160
0.954656 0.931176 0.875346
0.972717 0.947753 0.894072
0.000000 0.000000 0.000000
0.004614 0.004303 0.004193
0.022596 0.021912 0.021253
0.052351 0.058741 0.054939
0.095094 0.118886 0.113808
0.176608 0.204532 0.201755
0.295378 0.314830 0.311101
0.435529 0.441505 0.425873
0.578576 0.573577 0.539770
0.693574 0.692598 0.631110
0.789438 0.783987 0.711617
0.854960 0.841788 0.767221
0.899113 0.881736 0.814365
0.931682 0.909917 0.847257
0.954730 0.931237 0.875419
0.972717 0.947753 0.894072
0.000000 0.000000 0.000000
0.006830 0.006403 0.006207
0.032996 0.033710 0.032490
0.058241 0.067884 0.063142
0.102950 0.127346 0.122628
0.183297 0.211026 0.208249
0.301292 0.319963 0.316265
0.439319 0.445222 0.428931
0.581061 0.576074 0.541845
0.695051 0.693904 0.632184
0.790121 0.784768 0.712349
0.855436 0.842191 0.767630
0.899358 0.881944 0.814640
0.931810 0.910063 0.847440
0.954803 0.931316 0.875511
0.972717 0.947753 0.894072
0.001898 0.001776 0.001721
0.021778 0.020862 0.020246
0.039686 0.041724 0.039857
0.063258 0.076069 0.070600
0.110201 0.134994 0.130587
0.189908 0.217386 0.214627
0.307701 0.325518 0.321874
0.443592 0.449421 0.432398
0.584094 0.579150 0.544414
0.697066 0.695589 0.633643
0.791006 0.785769 0.713277
0.856034 0.842728 0.768173
0.899687 0.882231 0.814994
0.932042 0.910246 0.847672
0.954955 0.931444 0.875651
0.972717 0.947753 0.894072
0.015943 0.014929 0.014490
0.028705 0.028638 0.027729
0.044733 0.048084 0.045570
0.067805 0.083204 0.077345
0.116933 0.142214 0.138051
0.196634 0.223917 0.221067
0.314556 0.331322 0.327654
0.448402 0.454047 0.436268
0.587256 0.582684 0.547247
0.699409 0.697560 0.635328
0.792160 0.787100 0.714510
0.856858 0.843436 0.768887
0.900127 0.882609 0.815445
0.932287 0.910460 0.847965
0.955138 0.931609 0.875859
0.972717 0.947753 0.894072
0.023011 0.022235 0.021570
0.033399 0.034168 0.032935
0.048865 0.053785 0.050581
0.072456 0.090040 0.084132
0.123494 0.149398 0.145504
0.203757 0.230863 0.227787
0.321923 0.337389 0.333611
0.453669 0.459126 0.440491
0.590875 0.586725 0.550481
0.702223 0.699916 0.637342
0.793515 0.788644 0.715932
0.857853 0.844303 0.769772
0.900664 0.883073 0.816025
0.932622 0.910784 0.848350
0.955370 0.931829 0.876109
0.972717 0.947753 0.894072
0.027735 0.027509 0.026661
0.037488 0.039057 0.037458
