LUTs/SPK Cube Block1 S16/TheBrim_SPK_Type-L_Block 1_S16.cube
TITLE "TheBrim® Industrial Imaging Burau"
# © Copyright 2022 - TheBrim® d.o.o. Croatia
LUT_3D_SIZE 16
0.0073548486 0.0089417868 0.0091554131
0.0154726482 0.0147219043 0.0142214084
0.0322697795 0.0172732128 0.0147158007
0.0635019455 0.0220035096 0.0155642023
0.1120500496 0.0242557412 0.0141725795
0.1959563592 0.0189517052 0.0085145342
0.2815838865 0.0000000000 0.0003173877
0.3538384070 0.0000000000 0.0000000000
0.4310368505 0.0000000000 0.0000000000
0.5032852674 0.0000000000 0.0000000000
0.5580376898 0.0000000000 0.0000000000
0.6014038300 0.0000000000 0.0000000000
0.6231082628 0.0000000000 0.0000000000
0.6340215152 0.0000000000 0.0000000000
0.6391302358 0.0000000000 0.0000000000
0.6421149004 0.0000000000 0.0000000000
0.0087953002 0.0292973220 0.0241702907
0.0168093385 0.0272220951 0.0197329671
0.0336614023 0.0266971847 0.0171999695
0.0702891585 0.0291325246 0.0156984817
0.1249835966 0.0306767376 0.0127138170
0.2063019760 0.0261600671 0.0071412222
0.2849469749 0.0089539940 0.0003906310
0.3538384070 0.0000000000 0.0000000000
0.4314946212 0.0000000000 0.0000000000
0.5027298390 0.0000000000 0.0000000000
0.5578728923 0.0000000000 0.0000000000
0.6010864424 0.0000000000 0.0000000000
0.6231937133 0.0000000000 0.0000000000
0.6341557946 0.0000000000 0.0000000000
0.6392706188 0.0000000000 0.0000000000
0.6478339818 0.0000000000 0.0000000000
0.0060425727 0.0524055848 0.0388738842
0.0128297856 0.0516731518 0.0356328679
0.0312809949 0.0515877012 0.0308537423
0.0688853285 0.0521858549 0.0253360800
0.1258075837 0.0552620737 0.0194888228
0.2045319295 0.0530281529 0.0106019684
0.2861066606 0.0423407340 0.0018310826
0.3591241321 0.0151369497 0.0000000000
0.4402532998 0.0000000000 0.0000000000
0.5066300450 0.0000000000 0.0000000000
0.5655512322 0.0000000000 0.0000000000
0.6082764935 0.0000000000 0.0000000000
0.6303959716 0.0000000000 0.0000000000
0.6431464103 0.0000000000 0.0000000000
0.6485236896 0.0000000000 0.0000000000
0.6592111086 0.0000000000 0.0000000000
0.0000000000 0.0836377508 0.0594613565
0.0023620966 0.0829907683 0.0554879072
0.0200320439 0.0828870069 0.0494758526
0.0630685893 0.0852002747 0.0403936828
0.1242572671 0.0883131151 0.0293156329
0.1984527352 0.0894972152 0.0178957809
0.2857038224 0.0844434272 0.0067078660
0.3612787060 0.0697154192 0.0000000000
0.4492011902 0.0396185245 0.0000000000
0.5177355612 0.0029846647 0.0000000000
0.5836667430 0.0000000000 0.0000000000
0.6272281987 0.0000000000 0.0000000000
0.6529854276 0.0000000000 0.0000000000
0.6647898070 0.0000000000 0.0000000000
0.6679392691 0.0000000000 0.0000000000
0.6752941176 0.0000000000 0.0000000000
0.0000000000 0.1236835279 0.0838330663
0.0000000000 0.1219073777 0.0785229267
0.0013794156 0.1201068132 0.0697215229
0.0458075837 0.1211139086 0.0593636988
0.1089372091 0.1265339132 0.0495613031
0.1845365072 0.1287678340 0.0338445106
0.2765423056 0.1301228351 0.0175173571
0.3648554208 0.1254230564 0.0033813993
0.4609384298 0.1096208133 0.0000000000
0.5339589532 0.0877027543 0.0000000000
0.6070496681 0.0512642100 0.0000000000
0.6511482414 0.0103944457 0.0000000000
0.6805188067 0.0000000000 0.0000000000
0.6928419928 0.0000000000 0.0000000000
0.6939284352 0.0000000000 0.0000000000
0.6977187762 0.0000000000 0.0000000000
0.0000000000 0.1743801022 0.1268635080
0.0000000000 0.1730800336 0.1205706874
0.0000000000 0.1703089952 0.1104509041
0.0000000000 0.1684962234 0.0984084840
0.0762890059 0.1723109789 0.0828809033
0.1641260395 0.1759060044 0.0625925078
0.2616556039 0.1814847028 0.0423651484
0.3676691844 0.1824185550 0.0156313420
0.4639047837 0.1779507134 0.0000000000
0.5534538796 0.1678675517 0.0000000000
0.6311589227 0.1503624018 0.0000000000
0.6835767147 0.1326741436 0.0000000000
0.7149126421 0.1106157015 0.0000000000
0.7294758526 0.0900709545 0.0000000000
0.7330586709 0.0677805753 0.0000000000
0.7329365988 0.0626840620 0.0000000000
0.0000000000 0.2475745785 0.1930571450
0.0000000000 0.2382726787 0.1804715038
0.0000000000 0.2329991608 0.1681055924
0.0000000000 0.2299778744 0.1534813458
0.0000000000 0.2298069734 0.1290180819
0.1317097734 0.2395971618 0.1073258564
0.2455359731 0.2470679789 0.0796337835
0.3670771344 0.2537697414 0.0445136187
0.4739757382 0.2529152361 0.0078919661
0.5737178607 0.2503456168 0.0000000000
0.6580392157 0.2400305180 0.0000000000
0.7163042649 0.2276585031 0.0000000000
0.7535240711 0.2118135348 0.0000000000
0.7684657053 0.1967132067 0.0000000000
0.7727748531 0.1787136645 0.0000000000
0.7726222629 0.1735255970 0.0000000000
0.0000000000 0.3228809033 0.2593545434
0.0000000000 0.3213794156 0.2476844434
0.0000000000 0.3082200351 0.2253147173
0.0000000000 0.3046799420 0.2051056687
0.0000000000 0.3060715648 0.1822537575
0.0217349508 0.3159838254 0.1617517357
0.2162508583 0.3260914015 0.1316060121
0.3614007782 0.3386648356 0.0984206912
0.4791577020 0.3409414817 0.0488715953
0.5935973144 0.3380056458 0.0000000000
0.6816296635 0.3357778286 0.0000000000
0.7488487068 0.3256885634 0.0000000000
0.7911406119 0.3123765927 0.0000000000
0.8109163043 0.2988876173 0.0000000000
0.8194735637 0.2871381704 0.0000000000
0.8164950027 0.2733684291 0.0000000000
0.0000000000 0.4027405203 0.3175280385
0.0000000000 0.4024841688 0.3085008011
0.0000000000 0.3879758907 0.2862104219
0.0000000000 0.3818844892 0.2618326085
0.0000000000 0.3828610666 0.2413244831
0.0000000000 0.3971923400 0.2195468070
0.1500450141 0.4161989776 0.1911406119
0.3466666667 0.4341863127 0.1550255589
0.4802075227 0.4412115663 0.1080888075
0.6101686122 0.4455756466 0.0359685664
0.7052018006 0.4380987259 0.0000000000
0.7828091859 0.4350896468 0.0000000000
0.8284824903 0.4196353094 0.0000000000
0.8514808881 0.4044800488 0.0000000000
0.8624490730 0.3904600595 0.0000000000
0.8624673838 0.3797116045 0.0000000000
0.0000000000 0.4538460365 0.3546074617
0.0000000000 0.4571419852 0.3524528878
0.0000000000 0.4509346151 0.3460013733
0.0000000000 0.4458075837 0.3267505913
0.0000000000 0.4530037385 0.3039108873
0.0000000000 0.4749950408 0.2819256886
0.0000000000 0.5020889601 0.2550942245
0.2930586709 0.5301991302 0.2182345312
0.4663401236 0.5439200427 0.1726894026
0.6153383688 0.5493827726 0.1105058366
0.7208514534 0.5484306096 0.0225223163
0.8090486000 0.5399465934 0.0000000000
0.8598977646 0.5313038834 0.0000000000
0.8925947967 0.5216723888 0.0000000000
0.9073167010 0.5086808576 0.0000000000
0.9077744717 0.4936964981 0.0000000000
0.0000000000 0.4917982757 0.3862058442
0.0000000000 0.4930189975 0.3823849851
0.0000000000 0.4905043107 0.3777462425
0.0000000000 0.4880567636 0.3634637980
0.0000000000 0.5006973373 0.3508354314
0.0000000000 0.5254749371 0.3366445411
0.0000000000 0.5610040436 0.3178454261
0.1727931640 0.5953917754 0.2827435721
0.4382452125 0.6245120928 0.2357213703
0.6039185168 0.6427008469 0.1787747005
0.7261005570 0.6470588235 0.0928664073
0.8301365682 0.6487067979 0.0000000000
0.8896589609 0.6426825360 0.0000000000
0.9260425727 0.6350835431 0.0000000000
0.9459464408 0.6283756771 0.0000000000
0.9504386969 0.6145265888 0.0000000000
0.0000000000 0.5028061341 0.3902342260
0.0000000000 0.5022934310 0.3880796521
0.0000000000 0.5021774624 0.3822507057
0.0000000000 0.5080674449 0.3757747768
0.0000000000 0.5246509499 0.3696589609
0.0000000000 0.5524956130 0.3642572671
0.0000000000 0.5948790723 0.3549553674
0.0139406424 0.6376836805 0.3356130312
0.3982116426 0.6841748684 0.2957686732
0.5900755322 0.7109880217 0.2398107881
0.7280598154 0.7233600366 0.1667933165
0.8398352026 0.7276203555 0.0376043336
0.9046616312 0.7250934615 0.0000000000
0.9462333104 0.7173052567 0.0000000000
0.9668024720 0.7069413291 0.0000000000
0.9755428397 0.6957717250 0.0000000000
0.0000000000 0.5138353552 0.3732478828
0.0000000000 0.5174914168 0.3719600214
0.0000000000 0.5243030442 0.3696223392
0.0000000000 0.5360769055 0.3670588235
0.0000000000 0.5585809110 0.3653498131
0.0000000000 0.5879697871 0.3627985046
0.0000000000 0.6228030823 0.3543511101
0.0791699092 0.6606149386 0.3417227436
0.3908140688 0.7052628367 0.3203601129
0.5697871366 0.7409079118 0.2841107805
0.7155901427 0.7631250477 0.2253147173
0.8380041199 0.7738002594 0.1294941634
0.9072373541 0.7732936599 0.0000000000
0.9549370565 0.7714503700 0.0000000000
0.9802670329 0.7639551385 0.0000000000
0.9923460746 0.7575524529 0.0000000000
0.0000000000 0.5387991150 0.3667536431
0.0000000000 0.5432059205 0.3662714580
0.0000000000 0.5518974594 0.3657282368
0.0000000000 0.5664606699 0.3649652857
0.0000000000 0.5885252155 0.3625726711
0.0000000000 0.6144777600 0.3567986572
0.0017456321 0.6462653544 0.3467032883
0.2859845884 0.6850843061 0.3319081407
0.4474189364 0.7170122835 0.3120653086
0.5999389639 0.7488426032 0.2776287480
0.7257648585 0.7727138170 0.2297642481
0.8347020676 0.7906340124 0.1647119860
0.9082139315 0.8005340658 0.0433356222
0.9614618143 0.8019806210 0.0000000000
0.9875791562 0.7970122835 0.0000000000
0.9997192340 0.7891813535 0.0000000000
0.0000000000 0.5727290761 0.3644892042
0.0000000000 0.5775814450 0.3642389563
0.0000000000 0.5863218128 0.3628839551
0.0000000000 0.5994872969 0.3605645838
0.0000000000 0.6171816587 0.3560967422
0.0000000000 0.6394476234 0.3486625467
0.1787869078 0.6685374228 0.3381704433
0.3811337453 0.7032364385 0.3219287404
0.5211627375 0.7324483101 0.2970809491
0.6379827573 0.7563073167 0.2656839857
0.7421652552 0.7754787518 0.2218722820
0.8415747311 0.7917875944 0.1591271839
0.9044602121 0.8009185931 0.0571602960
0.9553154803 0.8076874952 0.0000000000
0.9879209583 0.8089143206 0.0000000000
1.0000000000 0.8056794079 0.0000000000
0.0000000000 0.6074464027 0.3590447852
0.0000000000 0.6117250324 0.3575860227
0.0000000000 0.6190676738 0.3554802777
0.0000000000 0.6313298238 0.3517692836
0.0000000000 0.6473395895 0.3463920043
0.1757228962 0.6675669490 0.3383535515
0.3384756237 0.6946486610 0.3271839475
0.4604623484 0.7197405966 0.3099290455
0.5760067140 0.7439353017 0.2843305104
0.6803784237 0.7646509499 0.2501808194
0.7621728847 0.7787441825 0.2116731518
0.8523353933 0.7935332265 0.1507896544
0.9063889525 0.8011932555 0.0521919585
0.9537773709 0.8075593194 0.0000000000
0.9831235218 0.8089814603 0.0000000000
0.9999389639 0.8076447700 0.0000000000
0.0086182956 0.0170229648 0.0243961242
0.0142763409 0.0166079194 0.0222293431
0.0295536736 0.0182253758 0.0218814374
0.0581124590 0.0218692302 0.0221194781
0.1112382696 0.0237918669 0.0199465934
0.1977203021 0.0177248798 0.0140444038
0.2850080110 0.0000000000 0.0041809720
0.3602349889 0.0000000000 0.0000000000
0.4342107271 0.0000000000 0.0000000000
0.5054520485 0.0000000000 0.0000000000
0.5593804837 0.0000000000 0.0000000000
0.6023315785 0.0000000000 0.0000000000
0.6237857633 0.0000000000 0.0000000000
0.6343266957 0.0000000000 0.0000000000
0.6392706188 0.0000000000 0.0000000000
0.6413946746 0.0000000000 0.0000000000
0.0054810407 0.0257389181 0.0294071870
0.0126344701 0.0219485771 0.0219790951
0.0311833371 0.0225528344 0.0194949264
0.0702464332 0.0268314641 0.0193789578
0.1301960784 0.0274479286 0.0158083467
0.2111299306 0.0220645457 0.0107606622
0.2896772717 0.0007995727 0.0029785611
0.3597039750 0.0000000000 0.0000000000
0.4354375525 0.0000000000 0.0000000000
0.5057572290 0.0000000000 0.0000000000
0.5594537270 0.0000000000 0.0000000000
0.6022217136 0.0000000000 0.0000000000
0.6239688716 0.0000000000 0.0000000000
0.6343266957 0.0000000000 0.0000000000
0.6392584115 0.0000000000 0.0000000000
0.6472358282 0.0000000000 0.0000000000
0.0000000000 0.0508308537 0.0437750820
0.0082887007 0.0490363928 0.0379827573
0.0281986725 0.0476447700 0.0316044862
0.0734264134 0.0480598154 0.0245670253
0.1322590982 0.0516365301 0.0208255131
0.2142977035 0.0475410086 0.0133791104
0.2910994125 0.0327031357 0.0036011292
0.3621820401 0.0078126192 0.0000000000
0.4423163195 0.0000000000 0.0000000000
0.5090897993 0.0000000000 0.0000000000
0.5656366827 0.0000000000 0.0000000000
0.6081971466 0.0000000000 0.0000000000
0.6292362860 0.0000000000 0.0000000000
0.6418524453 0.0000000000 0.0000000000
0.6474921798 0.0000000000 0.0000000000
0.6585946441 0.0000000000 0.0000000000
0.0000000000 0.0858777752 0.0666453040
0.0000000000 0.0841809720 0.0603585870
0.0142885481 0.0826916915 0.0520149538
0.0630502785 0.0841992828 0.0413031205
0.1290608072 0.0867322805 0.0305790799
0.2058625162 0.0862989242 0.0197634852
0.2910322728 0.0794506752 0.0068299382
0.3655634394 0.0630624857 0.0000000000
0.4507331960 0.0339604791 0.0000000000
0.5197680629 0.0000000000 0.0000000000
0.5840878920 0.0000000000 0.0000000000
0.6275761044 0.0000000000 0.0000000000
0.6518562600 0.0000000000 0.0000000000
0.6636667430 0.0000000000 0.0000000000
0.6663157092 0.0000000000 0.0000000000
0.6747264820 0.0000000000 0.0000000000
0.0000000000 0.1256610971 0.0904188602
0.0000000000 0.1236102846 0.0837170977
0.0000000000 0.1208453498 0.0735057603
0.0388616770 0.1199237049 0.0610055695
0.1092179751 0.1253620203 0.0487312123
0.1879301137 0.1269062333 0.0320012207
0.2820538643 0.1277302205 0.0155092699
0.3679804685 0.1221149004 0.0023987182
0.4626413367 0.1063248646 0.0000000000
0.5351369497 0.0843274586 0.0000000000
0.6086488136 0.0451056687 0.0000000000
0.6514534218 0.0060791943 0.0000000000
0.6797924773 0.0000000000 0.0000000000
0.6916090639 0.0000000000 0.0000000000
0.6921889067 0.0000000000 0.0000000000
0.6973098344 0.0000000000 0.0000000000
0.0000000000 0.1779873350 0.1359151598
0.0000000000 0.1737453269 0.1254901961
0.0000000000 0.1708644236 0.1135637446
0.0000000000 0.1678492409 0.0998977646
0.0711436637 0.1716273747 0.0834119173
0.1646448463 0.1747402152 0.0616281376
0.2640604257 0.1803372244 0.0414496071
0.3694758526 0.1809964141 0.0146364538
0.4661326009 0.1764003967 0.0000000000
0.5547966735 0.1652552071 0.0000000000
0.6323125048 0.1477927825 0.0000000000
0.6840344854 0.1292866407 0.0000000000
0.7147173266 0.1070450904 0.0000000000
0.7287190051 0.0860120546 0.0000000000
0.7314595254 0.0611459525 0.0000000000
0.7327168688 0.0617807279 0.0000000000
0.0000000000 0.2500953689 0.1967742428
0.0000000000 0.2404272526 0.1836942092
0.0000000000 0.2331517510 0.1689295796
0.0000000000 0.2295994507 0.1537926299
0.0000000000 0.2293247883 0.1292317082
0.1321431296 0.2388403143 0.1065995270
0.2466651408 0.2462378882 0.0785595483
0.3681452659 0.2524574655 0.0429266804
0.4750011444 0.2514564736 0.0070801862
0.5750301366 0.2487098497 0.0000000000
0.6592294194 0.2374486915 0.0000000000
0.7165789273 0.2252964065 0.0000000000
0.7532982376 0.2089631495 0.0000000000
0.7678797589 0.1941496910 0.0000000000
0.7718104829 0.1760341802 0.0000000000
0.7719325551 0.1719081407 0.0000000000
0.0000000000 0.3225024796 0.2596780346
0.0000000000 0.3211352712 0.2475745785
0.0000000000 0.3077256428 0.2248264286
0.0000000000 0.3040939956 0.2048493172
0.0000000000 0.3053391318 0.1817898833
0.0257145037 0.3149340047 0.1609399557
0.2189059281 0.3250537881 0.1299397269
0.3628412299 0.3377004654 0.0972304875
0.4804577707 0.3393667506 0.0471198596
0.5945983062 0.3362844282 0.0000000000
0.6828503853 0.3342641337 0.0000000000
0.7489890898 0.3235339895 0.0000000000
0.7911100938 0.3101304646 0.0000000000
0.8102388037 0.2961532006 0.0000000000
0.8187472343 0.2850873579 0.0000000000
0.8158785382 0.2719279774 0.0000000000
0.0000000000 0.4026916915 0.3175036240
0.0000000000 0.4023743038 0.3085740444
0.0000000000 0.3878049897 0.2863935302
0.0000000000 0.3816525521 0.2616311894
0.0000000000 0.3827206836 0.2410131991
0.0000000000 0.3966613260 0.2189547570
0.1521080339 0.4152346075 0.1903349355
0.3490287633 0.4331914244 0.1536705577
0.4808545052 0.4402410925 0.1071122301
0.6109864958 0.4439887083 0.0339238575
0.7059220264 0.4361089494 0.0000000000
0.7829129473 0.4330449378 0.0000000000
0.8285374228 0.4178286412 0.0000000000
0.8511573968 0.4027344167 0.0000000000
0.8615945678 0.3879148547 0.0000000000
0.8617532616 0.3779415579 0.0000000000
0.0000000000 0.4535408560 0.3552971695
0.0000000000 0.4570931563 0.3524589914
0.0000000000 0.4506721599 0.3457938506
0.0000000000 0.4455634394 0.3264271000
0.0000000000 0.4528145266 0.3035385672
0.0000000000 0.4752269780 0.2814435035
0.0000000000 0.5021438926 0.2546852827
0.2945174334 0.5296192874 0.2175875486
0.4680186160 0.5429190509 0.1715297169
0.6155519951 0.5479850462 0.1095231556
0.7212054627 0.5470878157 0.0208865492
0.8092805371 0.5382253758 0.0000000000
0.8599832151 0.5298268101 0.0000000000
0.8928084230 0.5207446403 0.0000000000
0.9070542458 0.5073075456 0.0000000000
0.9073777371 0.4926039521 0.0000000000
0.0000000000 0.4919325551 0.3863035019
0.0000000000 0.4930922408 0.3824582284
0.0000000000 0.4904676890 0.3776241703
0.0000000000 0.4879835203 0.3634454871
0.0000000000 0.5008010986 0.3505363546
0.0000000000 0.5256275273 0.3364370184
0.0000000000 0.5609918364 0.3174059663
0.1762478065 0.5952819104 0.2821759365
0.4397100786 0.6241336690 0.2348912795
0.6052124819 0.6420660716 0.1777676051
0.7269977874 0.6465156023 0.0907362478
0.8309239338 0.6477241169 0.0000000000
0.8901472496 0.6416449226 0.0000000000
0.9261585412 0.6342473487 0.0000000000
0.9460074769 0.6278080415 0.0000000000
0.9499931334 0.6130739300 0.0000000000
0.0000000000 0.5027206836 0.3900205997
0.0000000000 0.5022140841 0.3878171969
0.0000000000 0.5023239490 0.3820553902
0.0000000000 0.5082505531 0.3757137407
0.0000000000 0.5249805447 0.3695857176
0.0000000000 0.5527214466 0.3642816815
0.0000000000 0.5953612573 0.3548455024
0.0160402838 0.6379827573 0.3354665446
0.3999450675 0.6844007019 0.2953231098
0.5925169757 0.7112199588 0.2388342107
0.7290974289 0.7231403067 0.1657190814
0.8407934691 0.7273701076 0.0355718318
0.9054917220 0.7248065919 0.0000000000
0.9464774548 0.7169024186 0.0000000000
0.9668940261 0.7064957656 0.0000000000
0.9753109026 0.6938918135 0.0000000000
0.0000000000 0.5144518196 0.3729854276
0.0000000000 0.5181261921 0.3717402914
0.0000000000 0.5250537881 0.3694575418
0.0000000000 0.5368886854 0.3669550622
0.0000000000 0.5597344930 0.3653192950
0.0000000000 0.5889951934 0.3625665675
0.0000000000 0.6233646143 0.3541557946
0.0892286564 0.6614450294 0.3414480812
0.3928526741 0.7056839857 0.3200793469
0.5710933089 0.7411398489 0.2837506676
0.7167925536 0.7632837415 0.2246555276
0.8392248417 0.7739162280 0.1281452659
0.9079209583 0.7733180743 0.0000000000
0.9554314488 0.7713771267 0.0000000000
0.9805172808 0.7636560616 0.0000000000
0.9928160525 0.7561669337 0.0000000000
0.0000000000 0.5397085527 0.3665461204
0.0000000000 0.5442374304 0.3662287327
0.0000000000 0.5529839017 0.3656977188
0.0000000000 0.5675654231 0.3648859388
0.0000000000 0.5896726940 0.3623712520
0.0000000000 0.6154970626 0.3564934768
0.0045471885 0.6470038911 0.3464103151
0.2889204242 0.6855786984 0.3316823072
0.4494758526 0.7174273289 0.3117296101
0.6019836728 0.7492271305 0.2770305943
0.7274311437 0.7730067903 0.2289829862
0.8359533074 0.7908293278 0.1635950256
0.9091294728 0.8006561379 0.0409491112
0.9620294499 0.8020416571 0.0000000000
0.9878416114 0.7968474861 0.0000000000
0.9998168917 0.7886320287 0.0000000000
0.0000000000 0.5740962844 0.3644159609
0.0000000000 0.5789242390 0.3641657130
0.0000000000 0.5876890211 0.3626276036
0.0000000000 0.6007324331 0.3603875792
0.0000000000 0.6183413443 0.3557244221
0.0000000000 0.6405951019 0.3483268482
0.1865568017 0.6695140002 0.3378408484
0.3848630503 0.7039749752 0.3213977264
0.5243060960 0.7331074998 0.2964156558
0.6412054627 0.7569115740 0.2645120928
0.7441977569 0.7758083467 0.2210360876
0.8433020523 0.7920500496 0.1577355612
0.9051132982 0.8010101472 0.0554512856
0.9553337911 0.8076508736 0.0000000000
0.9878538186 0.8095429923 0.0000000000
1.0000000000 0.8081086442 0.0000000000
0.0000000000 0.6093202106 0.3583672847
0.0000000000 0.6134523537 0.3570122835
0.0000000000 0.6208438239 0.3549858854
0.0000000000 0.6329777981 0.3510856794
0.0000000000 0.6489021134 0.3459403372
0.1862821393 0.6691172656 0.3378469520
0.3438101778 0.6956923781 0.3265796902
0.4647592889 0.7206378271 0.3091477836
0.5803524834 0.7448386358 0.2831342031
0.6835217823 0.7652918288 0.2489845121
0.7645288777 0.7791348135 0.2103974975
0.8537758450 0.7937407492 0.1494651713
0.9072678721 0.8013153277 0.0499458305
0.9542534524 0.8075959411 0.0000000000
0.9834470130 0.8089814603 0.0000000000
0.9995727474 0.8096162356 0.0000000000
0.0072144656 0.0206790265 0.0439215686
0.0122865644 0.0196169986 0.0414068818
0.0245914397 0.0200381476 0.0398748760
0.0524055848 0.0221988251 0.0360967422
0.1126054780 0.0227054246 0.0335149157
0.1974578470 0.0149782559 0.0262394141
0.2864057374 0.0000000000 0.0147096971
0.3624505989 0.0000000000 0.0071900511
0.4350652323 0.0000000000 0.0001220722
0.5075638972 0.0000000000 0.0000000000
0.5619562066 0.0000000000 0.0000000000
0.6040405890 0.0000000000 0.0000000000
0.6247684443 0.0000000000 0.0000000000
0.6348027771 0.0000000000 0.0000000000
0.6398199435 0.0000000000 0.0000000000
0.6428229191 0.0000000000 0.0000000000
0.0023010605 0.0291447318 0.0552254520
0.0091615167 0.0264652476 0.0500190738
0.0254276341 0.0242374304 0.0418219272
0.0638498512 0.0277653162 0.0370061799
0.1281391623 0.0271244373 0.0313115129
0.2103791867 0.0204043641 0.0234744793
0.2888044556 0.0001770047 0.0137636378
0.3621454185 0.0000000000 0.0053223468
0.4357793545 0.0000000000 0.0000000000
0.5094132906 0.0000000000 0.0000000000
0.5621454185 0.0000000000 0.0000000000
0.6040100710 0.0000000000 0.0000000000
0.6248722057 0.0000000000 0.0000000000
0.6348332952 0.0000000000 0.0000000000
0.6397833219 0.0000000000 0.0000000000
0.6486518654 0.0000000000 0.0000000000
0.0000000000 0.0521614405 0.0673350118
0.0013488975 0.0488532845 0.0594247349
0.0209658961 0.0465583276 0.0500556954
0.0696543832 0.0484199283 0.0431586175
0.1330891890 0.0513679713 0.0357976654
0.2143526360 0.0472297246 0.0277347982
0.2931258106 0.0308415351 0.0170473793
0.3635553521 0.0047547112 0.0067322805
0.4432379644 0.0000000000 0.0000000000
0.5126909285 0.0000000000 0.0000000000
0.5655634394 0.0000000000 0.0000000000
0.6074219883 0.0000000000 0.0000000000
0.6267521172 0.0000000000 0.0000000000
0.6392828260 0.0000000000 0.0000000000
0.6477302205 0.0000000000 0.0000000000
0.6602853437 0.0000000000 0.0000000000
0.0000000000 0.0943495842 0.0926161593
0.0000000000 0.0882032502 0.0806164645
0.0051880674 0.0848828870 0.0692271305
0.0593087663 0.0849683375 0.0589669642
0.1300556954 0.0871168078 0.0482368200
0.2052399481 0.0856153201 0.0373785000
0.2936812390 0.0771923400 0.0229739834
0.3684260319 0.0609689479 0.0094239719
0.4534126802 0.0285709926 0.0000000000
0.5225940337 0.0000000000 0.0000000000
0.5848569467 0.0000000000 0.0000000000
0.6281559472 0.0000000000 0.0000000000
0.6496528573 0.0000000000 0.0000000000
0.6615609979 0.0000000000 0.0000000000
0.6658579385 0.0000000000 0.0000000000
0.6758373388 0.0000000000 0.0000000000
0.0000000000 0.1373128862 0.1152178225
0.0000000000 0.1289875639 0.1016189822
0.0000000000 0.1242084382 0.0892408637
0.0261112383 0.1220233463 0.0772472724
0.1062638285 0.1261676967 0.0635141527
0.1901640345 0.1279865721 0.0470283055
0.2846234836 0.1270588235 0.0297123674
0.3709346151 0.1194048981 0.0127748531
0.4643442435 0.1030838483 0.0000000000
0.5368581674 0.0781261921 0.0000000000
0.6098451209 0.0367071031 0.0000000000
0.6518379492 0.0006103609 0.0000000000
0.6785290303 0.0000000000 0.0000000000
0.6895887694 0.0000000000 0.0000000000
0.6904982071 0.0000000000 0.0000000000
0.6978652628 0.0000000000 0.0000000000
0.0000000000 0.1856656748 0.1524254215
0.0000000000 0.1780972000 0.1368368048
0.0000000000 0.1717067216 0.1188433661
0.0000000000 0.1671473259 0.1015518425
0.0656443122 0.1705348287 0.0842786297
0.1658777752 0.1738246738 0.0618478676
0.2666849775 0.1787624933 0.0429266804
0.3715327687 0.1789761196 0.0147524224
0.4701792935 0.1732021057 0.0000000000
0.5562371252 0.1612756542 0.0000000000
0.6343572137 0.1431174182 0.0000000000
0.6846021210 0.1236896315 0.0000000000
0.7141863127 0.0997085527 0.0000000000
0.7278095674 0.0806530861 0.0000000000
0.7294392309 0.0510200656 0.0000000000
0.7330464637 0.0563302052 0.0000000000
0.0000000000 0.2478553445 0.2021698329
0.0000000000 0.2439124132 0.1886564431
0.0000000000 0.2331883726 0.1702357519
0.0000000000 0.2291660945 0.1544823377
