LUTs/SPK Cube Block1 S16/TheBrim_SPK_Type-M_Block1_S16.cube
TITLE "TheBrim® SPK Block 1"
# © Copyright 2021 - TheBrim® d.o.o. Croatia
LUT_3D_SIZE 6
DOMAIN_MIN 0.000000 0.000000 0.000000
DOMAIN_MAX 1.000000 1.000000 1.000000
0.011200 0.001984 0.018219
0.058863 0.003363 0.018470
0.195383 0.004150 0.016327
0.422950 0.003912 0.016052
0.571704 0.008808 0.018347
0.637385 0.020722 0.027955
0.012598 0.057569 0.021302
0.058491 0.061158 0.027338
0.209201 0.070765 0.019513
0.455207 0.044569 0.019660
0.611414 0.045594 0.020813
0.676594 0.050007 0.029822
0.007446 0.187198 0.019556
0.040839 0.194687 0.030634
0.213101 0.229331 0.032428
0.517748 0.251560 0.025397
0.692592 0.237925 0.025715
0.757418 0.223819 0.026899
0.007446 0.364099 0.022181
0.040827 0.378705 0.030060
0.159774 0.439808 0.043439
0.529711 0.518630 0.042658
0.788266 0.527581 0.032892
0.863536 0.520592 0.032972
0.007446 0.467359 0.028595
0.040845 0.485029 0.032282
0.082551 0.560052 0.045130
0.483766 0.663923 0.057954
0.793143 0.716829 0.052363
0.914507 0.718099 0.040027
0.017060 0.510369 0.039185
0.045325 0.531328 0.040845
0.077095 0.600354 0.046943
0.480763 0.706734 0.060279
0.734322 0.772195 0.071186
0.913512 0.777035 0.050446
0.010407 0.002869 0.077864
0.057978 0.004157 0.074293
0.200638 0.004450 0.069587
0.440888 0.003436 0.051667
0.593005 0.006128 0.050916
0.653394 0.016925 0.053132
0.007446 0.065876 0.093800
0.059779 0.065614 0.086757
0.221616 0.074647 0.077638
0.473207 0.043671 0.053455
0.627002 0.044434 0.053474
0.686500 0.046949 0.055018
0.007446 0.208634 0.110213
0.045600 0.209799 0.104714
0.230576 0.243821 0.106838
0.539904 0.258396 0.057063
0.710549 0.240671 0.057099
0.771078 0.224802 0.057234
0.007446 0.394220 0.097591
0.044672 0.405017 0.083143
0.165457 0.469825 0.090919
0.553118 0.544427 0.068153
0.804990 0.542473 0.061921
0.877269 0.532488 0.061787
0.007446 0.496217 0.077931
0.042927 0.512956 0.059321
0.081520 0.596149 0.065333
0.500636 0.698451 0.077333
0.808652 0.746279 0.076417
0.925542 0.735775 0.066767
0.008215 0.537121 0.102577
0.044092 0.556561 0.087532
0.079683 0.637226 0.066255
0.498366 0.741665 0.078627
0.749264 0.803476 0.106905
0.923546 0.802957 0.076631
0.010297 0.001080 0.214627
0.056361 0.001672 0.217075
0.202872 0.002484 0.218943
0.452210 0.004028 0.206375
0.610315 0.006250 0.180417
0.672505 0.009168 0.156558
0.007446 0.074104 0.259007
0.045686 0.072828 0.250663
0.222470 0.078987 0.248777
0.486598 0.043928 0.233487
0.646656 0.044623 0.208267
0.705257 0.045374 0.189364
0.007446 0.242905 0.305815
0.045173 0.243418 0.298570
0.241581 0.267247 0.294646
0.557678 0.278154 0.271098
0.731136 0.256931 0.239652
0.791116 0.238743 0.217960
0.007446 0.445582 0.335058
0.043757 0.456623 0.329955
0.141231 0.515554 0.322484
0.580352 0.582171 0.332958
0.816214 0.577893 0.261558
0.888988 0.565295 0.228507
0.007446 0.549230 0.340130
0.041321 0.565930 0.339196
0.085298 0.652979 0.320488
0.542596 0.744424 0.364031
0.813559 0.787369 0.347350
0.927611 0.780319 0.212930
0.007446 0.586218 0.340844
0.041321 0.604901 0.355944
0.085225 0.696333 0.325603
0.542083 0.790842 0.364807
0.775845 0.840867 0.427057
0.919536 0.848991 0.336510
0.015888 0.002515 0.336718
0.059376 0.003192 0.356255
0.202823 0.003705 0.378906
0.454420 0.005097 0.388598
0.617023 0.007306 0.372900
0.681801 0.009717 0.352129
0.007446 0.063655 0.408808
0.042628 0.060749 0.410932
0.220352 0.053358 0.431611
0.491987 0.044288 0.438428
0.656178 0.044959 0.423621
0.716457 0.045734 0.407526
0.007446 0.263041 0.480470
0.042011 0.265721 0.484431
0.211496 0.288060 0.508156
0.557043 0.298796 0.515276
0.737856 0.277659 0.498408
0.800278 0.259635 0.480934
0.007446 0.478193 0.529320
0.040436 0.490993 0.535845
0.085664 0.554888 0.560821
0.599036 0.608411 0.569378
0.816538 0.606879 0.549084
0.888103 0.594073 0.530352
0.007446 0.582586 0.541241
0.037702 0.597650 0.550091
0.084944 0.692256 0.574127
0.589502 0.782571 0.586163
0.819498 0.816312 0.596149
0.917736 0.817392 0.566265
0.007446 0.619178 0.542449
0.039423 0.635242 0.559216
0.085225 0.734926 0.579382
0.587262 0.832566 0.590478
0.806247 0.868779 0.621497
0.911241 0.880278 0.617688
0.021332 0.004370 0.417572
0.057789 0.005408 0.441285
0.197836 0.005341 0.474775
0.450831 0.006775 0.497371
0.617865 0.008716 0.496291
0.685420 0.010877 0.487623
0.007446 0.052784 0.500316
0.037525 0.051801 0.507524
0.213986 0.044532 0.539409
0.492604 0.044782 0.559484
0.660273 0.045362 0.556109
0.722402 0.046314 0.548772
0.007446 0.273387 0.582885
0.036878 0.279734 0.591620
0.166775 0.299388 0.630378
0.554064 0.309917 0.654108
0.740438 0.287449 0.650733
0.804648 0.268284 0.642054
0.007446 0.493080 0.639527
0.034961 0.506178 0.648750
0.083809 0.573407 0.693495
0.585370 0.630658 0.721358
0.811307 0.631537 0.720027
0.885057 0.619019 0.712264
0.007446 0.596374 0.654310
0.031238 0.606726 0.662733
0.083046 0.704897 0.709541
0.574115 0.800235 0.740090
0.828788 0.829502 0.741848
0.912547 0.832883 0.736458
0.007446 0.632471 0.655903
0.037501 0.645765 0.667384
0.084425 0.747909 0.713204
0.576001 0.849754 0.743587
0.829593 0.883635 0.748281
0.910039 0.892882 0.759750
0.023194 0.006683 0.462867
0.046479 0.008167 0.479628
0.185830 0.007379 0.519042
0.440009 0.008588 0.549834
0.615180 0.010388 0.554058
0.688441 0.019562 0.555596
0.007446 0.052247 0.541820
0.030921 0.059962 0.548302
0.202933 0.045368 0.586126
0.488991 0.045417 0.613300
0.661042 0.045960 0.613758
0.731850 0.051398 0.619989
0.007446 0.279026 0.626319
0.031403 0.291136 0.632874
0.118849 0.307384 0.680165
0.549010 0.320195 0.712392
0.740706 0.297697 0.713167
0.807950 0.281401 0.708186
0.007446 0.498970 0.683888
0.031360 0.511626 0.688875
0.082625 0.580536 0.744808
0.575494 0.643018 0.781985
0.807590 0.647242 0.786081
0.884166 0.637848 0.781790
0.007446 0.600110 0.698531
0.033295 0.610834 0.703401
0.083693 0.711391 0.762399
0.571978 0.806674 0.800760
0.825821 0.836674 0.807034
0.908061 0.842026 0.804013
0.007446 0.635004 0.699947
0.047803 0.660352 0.714913
0.088344 0.762887 0.769479
0.604736 0.858933 0.803903
0.843076 0.889525 0.808591
0.913725 0.896391 0.807614
