LUTs/SPK Cube Block1 S16/TheBrim_SPK_Type-W_Block1_S16.cube
TITLE "TheBrim® Industrial Imaging Burau"
# © Copyright 2022 - TheBrim® d.o.o. Croatia
LUT_3D_SIZE 6
DOMAIN_MIN 0.000000 0.000000 0.000000
DOMAIN_MAX 1.000000 1.000000 1.000000
0.038086 0.065277 0.119720
0.065698 0.065704 0.118683
0.310895 0.063171 0.118164
0.536658 0.063171 0.118164
0.579108 0.063171 0.118164
0.592194 0.063171 0.118164
0.036145 0.094635 0.119525
0.067773 0.090948 0.118378
0.266015 0.092157 0.118164
0.567456 0.066968 0.118164
0.642859 0.063171 0.118164
0.650287 0.063171 0.118164
0.036133 0.263251 0.118164
0.074945 0.245984 0.118164
0.335187 0.254279 0.118164
0.645752 0.238574 0.118164
0.738367 0.196668 0.118164
0.745691 0.167298 0.118164
0.036133 0.401355 0.118164
0.077844 0.483380 0.118164
0.440899 0.554846 0.118164
0.724066 0.576849 0.118164
0.853632 0.563104 0.118164
0.873529 0.519446 0.118164
0.036133 0.453266 0.118164
0.120184 0.562164 0.118164
0.508002 0.635779 0.118164
0.765582 0.684094 0.118164
0.907788 0.698432 0.118164
0.945942 0.690033 0.118164
0.036133 0.453674 0.118164
0.130695 0.570203 0.118164
0.499866 0.647400 0.118164
0.746851 0.707886 0.118164
0.909765 0.739331 0.118164
0.961090 0.737518 0.118164
0.036133 0.064997 0.168518
0.063947 0.066309 0.147992
0.338861 0.063171 0.135639
0.577582 0.063171 0.119806
0.605212 0.063171 0.118164
0.611536 0.063171 0.118164
0.036133 0.102222 0.163611
0.059235 0.093097 0.144445
0.242731 0.094507 0.136322
0.573792 0.069598 0.120953
0.665515 0.063171 0.118164
0.672565 0.063171 0.118164
0.036133 0.296820 0.174475
0.048419 0.228015 0.151153
0.303204 0.255505 0.137738
0.634943 0.241571 0.119501
0.750360 0.201868 0.118164
0.766803 0.175958 0.118164
0.036133 0.468335 0.180444
0.036133 0.526978 0.154242
0.388635 0.573944 0.121802
0.708496 0.590784 0.118164
0.857672 0.574304 0.118164
0.887940 0.539978 0.118164
0.036133 0.540765 0.202545
0.044256 0.622351 0.196509
0.470318 0.680511 0.162036
0.752490 0.721100 0.120251
0.906048 0.730103 0.118164
0.951398 0.716156 0.118164
0.036133 0.544598 0.184930
0.061316 0.634900 0.191516
0.472974 0.699835 0.210382
0.737884 0.753839 0.224823
0.904169 0.778399 0.198566
0.959113 0.774493 0.129046
0.036133 0.063171 0.311596
0.059699 0.063171 0.328101
0.311828 0.063171 0.324030
0.597900 0.063171 0.259967
0.630646 0.063171 0.181158
0.637366 0.063171 0.149048
0.036133 0.108868 0.365277
0.042383 0.099939 0.287579
0.233032 0.101489 0.272827
0.583093 0.076642 0.245019
0.685681 0.063556 0.196582
0.695801 0.063171 0.167908
0.036133 0.329620 0.410071
0.036133 0.271826 0.327655
0.272815 0.292187 0.317169
0.634058 0.278021 0.285309
0.763983 0.236560 0.237421
0.787427 0.208338 0.183881
0.036133 0.522376 0.423981
0.036133 0.564770 0.372607
0.316089 0.611078 0.357184
0.695612 0.629529 0.320941
0.855249 0.612103 0.268140
0.894922 0.579974 0.181879
0.036133 0.588470 0.441064
0.036133 0.664911 0.442175
0.406616 0.718848 0.429517
0.733661 0.760254 0.386597
0.893170 0.768103 0.320050
0.946063 0.750390 0.214508
0.036133 0.613037 0.426990
0.043689 0.690302 0.466199
0.474023 0.746112 0.494977
0.743555 0.791986 0.500952
0.895428 0.811347 0.473132
0.949609 0.806055 0.373828
0.036133 0.063171 0.380835
0.052685 0.063171 0.411658
0.207318 0.063171 0.460211
0.566883 0.063171 0.458728
0.646484 0.063171 0.395782
0.655939 0.063171 0.324878
0.036133 0.111181 0.484649
0.036133 0.102948 0.486127
0.213727 0.102027 0.502857
0.577649 0.079425 0.490216
0.698541 0.063763 0.455408
0.713660 0.063171 0.405652
0.036133 0.332440 0.560901
0.036133 0.303497 0.547199
0.238629 0.326452 0.556836
0.629303 0.315478 0.549975
0.769800 0.275110 0.527032
0.798712 0.251819 0.485889
0.036133 0.545789 0.588586
0.036133 0.593420 0.588715
0.236541 0.636762 0.595587
0.677972 0.656909 0.590942
0.845239 0.643030 0.573358
0.889649 0.621228 0.527039
0.036133 0.611322 0.598834
0.036133 0.685944 0.614880
0.334466 0.745050 0.620996
0.712799 0.788415 0.613476
0.875421 0.798438 0.595752
0.929987 0.787421 0.557587
0.036133 0.653198 0.601562
0.036133 0.722479 0.625384
0.465412 0.774694 0.642823
0.743664 0.818316 0.649860
0.883734 0.836762 0.641022
0.934412 0.836053 0.605921
0.036133 0.063171 0.403320
0.050226 0.063171 0.441070
0.151831 0.063171 0.489606
0.507117 0.063171 0.515820
0.653766 0.063171 0.507300
0.665521 0.063171 0.486694
0.036133 0.109558 0.509491
0.036133 0.115307 0.542541
0.185492 0.116992 0.575879
0.565399 0.095239 0.592859
0.706915 0.065790 0.588696
0.726367 0.063348 0.571112
0.036133 0.313873 0.591901
0.036133 0.337103 0.618774
0.194537 0.369354 0.643482
0.620392 0.365491 0.653528
0.774957 0.320264 0.647669
0.806860 0.289258 0.635205
0.036133 0.547400 0.632678
0.036133 0.605200 0.662085
0.163342 0.651691 0.684393
0.662567 0.675763 0.694574
0.839111 0.667731 0.690875
0.885755 0.651330 0.678931
0.036133 0.616650 0.649713
0.036133 0.693848 0.680926
0.270532 0.754260 0.698425
0.697571 0.799994 0.705334
0.864093 0.814374 0.704236
0.917865 0.808942 0.693604
0.036133 0.667908 0.669568
0.036133 0.734839 0.694281
0.462781 0.788452 0.710889
0.739850 0.829974 0.717664
0.875452 0.848468 0.715069
0.924274 0.852338 0.705463
0.036133 0.063171 0.410492
0.056073 0.063171 0.450690
0.144470 0.063171 0.497181
0.456671 0.063171 0.524725
0.641870 0.063171 0.524957
0.660889 0.063171 0.502838
0.036133 0.102258 0.514789
0.036206 0.111578 0.553015
0.187970 0.121936 0.586938
0.537988 0.112610 0.605792
0.702966 0.071087 0.606689
0.724658 0.063171 0.593384
0.036133 0.281769 0.595392
0.036133 0.333996 0.628735
0.191382 0.389295 0.656555
0.608380 0.400055 0.672302
0.775653 0.360529 0.672839
0.808636 0.298364 0.664764
0.036133 0.542011 0.643524
0.036133 0.606781 0.677722
0.128076 0.658490 0.704193
0.647651 0.687543 0.720160
0.836853 0.686487 0.723938
0.884406 0.660003 0.719788
0.036133 0.625012 0.666754
0.036133 0.693457 0.699530
0.205249 0.754700 0.722754
0.683416 0.803455 0.737323
0.858362 0.821856 0.741895
0.913440 0.817187 0.741211
0.036133 0.660736 0.682068
0.036133 0.729071 0.711731
0.426355 0.789019 0.731140
0.730036 0.832776 0.742175
0.871075 0.853040 0.745899
0.919952 0.858521 0.746124
