LUTs/SPK Cube Block1 S16/TheBrim_SPK_Type-J_Block 1_S16.cube
TITLE "TheBrim® Industrial Imaging Burau"
# © Copyright 2022 - TheBrim® d.o.o. Croatia
LUT_3D_SIZE 16
0.0000000000 0.0000000000 0.0000000000
0.0132936599 0.0000000000 0.0000000000
0.1059220264 0.0000000000 0.0000000000
0.1985503929 0.0000000000 0.0000000000
0.2911604486 0.0000000000 0.0000000000
0.3837949187 0.0000000000 0.0000000000
0.4763744564 0.0000000000 0.0000305180
0.5689631495 0.0000000000 0.0000305180
0.6615609979 0.0000000000 0.0000305180
0.7541283284 0.0000000000 0.0000305180
0.8467078660 0.0000000000 0.0000610361
0.9392874037 0.0000000000 0.0000610361
1.0000000000 0.0000000000 0.0000915541
1.0000000000 0.0000000000 0.0000915541
1.0000000000 0.0000000000 0.0000915541
1.0000000000 0.0000000000 0.0000915541
0.0000000000 0.0133363851 0.0015014878
0.0129152361 0.0133302815 0.0010986496
0.1059342336 0.0132936599 0.0000000000
0.1985626001 0.0132875563 0.0000000000
0.2911665522 0.0132875563 0.0000000000
0.3837949187 0.0132570382 0.0000000000
0.4763988708 0.0132509346 0.0000305180
0.5689631495 0.0132448310 0.0000305180
0.6615548943 0.0132448310 0.0000305180
0.7541283284 0.0132448310 0.0000305180
0.8467078660 0.0132387274 0.0000610361
0.9392874037 0.0132021057 0.0000610361
1.0000000000 0.0132021057 0.0000915541
1.0000000000 0.0132021057 0.0000915541
1.0000000000 0.0132021057 0.0000915541
1.0000000000 0.0132021057 0.0000915541
0.0000000000 0.1060990311 0.0110109102
0.0121156634 0.1061600671 0.0104737926
0.1036026551 0.1060685130 0.0081849393
0.1980071717 0.1058609903 0.0048401617
0.2909712367 0.1058243687 0.0022583352
0.3836667430 0.1058609903 0.0009216449
0.4762890059 0.1058793011 0.0002929732
0.5688899062 0.1058731975 0.0000305180
0.6614877546 0.1058609903 0.0000305180
0.7540978103 0.1058487831 0.0000305180
0.8466773480 0.1058426795 0.0000610361
0.9392874037 0.1058121614 0.0000610361
1.0000000000 0.1057999542 0.0000915541
1.0000000000 0.1057999542 0.0000915541
1.0000000000 0.1057999542 0.0000915541
1.0000000000 0.1057999542 0.0000915541
0.0000000000 0.1989166094 0.0217105364
0.0115968566 0.1990142672 0.0207034409
0.0980300603 0.1989959564 0.0177187762
0.1949492638 0.1988677806 0.0145021744
0.2897993439 0.1985748074 0.0112062257
0.3831296254 0.1984710460 0.0088197147
0.4759838254 0.1984405280 0.0068543526
0.5686945907 0.1984283207 0.0051514458
0.6613595789 0.1984527352 0.0034180209
0.7540184634 0.1984588388 0.0015808347
0.8466285191 0.1985015640 0.0004089418
0.9392263676 0.1984893568 0.0000610361
1.0000000000 0.1984710460 0.0000915541
1.0000000000 0.1984710460 0.0000915541
1.0000000000 0.1984710460 0.0000915541
1.0000000000 0.1984710460 0.0000915541
0.0000000000 0.2916731518 0.0310551614
0.0112550546 0.2917524987 0.0298222324
0.0973281453 0.2918257420 0.0265812161
0.1847989624 0.2917097734 0.0238590066
0.2862226291 0.2915815976 0.0206546120
0.3814084077 0.2912703136 0.0176577401
0.4750377661 0.2911482414 0.0149843595
0.5681269551 0.2910933089 0.0127138170
0.6610177768 0.2910627909 0.0107423514
0.7537438010 0.2910383764 0.0090760662
0.8464454108 0.2910383764 0.0074219883
0.9390920882 0.2910444800 0.0056275273
0.9999450675 0.2910688945 0.0042420081
0.9999450675 0.2910688945 0.0042420081
0.9999450675 0.2910688945 0.0042420081
0.9999450675 0.2910688945 0.0042420081
0.0000000000 0.3844052796 0.0404058900
0.0112245365 0.3844846265 0.0391729610
0.0967788205 0.3845761807 0.0354619669
0.1838895247 0.3844480049 0.0331670100
0.2737041276 0.3843503471 0.0303044175
0.3774776837 0.3842221714 0.0271000229
0.4728770886 0.3839963378 0.0240360113
0.5668024720 0.3838437476 0.0212710765
0.6601388571 0.3837644007 0.0188174258
0.7531944762 0.3837094682 0.0166933700
0.8460364691 0.3837033646 0.0147707332
0.9387808042 0.3836728466 0.0130434119
0.9996948196 0.3836423285 0.0119020371
0.9996948196 0.3836423285 0.0119020371
0.9996948196 0.3836423285 0.0119020371
0.9996948196 0.3836423285 0.0119020371
0.0000000000 0.4771374075 0.0497383078
0.0112184329 0.4771801328 0.0486701762
0.0962417029 0.4772838941 0.0446784161
0.1835599298 0.4772106508 0.0427496757
0.2701701381 0.4770885786 0.0400335698
0.3670405127 0.4769848173 0.0367376211
0.4686778058 0.4768871595 0.0334294652
0.5642755779 0.4766369116 0.0304325933
0.6584908827 0.4764965286 0.0276066224
0.7520347906 0.4764049744 0.0250125887
0.8452491035 0.4763439384 0.0227054246
0.9381948577 0.4762829023 0.0206118868
0.9992004273 0.4762767987 0.0193789578
0.9992004273 0.4762767987 0.0193789578
0.9992004273 0.4762767987 0.0193789578
0.9992004273 0.4762767987 0.0193789578
0.0000000000 0.5698603799 0.0591134508
0.0112123293 0.5698970016 0.0581490806
0.0956435492 0.5700007630 0.0538338293
0.1832303349 0.5699153124 0.0522285801
0.2699320974 0.5698176547 0.0498603799
0.3563469902 0.5697199969 0.0468085756
0.4598214694 0.5695857176 0.0434882124
0.5598870832 0.5694941634 0.0401800565
0.6556527047 0.5692744335 0.0368535897
0.7500816358 0.5691462577 0.0338750286
0.8438208591 0.5690486000 0.0312382696
0.9371511406 0.5689753567 0.0288334478
0.9983337148 0.5689143206 0.0273563745
0.9983337148 0.5689143206 0.0273563745
0.9983337148 0.5689143206 0.0273563745
0.9983337148 0.5689143206 0.0273563745
0.0000000000 0.6626047150 0.0683176928
0.0112123293 0.6626352331 0.0675059129
0.0950026703 0.6627267872 0.0629770352
0.1828702220 0.6626596475 0.0616281376
0.2696757458 0.6625619898 0.0595040818
0.3561394675 0.6624643320 0.0567452506
0.4427008469 0.6623666743 0.0536018921
0.5517204547 0.6622507057 0.0503303578
0.6511055161 0.6621286336 0.0469672694
0.7470054170 0.6619455253 0.0436224918
0.8415930419 0.6618112459 0.0405706874
0.9355092699 0.6617074846 0.0376226444
0.9969542992 0.6616708629 0.0358770123
0.9969542992 0.6616708629 0.0358770123
0.9969542992 0.6616708629 0.0358770123
0.9969542992 0.6616708629 0.0358770123
0.0000000000 0.7553429465 0.0706187533
0.0112123293 0.7553490501 0.0698802167
0.0947768368 0.7554161898 0.0657358663
0.1826626993 0.7553734646 0.0657358663
0.2694926375 0.7553124285 0.0657358663
0.3559685664 0.7552208743 0.0654856184
0.4422674907 0.7551171130 0.0635568780
0.5313527123 0.7550194553 0.0605050736
0.6433844511 0.7549156939 0.0570992599
0.7423239490 0.7547997253 0.0536873426
0.8382848859 0.7546349279 0.0504341192
0.9330678264 0.7544762341 0.0473090715
0.9949217975 0.7544213016 0.0452948806
0.9949217975 0.7544213016 0.0452948806
0.9949217975 0.7544213016 0.0452948806
0.9949217975 0.7544213016 0.0452948806
0.0000000000 0.8480811780 0.0706187533
0.0112062257 0.8480872816 0.0698558022
0.0947463188 0.8481300069 0.0657358663
0.1826321813 0.8480811780 0.0657358663
0.2694316014 0.8480201419 0.0657358663
0.3559014267 0.8479285878 0.0657358663
0.4421881437 0.8478370336 0.0657358663
0.5283741512 0.8477332723 0.0657358663
0.6267154955 0.8476356146 0.0657358663
0.7349324788 0.8475379568 0.0638254368
0.8335240711 0.8474402991 0.0606088350
0.9296131838 0.8472571908 0.0572213321
0.9920347906 0.8471656367 0.0550545510
0.9920347906 0.8471656367 0.0550545510
0.9920347906 0.8471656367 0.0550545510
0.9920347906 0.8471656367 0.0550545510
0.0000000000 0.9408194095 0.0706187533
0.0112062257 0.9408194095 0.0698558022
0.0947158007 0.9408133059 0.0657053483
0.1826016632 0.9407827878 0.0657053483
0.2694010834 0.9407278553 0.0657053483
0.3558403906 0.9406607156 0.0657053483
0.4421271077 0.9405691615 0.0657053483
0.5283131151 0.9404654002 0.0657053483
0.6144960708 0.9403677424 0.0657053483
0.7208026246 0.9402639811 0.0657053483
0.8263401236 0.9401480125 0.0657053483
0.9247302968 0.9400503548 0.0656565194
0.9880247196 0.9399465934 0.0648020142
0.9880247196 0.9399465934 0.0648020142
0.9880247196 0.9399465934 0.0648020142
0.9880247196 0.9399465934 0.0648020142
0.0000000000 1.0000000000 0.0706187533
0.0112062257 1.0000000000 0.0698496986
0.0947158007 1.0000000000 0.0657053483
0.1825894560 1.0000000000 0.0657053483
0.2693766690 1.0000000000 0.0657053483
0.3558098726 1.0000000000 0.0657053483
0.4420965896 1.0000000000 0.0657053483
0.5282825971 1.0000000000 0.0657053483
0.6144533455 1.0000000000 0.0657053483
0.7037491417 1.0000000000 0.0657053483
0.8195468070 1.0000000000 0.0657053483
0.9204028382 1.0000000000 0.0657053483
0.9846494240 1.0000000000 0.0657053483
0.9846494240 1.0000000000 0.0657053483
0.9846494240 1.0000000000 0.0657053483
0.9846494240 1.0000000000 0.0657053483
0.0000000000 1.0000000000 0.0706187533
0.0112062257 1.0000000000 0.0698496986
0.0947158007 1.0000000000 0.0657053483
0.1825894560 1.0000000000 0.0657053483
0.2693766690 1.0000000000 0.0657053483
0.3558098726 1.0000000000 0.0657053483
0.4420965896 1.0000000000 0.0657053483
0.5282825971 1.0000000000 0.0657053483
0.6144533455 1.0000000000 0.0657053483
0.7037491417 1.0000000000 0.0657053483
0.8195468070 1.0000000000 0.0657053483
0.9204028382 1.0000000000 0.0657053483
0.9846494240 1.0000000000 0.0657053483
0.9846494240 1.0000000000 0.0657053483
0.9846494240 1.0000000000 0.0657053483
0.9846494240 1.0000000000 0.0657053483
0.0000000000 1.0000000000 0.0706187533
0.0112062257 1.0000000000 0.0698496986
0.0947158007 1.0000000000 0.0657053483
0.1825894560 1.0000000000 0.0657053483
0.2693766690 1.0000000000 0.0657053483
0.3558098726 1.0000000000 0.0657053483
0.4420965896 1.0000000000 0.0657053483
0.5282825971 1.0000000000 0.0657053483
0.6144533455 1.0000000000 0.0657053483
0.7037491417 1.0000000000 0.0657053483
0.8195468070 1.0000000000 0.0657053483
0.9204028382 1.0000000000 0.0657053483
0.9846494240 1.0000000000 0.0657053483
0.9846494240 1.0000000000 0.0657053483
0.9846494240 1.0000000000 0.0657053483
0.9846494240 1.0000000000 0.0657053483
0.0000000000 1.0000000000 0.0706187533
0.0112062257 1.0000000000 0.0698496986
0.0947158007 1.0000000000 0.0657053483
0.1825894560 1.0000000000 0.0657053483
0.2693766690 1.0000000000 0.0657053483
0.3558098726 1.0000000000 0.0657053483
0.4420965896 1.0000000000 0.0657053483
0.5282825971 1.0000000000 0.0657053483
0.6144533455 1.0000000000 0.0657053483
0.7037491417 1.0000000000 0.0657053483
0.8195468070 1.0000000000 0.0657053483
0.9204028382 1.0000000000 0.0657053483
0.9846494240 1.0000000000 0.0657053483
0.9846494240 1.0000000000 0.0657053483
0.9846494240 1.0000000000 0.0657053483
0.9846494240 1.0000000000 0.0657053483
0.0002197299 0.0000000000 0.0082764935
0.0091798276 0.0000000000 0.0083314260
0.0978591592 0.0000000000 0.0085206378
0.1873258564 0.0000000000 0.0088441291
0.2773174640 0.0000000000 0.0091309987
0.3681025406 0.0000000000 0.0094239719
0.4592416266 0.0000000000 0.0096864271
0.5512016480 0.0000000000 0.0099794003
0.6436835279 0.0000000000 0.0102662699
0.7367025254 0.0000000000 0.0105592432
0.8304722667 0.0000000000 0.0108461128
0.9247058824 0.0000000000 0.0111329824
1.0000000000 0.0000000000 0.0114137484
1.0000000000 0.0000000000 0.0117006180
1.0000000000 0.0000000000 0.0119874876
1.0000000000 0.0000000000 0.0122926680
0.0000000000 0.0089478904 0.0092103456
0.0089417868 0.0089417868 0.0089417868
0.1006424048 0.0077027543 0.0071595331
0.1922758831 0.0065125505 0.0060303655
0.2841657130 0.0057068742 0.0052857252
0.3761287861 0.0051392386 0.0047608148
0.4684031434 0.0048279545 0.0044800488
0.5607965209 0.0046631571 0.0043213550
0.6533577478 0.0046570535 0.0043152514
0.7461570153 0.0048279545 0.0044800488
0.8390539406 0.0051209277 0.0047486076
0.9322011139 0.0056214237 0.0052491035
1.0000000000 0.0062928206 0.0058594644
1.0000000000 0.0071351186 0.0066407263
1.0000000000 0.0081483177 0.0075867857
1.0000000000 0.0093080034 0.0086793317
0.0000000000 0.0979385061 0.0184817273
0.0061646448 0.0996475166 0.0161196307
0.0962539101 0.0984939345 0.0127321279
0.1896269169 0.0972976272 0.0082948043
0.2817730983 0.0964614328 0.0050965133
0.3739253834 0.0959304189 0.0037354086
0.4661448081 0.0955336843 0.0032959487
0.5585442893 0.0953688869 0.0031494621
0.6511238270 0.0953505760 0.0031494621
0.7438864729 0.0955031662 0.0031921874
0.8368932631 0.0958815900 0.0032898451
0.9300282292 0.0964187076 0.0034912642
1.0000000000 0.0971084154 0.0040405890
1.0000000000 0.0979934386 0.0048401617
1.0000000000 0.0990371557 0.0057495995
1.0000000000 0.1002456703 0.0068421454
0.0000000000 0.1877409018 0.0293766690
0.0043091478 0.1905912871 0.0250431067
0.0892103456 0.1896025025 0.0205752651
0.1848355840 0.1885343709 0.0170778973
0.2788799878 0.1874967575 0.0135133898
0.3715999084 0.1867948425 0.0109925994
0.4640878920 0.1863920043 0.0089417868
0.5565728237 0.1862211032 0.0072083619
0.6492133974 0.1862455177 0.0054688334
0.7420798047 0.1864347295 0.0038574807
0.8350316625 0.1868192569 0.0031006332
0.9282093538 0.1873624781 0.0030823224
1.0000000000 0.1881010147 0.0032593271
1.0000000000 0.1889860380 0.0034363317
1.0000000000 0.1900541695 0.0042236973
1.0000000000 0.1913420310 0.0053223468
0.0000000000 0.2779156176 0.0387579156
0.0032593271 0.2819439994 0.0333196002
0.0870069429 0.2809552148 0.0288761730
0.1738612955 0.2799359121 0.0259281300
0.2739482719 0.2790753033 0.0225284199
0.3685358968 0.2782085908 0.0193728542
0.4617807279 0.2777080949 0.0166628519
0.5546196689 0.2774456397 0.0143678950
0.6474799725 0.2774212253 0.0124696727
0.7403830014 0.2775982300 0.0108583200
0.8334386206 0.2779461357 0.0092652781
0.9266346227 0.2785442893 0.0075989929
0.9999511711 0.2792706188 0.0060364691
0.9999511711 0.2801800565 0.0063050278
0.9999511711 0.2813092241 0.0066224155
0.9999511711 0.2825360494 0.0075135424
0.0000000000 0.3688899062 0.0482307164
0.0030334936 0.3735591669 0.0423590448
0.0854139010 0.3726436255 0.0375188830
0.1718654154 0.3716731518 0.0350041962
0.2600259403 0.3707881285 0.0319584955
0.3636041810 0.3701472496 0.0285709926
0.4585763333 0.3694758526 0.0253788052
0.5522880903 0.3691462577 0.0226138705
0.6455817502 0.3690608072 0.0201968414
0.7387777523 0.3692072938 0.0181277180
0.8319676509 0.3695551995 0.0163576715
0.9252979324 0.3700679026 0.0147646296
0.9997314412 0.3707942321 0.0135744259
0.9997314412 0.3717036698 0.0138246738
0.9997314412 0.3728145266 0.0141298543
0.9997314412 0.3741023880 0.0144777600
0.0000000000 0.4602548257 0.0577767605
0.0028870069 0.4655710689 0.0515632868
0.0841443503 0.4646372168 0.0464301518
0.1708216983 0.4636362249 0.0443366140
0.2568154421 0.4627939269 0.0414373999
0.3523430228 0.4621225299 0.0380926223
0.4537422751 0.4616891737 0.0346318761
0.5490959030 0.4612436103 0.0316105898
0.6432379644 0.4610788128 0.0287541009
0.7369771878 0.4611886778 0.0262088960
0.8304783703 0.4615182727 0.0239871824
0.9239978637 0.4619699397 0.0221011673
0.9992736706 0.4626901656 0.0207888914
0.9992736706 0.4636179141 0.0210452430
0.9992736706 0.4647165637 0.0213504234
0.9992736706 0.4659983215 0.0216922255
0.0000000000 0.5523613336 0.0673105974
0.0028259709 0.5579644465 0.0607858396
0.0831616693 0.5569817655 0.0554818036
0.1701503014 0.5560357061 0.0537239643
0.2562111849 0.5551689937 0.0512153811
0.3421805142 0.5545342184 0.0479987793
0.4443305104 0.5540337224 0.0446478981
0.5443839170 0.5537407492 0.0412115663
0.6401434348 0.5535332265 0.0379888609
0.7347127489 0.5535698482 0.0350347143
0.8287754635 0.5538323033 0.0325200275
0.9226123445 0.5543389029 0.0302616922
0.9984802014 0.5549919890 0.0286686503
0.9984740978 0.5559136339 0.0289188983
0.9984679942 0.5570183871 0.0292484932
0.9984435798 0.5583245594 0.0296086061
0.0000000000 0.6450629435 0.0769665064
0.0028320745 0.6506538491 0.0701548791
0.0824536507 0.6497077897 0.0646189059
0.1697352560 0.6487373159 0.0631174182
0.2559487297 0.6479255360 0.0608712902
0.3419607843 0.6472846571 0.0579964904
0.4280949111 0.6468024720 0.0547554742
0.5361440452 0.6465217060 0.0514412146
0.6355901427 0.6463752193 0.0479804685
0.7316670481 0.6463813230 0.0447638666
0.8266147860 0.6466193637 0.0418036164
0.9210193027 0.6470710307 0.0391058213
0.9971984436 0.6477119097 0.0371526665
0.9971862364 0.6486457618 0.0374395361
0.9971679255 0.6497627222 0.0377630274
0.9971374075 0.6510322728 0.0381231403
0.0000000000 0.7383016709 0.0811841001
0.0029114214 0.7438315404 0.0736522469
0.0823926146 0.7427389944 0.0686167697
0.1698390173 0.7418173495 0.0684214542
0.2560280766 0.7410238804 0.0682810712
0.3420828565 0.7403768978 0.0674570840
0.4281193256 0.7398886091 0.0649362936
0.5167650874 0.7396261540 0.0617013809
0.6281681544 0.7395162890 0.0583016709
0.7273701076 0.7396017395 0.0549691005
0.8237094682 0.7397726406 0.0518135348
0.9189990082 0.7401998932 0.0488471809
0.9952635996 0.7408285649 0.0466193637
0.9952452888 0.7417502098 0.0469123369
0.9952147707 0.7428915846 0.0472419318
0.9951842527 0.7441306172 0.0476203555
0.0000000000 0.8322545205 0.0814953841
0.0030457008 0.8372655833 0.0737865263
0.0830395972 0.8362218662 0.0687571527
0.1704798962 0.8352208743 0.0685801480
0.2566628519 0.8344457160 0.0684214542
0.3427298390 0.8338780804 0.0683176928
0.4286747539 0.8333653773 0.0682322423
0.5147142748 0.8331090257 0.0682078279
0.6116517891 0.8329991608 0.0676340887
0.7206256199 0.8330601968 0.0653818570
0.8196505684 0.8333287556 0.0621591516
0.9162767987 0.8337071794 0.0589730678
0.9924803540 0.8343236439 0.0566414893
0.9924498360 0.8353002213 0.0569466697
0.9924193179 0.8363744564 0.0572457465
0.9923582818 0.8376256962 0.0576668956
0.0000000000 0.9267627985 0.0817822538
0.0033081559 0.9310414282 0.0740672923
0.0840283818 0.9299916075 0.0689951934
0.1714076448 0.9290272374 0.0688181888
0.2576333257 0.9282459754 0.0686839094
0.3436514839 0.9276234073 0.0685740444
0.4295780880 0.9271839475 0.0684824903
0.5156603342 0.9269031815 0.0684458686
0.6018371862 0.9267811093 0.0684580758
0.7071671626 0.9268909743 0.0685008011
0.8134798199 0.9271351186 0.0685740444
0.9124742504 0.9275867857 0.0684336614
0.9886045624 0.9282337682 0.0669321736
0.9885618372 0.9291371023 0.0671885252
0.9885130083 0.9302662699 0.0675242237
0.9884458686 0.9315175097 0.0683787289
0.0000000000 1.0000000000 0.0820813306
0.0042114900 1.0000000000 0.0749889372
0.0853833829 1.0000000000 0.0693247883
0.1727626459 1.0000000000 0.0691111620
0.2589639124 1.0000000000 0.0689707790
0.3449515526 1.0000000000 0.0688670176
0.4309147784 1.0000000000 0.0687876707
0.5169665064 1.0000000000 0.0687571527
0.6031372549 1.0000000000 0.0687693599
0.6894728008 1.0000000000 0.0687937743
0.8063263905 1.0000000000 0.0688670176
0.9086655985 1.0000000000 0.0690012970
0.9846555276 1.0000000000 0.0691660945
0.9846555276 1.0000000000 0.0693980316
0.9846555276 1.0000000000 0.0701853971
0.9846555276 1.0000000000 0.0714000153
0.0000000000 1.0000000000 0.0823682002
0.0057312886 1.0000000000 0.0765697719
0.0870435645 1.0000000000 0.0708628977
0.1744350347 1.0000000000 0.0699839780
0.2606424048 1.0000000000 0.0694041352
0.3466544594 1.0000000000 0.0692271305
0.4326115816 1.0000000000 0.0691477836
0.5186572061 1.0000000000 0.0691172656
0.6048157473 1.0000000000 0.0691294728
0.6911757076 1.0000000000 0.0691660945
0.8083955138 1.0000000000 0.0692393378
0.9105699245 1.0000000000 0.0694346532
0.9846555276 1.0000000000 0.0700083925
0.9846555276 1.0000000000 0.0708445869
0.9846555276 1.0000000000 0.0718638895
0.9846555276 1.0000000000 0.0730113680
0.0000000000 1.0000000000 0.0826550698
0.0075989929 1.0000000000 0.0785046159
0.0890211337 1.0000000000 0.0727916381
0.1764126040 1.0000000000 0.0719554437
0.2626260777 1.0000000000 0.0713206683
0.3486259251 1.0000000000 0.0708201724
0.4346318761 1.0000000000 0.0704783703
0.5206286717 1.0000000000 0.0702647440
0.6068482490 1.0000000000 0.0702830549
0.6934645609 1.0000000000 0.0704783703
0.8109224079 1.0000000000 0.0708323796
0.9129137102 1.0000000000 0.0713817044
0.9846555276 1.0000000000 0.0719493400
0.9846555276 1.0000000000 0.0728160525
0.9846555276 1.0000000000 0.0738170443
0.9846860456 1.0000000000 0.0749767300
0.0000000000 1.0000000000 0.0829236286
0.0096986343 1.0000000000 0.0807202258
0.0912123293 1.0000000000 0.0750560769
0.1786892500 1.0000000000 0.0742687114
0.2648966201 1.0000000000 0.0735729000
0.3509452964 1.0000000000 0.0731090257
0.4369085222 1.0000000000 0.0727489128
0.5229968719 1.0000000000 0.0725780117
0.6091676204 1.0000000000 0.0725841154
0.6966201266 1.0000000000 0.0727611200
0.8138460365 1.0000000000 0.0731090257
0.9155931945 1.0000000000 0.0735729000
0.9846677348 1.0000000000 0.0742687114
0.9846860456 1.0000000000 0.0750926986
0.9846860456 1.0000000000 0.0760814832
0.9846860456 1.0000000000 0.0772289616
0.0028076600 0.0000000000 0.0845166705
0.0081177996 0.0000000000 0.0838391699
0.0924147402 0.0000000000 0.0845960174
0.1783108263 0.0000000000 0.0853650721
0.2658304723 0.0000000000 0.0863111315
0.3544487678 0.0000000000 0.0872571908
0.4442999924 0.0000000000 0.0883375296
0.5353444724 0.0000000000 0.0893568322
0.6274845502 0.0000000000 0.0904249638
0.7207110704 0.0000000000 0.0914381628
0.8152315557 0.0000000000 0.0925185016
0.9108201724 0.0000000000 0.0935866331
0.9996704051 0.0000000000 0.0946181430
1.0000000000 0.0000000000 0.0956862745
1.0000000000 0.0000000000 0.0967238880
1.0000000000 0.0000000000 0.0977737087
0.0026184482 0.0053162432 0.0839917601
0.0074158846 0.0044190127 0.0903395132
0.0964614328 0.0034607462 0.0883009079
0.1867277028 0.0030151827 0.0866590372
0.2777019913 0.0026855879 0.0853589685
0.3691584649 0.0024841688 0.0843640803
0.4610116732 0.0023193713 0.0837537194
0.5532097353 0.0022583352 0.0834302281
0.6457221332 0.0022644388 0.0834607462
0.7386495766 0.0023498894 0.0837781338
0.8318638895 0.0024658579 0.0843579767
0.9254688334 0.0027161059 0.0853650721
1.0000000000 0.0029663539 0.0866224155
1.0000000000 0.0032959487 0.0881666285
1.0000000000 0.0040833143 0.0900282292
1.0000000000 0.0061402304 0.0921461814
0.0000000000 0.0909864958 0.0928786145
0.0029236286 0.0930983444 0.0949111162
0.0909437705 0.0909437705 0.0909437705
0.1826932174 0.0883131151 0.0850843061
0.2740276188 0.0849195087 0.0796337835
0.3654901961 0.0830823224 0.0769237812
0.4571908141 0.0819653620 0.0757030594
0.5493034257 0.0814221408 0.0751354238
0.6418036164 0.0812573434 0.0749645228
0.7346395056 0.0814282444 0.0751415274
0.8278538186 0.0819653620 0.0756969558
0.9214221408 0.0828809033 0.0765575647
1.0000000000 0.0841626612 0.0778332189
1.0000000000 0.0857923247 0.0793530175
1.0000000000 0.0878187228 0.0811657893
1.0000000000 0.0901441978 0.0832654307
0.0000000000 0.1779079881 0.1039993896
0.0021606775 0.1825711452 0.1023025864
0.0794689860 0.1810452430 0.0966567483
0.1769008927 0.1792996109 0.0912428473
0.2696696422 0.1766079194 0.0860486763
0.3616266117 0.1747585260 0.0816174563
0.4535530632 0.1736476692 0.0784130617
0.5457755398 0.1731105516 0.0759777218
0.6382696269 0.1730006867 0.0739696345
0.7312031739 0.1732692454 0.0726817731
0.8244419013 0.1738979171 0.0726390478
0.9180407416 0.1748500801 0.0735179675
1.0000000000 0.1761623560 0.0747753109
1.0000000000 0.1778042267 0.0763012131
1.0000000000 0.1798306249 0.0781689174
1.0000000000 0.1821622034 0.0803356985
0.0000000000 0.2660074769 0.1142717632
0.0016662852 0.2726787213 0.1092851148
0.0745799954 0.2711894408 0.1028030823
0.1624658579 0.2696879530 0.0967483024
0.2638956283 0.2681681544 0.0920424201
0.3574456397 0.2659647517 0.0883497368
0.4501106279 0.2647196155 0.0843701839
0.5426504921 0.2640421149 0.0814770733
0.6353643091 0.2638529030 0.0793286030
0.7283222705 0.2640970474 0.0777355612
0.8216098268 0.2647135119 0.0764965286
0.9152635996 0.2656839857 0.0753246357
1.0000000000 0.2670572976 0.0744090944
1.0000000000 0.2687296864 0.0761669337
1.0000000000 0.2707438773 0.0782177462
1.0000000000 0.2730693523 0.0806652934
0.0000000000 0.3551750973 0.1244769970
0.0013244831 0.3634332799 0.1167803464
0.0723704891 0.3618097200 0.1106218051
0.1585168231 0.3603326467 0.1042313268
0.2488258183 0.3588555734 0.0999160754
0.3517814908 0.3576653696 0.0954909590
0.4461005570 0.3560906386 0.0918104829
0.5394522011 0.3552971695 0.0884840162
0.6325749599 0.3550041962 0.0857068742
0.7258381018 0.3551873045 0.0836682689
0.8192538338 0.3557854582 0.0823376822
0.9129625391 0.3567254139 0.0815075914
0.9995849546 0.3580560006 0.0811779965
0.9998596170 0.3597528038 0.0827954528
0.9998413062 0.3617425803 0.0848096437
0.9998413062 0.3640985733 0.0871351186
0.0000000000 0.4454108492 0.1347615778
0.0010498207 0.4548470283 0.1248676280
0.0709483482 0.4530464637 0.1190630961
0.1562462806 0.4515938048 0.1123979553
