LUTs/SPK Cube Block1 S16/TheBrim_SPK_Type-D_Block1_S16.cube
TITLE "TheBrim® SPK Block 1"
# TheBrim® d.o.o. Croatia
# Copyright: (C) Copyright 2020 TheBrim® d.o.o. Croatia
LUT_3D_SIZE 6
0.0066220000 0.0100400000 0.0125730000
0.0591552000 0.0200010000 0.0000856000
0.2025024000 0.0357240000 0.0000000000
0.4498046000 0.0960266000 0.0000000000
0.5590698000 0.1153564000 0.0021666000
0.5883480000 0.1204830000 0.0037230000
0.0000000000 0.0433652000 0.0188170000
0.0644038000 0.0505856000 0.0000000000
0.2685180000 0.0852110000 0.0000000000
0.5446652000 0.1543272000 0.0000000000
0.6505982000 0.1880432000 0.0000366000
0.6804812000 0.2069154000 0.0088194000
0.0000000000 0.1258604000 0.0336608000
0.0262452000 0.1419068000 0.0000000000
0.3457580000 0.2290772000 0.0000000000
0.6599976000 0.3291750000 0.0182190000
0.7695316000 0.3839358000 0.0228396000
0.7964478000 0.4120360000 0.0001708000
0.0014158000 0.3766056000 0.1695920000
0.0000000000 0.4058534000 0.0198302000
0.4643736000 0.5580200000 0.0000244000
0.7948244000 0.6352846000 0.0016726000
0.8995542000 0.6773928000 0.0010256000
0.9205874000 0.6969364000 0.0149656000
0.0000000000 0.4775210000 0.2033750000
0.0000000000 0.5301882000 0.0285398000
0.5135926000 0.6909182000 0.0037656000
0.8476990000 0.7798582000 0.0109434000
0.9450500000 0.7910828000 0.0030150000
0.9596740000 0.7932924000 0.0008788000
0.0000000000 0.5433650000 0.2090450000
0.0651186000 0.5925416000 0.0000000000
0.5237978000 0.7143308000 0.0000000000
0.8298518000 0.7978332000 0.0000550000
0.9538880000 0.8129638000 0.0170834000
0.9773250000 0.8161320000 0.0066530000
0.0000000000 0.0186036000 0.0570436000
0.0535460000 0.0147582000 0.0559634000
0.1982606000 0.0000000000 0.0053652000
0.4582278000 0.0030396000 0.0018858000
0.5760924000 0.0037720000 0.0035094000
0.6094848000 0.0029420000 0.0054930000
0.0000000000 0.0500368000 0.0690492000
0.0581418000 0.0528688000 0.0509152000
0.2724790000 0.0686582000 0.0061400000
0.5610594000 0.0982484000 0.0000000000
0.6628294000 0.1211242000 0.0000000000
0.7046814000 0.1235476000 0.0000000000
0.0000000000 0.1527894000 0.0932190000
0.0000000000 0.1803284000 0.0497680000
0.3542606000 0.2607850000 0.0030336000
0.6954712000 0.3526062000 0.0000000000
0.7905088000 0.3709476000 0.0008668000
0.8305118000 0.4013856000 0.0015624000
0.0057742000 0.4105530000 0.2226198000
0.0000000000 0.4794982000 0.1706846000
0.4396976000 0.5916990000 0.0000000000
0.8221436000 0.6867188000 0.0115904000
0.9158936000 0.6927186000 0.0011292000
0.9465880000 0.7089236000 0.0018556000
0.0256346000 0.5047428000 0.2798402000
0.0022338000 0.5617248000 0.2357298000
0.3588744000 0.6641724000 0.0048524000
0.8222536000 0.7891356000 0.0000000000
0.9616762000 0.8078614000 0.0142398000
0.9861816000 0.8143064000 0.0059572000
0.0061220000 0.5970398000 0.3943788000
0.0035400000 0.6501102000 0.3494626000
0.3640322000 0.7262514000 0.2456178000
0.7915284000 0.8217224000 0.1822754000
0.9968260000 0.8576050000 0.1004640000
1.0000000000 0.8592348000 0.2557498000
0.0000000000 0.0703430000 0.1746154000
0.0202940000 0.0020080000 0.1570436000
0.2028932000 0.0000000000 0.1663450000
0.4674072000 0.0000000000 0.1812498000
0.5940734000 0.0000000000 0.2008542000
0.6274844000 0.0000000000 0.2236630000
0.0000000000 0.1165468000 0.2176268000
0.0000000000 0.0599120000 0.1918944000
0.2677250000 0.0759704000 0.2142642000
0.5739380000 0.0509216000 0.2305848000
0.6877380000 0.0000000000 0.2271364000
0.7270444000 0.0343140000 0.2669798000
0.0025882000 0.2594724000 0.3171510000
0.0000000000 0.2557434000 0.2861942000
0.3409604000 0.3233886000 0.2829588000
0.6706422000 0.3596130000 0.2795774000
0.8169678000 0.3580868000 0.2883302000
0.8689636000 0.4129148000 0.3766788000
0.0000000000 0.4889524000 0.4219178000
0.0274900000 0.5674254000 0.4302062000
0.2183900000 0.6141300000 0.3214050000
0.7725832000 0.7103456000 0.2965758000
0.9556580000 0.7349550000 0.3168822000
0.9931884000 0.7690858000 0.4081668000
0.0000000000 0.5861204000 0.4961856000
0.0021790000 0.6403870000 0.4939578000
0.0132508000 0.7036194000 0.4050662000
0.7615296000 0.8339662000 0.3966252000
0.9870730000 0.8733400000 0.3863768000
1.0000000000 0.8851320000 0.4619264000
0.0000000000 0.6690916000 0.6044984000
0.0000000000 0.7192140000 0.6028078000
0.2069398000 0.7848996000 0.5880740000
0.7503234000 0.8830444000 0.5965396000
0.9706664000 0.9192442000 0.5898438000
1.0000000000 0.9270508000 0.6040096000
0.0042238000 0.1675174000 0.3412106000
0.0000000000 0.0716674000 0.3322022000
0.2326602000 0.0000000000 0.3687258000
0.4990478000 0.0000000000 0.4050716000
0.6204222000 0.0000000000 0.4248718000
0.6522884000 0.0000000000 0.4421144000
0.0000000000 0.2346374000 0.4258852000
0.0000000000 0.2211608000 0.4531614000
0.2809510000 0.0816772000 0.4763792000
0.5889162000 0.0387022000 0.5046322000
0.7033142000 0.0000000000 0.5066406000
0.7416566000 0.0378906000 0.5347716000
0.0099608000 0.3680784000 0.5332030000
0.0189578000 0.4066774000 0.5761536000
0.2199770000 0.3567080000 0.5762694000
0.6603638000 0.3969056000 0.6092166000
0.8203310000 0.3980774000 0.6246278000
0.8709228000 0.4444704000 0.6852476000
0.0111446000 0.5628720000 0.6401916000
0.0023378000 0.6469238000 0.6877870000
0.1042660000 0.6856444000 0.6695676000
0.7141538000 0.7690250000 0.6997010000
0.9337342000 0.8029906000 0.7442932000
0.9684628000 0.7890990000 0.7647884000
0.0000000000 0.6531008000 0.6985716000
0.0000000000 0.7143248000 0.7306520000
0.0222412000 0.7817508000 0.7335388000
0.7171022000 0.9028502000 0.7892212000
0.9591676000 0.9404784000 0.7963742000
1.0000000000 0.9459840000 0.8071534000
0.0000000000 0.7120238000 0.7600828000
0.0000000000 0.7689026000 0.7901304000
0.0426758000 0.8340088000 0.8203978000
0.7138796000 0.9277040000 0.8536070000
0.9518678000 0.9664122000 0.8563840000
1.0000000000 0.9747006000 0.8637394000
0.0010556000 0.2173342000 0.4426026000
0.0000000000 0.1503908000 0.4561158000
0.2454898000 0.0000000000 0.5097292000
0.5210144000 0.0000000000 0.5515440000
0.6427248000 0.0000000000 0.5646300000
0.6741512000 0.0000000000 0.5806332000
0.0000000000 0.2980348000 0.5426268000
0.0000000000 0.2894288000 0.5667970000
0.2228576000 0.0751892000 0.6208924000
0.5645202000 0.0218384000 0.6666994000
0.7160158000 0.0000000000 0.6765990000
0.7564514000 0.0155458000 0.7008480000
0.0000000000 0.4307860000 0.6449888000
0.0000000000 0.4415342000 0.6760314000
0.0422242000 0.3621522000 0.7459654000
0.6254028000 0.4110166000 0.7989684000
0.8246706000 0.4132388000 0.8114140000
0.8720034000 0.4561522000 0.8402652000
0.0302978000 0.6055604000 0.7392396000
0.0000000000 0.6565554000 0.7840456000
0.0404236000 0.7149720000 0.8426268000
0.6817872000 0.7976196000 0.9096496000
0.9233460000 0.8238952000 0.9245850000
0.9619996000 0.8088926000 0.9254028000
0.0000000000 0.6732486000 0.7815614000
0.0007204000 0.7287354000 0.8202394000
0.0309508000 0.8119386000 0.8788210000
0.6850222000 0.9272036000 0.9436398000
0.9453184000 0.9599734000 0.9548216000
0.9944216000 0.9606934000 0.9536252000
0.0140134000 0.7239138000 0.8213804000
0.0302064000 0.7805052000 0.8605222000
0.0157718000 0.8505430000 0.9186220000
0.6882198000 0.9445008000 0.9576414000
0.9422304000 0.9839784000 0.9661742000
0.9974002000 0.9931154000 0.9707398000
0.0000000000 0.2549440000 0.5023500000
0.0047180000 0.2388552000 0.5203064000
0.2115230000 0.0000000000 0.5698246000
0.5094790000 0.0000000000 0.6197448000
0.6614928000 0.0000000000 0.6391358000
0.7016910000 0.0000000000 0.6580510000
0.0000000000 0.3262270000 0.5779540000
0.0000000000 0.3222780000 0.6062620000
0.1688962000 0.1140258000 0.6759460000
0.5462464000 0.1054994000 0.7324828000
0.7272338000 0.0605466000 0.7489564000
0.7740784000 0.1044740000 0.7658874000
0.0000000000 0.4415774000 0.6692750000
0.0000000000 0.4624878000 0.7064512000
0.0243348000 0.3972658000 0.7977722000
0.6212158000 0.4488772000 0.8600162000
0.8297732000 0.4511166000 0.8743654000
0.8762572000 0.4733460000 0.8832644000
0.0208676000 0.5954282000 0.7438234000
0.0063356000 0.6375730000 0.7802248000
0.0095764000 0.7060240000 0.8625002000
0.6609070000 0.7748718000 0.9453856000
0.9091310000 0.7909608000 0.9580504000
0.9595888000 0.8109254000 0.9638732000
0.0022580000 0.6692076000 0.7945130000
0.0115906000 0.7280030000 0.8377868000
0.0068054000 0.8091372000 0.9031920000
0.6588380000 0.9227660000 0.9734438000
0.9384704000 0.9554198000 0.9881040000
0.9909118000 0.9637084000 0.9911194000
0.0063780000 0.7248540000 0.8344730000
0.0383544000 0.7811890000 0.8754396000
0.0143248000 0.8518070000 0.9376526000
0.6772282000 0.9466004000 0.9804440000
0.9351868000 0.9876102000 0.9946106000
0.9974370000 0.9978330000 0.9984130000
