LUTs/SPK Cube Block1 S16/TheBrim_SPK_Type-C_Block1_S16.cube
TITLE "TheBrim® SPK Block 1"
# TheBrim® d.o.o. Croatia
# Copyright: (C) Copyright 2020 TheBrim® d.o.o. Croatia
LUT_3D_SIZE 6
0.0000000000 0.0000000000 0.0000000000
0.0046450000 0.0000000000 0.0000000000
0.0926088000 0.0000000000 0.0000000000
0.4019104000 0.0001220000 0.0001220000
0.7345518000 0.0008908000 0.0008908000
0.8964230000 0.0017400000 0.0017400000
0.0000000000 0.0077822000 0.0000000000
0.0124330000 0.0124330000 0.0001286000
0.1582824000 0.0184142000 0.0008670000
0.5040528000 0.0273678000 0.0017276000
0.7962038000 0.0416624000 0.0025390000
0.9161928000 0.0610168000 0.0040222000
0.0008484000 0.1569766000 0.0008484000
0.0269288000 0.1967468000 0.0016842000
0.2397946000 0.2397946000 0.0025148000
0.6013488000 0.2855896000 0.0039428000
0.8438108000 0.3350768000 0.0068116000
0.9316528000 0.3868776000 0.0110354000
0.0024776000 0.5511168000 0.0024776000
0.0596312000 0.5998046000 0.0038878000
0.3334168000 0.6440854000 0.0066892000
0.6853088000 0.6853088000 0.0108582000
0.8782474000 0.7235106000 0.0164488000
0.9435668000 0.7574952000 0.0242496000
0.0065796000 0.8423704000 0.0065796000
0.1125180000 0.8616088000 0.0107120000
0.4360778000 0.8777344000 0.0162476000
0.7563906000 0.8918700000 0.0239076000
0.9038696000 0.9038696000 0.0362368000
0.9508482000 0.9133914000 0.0539060000
0.0159910000 0.9378660000 0.0159910000
0.1836424000 0.9432860000 0.0235778000
0.5369568000 0.9472960000 0.0357540000
0.8136292000 0.9507510000 0.0531678000
0.9215512000 0.9536376000 0.0763124000
0.9561160000 0.9561160000 0.1044620000
0.0000000000 0.0000000000 0.0033388000
0.0057310000 0.0000000000 0.0057310000
0.1035338000 0.0000186000 0.0094298000
0.4212644000 0.0004028000 0.0145812000
0.7470828000 0.0012024000 0.0215210000
0.9009090000 0.0020630000 0.0323182000
0.0000186000 0.0093260000 0.0093260000
0.0143798000 0.0143798000 0.0143798000
0.1722838000 0.0213378000 0.0213378000
0.5227114000 0.0320926000 0.0320926000
0.8061828000 0.0479124000 0.0479124000
0.9192506000 0.0695982000 0.0695982000
0.0011414000 0.1709596000 0.0209354000
0.0315978000 0.2121702000 0.0315978000
0.2562864000 0.2562864000 0.0472962000
0.6178650000 0.3032836000 0.0687134000
0.8510008000 0.3538634000 0.0952882000
0.9342224000 0.4062562000 0.1264710000
0.0028930000 0.5692746000 0.0467282000
0.0679506000 0.6163206000 0.0679506000
0.3521422000 0.6595092000 0.0943418000
0.6999636000 0.6999636000 0.1254820000
0.8836730000 0.7362610000 0.1613646000
0.9451050000 0.7690918000 0.2016844000
0.0078856000 0.8497436000 0.0933778000
0.1244204000 0.8677304000 0.1244204000
0.4551270000 0.8832030000 0.1601258000
0.7680238000 0.8965088000 0.2003356000
0.9074706000 0.9074706000 0.2435240000
0.9519408000 0.9165772000 0.2895448000
0.0184998000 0.9400022000 0.1587706000
0.1989010000 0.9448242000 0.1989010000
0.5552368000 0.9486266000 0.2420474000
0.8226684000 0.9518494000 0.2879212000
0.9244994000 0.9545898000 0.3376648000
0.9569456000 0.9569456000 0.3896422000
0.0000000000 0.0000000000 0.0604980000
0.0068788000 0.0000000000 0.0853272000
0.1149048000 0.0000920000 0.1149048000
0.4404176000 0.0006650000 0.1493774000
0.7589844000 0.0015256000 0.1884584000
0.9047550000 0.0023560000 0.2310360000
0.0000796000 0.0110108000 0.1138914000
0.0167178000 0.0167178000 0.1481814000
0.1871398000 0.0245724000 0.1871398000
0.5410888000 0.0371336000 0.2295962000
0.8156190000 0.0554688000 0.2744202000
0.9222714000 0.0787414000 0.3232420000
0.0014646000 0.1857362000 0.1857362000
0.0366026000 0.2281736000 0.2281736000
0.2727658000 0.2727658000 0.2727658000
0.6341372000 0.3216004000 0.3216004000
0.8580196000 0.3730102000 0.3730102000
0.9367432000 0.4255554000 0.4255554000
0.0034054000 0.5869628000 0.2712708000
0.0770814000 0.6326662000 0.3198974000
0.3712462000 0.6746398000 0.3712462000
0.7135436000 0.7135436000 0.4238038000
0.8887330000 0.7487246000 0.4758546000
0.9465334000 0.7804198000 0.5268490000
0.0094726000 0.8567324000 0.3694884000
0.1370360000 0.8737426000 0.4220826000
0.4741454000 0.8882446000 0.4741454000
0.7794434000 0.9008362000 0.5251524000
0.9110838000 0.9110838000 0.5748534000
0.9530154000 0.9196290000 0.6217466000
0.0210026000 0.9421146000 0.4724492000
0.2143494000 0.9462830000 0.5235168000
0.5732724000 0.9498722000 0.5732724000
0.8311644000 0.9529174000 0.6203068000
0.9273010000 0.9554994000 0.6629520000
0.9576542000 0.9576542000 0.7030580000
0.0000000000 0.0000000000 0.3041202000
0.0083192000 0.0000000000 0.3547972000
0.1270934000 0.0001892000 0.4071962000
0.4595456000 0.0009888000 0.4595456000
0.7707154000 0.0018374000 0.5108340000
0.9085752000 0.0026490000 0.5610412000
0.0001772000 0.0129456000 0.4054564000
0.0190614000 0.0190614000 0.4578006000
0.2021912000 0.0286500000 0.5091556000
0.5593808000 0.0433836000 0.5593808000
0.8244932000 0.0632016000 0.6074038000
0.9251528000 0.0885988000 0.6511168000
0.0017884000 0.2008118000 0.5074828000
0.0427250000 0.2442748000 0.5577394000
0.2904844000 0.2904844000 0.6060120000
0.6497010000 0.3401732000 0.6497010000
0.8644044000 0.3921570000 0.6906802000
0.9390444000 0.4447144000 0.7283326000
0.0041134000 0.6045472000 0.6045472000
0.0866882000 0.6482486000 0.6482486000
0.3904296000 0.6893370000 0.6893370000
0.7271912000 0.7271912000 0.7271912000
0.8936402000 0.7606020000 0.7606020000
0.9479186000 0.7910884000 0.7910884000
0.0111754000 0.8633058000 0.6880246000
0.1502134000 0.8792114000 0.7259094000
0.4929810000 0.8932130000 0.7595948000
0.7901004000 0.9048644000 0.7901004000
0.9142516000 0.9142516000 0.8169982000
0.9539856000 0.9226256000 0.8399716000
0.0245970000 0.9437016000 0.7585690000
0.2303770000 0.9476686000 0.7891844000
0.5909606000 0.9510556000 0.8161988000
0.8392818000 0.9538940000 0.8392818000
0.9300658000 0.9563290000 0.8589112000
0.9583928000 0.9583928000 0.8755556000
0.0000000000 0.0000000000 0.6347472000
0.0098632000 0.0000310000 0.6766112000
0.1397582000 0.0004702000 0.7156002000
0.4784426000 0.0012818000 0.7503600000
0.7817444000 0.0021424000 0.7817444000
0.9118106000 0.0031674000 0.8098330000
0.0004516000 0.0150024000 0.7143186000
0.0222598000 0.0222598000 0.7492186000
0.2179992000 0.0333436000 0.7807130000
0.5773132000 0.0498716000 0.8088806000
0.8329466000 0.0721314000 0.8329466000
0.9279970000 0.0991574000 0.8535826000
0.0020814000 0.2165464000 0.7797608000
0.0492126000 0.2607544000 0.8080324000
0.3081300000 0.3081300000 0.8322448000
0.6651002000 0.3590760000 0.8529480000
0.8705140000 0.4115294000 0.8705140000
0.9411562000 0.4638368000 0.8855532000
0.0050230000 0.6208252000 0.8315920000
0.0972658000 0.6637088000 0.8523134000
0.4097964000 0.7036988000 0.8700010000
0.7396484000 0.7396484000 0.8851072000
0.8981014000 0.7722596000 0.8981014000
0.9491820000 0.8014590000 0.9088624000
0.0131408000 0.8694276000 0.8694276000
0.1640442000 0.8846376000 0.8846376000
0.5116820000 0.8976686000 0.8976686000
0.8005248000 0.9084962000 0.9084962000
0.9174252000 0.9174252000 0.9174252000
0.9549252000 0.9255006000 0.9255006000
0.0283200000 0.9452388000 0.8973876000
0.2464538000 0.9489624000 0.9082096000
0.6081180000 0.9521362000 0.9171630000
0.8468566000 0.9548466000 0.9252624000
0.9326658000 0.9571166000 0.9326658000
0.9590084000 0.9590084000 0.9393188000
0.0000000000 0.0000000000 0.8462220000
0.0117004000 0.0001100000 0.8648678000
0.1531492000 0.0007442000 0.8806278000
0.4972902000 0.0016048000 0.8943296000
0.7926028000 0.0024354000 0.9058166000
0.9150700000 0.0036930000 0.9150700000
0.0007322000 0.0173400000 0.8801454000
0.0254824000 0.0254824000 0.8939090000
0.2339722000 0.0388124000 0.9054806000
0.5949280000 0.0575682000 0.9147584000
0.8408814000 0.0812742000 0.9230470000
0.9306704000 0.1102846000 0.9306704000
0.0023744000 0.2324772000 0.9051146000
0.0568056000 0.2775510000 0.9144778000
0.3266842000 0.3266842000 0.9227964000
0.6799868000 0.3781858000 0.9304202000
0.8762508000 0.4307862000 0.9373962000
0.9430052000 0.4826720000 0.9430052000
0.0061100000 0.6370908000 0.9225158000
0.1081362000 0.6786560000 0.9301762000
0.4290586000 0.7173156000 0.9371824000
0.7520996000 0.7520996000 0.9428404000
0.9024108000 0.7832944000 0.9469056000
0.9504272000 0.8109988000 0.9504272000
0.0152284000 0.8752622000 0.9369626000
0.1784422000 0.8896058000 0.9427308000
0.5302306000 0.9020018000 0.9467960000
0.8101072000 0.9119444000 0.9503176000
0.9204404000 0.9204404000 0.9532894000
0.9558044000 0.9283084000 0.9558044000
0.0333560000 0.9466550000 0.9466550000
0.2630310000 0.9501894000 0.9501894000
0.6246456000 0.9531986000 0.9531986000
0.8540956000 0.9557132000 0.9557132000
0.9352478000 0.9578552000 0.9578552000
0.9596560000 0.9596560000 0.9596560000
