LUTs/SPK Cube Block1 S16/TheBrim_SPK_Type-Q_Block1_S16.cube
TITLE "TheBrim® SPK Block 1"
# © Copyright 2021 - TheBrim® d.o.o. Croatia
LUT_3D_SIZE 16
DOMAIN_MIN 0.000000 0.000000 0.000000
DOMAIN_MAX 1.000000 1.000000 1.000000
0.000000 0.000000 0.000000
0.000000 0.000000 0.000000
0.059651 0.000000 0.000000
0.168106 0.000000 0.000000
0.277714 0.000000 0.000000
0.387640 0.000000 0.000000
0.496855 0.000000 0.000000
0.604437 0.000000 0.000000
0.718025 0.000000 0.000000
0.839377 0.000000 0.000000
0.953368 0.000000 0.000000
1.000000 0.000000 0.000000
1.000000 0.000000 0.000000
1.000000 0.000000 0.000000
1.000000 0.000000 0.000000
1.000000 0.007019 0.000000
0.000000 0.000000 0.000000
0.000000 0.000000 0.000000
0.027808 0.000000 0.000000
0.135079 0.000000 0.000000
0.243613 0.000000 0.000000
0.353210 0.000000 0.000000
0.462226 0.000000 0.000000
0.570953 0.000000 0.000000
0.684907 0.000000 0.000000
0.806412 0.000000 0.000000
0.937963 0.002875 0.000000
1.000000 0.025196 0.000000
1.000000 0.044300 0.000000
1.000000 0.064802 0.000000
1.000000 0.078541 0.000000
1.000000 0.092128 0.000000
0.000000 0.035853 0.000000
0.000000 0.031983 0.000000
0.001941 0.026038 0.000000
0.103633 0.022864 0.000000
0.211270 0.020752 0.000000
0.320153 0.019763 0.000000
0.429255 0.021802 0.000000
0.538610 0.022211 0.000000
0.654090 0.029993 0.000000
0.774374 0.046595 0.000000
0.902391 0.075093 0.000000
1.000000 0.107228 0.000000
1.000000 0.126949 0.000000
1.000000 0.149282 0.000000
1.000000 0.163589 0.000000
1.000000 0.177224 0.000000
0.000000 0.134548 0.000000
0.000000 0.130056 0.000000
0.000000 0.124074 0.000000
0.072059 0.117556 0.000000
0.182553 0.114302 0.000000
0.290971 0.112502 0.000000
0.399493 0.112605 0.000000
0.509248 0.112569 0.000000
0.625507 0.118672 0.000000
0.748342 0.133199 0.000000
0.871281 0.154397 0.000000
0.995386 0.183243 0.000000
1.000000 0.208927 0.000000
1.000000 0.231583 0.000000
1.000000 0.248002 0.000000
1.000000 0.261564 0.000000
0.000000 0.233756 0.000000
0.000000 0.227939 0.000000
0.000000 0.223075 0.000000
0.027027 0.215390 0.000000
0.150832 0.208908 0.000000
0.261753 0.206174 0.000000
0.370745 0.204202 0.000000
0.479445 0.203726 0.000000
0.596405 0.208200 0.000000
0.719942 0.221555 0.000000
0.843253 0.239066 0.000000
0.970544 0.264579 0.000000
1.000000 0.291710 0.000000
1.000000 0.314488 0.000000
1.000000 0.332433 0.000000
1.000000 0.346136 0.000000
0.000000 0.336370 0.000000
0.000000 0.325792 0.000000
0.000000 0.320739 0.000000
0.000586 0.314342 0.000000
0.105769 0.307189 0.000000
0.229221 0.301335 0.000000
0.340887 0.297954 0.000000
0.451905 0.293480 0.000000
0.568170 0.297319 0.000000
0.692006 0.309606 0.000000
0.814755 0.325170 0.000000
0.941033 0.347735 0.000000
1.000000 0.375299 0.000000
1.000000 0.399377 0.000000
1.000000 0.417487 0.000000
1.000000 0.431220 0.000000
0.000000 0.445655 0.000000
0.000000 0.432136 0.000000
0.000000 0.418512 0.000000
0.000000 0.411615 0.000000
0.058222 0.407178 0.000000
0.186551 0.398993 0.000000
0.307854 0.393085 0.000000
0.422284 0.386059 0.000000
0.540136 0.387713 0.000000
0.664027 0.399133 0.000000
0.786856 0.413404 0.000000
0.911705 0.432380 0.000000
1.000000 0.456733 0.000000
1.000000 0.481672 0.000000
1.000000 0.501756 0.000000
1.000000 0.515807 0.000000
0.000000 0.541875 0.000000
0.000000 0.534398 0.000000
0.000000 0.518639 0.000000
0.000000 0.505592 0.000000
0.051618 0.501509 0.000000
0.122829 0.498433 0.000000
0.268052 0.487602 0.000000
0.389563 0.479872 0.000000
0.510509 0.480183 0.000000
0.635383 0.489162 0.000000
0.758767 0.504329 0.000000
0.882628 0.520079 0.000000
1.000000 0.540423 0.000000
1.000000 0.561877 0.000000
1.000000 0.583557 0.000000
1.000000 0.598444 0.000757
0.000000 0.638660 0.000000
0.000000 0.626825 0.000000
0.000000 0.618524 0.000000
0.000000 0.605164 0.000000
0.051484 0.602356 0.000000
0.121657 0.600116 0.000000
0.206345 0.594397 0.000000
0.357214 0.580908 0.000000
0.478499 0.571978 0.000000
0.605719 0.580328 0.000000
0.730660 0.592609 0.000000
0.854136 0.606360 0.000000
0.980157 0.622223 0.000000
1.000000 0.640748 0.000000
1.000000 0.662995 0.000641
1.000000 0.679139 0.015875
0.000000 0.751681 0.019892
0.000000 0.732662 0.018726
0.000000 0.720070 0.016211
0.000000 0.714028 0.012073
0.059474 0.708553 0.005103
0.128017 0.706148 0.000000
0.197885 0.705745 0.000000
0.306419 0.695570 0.000000
0.453761 0.680110 0.000000
0.572088 0.675062 0.000000
0.699068 0.686317 0.000000
0.824704 0.696571 0.000000
0.950738 0.706227 0.000000
1.000000 0.722194 0.000000
1.000000 0.741018 0.009265
1.000000 0.759341 0.027662
0.000000 0.845487 0.051270
0.000000 0.845188 0.051875
0.000000 0.832963 0.049738
0.003900 0.828177 0.045978
0.066963 0.824320 0.040491
0.133700 0.822721 0.032471
0.203622 0.819229 0.023706
0.275846 0.813803 0.015637
0.409027 0.800827 0.004987
0.548473 0.786337 0.000000
0.665827 0.782132 0.000000
0.794528 0.789523 0.000000
0.921538 0.797531 0.000732
1.000000 0.807590 0.010584
1.000000 0.824369 0.023175
1.000000 0.841825 0.040253
0.000000 0.924706 0.059632
0.000000 0.924620 0.061878
0.000000 0.924553 0.063880
0.008356 0.924431 0.064820
0.073890 0.924254 0.065638
0.140163 0.924065 0.062898
0.208182 0.923790 0.058692
0.280259 0.923528 0.052082
0.353521 0.920757 0.044440
0.511421 0.905370 0.034260
0.643061 0.894249 0.023230
0.762008 0.885936 0.015045
0.891490 0.893303 0.022516
1.000000 0.901897 0.030158
1.000000 0.912309 0.041468
1.000000 0.926311 0.058112
0.000000 0.997839 0.055756
0.000000 0.997803 0.059370
0.000000 0.997784 0.062165
0.014282 0.997693 0.064576
0.080732 0.997595 0.066065
0.146267 0.997473 0.066871
0.213773 0.997345 0.067848
0.283220 0.997180 0.070057
0.355688 0.997028 0.071272
0.436231 0.996869 0.069007
0.608283 0.996704 0.061262
0.738698 0.994507 0.054005
0.858756 0.989599 0.047761
0.987463 0.994202 0.053663
1.000000 0.999799 0.061207
1.000000 1.000000 0.077119
0.000000 1.000000 0.046094
0.000000 1.000000 0.050007
0.000000 1.000000 0.053748
0.016834 1.000000 0.057246
0.083851 1.000000 0.059742
0.150747 1.000000 0.062141
0.217691 1.000000 0.063996
0.286772 1.000000 0.066987
0.357507 1.000000 0.070362
0.430256 1.000000 0.073994
0.538628 1.000000 0.079097
0.705409 1.000000 0.084565
0.833964 1.000000 0.083973
0.955639 1.000000 0.078511
1.000000 1.000000 0.084578
1.000000 1.000000 0.098054
0.000000 1.000000 0.023139
0.000000 1.000000 0.025660
0.000000 1.000000 0.028809
0.010437 1.000000 0.032227
0.079530 1.000000 0.035901
0.148208 1.000000 0.040089
0.216770 1.000000 0.044269
0.286210 1.000000 0.049512
0.356603 1.000000 0.054646
0.428150 1.000000 0.060822
0.501140 1.000000 0.066438
0.633527 1.000000 0.077424
0.795749 1.000000 0.088911
0.925719 1.000000 0.096541
1.000000 1.000000 0.101100
1.000000 1.000000 0.112490
0.000000 1.000000 0.021851
0.000000 1.000000 0.024292
0.000000 1.000000 0.027326
0.009979 1.000000 0.030707
0.079084 1.000000 0.034333
0.147860 1.000000 0.038605
0.216495 1.000000 0.042878
0.285954 1.000000 0.048194
0.356365 1.000000 0.053455
0.427863 1.000000 0.059742
0.500786 1.000000 0.065492
0.574798 1.000000 0.072303
0.743404 1.000000 0.085341
0.894481 1.000000 0.094887
0.999963 1.000000 0.100789
1.000000 1.000000 0.105562
0.000000 0.000000 0.000000
0.000000 0.000000 0.000000
0.051008 0.000000 0.000000
0.158364 0.000000 0.000000
0.266862 0.000000 0.000000
0.375744 0.000000 0.000000
0.484489 0.000000 0.000000
0.595044 0.000000 0.000000
0.708382 0.000000 0.000000
0.827677 0.000000 0.000000
0.942846 0.000000 0.000000
1.000000 0.000000 0.000000
1.000000 0.000000 0.000342
1.000000 0.000000 0.004346
1.000000 0.000000 0.014765
1.000000 0.000000 0.025428
0.000000 0.000000 0.000000
0.000000 0.000000 0.000000
0.035291 0.000000 0.000000
0.141170 0.000000 0.000000
0.248673 0.000000 0.000000
0.357476 0.000000 0.000000
0.465827 0.000000 0.000000
0.573169 0.000000 0.000000
0.686818 0.000000 0.000000
0.806412 0.000000 0.000000
0.931194 0.000873 0.000000
1.000000 0.023267 0.000000
1.000000 0.043299 0.000000
1.000000 0.062922 0.003021
1.000000 0.076631 0.012354
1.000000 0.090230 0.023023
0.000000 0.027027 0.000000
0.000000 0.022864 0.000000
0.005554 0.018708 0.000000
0.109670 0.016510 0.000000
0.216202 0.014527 0.000000
0.324273 0.013281 0.000000
0.432374 0.014496 0.000000
0.539629 0.017426 0.000000
0.654347 0.025702 0.000000
0.774728 0.042432 0.000000
0.899559 0.068721 0.000000
1.000000 0.104829 0.000000
1.000000 0.125417 0.000000
1.000000 0.147286 0.000946
1.000000 0.161538 0.003235
1.000000 0.175204 0.012714
0.000000 0.124019 0.000000
0.000000 0.119625 0.000000
0.000000 0.115383 0.000000
0.079255 0.109822 0.000000
0.188162 0.106703 0.000000
0.295879 0.104799 0.000000
0.403754 0.103822 0.000000
0.511958 0.105843 0.000000
0.627124 0.113118 0.000000
0.748672 0.128640 0.000000
0.870835 0.149172 0.000000
0.995593 0.179538 0.000000
1.000000 0.206766 0.000330
1.000000 0.229752 0.003583
1.000000 0.246067 0.014661
1.000000 0.259678 0.027338
0.000000 0.222409 0.000000
0.000000 0.216690 0.000000
0.000000 0.212717 0.000000
0.037263 0.206265 0.000000
0.157333 0.200546 0.000000
0.267515 0.197763 0.000000
0.375323 0.196097 0.000000
0.483101 0.196182 0.000000
0.598596 0.202768 0.000000
0.721309 0.216641 0.000000
0.844138 0.233243 0.000000
0.970599 0.258433 0.000000
1.000000 0.286229 0.001813
1.000000 0.311730 0.010248
1.000000 0.330755 0.026270
1.000000 0.344421 0.038550
0.000000 0.320757 0.002930
0.000000 0.310979 0.002063
0.000000 0.305663 0.000989
0.003760 0.301384 0.000000
0.115908 0.294456 0.000000
0.236851 0.289445 0.000000
0.347375 0.287236 0.000000
0.455995 0.285960 0.000000
0.570715 0.292003 0.000000
0.694136 0.304643 0.000000
0.816605 0.319939 0.000000
0.942095 0.341094 0.000470
1.000000 0.368518 0.003326
1.000000 0.393976 0.016333
1.000000 0.415540 0.036542
1.000000 0.429145 0.048457
0.000000 0.424433 0.015467
0.000000 0.412464 0.013239
0.000000 0.400763 0.009461
0.000000 0.395776 0.004187
0.063923 0.392010 0.002600
0.195560 0.385229 0.000983
0.315410 0.380883 0.000000
0.426435 0.378753 0.000000
0.543206 0.381988 0.000000
0.666609 0.393420 0.000000
0.789267 0.407245 0.000690
0.913408 0.425006 0.003510
1.000000 0.450025 0.010907
1.000000 0.475203 0.027112
1.000000 0.499779 0.047578
1.000000 0.513848 0.059455
0.000000 0.526653 0.033491
0.000000 0.518627 0.030616
0.000000 0.507448 0.027124
0.000000 0.490028 0.022785
0.057423 0.485115 0.015497
0.128768 0.483119 0.006439
0.275389 0.476075 0.002527
0.394757 0.471229 0.000732
0.514488 0.473390 0.000928
0.638618 0.484102 0.002325
0.761654 0.496620 0.004218
0.884935 0.511943 0.012390
1.000000 0.532750 0.024836
1.000000 0.555596 0.039881
1.000000 0.580609 0.060072
1.000000 0.596582 0.073329
0.000000 0.632239 0.059187
0.000000 0.621564 0.057215
0.000000 0.614032 0.052943
0.000000 0.599829 0.048701
0.056654 0.586969 0.042640
0.127242 0.584430 0.033863
0.216995 0.579419 0.024720
0.363433 0.570983 0.015930
0.482747 0.564776 0.008026
0.609662 0.573846 0.015277
0.734084 0.585034 0.022010
0.857096 0.599176 0.028315
0.982641 0.615723 0.039374
1.000000 0.635926 0.052296
1.000000 0.660200 0.073140
1.000000 0.678566 0.088148
0.000000 0.745284 0.093098
0.000000 0.728432 0.092140
0.000000 0.714638 0.088881
0.000055 0.706966 0.083638
0.062385 0.699519 0.077894
0.131630 0.695637 0.068800
0.202481 0.692256 0.059089
0.314086 0.682734 0.050050
0.458460 0.672816 0.042396
0.577655 0.665101 0.036451
0.704817 0.675422 0.042103
0.828904 0.687752 0.047749
0.953759 0.701851 0.055384
1.000000 0.718715 0.066932
1.000000 0.739010 0.082838
1.000000 0.758938 0.099342
0.000000 0.845426 0.124379
0.000000 0.843973 0.124623
0.000000 0.829050 0.122286
0.005286 0.821018 0.117708
0.069416 0.817148 0.112453
0.136684 0.815811 0.105293
0.206491 0.811301 0.095692
0.278904 0.804446 0.087160
0.416010 0.791366 0.078151
0.552428 0.780276 0.068952
0.671412 0.771786 0.061225
0.798312 0.781637 0.066487
0.924675 0.792508 0.073597
1.000000 0.803421 0.084047
1.000000 0.820957 0.096699
1.000000 0.839908 0.111678
0.000000 0.924645 0.133107
0.000000 0.924614 0.134951
0.000000 0.924511 0.136739
0.009607 0.924395 0.137111
0.076124 0.924211 0.137661
0.142794 0.924004 0.135769
0.210788 0.923729 0.131057
0.282200 0.922649 0.122792
0.355505 0.917040 0.115224
0.515572 0.901122 0.105715
0.646540 0.888817 0.094722
0.764987 0.880040 0.086470
0.893852 0.887852 0.093623
1.000000 0.896745 0.102528
1.000000 0.907494 0.112270
1.000000 0.922863 0.125789
0.000000 0.997803 0.129171
0.000000 0.997803 0.132241
0.000000 0.997748 0.134817
0.016181 0.997687 0.136666
0.082307 0.997583 0.138027
0.147347 0.997455 0.138857
0.214878 0.997308 0.139785
0.284715 0.997180 0.141463
0.357348 0.997015 0.142501
0.440302 0.996857 0.140102
0.611804 0.996686 0.131868
0.741384 0.992346 0.123842
0.860673 0.987073 0.116939
0.988910 0.991571 0.124746
1.000000 0.997839 0.131661
1.000000 1.000000 0.144314
0.000000 1.000000 0.120406
0.000000 1.000000 0.123891
0.000000 1.000000 0.127425
0.020063 1.000000 0.130507
0.086714 1.000000 0.132839
0.152596 1.000000 0.134725
0.219413 1.000000 0.136440
0.288371 1.000000 0.138845
0.359149 1.000000 0.142043
0.432050 1.000000 0.145437
0.542193 1.000000 0.149886
0.708315 1.000000 0.153457
0.836289 1.000000 0.152120
0.957385 1.000000 0.146487
1.000000 1.000000 0.152834
1.000000 1.000000 0.166537
0.000000 1.000000 0.098500
0.000000 1.000000 0.100862
0.000000 1.000000 0.103975
0.015827 1.000000 0.107228
0.084657 1.000000 0.110878
0.151913 1.000000 0.114595
0.220279 1.000000 0.118648
0.289042 1.000000 0.123189
0.359313 1.000000 0.127926
0.430719 1.000000 0.133175
0.503703 1.000000 0.138350
0.640266 1.000000 0.147848
0.799570 1.000000 0.157327
0.929046 1.000000 0.164144
1.000000 1.000000 0.168844
1.000000 1.000000 0.181509
0.000000 1.000000 0.097249
0.000000 1.000000 0.099556
0.000000 1.000000 0.102565
0.015442 1.000000 0.105800
0.084327 1.000000 0.109407
0.151675 1.000000 0.113240
0.220096 1.000000 0.117379
0.288872 1.000000 0.121981
0.359149 1.000000 0.126845
0.430500 1.000000 0.132155
0.503410 1.000000 0.137465
0.577581 1.000000 0.142831
0.748159 1.000000 0.154195
0.898180 1.000000 0.162460
1.000000 1.000000 0.168545
1.000000 1.000000 0.174466
0.000000 0.000000 0.005969
0.000000 0.000000 0.000000
0.043635 0.000000 0.000000
0.149032 0.000000 0.000000
0.256193 0.000000 0.000000
0.363696 0.000000 0.000000
0.470546 0.000000 0.000000
0.582794 0.000000 0.000000
0.697615 0.000000 0.000000
0.817600 0.000000 0.004492
0.932622 0.000000 0.016120
1.000000 0.000000 0.034815
1.000000 0.000000 0.052308
1.000000 0.000000 0.071040
1.000000 0.000000 0.082051
1.000000 0.000000 0.092543
0.000000 0.000000 0.016321
0.000000 0.000000 0.010718
0.028846 0.000000 0.000031
0.132955 0.000000 0.000000
0.239353 0.000000 0.000000
0.346813 0.000000 0.000000
0.453529 0.000000 0.000000
0.560363 0.000000 0.000000
0.675264 0.000000 0.000000
0.795920 0.000000 0.000305
0.916265 0.000000 0.009461
1.000000 0.004614 0.030677
1.000000 0.027991 0.050190
1.000000 0.047236 0.068476
1.000000 0.061146 0.079481
1.000000 0.074818 0.089992
0.000000 0.018848 0.026941
0.000000 0.014728 0.020850
0.013202 0.012036 0.013257
0.117830 0.010529 0.007276
0.222727 0.009381 0.004724
0.329070 0.008771 0.002600
0.435651 0.009625 0.000940
0.541723 0.012531 0.000000
0.653809 0.022986 0.000366
0.775790 0.040070 0.005261
0.898015 0.064637 0.016864
1.000000 0.097328 0.032654
1.000000 0.124019 0.049213
1.000000 0.145614 0.066841
1.000000 0.159744 0.078035
1.000000 0.173434 0.089595
0.000000 0.115285 0.043702
0.000000 0.111287 0.037916
0.000000 0.107045 0.031244
0.088624 0.103139 0.022632
0.195114 0.101039 0.014514
0.301500 0.099348 0.008417
0.408362 0.098170 0.005689
0.515392 0.099409 0.003394
0.628168 0.109151 0.004688
0.749264 0.124971 0.010376
0.871794 0.145687 0.026496
0.994617 0.174417 0.044276
1.000000 0.203940 0.060072
1.000000 0.228122 0.076252
1.000000 0.244334 0.090101
1.000000 0.257993 0.102541
0.000000 0.213724 0.060084
0.000000 0.207822 0.055305
0.000000 0.204062 0.048389
0.051752 0.198892 0.040766
0.165237 0.193674 0.031830
0.273924 0.190890 0.024170
0.381024 0.189126 0.017011
0.488045 0.188058 0.010803
0.601886 0.196628 0.011298
0.723470 0.211746 0.021820
0.845054 0.229245 0.035120
0.971209 0.254130 0.053211
1.000000 0.283024 0.068733
1.000000 0.310021 0.085530
1.000000 0.329204 0.101381
1.000000 0.342986 0.113466
0.000000 0.312395 0.075874
0.000000 0.303044 0.072895
0.000000 0.298003 0.066688
0.005512 0.293455 0.059547
0.127340 0.287358 0.051508
0.243693 0.282487 0.042957
0.353588 0.279783 0.034907
0.461085 0.278514 0.026734
0.574932 0.285039 0.026154
0.696919 0.299644 0.034986
0.818570 0.315795 0.046387
0.943639 0.336315 0.062629
1.000000 0.363836 0.077778
1.000000 0.389795 0.092909
1.000000 0.413367 0.111342
1.000000 0.427143 0.123006
0.000000 0.413288 0.090797
0.000000 0.401715 0.089351
0.000000 0.392377 0.084749
0.001373 0.387231 0.078315
0.067646 0.383960 0.069850
0.204929 0.376464 0.061939
0.322692 0.371795 0.053822
0.432782 0.369854 0.044526
0.547594 0.375592 0.043024
0.669606 0.388891 0.050013
0.791769 0.403204 0.059889
0.915459 0.420819 0.073115
1.000000 0.446033 0.088685
1.000000 0.471687 0.102803
1.000000 0.497679 0.122115
1.000000 0.511925 0.133632
0.000000 0.521825 0.107845
0.000000 0.503255 0.105568
0.000000 0.492934 0.101955
0.000000 0.482777 0.096809
0.061067 0.477974 0.089558
0.136464 0.475251 0.080641
0.283195 0.467933 0.072169
0.401025 0.463276 0.063502
0.518749 0.467720 0.061604
0.641950 0.479835 0.067988
0.764596 0.492262 0.076570
0.887395 0.507588 0.086525
1.000000 0.529259 0.100453
1.000000 0.553204 0.114253
1.000000 0.579327 0.133242
1.000000 0.595496 0.145766
0.000000 0.629603 0.133455
0.000000 0.610999 0.131954
0.000000 0.600159 0.127730
0.000000 0.591547 0.122310
0.059925 0.579724 0.116097
0.130379 0.576501 0.107527
0.227579 0.572143 0.098537
0.369183 0.565338 0.089326
0.486903 0.560217 0.080543
0.612891 0.570874 0.086592
0.737026 0.582348 0.093800
0.859709 0.595496 0.101521
0.985241 0.613025 0.113375
1.000000 0.633948 0.125991
1.000000 0.659474 0.145425
1.000000 0.677900 0.159866
0.000000 0.738186 0.165982
0.000000 0.722554 0.165170
0.000000 0.710018 0.162210
0.000439 0.701173 0.156020
0.064100 0.692744 0.149465
0.134627 0.686488 0.141775
0.205747 0.682856 0.132503
0.322448 0.676057 0.123464
0.463124 0.668342 0.114894
0.580835 0.662568 0.107381
0.707845 0.672700 0.113802
0.831662 0.684450 0.119930
0.956609 0.699092 0.127700
1.000000 0.716896 0.139541
1.000000 0.738064 0.154885
1.000000 0.758364 0.170529
0.000000 0.843565 0.198038
0.000000 0.837382 0.197708
0.000000 0.824442 0.195883
0.005615 0.816074 0.191153
0.071461 0.809732 0.184488
0.139071 0.808231 0.177786
0.209622 0.802725 0.168930
0.281523 0.797385 0.159194
0.423261 0.785580 0.149905
0.556701 0.775528 0.141189
0.675148 0.767062 0.133449
0.801779 0.776773 0.138711
0.927697 0.787771 0.145406
1.000000 0.801547 0.155056
1.000000 0.819614 0.167709
1.000000 0.839347 0.182516
0.000000 0.924602 0.207102
0.000000 0.924523 0.208792
0.000000 0.924437 0.210507
0.010748 0.924315 0.211087
0.078505 0.924071 0.211130
0.145303 0.923632 0.208798
0.213706 0.922637 0.204532
0.284837 0.917748 0.195273
0.357659 0.911101 0.186166
0.520925 0.895445 0.176944
0.650752 0.883653 0.167453
0.768722 0.874711 0.158737
0.896880 0.882933 0.165115
1.000000 0.893529 0.173800
1.000000 0.905388 0.183322
1.000000 0.921471 0.196072
0.000000 0.997784 0.202963
0.000000 0.997748 0.205948
0.000000 0.997693 0.208365
0.018293 0.997632 0.210336
0.084486 0.997540 0.211405
0.149538 0.997418 0.212253
0.217319 0.997290 0.213889
0.287199 0.997144 0.215457
0.359570 0.996979 0.215097
0.450513 0.996826 0.212406
0.616699 0.996686 0.203775
0.744961 0.989947 0.194888
0.863481 0.984527 0.186984
0.990832 0.989099 0.194632
1.000000 0.995349 0.203110
1.000000 1.000000 0.212674
0.000000 1.000000 0.194229
0.000000 1.000000 0.197537
0.000000 1.000000 0.200748
0.023798 1.000000 0.203793
0.089149 1.000000 0.205942
0.154720 1.000000 0.207864
0.220945 1.000000 0.209549
0.289928 1.000000 0.211875
0.360894 1.000000 0.214694
0.433912 1.000000 0.218039
0.547259 1.000000 0.222293
0.712618 1.000000 0.225229
0.839628 1.000000 0.222928
0.959753 1.000000 0.216172
1.000000 1.000000 0.223966
1.000000 1.000000 0.236020
0.000000 1.000000 0.173202
0.000000 1.000000 0.175479
0.000000 1.000000 0.178433
0.021430 1.000000 0.181680
0.089033 1.000000 0.185214
0.155972 1.000000 0.188937
0.223178 1.000000 0.192624
0.291771 1.000000 0.197073
0.361706 1.000000 0.201401
0.433094 1.000000 0.206406
0.506133 1.000000 0.211185
0.648865 1.000000 0.220151
0.803848 1.000000 0.228128
0.932476 1.000000 0.234208
1.000000 1.000000 0.238901
1.000000 1.000000 0.252067
0.000000 1.000000 0.171994
0.000000 1.000000 0.174203
0.000000 1.000000 0.177060
0.021137 1.000000 0.180301
0.088820 1.000000 0.183810
0.155843 1.000000 0.187637
0.223093 1.000000 0.191421
0.291698 1.000000 0.195956
0.361621 1.000000 0.200394
0.432941 1.000000 0.205460
0.505895 1.000000 0.210324
0.580096 1.000000 0.215409
0.753970 1.000000 0.225449
0.902177 1.000000 0.232737
1.000000 1.000000 0.238608
1.000000 1.000000 0.244749
0.000000 0.000000 0.090236
0.000000 0.000000 0.074226
0.053516 0.000000 0.061964
0.140645 0.000000 0.050245
0.247343 0.000000 0.049024
0.353765 0.000000 0.047138
0.460017 0.000000 0.046784
0.573004 0.000000 0.053211
0.684785 0.000000 0.058674
0.803732 0.000000 0.072181
0.922771 0.000000 0.088545
1.000000 0.000000 0.102718
1.000000 0.000000 0.118672
1.000000 0.000000 0.136178
1.000000 0.000000 0.148434
1.000000 0.000000 0.158895
0.000000 0.000000 0.095436
0.000000 0.000000 0.091353
0.041138 0.000000 0.068281
0.126546 0.000000 0.044623
0.231064 0.000000 0.041279
0.336724 0.000000 0.038947
0.442188 0.000000 0.037250
0.547442 0.000000 0.036341
0.664930 0.000000 0.046796
0.786001 0.000000 0.062177
0.906188 0.000000 0.079243
1.000000 0.001312 0.097505
1.000000 0.011261 0.116036
1.000000 0.031177 0.133602
1.000000 0.045826 0.145840
1.000000 0.059431 0.156320
0.000000 0.016022 0.104573
0.000000 0.013593 0.100417
0.028345 0.011554 0.094362
0.112575 0.002515 0.070765
0.215799 0.002161 0.064552
0.320855 0.001929 0.059284
0.426313 0.002301 0.054975
0.531304 0.003247 0.050483
0.642298 0.008154 0.052039
0.764077 0.023401 0.063844
0.886381 0.047639 0.077833
1.000000 0.078730 0.096364
1.000000 0.106593 0.113698
1.000000 0.129183 0.130776
1.000000 0.144295 0.142782
1.000000 0.157967 0.153811
0.000000 0.108437 0.118544
0.000000 0.103938 0.113564
0.004273 0.100850 0.107875
0.098970 0.098659 0.098799
0.203140 0.096883 0.091109
0.307976 0.095448 0.084303
0.413513 0.094771 0.078987
0.519219 0.095558 0.074781
0.631116 0.105489 0.076551
0.751656 0.122451 0.087239
0.874394 0.143685 0.101534
0.995850 0.172116 0.120131
1.000000 0.201706 0.136226
1.000000 0.226621 0.151644
1.000000 0.242728 0.165200
1.000000 0.256376 0.177652
0.000000 0.206436 0.134194
0.000000 0.200266 0.131106
0.000000 0.196902 0.125075
0.067451 0.192923 0.117726
0.174276 0.189480 0.108443
0.280607 0.187185 0.100203
0.386596 0.185483 0.093452
0.492842 0.184195 0.087776
0.605969 0.192416 0.088869
0.726766 0.208780 0.098006
0.847709 0.226835 0.109834
0.973669 0.252158 0.127236
1.000000 0.281224 0.144411
1.000000 0.308757 0.160665
1.000000 0.327861 0.176028
1.000000 0.341656 0.188095
0.000000 0.304369 0.149978
0.000000 0.295781 0.148330
0.000000 0.290837 0.142678
0.013935 0.287108 0.135244
0.139852 0.283000 0.126552
0.250999 0.278935 0.117519
0.359277 0.276304 0.109804
0.466120 0.274601 0.102498
0.579443 0.281047 0.102571
0.700600 0.296410 0.110365
0.821628 0.313042 0.120943
0.945953 0.334185 0.135439
1.000000 0.362048 0.152895
1.000000 0.388318 0.168215
1.000000 0.412189 0.185892
1.000000 0.425910 0.197556
0.000000 0.404340 0.165182
0.000000 0.393909 0.164523
0.000000 0.385504 0.160690
0.003003 0.381018 0.153683
0.082026 0.377636 0.145290
0.215213 0.372296 0.136757
0.328960 0.368225 0.128115
0.438135 0.365814 0.119850
0.552251 0.371691 0.118508
0.673622 0.385296 0.125093
0.795016 0.400244 0.133889
0.917870 0.418494 0.145583
1.000000 0.444154 0.162600
1.000000 0.470039 0.177438
1.000000 0.496233 0.196286
1.000000 0.510375 0.207858
0.000000 0.514678 0.182565
0.000000 0.494356 0.180417
