LUTs/SPK Cube Block1 S16/TheBrim_SPK_Type-X_Block1_S16.cube
TITLE "TheBrim® SPK Block 1"
# © Copyright 2021 - TheBrim® d.o.o. Croatia
LUT_3D_SIZE 6
DOMAIN_MIN 0.000000 0.000000 0.000000
DOMAIN_MAX 1.000000 1.000000 1.000000
0.000000 0.000000 0.000000
0.060737 0.071913 0.066804
0.294206 0.313835 0.310082
0.686116 0.686036 0.625715
0.896574 0.879515 0.811637
0.972717 0.947753 0.894072
0.004712 0.004431 0.004291
0.062318 0.074507 0.069166
0.297581 0.316747 0.313024
0.687880 0.687581 0.627002
0.896965 0.879869 0.812070
0.972717 0.947753 0.894072
0.016962 0.015882 0.015424
0.067097 0.082142 0.076332
0.307756 0.325554 0.321904
0.693068 0.692158 0.630756
0.898149 0.880888 0.813339
0.972717 0.947753 0.894072
0.028473 0.028357 0.027454
0.077467 0.097102 0.091316
0.327575 0.342028 0.338189
0.702705 0.700319 0.637714
0.900279 0.882731 0.815604
0.972717 0.947753 0.894072
0.040558 0.042811 0.040839
0.095851 0.119893 0.114852
0.356603 0.366320 0.361761
0.716310 0.711751 0.647486
0.902928 0.885014 0.818436
0.972717 0.947753 0.894072
0.050141 0.055604 0.052186
0.114595 0.139693 0.135463
0.379370 0.385968 0.380212
0.726833 0.721138 0.655598
0.905241 0.887028 0.820902
0.972717 0.947753 0.894072
0.000000 0.000000 0.000000
0.040540 0.042768 0.040797
0.287657 0.308141 0.304363
0.691981 0.691218 0.629975
0.898900 0.881547 0.814133
0.972717 0.947753 0.894072
0.000000 0.000000 0.000000
0.058241 0.067884 0.063142
0.301292 0.319963 0.316265
0.695051 0.693904 0.632184
0.899358 0.881944 0.814640
0.972717 0.947753 0.894072
0.023011 0.022235 0.021570
0.072456 0.090040 0.084132
0.321923 0.337389 0.333611
0.702223 0.699916 0.637342
0.900664 0.883073 0.816025
0.972717 0.947753 0.894072
0.035309 0.036408 0.035053
0.087611 0.110317 0.104945
0.346386 0.357586 0.353466
0.713021 0.708980 0.645106
0.902916 0.885026 0.818418
0.972717 0.947753 0.894072
0.047840 0.052302 0.049274
0.110323 0.135134 0.130727
0.376385 0.383270 0.377801
0.727218 0.721559 0.655958
0.905693 0.887449 0.821366
0.972717 0.947753 0.894072
0.058607 0.068397 0.063606
0.132552 0.159377 0.155831
0.399731 0.406207 0.396808
0.737575 0.731221 0.664405
0.907903 0.889274 0.823490
0.972717 0.947753 0.894072
0.000000 0.000000 0.000000
0.013983 0.013092 0.012708
0.145498 0.173501 0.170370
0.651252 0.652345 0.600098
0.895805 0.878849 0.810770
0.972717 0.947753 0.894072
0.000000 0.000000 0.000000
0.013983 0.013092 0.012708
0.197494 0.224765 0.221848
0.665522 0.667451 0.610736
0.897465 0.880308 0.812619
0.972717 0.947753 0.894072
0.000000 0.000000 0.000000
0.044135 0.047431 0.044953
0.279429 0.301018 0.297166
0.692641 0.691749 0.630420
0.901115 0.883445 0.816483
0.972717 0.947753 0.894072
0.033033 0.033722 0.032526
0.085280 0.107649 0.102181
0.349596 0.360247 0.356054
0.719496 0.714418 0.649757
0.905626 0.887370 0.821311
0.972717 0.947753 0.894072
0.056440 0.064833 0.060304
0.129531 0.156008 0.152358
0.400494 0.406964 0.397430
0.741958 0.735335 0.668000
0.910326 0.891301 0.825803
0.972717 0.947753 0.894072
0.078846 0.099031 0.093281
0.172451 0.200534 0.197726
0.444477 0.450282 0.433112
0.763882 0.756399 0.686464
0.915325 0.895537 0.830649
0.972717 0.947753 0.894072
0.000000 0.000000 0.000000
0.013983 0.013092 0.012708
0.026740 0.026343 0.025537
0.437653 0.443616 0.427588
0.868516 0.853782 0.779965
0.969274 0.944555 0.890513
0.000000 0.000000 0.000000
0.013983 0.013092 0.012708
0.026740 0.026343 0.025537
0.493883 0.497380 0.472706
0.874333 0.859196 0.786337
0.970306 0.945544 0.891569
0.000000 0.000000 0.000000
0.013983 0.013092 0.012708
0.069178 0.082710 0.077961
0.596533 0.593024 0.555535
0.886155 0.870195 0.799838
0.972564 0.947625 0.893901
0.000000 0.000000 0.000000
0.015290 0.014307 0.013904
0.231388 0.257475 0.253660
0.672291 0.673829 0.615711
0.898473 0.881181 0.813687
0.972717 0.947753 0.894072
0.038386 0.040156 0.038441
0.095094 0.118892 0.113832
0.365978 0.374408 0.369360
0.730098 0.724184 0.658259
0.909197 0.890361 0.824741
0.972717 0.947753 0.894072
0.081770 0.103114 0.097505
0.178787 0.206656 0.203873
0.454096 0.459541 0.440851
0.770822 0.763388 0.692653
0.918230 0.898003 0.833481
0.972717 0.947753 0.894072
0.000000 0.000000 0.000000
0.013983 0.013092 0.012708
0.026740 0.026343 0.025537
0.039417 0.041407 0.039570
0.743246 0.736513 0.668995
0.951330 0.928106 0.871495
0.000000 0.000000 0.000000
0.013983 0.013092 0.012708
0.026740 0.026343 0.025537
0.039417 0.041407 0.039570
0.771542 0.764443 0.693715
0.953814 0.930407 0.874522
0.000000 0.000000 0.000000
0.013983 0.013092 0.012708
0.026740 0.026343 0.025537
0.174734 0.202152 0.198984
0.817185 0.810941 0.737044
0.959521 0.935613 0.880510
0.000000 0.000000 0.000000
0.013983 0.013092 0.012708
0.026740 0.026343 0.025537
0.462141 0.467231 0.447297
0.863389 0.849155 0.774783
0.966918 0.942412 0.888090
0.000000 0.000000 0.000000
0.013983 0.013092 0.012708
0.161910 0.190311 0.187503
0.635993 0.636133 0.588446
0.891569 0.875090 0.805960
0.972717 0.947753 0.894072
0.037995 0.039686 0.038032
0.095100 0.119094 0.114022
0.368841 0.376495 0.371685
0.733065 0.726949 0.660658
0.910753 0.891655 0.826230
0.972717 0.947753 0.894072
0.000000 0.000000 0.000000
0.013983 0.013092 0.012708
0.026740 0.026343 0.025537
0.193906 0.221292 0.218369
0.645856 0.646674 0.596069
0.896391 0.879362 0.811398
0.000000 0.000000 0.000000
0.013983 0.013092 0.012708
0.026740 0.026343 0.025537
0.068067 0.083137 0.077595
0.586322 0.581628 0.546404
0.904778 0.886674 0.820511
0.000000 0.000000 0.000000
0.013983 0.013092 0.012708
0.026740 0.026343 0.025537
0.039417 0.041407 0.039570
0.438218 0.443259 0.427759
0.923534 0.902599 0.838755
0.000000 0.000000 0.000000
0.013983 0.013092 0.012708
0.026740 0.026343 0.025537
0.039417 0.041407 0.039570
0.693043 0.691713 0.630683
0.942522 0.919872 0.860423
0.000000 0.000000 0.000000
0.013983 0.013092 0.012708
0.026740 0.026343 0.025537
0.250291 0.274327 0.270561
0.818601 0.812045 0.738137
0.957989 0.934209 0.878929
0.000000 0.000000 0.000000
0.013983 0.013092 0.012708
0.072126 0.089009 0.083217
0.576715 0.572100 0.538384
0.879533 0.864085 0.792300
0.970550 0.945769 0.891844
