LUTs/SPK Cube Block1 S16/TheBrim_SPK_Type-P_Block 1_S16.cube
TITLE "TheBrim® Industrial Imaging Burau"
# © Copyright 2022 - TheBrim® d.o.o. Croatia
LUT_3D_SIZE 6
0.0000000000 0.0000000000 0.0000000000
0.1137407492 0.0013000687 0.0000000000
0.4275761044 0.0335759518 0.0163149462
0.7042069123 0.1025467308 0.0769054704
1.0000000000 0.2100862135 0.1683131151
1.0000000000 0.2588845655 0.1999237049
0.0000000000 0.0989456016 0.0277470054
0.0829053178 0.1029068437 0.0062073701
0.3703303578 0.1358602274 0.0036194400
0.6698680095 0.1657618067 0.0591683833
1.0000000000 0.2681071183 0.1478721294
1.0000000000 0.3412283513 0.1701564050
0.0000000000 0.3473685817 0.1589379721
0.0017578393 0.3157213703 0.1267719539
0.2576516365 0.3072983902 0.0730846113
0.5843442435 0.3408438239 0.0615487907
0.9905516136 0.4247013046 0.1127641718
1.0000000000 0.4948409247 0.1303974975
0.0000000000 0.6590280003 0.3095872435
0.0000000000 0.6258854047 0.2749614710
0.1602319371 0.6005371176 0.2132051575
0.5003921569 0.5839902342 0.1332722972
0.8955001144 0.6411688411 0.1168719005
1.0000000000 0.7123064012 0.1054032197
0.0385137713 0.8233615625 0.3363576715
0.0906874189 0.8294773785 0.3245899138
0.2056305791 0.8671549554 0.2968734264
0.3893797208 0.9355458915 0.2541542687
0.8126741436 0.9327138170 0.1648157473
1.0000000000 0.9971984436 0.0965835050
0.1847562371 0.8591287098 0.3012741283
0.2174166476 0.8712687877 0.2939681086
0.2982955673 0.9047898070 0.2753154803
0.4985854887 0.9633051041 0.2437598230
0.7977813382 1.0000000000 0.1979156176
1.0000000000 1.0000000000 0.1612573434
0.0080445563 0.0000000000 0.0901808194
0.1131548028 0.0000000000 0.0602609293
0.4188662547 0.0000000000 0.0870984970
0.7025040055 0.0657969024 0.1257892729
1.0000000000 0.1866727703 0.2021759365
1.0000000000 0.2153963531 0.2467139696
0.0000000000 0.1162554360 0.1269489586
0.1043167773 0.1040054932 0.1035599298
0.3589776455 0.1143144884 0.1011612116
0.6765941863 0.1535484855 0.1238300145
1.0000000000 0.2550576028 0.1948821241
1.0000000000 0.3281483177 0.2469275959
0.0000000000 0.3376760510 0.1688929580
0.0000000000 0.3127855344 0.1355001144
0.2611490043 0.2971725032 0.0950270848
0.5944274052 0.3324879835 0.1003494316
1.0000000000 0.4195132372 0.1517601282
1.0000000000 0.4862561990 0.2194308385
0.0000000000 0.6516975662 0.3130296788
0.0000000000 0.6248050660 0.2757366293
0.1615075914 0.5985778592 0.2119417105
0.5060135805 0.5788815137 0.1301045243
0.9040817884 0.6347051194 0.1423361563
1.0000000000 0.7037430381 0.2129549096
0.0474189364 0.8231540398 0.3346486610
0.0969680323 0.8310460060 0.3230701152
0.2098664836 0.8687174792 0.2958724346
0.3935240711 0.9362111849 0.2532936599
0.8197543297 0.9308094911 0.1869535363
1.0000000000 0.9883360037 0.2485755703
0.1955718318 0.8633951324 0.2992233158
0.2280003052 0.8752727550 0.2918806744
0.3071885252 0.9087998779 0.2733562219
0.5212848096 0.9677302205 0.2412390326
0.8079804685 1.0000000000 0.2048187991
1.0000000000 1.0000000000 0.3133653773
0.0983901732 0.0418524453 0.2753765164
0.1683680476 0.0227786679 0.2746440833
0.3560601205 0.0000000000 0.2365148394
0.6968093385 0.0103150988 0.2715861753
1.0000000000 0.0874952316 0.3415152209
1.0000000000 0.1195147631 0.3778377966
0.0465339132 0.1232257572 0.3157640955
0.1451865415 0.1080643931 0.3012680247
0.3431265736 0.0505928130 0.2417822538
0.6815869383 0.0930434119 0.2747600519
1.0000000000 0.1813382162 0.3380788891
1.0000000000 0.2543495842 0.3797177081
0.0000000000 0.3270496681 0.3418570230
0.0322331579 0.3033188373 0.3203906310
0.3022323949 0.3037094682 0.3041550317
0.6053772793 0.3177538720 0.3018051423
1.0000000000 0.4037903410 0.3597039750
1.0000000000 0.4698191806 0.4077759976
0.0000000000 0.6298039216 0.4270450904
0.0000000000 0.6166567483 0.4050476844
0.1741298543 0.5755550469 0.3604974441
0.5192706188 0.5568291752 0.3232532235
0.9134203098 0.6197573816 0.3581841764
1.0000000000 0.6880811780 0.4177248798
0.0464850843 0.8216586557 0.4464911879
0.0970656901 0.8280125124 0.4445258259
0.2114961471 0.8598916609 0.4434454871
0.4281864652 0.9183276112 0.4340093080
0.8309178302 0.9084641794 0.4070069429
1.0000000000 0.9686579690 0.4698924239
0.2150850690 0.8666544594 0.3330922408
0.2433752956 0.8764080262 0.3335683223
0.3208789197 0.9081834134 0.3447562371
0.5414480812 0.9603875792 0.3775936522
0.8239597162 1.0000000000 0.4355230030
1.0000000000 1.0000000000 0.5449393454
0.1748012512 0.1221393149 0.5001907378
0.2534340429 0.1054581521 0.5213733120
0.4293339437 0.0444220645 0.4770214389
0.6566292821 0.0000000000 0.4251102464
1.0000000000 0.0383550774 0.4771374075
1.0000000000 0.0955886168 0.5177477684
0.1388632029 0.1878019379 0.5704768444
0.2377294575 0.1640711070 0.5920714122
0.4391729610 0.0977309834 0.5200122072
0.6699351492 0.0481696803 0.4458503090
1.0000000000 0.1235675593 0.4898146029
1.0000000000 0.1974395361 0.5263172351
0.0000000000 0.3605523766 0.6081483177
0.1367391470 0.3570061799 0.6184634165
0.3866086824 0.3380666819 0.5779110399
0.6207034409 0.2775555047 0.5019607843
0.9955809873 0.3434805829 0.5425040055
1.0000000000 0.4015136950 0.5687495232
0.0000000000 0.6177248798 0.6381475547
0.0000000000 0.6013550011 0.6349492638
0.2561074235 0.5691767758 0.5923887999
0.5623895628 0.5584405280 0.5618768597
0.9389578088 0.6116762036 0.5928953994
1.0000000000 0.6739147021 0.6346013581
0.0292668040 0.8309544518 0.6640573739
0.0829846647 0.8337010758 0.6629587243
0.2081208515 0.8644632639 0.6671458000
0.4929640650 0.9012069886 0.6659861143
0.8525123980 0.8901899748 0.6437079423
1.0000000000 0.9571038376 0.6972426947
0.2160555428 0.8624002441 0.5747798886
0.2451575494 0.8732463569 0.5784603647
0.3372854200 0.9062729839 0.5911680781
0.5795345998 0.9612054627 0.6192935073
0.8616861219 1.0000000000 0.6789135576
1.0000000000 1.0000000000 0.7739528496
0.2197177081 0.2227267872 0.6395880064
0.2928511482 0.2179964904 0.6260440986
0.4164675364 0.1769619287 0.5754757000
0.5679499504 0.1291035325 0.5165575647
0.7813687343 0.1189776455 0.4878492409
1.0000000000 0.2053620203 0.5305043107
0.2103669795 0.2587258717 0.6707835508
0.2862775616 0.2540321965 0.6550545510
0.4169130999 0.2232455940 0.6093446250
0.5722285801 0.1744655528 0.5448783093
0.7878934920 0.1636438544 0.5123338674
1.0000000000 0.2508705272 0.5535759518
0.1601831083 0.3839169909 0.7940093080
0.2501136797 0.3732967117 0.7696009766
0.4285038529 0.3599664302 0.7234393835
0.6046265354 0.3182787823 0.6432928969
0.8337499046 0.3171557183 0.6020874342
1.0000000000 0.4030151827 0.6366521706
0.0000000000 0.6306157015 0.9569878691
0.1315205615 0.6315617609 0.9814877546
0.3809140154 0.6118715190 0.9345632105
0.6604318303 0.5990844587 0.8792828260
0.9160997940 0.5637506676 0.7742763409
1.0000000000 0.6393865873 0.7894316014
0.0117067216 0.8530678264 0.9384573129
0.0749706264 0.8567299916 0.9332448310
0.2398901350 0.8842084382 0.9530937667
0.5591180285 0.8839398795 0.9264271000
0.8946089876 0.8845563439 0.8944441901
1.0000000000 0.9461478599 0.9371450370
0.2268833448 0.8779644465 0.8078156710
0.2700236515 0.8887739376 0.8144319829
0.4273441672 0.9187548638 0.8320225834
0.6342473487 0.9815793088 0.8578774701
0.9148241398 1.0000000000 0.9227527276
1.0000000000 1.0000000000 1.0000000000
0.2287632563 0.2825970855 0.6887159533
0.2891218433 0.2773235676 0.6750072480
0.3952941176 0.2584267948 0.6396978714
0.5147081712 0.2173800259 0.5860715648
0.6562203403 0.1725001907 0.5270557717
0.8820172427 0.2060273136 0.5333180743
0.2416968032 0.3042771038 0.7066971847
0.2916853590 0.3008163577 0.6953017472
0.3978454261 0.2860517281 0.6624460212
0.5173327230 0.2462439918 0.6065491722
0.6577706569 0.2063508049 0.5498405432
0.8971358816 0.2529579614 0.5587396048
0.2442969406 0.3826474403 0.7795986877
0.2924116884 0.3760189212 0.7638574807
0.4057190814 0.3652582589 0.7326436255
0.5342458228 0.3457755398 0.6852674144
0.7025467308 0.3435904479 0.6404608225
0.9400991836 0.3990905623 0.6476325628
0.2522865644 0.5754390784 0.9646601053
0.3158068208 0.5732539864 0.9480399786
0.4598153658 0.5711848631 0.9146532387
0.6473090715 0.5816830701 0.8767132067
0.8141939422 0.5796932937 0.8161959258
1.0000000000 0.6233768215 0.8048310063
0.1227924010 0.9027634089 1.0000000000
0.2196932937 0.9014267185 1.0000000000
0.4240360113 0.8968307012 1.0000000000
0.6816968032 0.8842145418 1.0000000000
0.9583672847 0.8881330587 1.0000000000
1.0000000000 0.9042282750 1.0000000000
0.3613336385 0.8986190585 1.0000000000
0.3992004273 0.9091355764 1.0000000000
0.5231982910 0.9478324559 1.0000000000
0.7177813382 1.0000000000 1.0000000000
0.9748592355 1.0000000000 1.0000000000
1.0000000000 1.0000000000 1.0000000000
