LUTs/SPK Cube Block1 S16/TheBrim_SPK_Type-Z_Block1_S16.cube
TITLE "TheBrim® Industrial Imaging Burau"
# © Copyright 2022 - TheBrim® d.o.o. Croatia
LUT_3D_SIZE 6
DOMAIN_MIN 0.000000 0.000000 0.000000
DOMAIN_MAX 1.000000 1.000000 1.000000
0.000000 0.000000 0.000000
0.000000 0.000000 0.000000
0.000000 0.000000 0.000000
0.004272 0.004272 0.004272
0.028082 0.028082 0.028082
0.101624 0.101624 0.101624
0.000000 0.000000 0.000000
0.003449 0.003449 0.003449
0.026776 0.026776 0.026776
0.098596 0.098596 0.098596
0.255902 0.255902 0.255902
0.412451 0.412451 0.412451
0.025464 0.025464 0.025464
0.093786 0.093786 0.093786
0.252240 0.252240 0.252240
0.407965 0.407965 0.407965
0.572229 0.572229 0.572229
0.707312 0.707312 0.707312
0.246167 0.246167 0.246167
0.402337 0.402337 0.402337
0.567956 0.567956 0.567956
0.703369 0.703369 0.703369
0.809405 0.809405 0.809405
0.896350 0.896350 0.896350
0.562482 0.562482 0.562482
0.700610 0.700610 0.700610
0.806592 0.806592 0.806592
0.894995 0.894995 0.894995
0.956256 0.956256 0.956256
0.987726 0.987726 0.987726
0.803711 0.803711 0.803711
0.893060 0.893060 0.893060
0.955805 0.955805 0.955805
0.987616 0.987616 0.987616
1.000000 1.000000 1.000000
1.000000 1.000000 1.000000
0.000000 0.000000 0.000000
0.000000 0.000000 0.000000
0.000000 0.000000 0.000000
0.010028 0.010028 0.010028
0.045868 0.045868 0.045868
0.157983 0.157983 0.157983
0.000000 0.000000 0.000000
0.009052 0.009052 0.009052
0.043610 0.043610 0.043610
0.152759 0.152759 0.152759
0.312128 0.312128 0.312128
0.473700 0.473700 0.473700
0.041309 0.041309 0.041309
0.147259 0.147259 0.147259
0.306928 0.306928 0.306928
0.467713 0.467713 0.467713
0.632489 0.632489 0.632489
0.746735 0.746735 0.746735
0.301556 0.301556 0.301556
0.462030 0.462030 0.462030
0.628027 0.628027 0.628027
0.743317 0.743317 0.743317
0.844733 0.844733 0.844733
0.923438 0.923438 0.923438
0.622150 0.622150 0.622150
0.740076 0.740076 0.740076
0.842041 0.842041 0.842041
0.920373 0.920373 0.920373
0.972235 0.972235 0.972235
0.993719 0.993719 0.993719
0.839209 0.839209 0.839209
0.918658 0.918658 0.918658
0.971765 0.971765 0.971765
0.992707 0.992707 0.992707
1.000000 1.000000 1.000000
1.000000 1.000000 1.000000
0.000000 0.000000 0.000000
0.000000 0.000000 0.000000
0.002167 0.002167 0.002167
0.017651 0.017651 0.017651
0.072071 0.072071 0.072071
0.219232 0.219232 0.219232
0.002167 0.002167 0.002167
0.017560 0.017560 0.017560
0.069440 0.069440 0.069440
0.212030 0.212030 0.212030
0.369861 0.369861 0.369861
0.534906 0.534906 0.534906
0.066931 0.066931 0.066931
0.206885 0.206885 0.206885
0.363904 0.363904 0.363904
0.528412 0.528412 0.528412
0.677454 0.677454 0.677454
0.786169 0.786169 0.786169
0.359522 0.359522 0.359522
0.523743 0.523743 0.523743
0.673047 0.673047 0.673047
0.782666 0.782666 0.782666
0.876465 0.876465 0.876465
0.944067 0.944067 0.944067
0.670117 0.670117 0.670117
0.779620 0.779620 0.779620
0.873608 0.873608 0.873608
0.942529 0.942529 0.942529
0.982074 0.982074 0.982074
0.996777 0.996777 0.996777
0.870788 0.870788 0.870788
0.941205 0.941205 0.941205
0.981116 0.981116 0.981116
0.996063 0.996063 0.996063
1.000000 1.000000 1.000000
1.000000 1.000000 1.000000
0.000000 0.000000 0.000000
0.000000 0.000000 0.000000
0.005102 0.005102 0.005102
0.032019 0.032019 0.032019
0.116297 0.116297 0.116297
0.276825 0.276825 0.276825
0.005567 0.005567 0.005567
0.030737 0.030737 0.030737
0.111493 0.111493 0.111493
0.271082 0.271082 0.271082
0.430164 0.430164 0.430164
0.594745 0.594745 0.594745
0.106531 0.106531 0.106531
0.266297 0.266297 0.266297
0.422858 0.422858 0.422858
0.590289 0.590289 0.590289
0.718530 0.718530 0.718530
0.821631 0.821631 0.821631
0.417614 0.417614 0.417614
0.584522 0.584522 0.584522
0.715393 0.715393 0.715393
0.819214 0.819214 0.819214
0.904932 0.904932 0.904932
0.963764 0.963764 0.963764
0.710968 0.710968 0.710968
0.816541 0.816541 0.816541
0.902264 0.902264 0.902264
0.962128 0.962128 0.962128
0.989795 0.989795 0.989795
1.000000 1.000000 1.000000
0.898645 0.898645 0.898645
0.960907 0.960907 0.960907
0.988830 0.988830 0.988830
1.000000 1.000000 1.000000
1.000000 1.000000 1.000000
1.000000 1.000000 1.000000
0.000000 0.000000 0.000000
0.000446 0.000446 0.000446
0.011347 0.011347 0.011347
0.051630 0.051630 0.051630
0.173803 0.173803 0.173803
0.332532 0.332532 0.332532
0.010681 0.010681 0.010681
0.049902 0.049902 0.049902
0.168383 0.168383 0.168383
0.328217 0.328217 0.328217
0.489258 0.489258 0.489258
0.650915 0.650915 0.650915
0.163196 0.163196 0.163196
0.321930 0.321930 0.321930
0.484094 0.484094 0.484094
0.646283 0.646283 0.646283
0.757800 0.757800 0.757800
0.856348 0.856348 0.856348
0.479248 0.479248 0.479248
0.641113 0.641113 0.641113
0.754724 0.754724 0.754724
0.853516 0.853516 0.853516
0.929181 0.929181 0.929181
0.976208 0.976208 0.976208
0.750379 0.750379 0.750379
0.850623 0.850623 0.850623
0.927039 0.927039 0.927039
0.975293 0.975293 0.975293
0.994269 0.994269 0.994269
1.000000 1.000000 1.000000
0.925665 0.925665 0.925665
0.973694 0.973694 0.973694
0.995422 0.995422 0.995422
1.000000 1.000000 1.000000
1.000000 1.000000 1.000000
1.000000 1.000000 1.000000
0.000000 0.000000 0.000000
0.002167 0.002167 0.002167
0.021503 0.021503 0.021503
0.083099 0.083099 0.083099
0.235016 0.235016 0.235016
0.390717 0.390717 0.390717
0.020227 0.020227 0.020227
0.078784 0.078784 0.078784
0.230365 0.230365 0.230365
0.386365 0.386365 0.386365
0.550751 0.550751 0.550751
0.692841 0.692841 0.692841
0.224878 0.224878 0.224878
0.381012 0.381012 0.381012
0.546203 0.546203 0.546203
0.688605 0.688605 0.688605
0.796820 0.796820 0.796820
0.887482 0.887482 0.887482
0.541040 0.541040 0.541040
0.685760 0.685760 0.685760
0.794269 0.794269 0.794269
0.885046 0.885046 0.885046
0.949414 0.949414 0.949414
0.984387 0.984387 0.984387
0.789776 0.789776 0.789776
0.882214 0.882214 0.882214
0.947949 0.947949 0.947949
0.984485 0.984485 0.984485
0.997638 0.997638 0.997638
1.000000 1.000000 1.000000
0.945526 0.945526 0.945526
0.983630 0.983630 0.983630
0.996655 0.996655 0.996655
1.000000 1.000000 1.000000
1.000000 1.000000 1.000000
1.000000 1.000000 1.000000
