LUTs/SPK Cube Block1 S16/TheBrim_SPK_Type-F_Block1_S16.cube
TITLE "TheBrim® SPK Block 1"
# © Copyright 2021 - TheBrim® d.o.o. Croatia
LUT_3D_SIZE 16
DOMAIN_MIN 0.000000 0.000000 0.000000
DOMAIN_MAX 1.000000 1.000000 1.000000
0.005615 0.006592 0.005554
0.010114 0.006049 0.004407
0.029017 0.006702 0.003326
0.080116 0.007996 0.001794
0.162728 0.005341 0.000000
0.258213 0.000000 0.000000
0.359600 0.000000 0.000000
0.444746 0.000000 0.000000
0.497362 0.000000 0.000000
0.533129 0.000000 0.000000
0.557916 0.000000 0.000000
0.568170 0.000000 0.000000
0.574853 0.000000 0.000000
0.580414 0.000000 0.000000
0.584936 0.000000 0.000000
0.588708 0.000000 0.000000
0.005975 0.017560 0.006439
0.011371 0.014459 0.004889
0.031751 0.015491 0.003766
0.076246 0.017389 0.002264
0.151608 0.018976 0.000000
0.240287 0.011151 0.000000
0.346734 0.000000 0.000000
0.432789 0.000000 0.000000
0.500829 0.000000 0.000000
0.541698 0.000000 0.000000
0.572766 0.000000 0.000000
0.587225 0.000000 0.000000
0.594659 0.000000 0.000000
0.600195 0.000000 0.000000
0.603479 0.000000 0.000000
0.605457 0.000000 0.000000
0.003528 0.045161 0.006622
0.012409 0.039167 0.005066
0.034095 0.037073 0.004114
0.080244 0.039985 0.002167
0.143124 0.043165 0.000000
0.230521 0.041492 0.000000
0.330504 0.027900 0.000000
0.420807 0.001355 0.000000
0.500963 0.000000 0.000000
0.549584 0.000000 0.000000
0.588708 0.000000 0.000000
0.609772 0.000000 0.000000
0.617835 0.000000 0.000000
0.624121 0.000000 0.000000
0.626728 0.000000 0.000000
0.628241 0.000000 0.000000
0.000000 0.090120 0.004846
0.006928 0.086659 0.003357
0.039210 0.083699 0.002057
0.085310 0.080433 0.000427
0.148934 0.084279 0.000000
0.231962 0.086439 0.000000
0.325426 0.083803 0.000000
0.421546 0.070051 0.000000
0.504411 0.040632 0.000000
0.562621 0.006793 0.000000
0.607269 0.000000 0.000000
0.633143 0.000000 0.000000
0.646223 0.000000 0.000000
0.651594 0.000000 0.000000
0.654261 0.000000 0.000000
0.654987 0.000000 0.000000
0.000000 0.152706 0.000067
0.000000 0.143655 0.000000
0.035023 0.145211 0.000000
0.096590 0.141726 0.000000
0.158077 0.139290 0.000000
0.244584 0.144131 0.000000
0.330913 0.142867 0.000000
0.431171 0.139010 0.000000
0.514070 0.126015 0.000000
0.583838 0.106880 0.000000
0.631037 0.084028 0.000000
0.662708 0.059528 0.000000
0.679487 0.040668 0.000000
0.684034 0.031391 0.000000
0.685566 0.020166 0.000000
0.686287 0.013062 0.000000
0.000000 0.241855 0.000000
0.000000 0.222580 0.000000
0.016925 0.218357 0.000000
0.101650 0.214151 0.000000
0.176584 0.211698 0.000000
0.262028 0.214450 0.000000
0.353552 0.217398 0.000000
0.454176 0.217630 0.000000
0.540771 0.209445 0.000000
0.617133 0.196658 0.000000
0.665644 0.181155 0.000000
0.700417 0.166641 0.000000
0.716823 0.150887 0.000000
0.723928 0.140761 0.000000
0.723311 0.128450 0.000000
0.721920 0.118532 0.000000
0.000000 0.312065 0.000000
0.000000 0.310680 0.000000
0.000000 0.297441 0.000000
0.102937 0.296898 0.000000
0.191049 0.297331 0.000000
0.289049 0.305113 0.000000
0.376367 0.304442 0.000000
0.482097 0.307292 0.000000
0.568334 0.299760 0.000000
0.650782 0.290153 0.000000
0.700905 0.275584 0.000000
0.741189 0.263267 0.000000
0.759341 0.249955 0.000000
0.769369 0.237760 0.000000
0.768753 0.226249 0.000000
0.767898 0.217099 0.000000
0.000000 0.353655 0.000000
0.000000 0.360870 0.000000
0.000000 0.369152 0.000000
0.095998 0.379077 0.000000
0.206259 0.387189 0.000000
0.312004 0.395410 0.000000
0.406683 0.397388 0.000000
0.509450 0.400299 0.000000
0.601508 0.398016 0.000000
0.685493 0.392602 0.000000
0.740188 0.379498 0.000000
0.783090 0.365911 0.000000
0.804477 0.355059 0.000000
0.817899 0.343719 0.000000
0.816971 0.325927 0.000000
0.815341 0.314867 0.000000
0.000000 0.390777 0.000000
0.000000 0.407221 0.000000
0.000000 0.425751 0.000000
0.092775 0.442487 0.000000
0.217954 0.456648 0.000000
0.332763 0.474849 0.000000
0.430317 0.486336 0.000000
0.540838 0.498302 0.000000
0.631305 0.498045 0.000000
0.719582 0.496965 0.000000
0.776382 0.485371 0.000000
0.821836 0.473103 0.000000
0.847459 0.462220 0.000000
0.863389 0.450776 0.000000
0.865214 0.431012 0.000000
0.863865 0.420252 0.000000
0.000000 0.420356 0.000000
0.000000 0.440015 0.000000
0.000000 0.463044 0.000000
0.111574 0.485859 0.000000
0.237980 0.510933 0.000000
0.351763 0.536370 0.000000
0.453407 0.554308 0.000000
0.563537 0.569445 0.000000
0.656995 0.575024 0.000000
0.743423 0.577551 0.000000
0.806717 0.574688 0.000000
0.855479 0.569677 0.000000
0.886046 0.563598 0.000000
0.904002 0.555438 0.000000
0.909081 0.535918 0.000000
0.906590 0.519185 0.000000
0.000000 0.440497 0.000000
0.000000 0.468641 0.000000
0.000000 0.495717 0.000000
0.132949 0.522118 0.000000
0.266221 0.551617 0.000000
0.375250 0.578332 0.000000
0.475813 0.598968 0.000000
0.586481 0.620636 0.000000
0.675880 0.633307 0.000000
0.765676 0.643488 0.000000
0.829282 0.646265 0.000000
0.881065 0.646461 0.000000
0.912303 0.639570 0.000000
0.931670 0.632142 0.000000
0.938579 0.613788 0.000000
0.939910 0.602564 0.000000
0.000000 0.458045 0.000000
0.000000 0.488283 0.000000
0.001135 0.518309 0.000000
0.160177 0.547289 0.000000
0.293144 0.580346 0.000000
0.396167 0.607562 0.000000
0.501805 0.634491 0.000000
0.607538 0.657795 0.000000
0.695595 0.672615 0.000000
0.781143 0.683754 0.000000
0.845231 0.690071 0.000000
0.896953 0.693178 0.000000
0.930651 0.692134 0.000000
0.951434 0.688368 0.000000
0.961724 0.679207 0.000000
0.964935 0.669819 0.000000
0.000000 0.460883 0.000000
0.000000 0.495708 0.000000
0.012268 0.528307 0.000000
0.183041 0.561462 0.000000
0.307726 0.593970 0.000000
0.403693 0.620917 0.000000
0.507481 0.647779 0.000000
0.612335 0.673146 0.000000
0.700880 0.692201 0.000000
0.790182 0.709474 0.000000
0.854240 0.719966 0.000000
0.908074 0.726711 0.000000
0.942266 0.727584 0.000000
0.964257 0.725960 0.000000
0.977282 0.723079 0.000000
0.981695 0.717171 0.000000
0.000000 0.462007 0.000000
0.000000 0.498869 0.000000
0.018958 0.535558 0.000000
0.197604 0.569537 0.000000
0.316820 0.603198 0.000000
0.409870 0.630335 0.000000
0.510082 0.658192 0.000000
0.612299 0.684584 0.000000
0.699617 0.704567 0.000000
0.789712 0.723104 0.000000
0.854966 0.734340 0.000000
0.910112 0.742342 0.000000
0.946648 0.745956 0.000000
0.969982 0.746810 0.000000
0.985718 0.750655 0.000000
0.992731 0.751583 0.000000
0.000000 0.461762 0.000000
0.000000 0.498503 0.000000
0.018347 0.535143 0.000000
0.199118 0.570849 0.000000
0.317778 0.604987 0.000000
0.407691 0.633008 0.000000
0.505626 0.661213 0.000000
0.603833 0.689351 0.000000
0.690095 0.711116 0.000000
0.780172 0.732418 0.000000
0.849082 0.747091 0.000000
0.906578 0.756863 0.000000
0.946728 0.762545 0.000000
0.971521 0.763565 0.000000
0.987518 0.761660 0.000000
0.995422 0.764340 0.000000
0.000000 0.461189 0.000000
0.000000 0.497819 0.000000
0.019837 0.534179 0.000000
0.197311 0.570019 0.000000
0.317937 0.605365 0.000000
0.406470 0.633417 0.000000
0.500774 0.662391 0.000000
0.597150 0.691481 0.000000
0.680586 0.715248 0.000000
0.769607 0.739339 0.000000
0.841337 0.756924 0.000000
0.900798 0.769918 0.000000
0.944292 0.777377 0.000000
0.971154 0.780630 0.000000
0.988952 0.778640 0.000000
0.997162 0.775082 0.000000
0.003967 0.007550 0.019745
0.008832 0.006897 0.013941
0.028309 0.007800 0.011499
0.081349 0.008978 0.008771
0.166189 0.006012 0.004370
0.264231 0.000000 0.000000
0.371606 0.000000 0.000000
0.460597 0.000000 0.000000
0.512511 0.000000 0.000000
0.547893 0.000000 0.000000
0.567791 0.000000 0.000000
0.576495 0.000000 0.000000
0.581903 0.000000 0.000000
0.587225 0.000000 0.000000
0.591241 0.000000 0.000000
0.594446 0.000000 0.000000
0.003455 0.017609 0.018128
0.008978 0.015454 0.013794
0.028547 0.016059 0.011316
0.071839 0.017932 0.009070
0.147298 0.019599 0.005212
0.236851 0.012201 0.000201
0.345769 0.000000 0.000000
0.432752 0.000000 0.000000
0.507817 0.000000 0.000000
0.550024 0.000000 0.000000
0.580938 0.000000 0.000000
0.595837 0.000000 0.000000
0.602966 0.000000 0.000000
0.607349 0.000000 0.000000
0.610138 0.000000 0.000000
0.611957 0.000000 0.000000
0.000000 0.046381 0.021149
0.007947 0.040418 0.015827
0.029395 0.037372 0.012934
0.074873 0.040168 0.010169
0.137923 0.043561 0.006738
0.226371 0.042292 0.000427
0.327178 0.029200 0.000000
0.419959 0.002142 0.000000
0.506029 0.000000 0.000000
0.556927 0.000000 0.000000
0.596539 0.000000 0.000000
0.618476 0.000000 0.000000
0.627442 0.000000 0.000000
0.632947 0.000000 0.000000
0.634412 0.000000 0.000000
0.634943 0.000000 0.000000
0.000000 0.099135 0.024079
0.001068 0.082777 0.016992
0.033014 0.079640 0.013568
0.079658 0.078517 0.010364
0.144002 0.082387 0.006275
0.226889 0.084828 0.000269
0.321355 0.082673 0.000000
0.419995 0.068977 0.000000
0.506316 0.040058 0.000000
0.567504 0.005884 0.000000
0.613111 0.000000 0.000000
0.640851 0.000000 0.000000
0.655512 0.000000 0.000000
0.660389 0.000000 0.000000
0.662770 0.000000 0.000000
0.662464 0.000000 0.000000
0.000000 0.160293 0.022620
0.000000 0.137014 0.015021
0.025837 0.139693 0.011151
0.088533 0.140169 0.006476
0.150338 0.136245 0.002484
0.237327 0.141964 0.000000
0.324321 0.141225 0.000000
0.425495 0.137588 0.000000
0.510570 0.125789 0.000000
0.585339 0.106081 0.000000
0.633680 0.082844 0.000000
0.668476 0.056721 0.000000
0.687050 0.038489 0.000000
0.693330 0.029926 0.000000
0.694624 0.019898 0.000000
0.694899 0.012091 0.000000
0.000000 0.243980 0.013190
0.000000 0.211679 0.006079
0.007434 0.206619 0.001453
0.089412 0.212528 0.000000
0.167666 0.208249 0.000000
0.253672 0.212216 0.000000
0.345495 0.214585 0.000000
0.445887 0.213925 0.000000
0.532873 0.206632 0.000000
0.613251 0.193509 0.000000
0.662928 0.178128 0.000000
0.702889 0.163076 0.000000
0.722139 0.149386 0.000000
0.732052 0.139522 0.000000
0.732430 0.131124 0.000000
0.730544 0.119405 0.000000
0.000000 0.325127 0.000000
0.000000 0.309184 0.000000
0.000000 0.291844 0.000000
0.083711 0.292882 0.000000
0.179751 0.292973 0.000000
0.278367 0.300200 0.000000
0.366937 0.299883 0.000000
0.472480 0.301933 0.000000
0.560949 0.296678 0.000000
0.645600 0.287626 0.000000
0.700130 0.275090 0.000000
0.744277 0.262260 0.000000
0.764572 0.250040 0.000000
0.776101 0.236704 0.000000
0.776370 0.227738 0.000000
0.774691 0.215995 0.000000
0.000000 0.370745 0.000000
0.000000 0.368817 0.000000
0.000000 0.374450 0.000000
0.064637 0.377337 0.000000
0.191202 0.381860 0.000000
0.299138 0.390881 0.000000
0.395526 0.392761 0.000000
0.498762 0.395685 0.000000
0.594379 0.396069 0.000000
0.680226 0.390674 0.000000
0.739956 0.379998 0.000000
0.785061 0.365838 0.000000
0.808585 0.353234 0.000000
0.822025 0.340020 0.000000
0.822483 0.325853 0.000000
0.819974 0.311876 0.000000
0.000000 0.406091 0.000000
0.000000 0.418317 0.000000
0.000000 0.432850 0.000000
0.055940 0.445759 0.000000
0.202200 0.458705 0.000000
0.320873 0.477107 0.000000
0.420575 0.487434 0.000000
0.531707 0.496953 0.000000
0.623694 0.496342 0.000000
0.713381 0.493492 0.000000
0.775113 0.483888 0.000000
0.822489 0.470057 0.000000
0.848911 0.456245 0.000000
0.866325 0.446876 0.000000
0.870951 0.433753 0.000000
0.867912 0.417786 0.000000
0.000000 0.437140 0.000000
0.000000 0.454798 0.000000
0.000000 0.475904 0.000000
0.064027 0.496880 0.000000
0.218796 0.520342 0.000000
0.338628 0.542937 0.000000
0.441767 0.557629 0.000000
0.553716 0.570843 0.000000
0.649146 0.576892 0.000000
0.738149 0.578589 0.000000
0.806070 0.577490 0.000000
0.856425 0.571173 0.000000
0.887529 0.563201 0.000000
0.906957 0.555798 0.000000
0.914598 0.542138 0.000000
0.910417 0.519734 0.000000
0.000000 0.461933 0.000269
0.000000 0.487263 0.000000
0.000000 0.512261 0.000000
0.077430 0.537353 0.000000
0.245286 0.563561 0.000000
0.358972 0.587164 0.000000
0.461152 0.606085 0.000000
0.575201 0.626831 0.000000
0.668299 0.639985 0.000000
0.761355 0.649873 0.000000
0.827066 0.651301 0.000000
0.880797 0.650471 0.000000
0.913915 0.643024 0.000000
0.934600 0.636017 0.000000
0.943951 0.623389 0.000000
0.943804 0.606134 0.000000
0.000000 0.481727 0.004242
0.000000 0.509386 0.000000
0.000000 0.539367 0.000000
0.116768 0.566784 0.000000
0.270683 0.596832 0.000000
0.377539 0.621436 0.000000
0.483207 0.644996 0.000000
0.594385 0.667207 0.000000
0.685725 0.682344 0.000000
0.775344 0.693336 0.000000
0.841813 0.699135 0.000000
0.895732 0.701680 0.000000
0.932030 0.700795 0.000000
0.954137 0.696815 0.000000
0.966070 0.689503 0.000000
0.967987 0.675801 0.000000
0.000000 0.489107 0.002539
0.000000 0.524858 0.000000
0.000000 0.556262 0.000000
0.151717 0.587115 0.000000
0.289061 0.615863 0.000000
0.388482 0.640369 0.000000
0.494841 0.664662 0.000000
0.605524 0.690065 0.000000
0.695705 0.707796 0.000000
0.788077 0.724800 0.000000
0.851823 0.732821 0.000000
0.907109 0.738424 0.000000
0.943188 0.739492 0.000000
0.966217 0.737337 0.000000
0.979846 0.733205 0.000000
0.983758 0.726046 0.000000
0.000000 0.487947 0.000000
0.000000 0.524565 0.000000
0.000000 0.560571 0.000000
0.163082 0.592877 0.000000
0.296104 0.624390 0.000000
0.393390 0.649921 0.000000
0.496959 0.676796 0.000000
0.604767 0.703316 0.000000
0.693416 0.722347 0.000000
0.786587 0.740975 0.000000
0.852744 0.751839 0.000000
0.909752 0.759408 0.000000
0.947436 0.762741 0.000000
0.971850 0.762991 0.000000
0.987481 0.764248 0.000000
0.994147 0.765408 0.000000
0.000000 0.484370 0.000000
0.000000 0.519866 0.000000
0.000000 0.556982 0.000000
0.167147 0.593262 0.000000
0.299675 0.626514 0.000000
0.394336 0.654475 0.000000
0.494841 0.682350 0.000000
0.596576 0.710439 0.000000
0.684157 0.731478 0.000000
0.777353 0.752676 0.000000
0.847294 0.766104 0.000000
0.906413 0.775552 0.000000
0.946960 0.780136 0.000000
0.972552 0.780795 0.000000
0.988971 0.778244 0.000000
0.996960 0.783059 0.000000
0.000000 0.482716 0.000000
0.000000 0.517607 0.000000
0.000000 0.555261 0.000000
0.164736 0.591485 0.000000
0.300047 0.626270 0.000000
0.393304 0.654420 0.000000
0.488969 0.683033 0.000000
0.588318 0.712007 0.000000
0.672285 0.735207 0.000000
0.764175 0.758712 0.000000
0.837327 0.775540 0.000000
0.898430 0.788260 0.000000
0.942974 0.795108 0.000000
0.970556 0.798099 0.000000
0.988867 0.796219 0.000000
0.997717 0.792245 0.000000
0.001251 0.008344 0.064173
0.006415 0.008222 0.051106
0.026496 0.009088 0.040363
0.080824 0.010242 0.033649
0.167330 0.007105 0.025476
0.266685 0.000000 0.015442
0.376922 0.000000 0.002124
0.470301 0.000000 0.000000
0.524248 0.000000 0.000000
0.559911 0.000000 0.000000
0.578039 0.000000 0.000000
0.586615 0.000000 0.000000
0.592053 0.000000 0.000000
0.596442 0.000000 0.000000
0.598926 0.000000 0.000000
0.600470 0.000000 0.000000
0.000000 0.021424 0.061201
0.004700 0.018439 0.048450
0.025245 0.018683 0.037647
0.070295 0.020343 0.032593
0.147726 0.022290 0.025562
0.238926 0.014417 0.016962
0.349200 0.000000 0.004138
0.441010 0.000000 0.000000
0.518480 0.000000 0.000000
0.560961 0.000000 0.000000
0.591992 0.000000 0.000000
0.606134 0.000000 0.000000
0.613404 0.000000 0.000000
0.618109 0.000000 0.000000
0.619812 0.000000 0.000000
0.620160 0.000000 0.000000
0.000000 0.048035 0.058479
0.002173 0.041309 0.045313
0.023554 0.039551 0.036945
0.069764 0.041889 0.031855
0.131209 0.045972 0.026935
0.219327 0.044782 0.019318
0.317589 0.032734 0.008032
0.413379 0.005243 0.000000
0.499779 0.000000 0.000000
0.557995 0.000000 0.000000
0.600873 0.000000 0.000000
0.624860 0.000000 0.000000
0.636890 0.000000 0.000000
0.642878 0.000000 0.000000
0.644312 0.000000 0.000000
0.644324 0.000000 0.000000
0.000000 0.103432 0.069630
0.000000 0.085615 0.052680
0.023066 0.081532 0.042640
0.072505 0.080787 0.036591
0.136458 0.084413 0.031012
0.219138 0.087037 0.023023
0.311620 0.085176 0.011560
0.412415 0.073054 0.000000
0.499315 0.047193 0.000000
0.568298 0.009796 0.000000
0.616077 0.000000 0.000000
0.647382 0.000000 0.000000
0.664906 0.000000 0.000000
0.670332 0.000000 0.000000
0.672609 0.000000 0.000000
0.671998 0.000000 0.000000
0.000000 0.173428 0.076014
0.000000 0.148806 0.059571
0.013477 0.135976 0.047236
0.078737 0.136361 0.040235
0.143001 0.135854 0.033417
0.230289 0.141592 0.023450
0.317833 0.141555 0.010584
0.419025 0.138686 0.000000
0.505663 0.127681 0.000000
0.585785 0.109035 0.000000
0.635987 0.086305 0.000000
0.674202 0.059205 0.000000
0.694191 0.039100 0.000000
0.702541 0.029004 0.000000
0.703456 0.018775 0.000000
0.703572 0.012012 0.000000
0.000000 0.254099 0.077449
0.000000 0.219516 0.059944
0.000000 0.195798 0.046979
0.075886 0.205124 0.039716
0.158041 0.208560 0.030396
0.245597 0.212235 0.017072
0.338915 0.215152 0.002527
0.438337 0.214200 0.000000
0.527269 0.206986 0.000000
0.608893 0.195016 0.000000
0.662812 0.179776 0.000000
0.706154 0.164266 0.000000
0.727480 0.150375 0.000000
0.740322 0.139858 0.000000
0.741134 0.133266 0.000000
0.739162 0.122310 0.000000
0.000000 0.333263 0.072816
0.000000 0.310576 0.055140
0.000000 0.278087 0.040735
0.066517 0.281767 0.028791
0.166793 0.293462 0.013446
0.268772 0.299504 0.000983
0.359741 0.299272 0.000000
0.464027 0.300664 0.000000
0.554717 0.295738 0.000000
0.638282 0.287749 0.000000
0.697139 0.275474 0.000000
0.742751 0.262626 0.000000
0.767501 0.250047 0.000000
0.782235 0.238029 0.000000
0.784067 0.229441 0.000000
0.782919 0.220780 0.000000
0.000000 0.387030 0.069966
0.000000 0.382513 0.047053
0.000000 0.377948 0.024567
0.021045 0.372418 0.006958
0.172451 0.376941 0.000000
0.286509 0.387158 0.000000
0.385687 0.391406 0.000000
0.489027 0.394739 0.000000
0.587048 0.394543 0.000000
0.673262 0.390631 0.000000
0.736916 0.379657 0.000000
0.784463 0.367071 0.000000
0.811630 0.353985 0.000000
0.827457 0.341515 0.000000
0.829429 0.328673 0.000000
0.828031 0.318749 0.000000
0.000000 0.425672 0.068751
0.000000 0.435932 0.042225
0.000000 0.440369 0.013288
0.002081 0.451051 0.000000
0.175094 0.460114 0.000000
0.304808 0.478798 0.000000
0.408356 0.489635 0.000000
0.520018 0.497111 0.000000
0.614398 0.494658 0.000000
0.705263 0.493895 0.000000
0.771603 0.484743 0.000000
0.821946 0.473646 0.000000
0.851902 0.459626 0.000000
0.870256 0.447608 0.000000
0.875187 0.434412 0.000000
0.873735 0.423066 0.000000
0.000000 0.455915 0.082399
0.000000 0.472370 0.053547
0.000000 0.490846 0.016089
0.000427 0.510072 0.000000
0.188864 0.530669 0.000000
0.321746 0.551305 0.000000
0.429688 0.565075 0.000000
0.543310 0.575329 0.000000
0.641523 0.580615 0.000000
0.731466 0.583337 0.000000
0.803024 0.581836 0.000000
0.856254 0.576727 0.000000
0.888969 0.565289 0.000000
0.908086 0.553326 0.000000
0.917577 0.543804 0.000000
0.917308 0.531951 0.000000
0.000000 0.482954 0.098988
0.000000 0.507176 0.076838
0.000000 0.530663 0.036188
0.004352 0.553991 0.000024
0.212186 0.577942 0.000000
0.340392 0.600555 0.000000
0.448298 0.619593 0.000000
0.564947 0.639496 0.000000
0.661024 0.651472 0.000000
0.754678 0.660298 0.000000
0.824009 0.658936 0.000000
0.879698 0.656342 0.000000
0.914647 0.647230 0.000000
0.935412 0.638965 0.000000
0.947094 0.629804 0.000000
0.949169 0.618811 0.000000
0.000000 0.506645 0.119106
0.000000 0.534594 0.099922
0.000000 0.562261 0.079084
0.030213 0.589502 0.032477
0.246146 0.617993 0.003510
0.361700 0.640613 0.000000
0.470863 0.662086 0.000000
0.583954 0.682075 0.000000
0.677546 0.695460 0.000000
0.769058 0.706435 0.000000
0.839274 0.711373 0.000000
0.893974 0.713027 0.000000
0.932616 0.711537 0.000000
0.955456 0.706374 0.000000
0.969061 0.699446 0.000000
0.972735 0.690431 0.000000
0.000000 0.515386 0.116182
0.000000 0.551318 0.110256
0.000000 0.580273 0.095216
0.067005 0.610809 0.087398
0.266398 0.638087 0.041901
0.374279 0.662300 0.018555
0.484697 0.685768 0.000000
0.595776 0.708919 0.000000
0.687098 0.724666 0.000000
0.780435 0.740151 0.000000
0.847514 0.747549 0.000000
0.903600 0.752566 0.000000
0.942272 0.753500 0.000000
0.966253 0.750124 0.000000
0.981164 0.744656 0.000000
0.986279 0.737502 0.000000
0.000000 0.518889 0.107375
0.000000 0.556115 0.102492
0.000000 0.591833 0.098054
0.123861 0.623859 0.089650
0.280137 0.651844 0.084041
0.384942 0.676405 0.068342
0.491722 0.701375 0.034040
0.599896 0.724538 0.001501
0.688911 0.741073 0.000000
0.782974 0.757479 0.000000
0.850980 0.768234 0.000000
0.907848 0.775680 0.000000
0.946850 0.779190 0.000000
0.971667 0.779300 0.000000
0.987646 0.777163 0.000000
0.994458 0.774539 0.000000
0.000000 0.515111 0.089271
0.000000 0.552117 0.083333
0.000000 0.588220 0.078590
0.124038 0.623719 0.070753
0.282597 0.652699 0.067115
0.383069 0.679127 0.070875
0.486876 0.705116 0.050929
0.590362 0.730849 0.024891
0.678682 0.749819 0.010999
0.772659 0.768710 0.000000
0.844688 0.781930 0.000000
0.904021 0.790732 0.000000
0.945641 0.795114 0.000000
0.971575 0.795908 0.000000
0.988635 0.793326 0.000000
0.996667 0.793411 0.000000
0.000000 0.513988 0.073896
0.000000 0.545635 0.053419
0.000000 0.581884 0.051814
0.102382 0.617322 0.043439
0.278801 0.649354 0.034589
0.378833 0.676320 0.037690
0.477876 0.703603 0.037903
0.579767 0.730758 0.031189
0.665565 0.753017 0.036957
0.759194 0.774649 0.050678
0.834061 0.791055 0.052058
0.896464 0.802786 0.028717
0.941357 0.809348 0.011975
0.969397 0.811618 0.000000
0.987750 0.809464 0.000000
0.997046 0.805332 0.000000
0.000000 0.005798 0.147054
0.003381 0.006738 0.126790
0.022516 0.008161 0.112508
0.075801 0.009876 0.096486
0.162844 0.007251 0.088197
0.264524 0.000000 0.076521
0.380548 0.000000 0.059638
0.475819 0.000000 0.040070
0.535979 0.000000 0.016303
0.574481 0.000000 0.001868
0.589679 0.000000 0.000000
0.598083 0.000000 0.000000
0.602985 0.000000 0.000000
0.607373 0.000000 0.000000
0.609320 0.000000 0.000000
0.610016 0.000000 0.000000
0.000000 0.024280 0.134243
0.000177 0.020728 0.105653
0.020667 0.020978 0.092519
0.067280 0.022547 0.083143
0.146267 0.024970 0.075953
0.239542 0.016901 0.066474
0.351281 0.000000 0.052033
0.444453 0.000000 0.033875
0.527092 0.000000 0.013977
0.571234 0.000000 0.001105
0.602448 0.000000 0.000000
0.616620 0.000000 0.000000
0.623767 0.000000 0.000000
0.628656 0.000000 0.000000
0.630109 0.000000 0.000000
0.630188 0.000000 0.000000
0.000000 0.057020 0.131411
0.000000 0.047962 0.102712
0.014942 0.045405 0.090999
0.064668 0.047846 0.082478
0.128652 0.051728 0.076967
0.219052 0.050275 0.068861
0.318157 0.038441 0.056757
0.416345 0.010224 0.040497
0.506603 0.000000 0.019977
0.567126 0.000000 0.004681
0.610053 0.000000 0.000000
0.634931 0.000000 0.000000
0.647370 0.000000 0.000000
0.653407 0.000000 0.000000
0.654798 0.000000 0.000000
0.654517 0.000000 0.000000
0.000000 0.107454 0.134469
0.000000 0.087520 0.102541
0.013532 0.083357 0.089601
0.064173 0.085713 0.086122
0.130941 0.089387 0.080873
0.213736 0.091713 0.072932
0.306194 0.089754 0.061653
0.408881 0.078096 0.045832
0.495671 0.054932 0.026441
0.569787 0.016278 0.006854
0.620392 0.000000 0.000000
0.654768 0.000000 0.000000
0.673701 0.000000 0.000000
0.680049 0.000000 0.000000
0.682374 0.000000 0.000000
0.681630 0.000000 0.000000
0.000000 0.178897 0.148153
0.000000 0.155764 0.117848
0.000098 0.140200 0.100758
0.063954 0.141427 0.095601
0.134975 0.141482 0.089149
0.223441 0.146383 0.080037
0.312731 0.146358 0.068464
0.414606 0.143331 0.051405
0.502245 0.133303 0.031128
0.586383 0.115004 0.007514
0.639496 0.093526 0.000000
0.680964 0.066560 0.000000
0.702181 0.044300 0.000000
0.712288 0.032471 0.000000
0.713069 0.021271 0.000000
0.713051 0.014740 0.000000
0.000000 0.257768 0.153115
0.000000 0.234977 0.129622
0.000000 0.210929 0.112520
0.053285 0.207193 0.101564
0.147323 0.211081 0.094063
0.237925 0.215830 0.084706
0.333434 0.219016 0.070570
0.434327 0.218723 0.050489
0.525164 0.212363 0.025776
0.608978 0.200650 0.001923
0.666780 0.186233 0.000000
0.712551 0.170224 0.000000
0.735335 0.156149 0.000000
0.749276 0.145187 0.000000
0.750124 0.138033 0.000000
0.748257 0.127077 0.000000
0.000000 0.340313 0.157998
0.000000 0.321678 0.135659
0.000000 0.288829 0.117830
0.037128 0.280583 0.104622
0.150698 0.295695 0.097475
0.258647 0.304320 0.084486
0.352935 0.304558 0.067091
0.459351 0.306145 0.040186
0.551366 0.300706 0.008948
0.636884 0.292741 0.000000
0.698427 0.281340 0.000000
0.745962 0.268351 0.000000
0.773092 0.255460 0.000000
0.789584 0.243314 0.000000
0.792038 0.234202 0.000000
0.791366 0.227048 0.000000
0.000000 0.398511 0.161111
0.000000 0.393024 0.138405
