LUTs/SPK Cube Block1 S16/TheBrim_SPK_Type-D_Block1_S16.cube
TITLE "TheBrim® SPK Block 1"
# TheBrim® d.o.o. Croatia
# Copyright: (C) Copyright 2020 TheBrim® d.o.o. Croatia
LUT_3D_SIZE 16
0.0066220000 0.0100400000 0.0125730000
0.0218020000 0.0128660000 0.0114988000
0.0380184000 0.0165468000 0.0083922000
0.0591552000 0.0200010000 0.0000856000
0.0861146000 0.0244200000 0.0000000000
0.1307680000 0.0280150000 0.0000000000
0.2025024000 0.0357240000 0.0000000000
0.2844724000 0.0541324000 0.0000000000
0.3700620000 0.0723082000 0.0000000000
0.4498046000 0.0960266000 0.0000000000
0.5018010000 0.1072690000 0.0094910000
0.5348940000 0.1105160000 0.0000000000
0.5590698000 0.1153564000 0.0021666000
0.5710386000 0.1172608000 0.0036318000
0.5798948000 0.1187928000 0.0040280000
0.5883480000 0.1204830000 0.0037230000
0.0070128000 0.0197326000 0.0163514000
0.0209230000 0.0215454000 0.0156006000
0.0403382000 0.0242064000 0.0103394000
0.0642822000 0.0275758000 0.0000000000
0.0941646000 0.0314514000 0.0000000000
0.1448306000 0.0354128000 0.0000000000
0.2246272000 0.0475284000 0.0000000000
0.3133304000 0.0662964000 0.0000000000
0.4035828000 0.0916808000 0.0000000000
0.4793334000 0.1105834000 0.0000000000
0.5300228000 0.1274904000 0.0220092000
0.5624690000 0.1269352000 0.0019040000
0.5845028000 0.1315796000 0.0000000000
0.5974364000 0.1346008000 0.0000000000
0.6071042000 0.1368714000 0.0000000000
0.6147886000 0.1388546000 0.0000000000
0.0000000000 0.0305300000 0.0191100000
0.0132264000 0.0326048000 0.0176268000
0.0390136000 0.0350524000 0.0102906000
0.0662048000 0.0377562000 0.0000000000
0.0982484000 0.0412902000 0.0000000000
0.1541502000 0.0467774000 0.0000000000
0.2458252000 0.0638246000 0.0000000000
0.3398376000 0.0833924000 0.0000000000
0.4356814000 0.1085510000 0.0000000000
0.5122068000 0.1326048000 0.0000000000
0.5646548000 0.1490782000 0.0211364000
0.5920902000 0.1481750000 0.0023192000
0.6117188000 0.1528382000 0.0000000000
0.6251222000 0.1574524000 0.0000000000
0.6414182000 0.1682924000 0.0137208000
0.6496702000 0.1714902000 0.0042178000
0.0000000000 0.0433652000 0.0188170000
0.0009766000 0.0448366000 0.0151612000
0.0353152000 0.0474426000 0.0054078000
0.0644038000 0.0505856000 0.0000000000
0.1024778000 0.0555602000 0.0000000000
0.1658324000 0.0640136000 0.0000000000
0.2685180000 0.0852110000 0.0000000000
0.3701234000 0.1083192000 0.0000000000
0.4670162000 0.1331850000 0.0000000000
0.5446652000 0.1543272000 0.0000000000
0.5993044000 0.1757994000 0.0201050000
0.6297426000 0.1804258000 0.0017334000
0.6505982000 0.1880432000 0.0000366000
0.6617188000 0.1921566000 0.0000000000
0.6711488000 0.2010742000 0.0121640000
0.6804812000 0.2069154000 0.0088194000
0.0000000000 0.0595826000 0.0159060000
0.0000000000 0.0609378000 0.0062928000
0.0209598000 0.0643676000 0.0003418000
0.0590640000 0.0693298000 0.0000000000
0.1057376000 0.0775638000 0.0000000000
0.1796328000 0.0919618000 0.0000000000
0.2943910000 0.1177738000 0.0000000000
0.4021668000 0.1418030000 0.0000000000
0.5024960000 0.1735780000 0.0000000000
0.5793944000 0.1968630000 0.0000736000
0.6304808000 0.2136232000 0.0164614000
0.6657472000 0.2232058000 0.0020382000
0.6882692000 0.2344908000 0.0013060000
0.6973326000 0.2429872000 0.0223692000
0.7056334000 0.2473450000 0.0093078000
0.7142762000 0.2571046000 0.0215942000
0.0000000000 0.0829770000 0.0163880000
0.0000000000 0.0858460000 0.0051028000
0.0000000000 0.0890808000 0.0000000000
0.0457640000 0.0971010000 0.0000000000
0.1104128000 0.1118470000 0.0000000000
0.1970210000 0.1339110000 0.0000000000
0.3197384000 0.1625306000 0.0000000000
0.4342896000 0.1913882000 0.0000000000
0.5382572000 0.2255982000 0.0000000000
0.6172118000 0.2522342000 0.0053160000
0.6702270000 0.2692570000 0.0050050000
0.7059388000 0.2875674000 0.0187562000
0.7281188000 0.3022644000 0.0255250000
0.7376528000 0.3076170000 0.0216920000
0.7455386000 0.3138302000 0.0096008000
0.7543030000 0.3236690000 0.0008850000
0.0000000000 0.1258604000 0.0336608000
0.0000000000 0.1320004000 0.0198544000
0.0000000000 0.1356872000 0.0038636000
0.0262452000 0.1419068000 0.0000000000
0.1108582000 0.1673770000 0.0000000000
0.2177248000 0.1974118000 0.0000000000
0.3457580000 0.2290772000 0.0000000000
0.4653928000 0.2611268000 0.0000000000
0.5796690000 0.3043332000 0.0000000000
0.6599976000 0.3291750000 0.0182190000
0.7126768000 0.3461484000 0.0011538000
0.7478514000 0.3674192000 0.0046998000
0.7695316000 0.3839358000 0.0228396000
0.7795408000 0.3907042000 0.0070068000
0.7880860000 0.4004944000 0.0041628000
0.7964478000 0.4120360000 0.0001708000
0.0000000000 0.1972960000 0.0702210000
0.0000000000 0.2034730000 0.0597902000
0.0000000000 0.2098874000 0.0254818000
0.0000000000 0.2161866000 0.0019958000
0.1170718000 0.2462584000 0.0000000000
0.2442322000 0.2841980000 0.0000000000
0.3905334000 0.3255984000 0.0000000000
0.5172056000 0.3591004000 0.0000488000
0.6230896000 0.3979004000 0.0038576000
0.7048156000 0.4223084000 0.0143678000
0.7612794000 0.4453552000 0.0044188000
0.7888364000 0.4606812000 0.0008544000
0.8092348000 0.4778382000 0.0289552000
0.8188292000 0.4856936000 0.0205264000
0.8353334000 0.5008056000 0.0220824000
0.8463014000 0.5153748000 0.0210816000
0.0000000000 0.2919984000 0.1251040000
0.0000000000 0.2986814000 0.1092042000
0.0000000000 0.3077938000 0.0811340000
0.0000000000 0.3113584000 0.0111752000
0.1167420000 0.3462098000 0.0000000000
0.2732302000 0.3965880000 0.0000000000
0.4358584000 0.4486206000 0.0000000000
0.5699340000 0.4866210000 0.0000000000
0.6773680000 0.5100644000 0.0147216000
0.7562318000 0.5352906000 0.0014402000
0.8103456000 0.5515444000 0.0125244000
0.8401610000 0.5684632000 0.0127870000
0.8600890000 0.5846436000 0.0027466000
0.8692746000 0.5914248000 0.0043640000
0.8768310000 0.5998048000 0.0224368000
0.8855166000 0.6109192000 0.0162658000
0.0014158000 0.3766056000 0.1695920000
0.0010252000 0.3904906000 0.1604738000
0.0108338000 0.3987854000 0.1345458000
0.0000000000 0.4058534000 0.0198302000
0.1197996000 0.4423036000 0.0000000000
0.2916382000 0.4996158000 0.0000000000
0.4643736000 0.5580200000 0.0000244000
0.6078006000 0.6021118000 0.0015324000
0.7162228000 0.6189144000 0.0113954000
0.7948244000 0.6352846000 0.0016726000
0.8482482000 0.6486998000 0.0063232000
0.8794558000 0.6611390000 0.0049862000
0.8995542000 0.6773928000 0.0010256000
0.9097656000 0.6854798000 0.0002258000
0.9138484000 0.6867314000 0.0000000000
0.9205874000 0.6969364000 0.0149656000
0.0115660000 0.4263920000 0.1884770000
0.0000000000 0.4446654000 0.1800048000
0.0062380000 0.4575132000 0.1535826000
0.0049622000 0.4708986000 0.0255554000
0.1348454000 0.5108036000 0.0000000000
0.3201900000 0.5732730000 0.0000000000
0.4902162000 0.6339538000 0.0061278000
0.6389162000 0.6810062000 0.0009030000
0.7553648000 0.7066098000 0.0042910000
0.8246030000 0.7117918000 0.0072446000
0.8766480000 0.7192380000 0.0140990000
0.9049804000 0.7245848000 0.0109620000
0.9233522000 0.7354734000 0.0051392000
0.9315672000 0.7391722000 0.0221372000
0.9367068000 0.7421086000 0.0254454000
0.9402770000 0.7457280000 0.0247190000
0.0009032000 0.4553592000 0.1954164000
0.0046262000 0.4675172000 0.1815434000
0.0000000000 0.4922362000 0.1606754000
0.0000000000 0.5102234000 0.0521300000
0.1469850000 0.5503170000 0.0011292000
0.3381714000 0.6129946000 0.0000000000
0.5111940000 0.6733704000 0.0013674000
0.6531982000 0.7218994000 0.0086364000
0.7779054000 0.7547180000 0.0003416000
0.8445618000 0.7577698000 0.0109676000
0.8959902000 0.7635252000 0.0199032000
0.9206056000 0.7645078000 0.0142636000
0.9371948000 0.7688966000 0.0081116000
0.9457460000 0.7728578000 0.0238280000
0.9486268000 0.7724366000 0.0083072000
0.9517636000 0.7750124000 0.0025880000
0.0000000000 0.4775210000 0.2033750000
0.0010986000 0.4933472000 0.1888612000
0.0000000000 0.5133486000 0.1521666000
0.0000000000 0.5301882000 0.0285398000
0.1581300000 0.5742308000 0.0037964000
0.3422490000 0.6323182000 0.0000000000
0.5135926000 0.6909182000 0.0037656000
0.6529848000 0.7383366000 0.0004148000
0.7750916000 0.7738040000 0.0051576000
0.8476990000 0.7798582000 0.0109434000
0.9015442000 0.7866454000 0.0173092000
0.9297364000 0.7895994000 0.0097536000
0.9450500000 0.7910828000 0.0030150000
0.9532164000 0.7923034000 0.0192936000
0.9573120000 0.7927550000 0.0098084000
0.9596740000 0.7932924000 0.0008788000
0.0007326000 0.4886964000 0.2043156000
0.0000000000 0.5086792000 0.1855956000
0.0000000000 0.5272524000 0.1365296000
0.0025998000 0.5451842000 0.0382632000
0.1590206000 0.5856264000 0.0000000000
0.3475646000 0.6428958000 0.0000000000
0.5081358000 0.6970398000 0.0000732000
0.6497622000 0.7447878000 0.0008176000
0.7670716000 0.7796142000 0.0000000000
0.8401428000 0.7877322000 0.0005128000
0.8983462000 0.7943418000 0.0015256000
0.9317442000 0.7991334000 0.0020082000
0.9496640000 0.8018188000 0.0217654000
0.9577456000 0.8020878000 0.0059934000
0.9636166000 0.8032164000 0.0156434000
0.9665406000 0.8042296000 0.0207214000
0.0142578000 0.5106506000 0.2074648000
0.0161864000 0.5297304000 0.1733214000
0.0000000000 0.5453738000 0.0754332000
0.0586792000 0.5661134000 0.0060424000
0.1966798000 0.6046328000 0.0000000000
0.3611694000 0.6533932000 0.0000000000
0.5161192000 0.7068668000 0.0000000000
0.6450562000 0.7492066000 0.0105042000
0.7608096000 0.7824098000 0.0068546000
0.8360538000 0.7934568000 0.0001038000
0.8923460000 0.7985778000 0.0012510000
0.9308470000 0.8052736000 0.0134400000
0.9518006000 0.8082092000 0.0204224000
0.9621580000 0.8088260000 0.0092834000
0.9685366000 0.8093380000 0.0081542000
0.9720946000 0.8105472000 0.0165524000
0.0000000000 0.5433650000 0.2090450000
0.0000000000 0.5555788000 0.1377868000
0.0000000000 0.5694888000 0.0000000000
0.0651186000 0.5925416000 0.0000000000
0.2430968000 0.6280698000 0.0000000000
0.3825380000 0.6687620000 0.0000000000
0.5237978000 0.7143308000 0.0000000000
0.6436464000 0.7527344000 0.0000000000
0.7555540000 0.7839234000 0.0009036000
0.8298518000 0.7978332000 0.0000550000
0.8861390000 0.8022160000 0.0080870000
0.9286864000 0.8095888000 0.0183840000
0.9538880000 0.8129638000 0.0170834000
0.9665224000 0.8139526000 0.0087832000
0.9740232000 0.8152164000 0.0008544000
0.9773250000 0.8161320000 0.0066530000
0.0039796000 0.0126464000 0.0253724000
0.0215576000 0.0139340000 0.0239750000
0.0392518000 0.0173036000 0.0207826000
0.0595824000 0.0201354000 0.0120302000
0.0882082000 0.0231142000 0.0000000000
0.1368894000 0.0230956000 0.0000000000
0.2069882000 0.0308352000 0.0000000000
0.2906676000 0.0521056000 0.0000000000
0.3758178000 0.0683654000 0.0000000000
0.4535952000 0.0839112000 0.0000000000
0.5088924000 0.0996220000 0.0000000000
0.5433414000 0.1106200000 0.0060488000
0.5641050000 0.1139346000 0.0056456000
0.5787598000 0.1159546000 0.0054142000
0.5884706000 0.1177552000 0.0056944000
0.5956604000 0.1202816000 0.0079282000
0.0000000000 0.0214482000 0.0271486000
0.0203736000 0.0231868000 0.0252744000
0.0402590000 0.0250366000 0.0219666000
0.0619078000 0.0274048000 0.0120910000
0.0930112000 0.0303528000 0.0000000000
0.1458620000 0.0322450000 0.0000000000
0.2276062000 0.0451172000 0.0000000000
0.3170594000 0.0625062000 0.0000000000
0.4086304000 0.0820312000 0.0000000000
0.4876280000 0.1109558000 0.0023558000
0.5390688000 0.1191282000 0.0009644000
0.5697144000 0.1268980000 0.0065184000
0.5862668000 0.1302978000 0.0128176000
0.6012570000 0.1341492000 0.0102600000
0.6111634000 0.1360476000 0.0031376000
0.6194090000 0.1379886000 0.0000000000
0.0000000000 0.0320188000 0.0282712000
0.0120908000 0.0343692000 0.0268862000
0.0382020000 0.0358212000 0.0223876000
0.0648804000 0.0379698000 0.0100892000
0.0982544000 0.0403932000 0.0000000000
0.1577146000 0.0441528000 0.0000000000
0.2502076000 0.0607176000 0.0000000000
0.3485716000 0.0794434000 0.0000000000
0.4435730000 0.1053710000 0.0000000000
0.5216980000 0.1324036000 0.0021788000
0.5753112000 0.1493164000 0.0180970000
0.6016848000 0.1503116000 0.0020688000
0.6152464000 0.1527648000 0.0012206000
0.6295164000 0.1573732000 0.0020264000
0.6434816000 0.1656308000 0.0169982000
0.6546082000 0.1720764000 0.0229370000
0.0000000000 0.0448610000 0.0284972000
0.0000000000 0.0466064000 0.0258790000
0.0329042000 0.0488954000 0.0188598000
0.0638854000 0.0510804000 0.0079894000
0.1039186000 0.0550596000 0.0000000000
0.1716612000 0.0630556000 0.0000000000
0.2677674000 0.0831178000 0.0000000000
0.3787232000 0.1076966000 0.0000000000
0.4822936000 0.1351380000 0.0000000000
0.5604430000 0.1598692000 0.0000610000
0.6091310000 0.1758420000 0.0098266000
0.6373840000 0.1821838000 0.0015260000
0.6518858000 0.1856444000 0.0073182000
0.6653624000 0.1912660000 0.0016112000
0.6759768000 0.1999572000 0.0155886000
0.6858276000 0.2074096000 0.0228578000
0.0000000000 0.0624630000 0.0274596000
0.0000000000 0.0634216000 0.0200808000
0.0170596000 0.0659302000 0.0094912000
0.0553772000 0.0714418000 0.0001770000
0.1033690000 0.0786742000 0.0000000000
0.1790164000 0.0909304000 0.0000000000
0.2852904000 0.1141904000 0.0000000000
0.4045780000 0.1469726000 0.0000000000
0.5122682000 0.1766112000 0.0000000000
0.5905762000 0.2054380000 0.0065186000
0.6433108000 0.2207824000 0.0140444000
0.6746580000 0.2286924000 0.0022462000
0.6892152000 0.2328368000 0.0001098000
0.7006044000 0.2374816000 0.0023558000
0.7102782000 0.2452452000 0.0055604000
0.7185974000 0.2537106000 0.0126280000
0.0000000000 0.0863464000 0.0285462000
0.0000000000 0.0893126000 0.0161680000
0.0001526000 0.0901856000 0.0024962000
0.0427426000 0.0995910000 0.0000000000
0.1099792000 0.1135742000 0.0000000000
0.2067506000 0.1363400000 0.0000000000
0.3230040000 0.1629152000 0.0000000000
0.4440060000 0.2024600000 0.0000000000
0.5489196000 0.2361448000 0.0000000000
0.6289550000 0.2652278000 0.0105958000
0.6830442000 0.2803834000 0.0063170000
0.7161074000 0.2926998000 0.0025876000
0.7300840000 0.2974424000 0.0000000000
0.7405518000 0.3026060000 0.0008240000
0.7503112000 0.3116822000 0.0021728000
0.7581970000 0.3219666000 0.0030212000
0.0000000000 0.1311094000 0.0442448000
0.0000000000 0.1358278000 0.0341184000
0.0000000000 0.1391662000 0.0077514000
0.0228940000 0.1472352000 0.0000000000
0.1146488000 0.1696716000 0.0000000000
0.2291866000 0.2002744000 0.0000000000
0.3575378000 0.2342040000 0.0000000000
0.4820070000 0.2755556000 0.0000000000
0.5957762000 0.3211302000 0.0000000000
0.6732664000 0.3492068000 0.0158508000
0.7277772000 0.3652104000 0.0014282000
0.7592836000 0.3789674000 0.0010192000
0.7731384000 0.3849122000 0.0238404000
0.7835634000 0.3903870000 0.0192200000
0.7922366000 0.3991150000 0.0178160000
0.7979184000 0.4061096000 0.0112120000
0.0000000000 0.2043396000 0.0793214000
0.0000000000 0.2218688000 0.0756528000
0.0000000000 0.2297912000 0.0518430000
0.0000000000 0.2312254000 0.0065186000
0.1096132000 0.2587220000 0.0000000000
0.2475040000 0.2990358000 0.0000000000
0.3919680000 0.3380796000 0.0000000000
0.5257508000 0.3828000000 0.0000000000
0.6384402000 0.4216492000 0.0061830000
0.7208314000 0.4509702000 0.0060364000
0.7771852000 0.4696960000 0.0017334000
0.8008790000 0.4777344000 0.0002808000
0.8148744000 0.4832398000 0.0194824000
0.8242920000 0.4887632000 0.0225952000
0.8398010000 0.5022154000 0.0248840000
0.8479186000 0.5102476000 0.0231508000
0.0010070000 0.3017460000 0.1324830000
0.0012024000 0.3248104000 0.1281496000
0.0000000000 0.3331484000 0.1019470000
0.0000000000 0.3351380000 0.0128050000
0.1117126000 0.3673400000 0.0000000000
0.2723388000 0.4165220000 0.0000000000
0.4329712000 0.4637694000 0.0000000000
0.5788332000 0.5087038000 0.0000000000
0.6895322000 0.5336426000 0.0115174000
0.7680240000 0.5551148000 0.0025390000
0.8253298000 0.5753842000 0.0091856000
0.8520936000 0.5868348000 0.0075194000
0.8657410000 0.5911132000 0.0009584000
0.8752196000 0.5960326000 0.0037782000
0.8824158000 0.6033754000 0.0177550000
0.8903928000 0.6132566000 0.0198666000
0.0168272000 0.3858096000 0.1787232000
0.0100890000 0.4104068000 0.1731320000
0.0000000000 0.4200074000 0.1457334000
0.0000000000 0.4245728000 0.0224244000
0.1103026000 0.4598876000 0.0000000000
0.2954228000 0.5207702000 0.0000000000
0.4685790000 0.5768614000 0.0000000000
0.6213684000 0.6236022000 0.0042052000
0.7260862000 0.6382998000 0.0078064000
0.8064148000 0.6558352000 0.0021788000
0.8596924000 0.6680784000 0.0018552000
0.8885616000 0.6780216000 0.0014466000
0.9039612000 0.6826966000 0.0007872000
0.9132812000 0.6867494000 0.0000000000
0.9192200000 0.6911500000 0.0000000000
0.9255308000 0.7004638000 0.0094240000
0.0064760000 0.4335142000 0.1949892000
0.0061832000 0.4579100000 0.1882388000
0.0128846000 0.4739260000 0.1689882000
0.0014040000 0.4848144000 0.0305420000
0.1198978000 0.5222780000 0.0000000000
0.3087216000 0.5818790000 0.0000000000
0.4894228000 0.6436398000 0.0043822000
0.6387206000 0.6924560000 0.0010618000
0.7609372000 0.7184084000 0.0023498000
0.8310976000 0.7233462000 0.0044800000
0.8840820000 0.7308292000 0.0164062000
0.9121764000 0.7375126000 0.0139892000
0.9275084000 0.7403624000 0.0018678000
0.9360838000 0.7433350000 0.0162110000
0.9412596000 0.7462342000 0.0241146000
0.9463498000 0.7525570000 0.0246580000
0.0058842000 0.4633968000 0.2067568000
0.0023438000 0.4859132000 0.1977780000
0.0008240000 0.5004456000 0.1677000000
0.0016356000 0.5169188000 0.0610046000
0.1328246000 0.5565308000 0.0019226000
0.3251890000 0.6177794000 0.0000000000
0.5083126000 0.6787232000 0.0000980000
0.6573056000 0.7292114000 0.0116148000
0.7741640000 0.7596494000 0.0007874000
0.8459900000 0.7632200000 0.0100284000
0.8995910000 0.7698674000 0.0199954000
0.9265866000 0.7725650000 0.0164428000
0.9406680000 0.7727904000 0.0139280000
0.9492248000 0.7749572000 0.0207334000
0.9532900000 0.7760500000 0.0125976000
0.9566894000 0.7790958000 0.0022952000
0.0105228000 0.4825806000 0.2169616000
0.0210388000 0.5047488000 0.2059694000
0.0119262000 0.5200376000 0.1777466000
0.0000000000 0.5361510000 0.0862122000
0.1215394000 0.5710512000 0.0117308000
0.3066470000 0.6263672000 0.0000000000
0.4833132000 0.6848204000 0.0162718000
0.6346370000 0.7352052000 0.0062626000
0.7576904000 0.7705692000 0.0044558000
0.8385502000 0.7814330000 0.0098330000
0.8955566000 0.7873964000 0.0169312000
0.9283322000 0.7912964000 0.0151552000
0.9467348000 0.7926882000 0.0120546000
0.9558168000 0.7933654000 0.0048338000
0.9606386000 0.7945558000 0.0038390000
0.9635800000 0.7958858000 0.0009032000
0.0032288000 0.4936828000 0.2201724000
0.0000000000 0.5116270000 0.2040832000
0.0039736000 0.5298826000 0.1733642000
0.0000000000 0.5474852000 0.0798522000
0.1063416000 0.5794556000 0.0027344000
0.2995728000 0.6328248000 0.0000000000
0.4778320000 0.6909792000 0.0118038000
0.6273864000 0.7404786000 0.0098208000
0.7466674000 0.7754822000 0.0003054000
0.8320984000 0.7895874000 0.0006468000
0.8907470000 0.7948488000 0.0013792000
0.9293884000 0.8007080000 0.0020874000
0.9494386000 0.8030274000 0.0017030000
0.9611574000 0.8047608000 0.0052736000
0.9665102000 0.8055542000 0.0139220000
0.9698060000 0.8066284000 0.0209290000
0.0000000000 0.5241884000 0.2367798000
0.0019044000 0.5421934000 0.2127684000
0.0000000000 0.5530456000 0.1594118000
0.0000000000 0.5683900000 0.0646362000
0.0825566000 0.5960696000 0.0000732000
0.2996522000 0.6437436000 0.0000000000
0.4672852000 0.6954226000 0.0000000000
0.6147890000 0.7420044000 0.0005982000
0.7331968000 0.7774110000 0.0011598000
0.8283140000 0.7996822000 0.0059388000
0.8905454000 0.8056460000 0.0158448000
0.9300416000 0.8088682000 0.0212340000
0.9553710000 0.8127320000 0.0220884000
0.9682862000 0.8140930000 0.0122924000
0.9746522000 0.8140322000 0.0088930000
0.9790468000 0.8152954000 0.0197752000
0.0338442000 0.5586362000 0.2615476000
0.0017150000 0.5734252000 0.2188780000
0.0000000000 0.5805296000 0.1373172000
0.0109438000 0.5944216000 0.0062500000
0.1110718000 0.6217226000 0.0033752000
0.3105408000 0.6613460000 0.0011840000
0.4661564000 0.7054140000 0.0000000000
0.6046754000 0.7463078000 0.0000000000
0.7244628000 0.7788150000 0.0000368000
0.8226254000 0.8032224000 0.0015500000
0.8898254000 0.8135436000 0.0097042000
0.9323364000 0.8163088000 0.0156246000
0.9614440000 0.8207396000 0.0171874000
0.9761108000 0.8227474000 0.0121338000
0.9837406000 0.8231690000 0.0052366000
0.9891906000 0.8248536000 0.0227170000
0.0002562000 0.0150392000 0.0394288000
0.0139768000 0.0149536000 0.0385680000
0.0365420000 0.0161742000 0.0374204000
0.0577152000 0.0183044000 0.0319336000
0.0874878000 0.0202818000 0.0153134000
0.1336302000 0.0131044000 0.0000000000
0.2002806000 0.0026426000 0.0000000000
0.2838194000 0.0167848000 0.0000000000
0.3762998000 0.0403992000 0.0000000000
0.4570922000 0.0687988000 0.0000000000
0.5140138000 0.0782714000 0.0000000000
0.5488402000 0.0904542000 0.0134826000
0.5727174000 0.0838742000 0.0003480000
0.5864744000 0.0905336000 0.0009766000
0.5962278000 0.0927366000 0.0011232000
0.6023312000 0.1020998000 0.0143920000
0.0000000000 0.0223390000 0.0415894000
0.0130250000 0.0232666000 0.0402650000
0.0388368000 0.0246094000 0.0381532000
0.0624268000 0.0261722000 0.0315186000
0.0940002000 0.0282224000 0.0125672000
0.1466922000 0.0213378000 0.0000000000
0.2252382000 0.0248106000 0.0000000000
0.3171938000 0.0443302000 0.0000000000
0.4103640000 0.0546998000 0.0000000000
0.4924866000 0.0831052000 0.0000000000
0.5467164000 0.1109012000 0.0126646000
0.5764648000 0.1085572000 0.0041812000
0.5939030000 0.1109312000 0.0035336000
0.6068298000 0.1104858000 0.0000000000
0.6176880000 0.1129640000 0.0000000000
0.6271544000 0.1140932000 0.0000000000
0.0000000000 0.0334354000 0.0443116000
0.0023312000 0.0347718000 0.0418150000
0.0350216000 0.0359496000 0.0378238000
0.0644838000 0.0376648000 0.0284304000
0.0990662000 0.0395324000 0.0087830000
0.1542788000 0.0390506000 0.0000000000
0.2507322000 0.0498656000 0.0000000000
0.3520204000 0.0713198000 0.0000000000
0.4462888000 0.0893616000 0.0000000000
0.5257570000 0.1148620000 0.0000856000
0.5804872000 0.1394164000 0.0182556000
0.6073302000 0.1374266000 0.0050232000
0.6219606000 0.1354372000 0.0004026000
0.6327578000 0.1401122000 0.0014280000
0.6442810000 0.1438232000 0.0062010000
0.6543460000 0.1517882000 0.0204102000
0.0000000000 0.0454224000 0.0446226000
0.0000000000 0.0476500000 0.0415222000
0.0271364000 0.0491452000 0.0364870000
0.0624572000 0.0509886000 0.0263792000
0.1027344000 0.0549438000 0.0067444000
0.1642822000 0.0597596000 0.0000000000
0.2673948000 0.0777590000 0.0000000000
0.3765626000 0.0993106000 0.0000000000
0.4837342000 0.1229310000 0.0000000000
0.5653566000 0.1466246000 0.0000000000
0.6160826000 0.1708618000 0.0147888000
0.6421752000 0.1713258000 0.0051026000
0.6585692000 0.1735594000 0.0000000000
0.6695434000 0.1783998000 0.0000428000
0.6808716000 0.1822690000 0.0049500000
0.6910338000 0.1904666000 0.0197814000
0.0000000000 0.0653018000 0.0446532000
0.0000000000 0.0671692000 0.0391050000
0.0121032000 0.0678834000 0.0290892000
0.0547670000 0.0719300000 0.0103024000
0.1034120000 0.0781554000 0.0034362000
0.1778502000 0.0918396000 0.0000000000
0.2899108000 0.1150758000 0.0000000000
0.4078248000 0.1436402000 0.0000000000
0.5192382000 0.1699524000 0.0000000000
0.6044864000 0.1954714000 0.0000000000
0.6545714000 0.2165528000 0.0016726000
0.6791320000 0.2247744000 0.0223692000
0.6945982000 0.2242552000 0.0049318000
0.7053284000 0.2302004000 0.0123294000
0.7169494000 0.2370790000 0.0143066000
0.7271852000 0.2453004000 0.0074950000
0.0000000000 0.0938046000 0.0481442000
0.0000000000 0.0944644000 0.0379028000
0.0000000000 0.0960572000 0.0146546000
0.0382020000 0.1027220000 0.0037294000
0.1081302000 0.1158694000 0.0018676000
0.1964964000 0.1351016000 0.0000000000
0.3234012000 0.1671020000 0.0000000000
0.4541074000 0.2075986000 0.0000000000
0.5604492000 0.2404420000 0.0000000000
0.6437072000 0.2647400000 0.0002076000
0.6940004000 0.2845638000 0.0195130000
0.7202516000 0.2903074000 0.0202212000
0.7348818000 0.2899842000 0.0080688000
0.7461794000 0.2978212000 0.0086670000
0.7564514000 0.3079224000 0.0215272000
0.7661806000 0.3191344000 0.0230404000
0.0000000000 0.1408752000 0.0646116000
0.0000000000 0.1497560000 0.0566222000
0.0000000000 0.1572022000 0.0329162000
0.0002808000 0.1613894000 0.0044982000
