LUTs/SPK Cube Block1 S16/TheBrim_SPK_Type-H_Block1_S16.cube
TITLE "TheBrim® SPK Block 1"
# © Copyright 2021 - TheBrim® d.o.o. Croatia
LUT_3D_SIZE 6
DOMAIN_MIN 0.000000 0.000000 0.000000
DOMAIN_MAX 1.000000 1.000000 1.000000
0.068330 0.020264 0.046204
0.101601 0.023047 0.044575
0.345861 0.017206 0.020356
0.652052 0.018451 0.015766
0.789603 0.022467 0.015363
0.803555 0.022889 0.015534
0.068989 0.074952 0.066627
0.096504 0.069129 0.051063
0.283806 0.055207 0.024585
0.599402 0.016919 0.016034
0.807993 0.023005 0.015564
0.826444 0.023554 0.015747
0.093709 0.299522 0.189108
0.083265 0.221872 0.131984
0.237632 0.234189 0.043690
0.521038 0.203775 0.016986
0.816556 0.120266 0.016419
0.880912 0.077040 0.017334
0.124080 0.437147 0.260447
0.121309 0.425098 0.235721
0.222983 0.474397 0.126070
0.563458 0.534093 0.049989
0.792325 0.533519 0.053785
0.856675 0.478010 0.051374
0.144289 0.517766 0.232444
0.235538 0.538604 0.207126
0.417884 0.596918 0.149996
0.633161 0.712068 0.076081
0.866258 0.785501 0.093153
0.929912 0.773043 0.093941
0.394812 0.587243 0.156802
0.431440 0.603095 0.144363
0.535943 0.657020 0.070039
0.700203 0.747756 0.081898
0.860246 0.808457 0.094759
0.941985 0.847898 0.100252
0.068202 0.025580 0.117910
0.086195 0.023261 0.083717
0.361022 0.016895 0.054902
0.673738 0.019068 0.015644
0.795743 0.022657 0.015442
0.811545 0.023127 0.015613
0.069453 0.076570 0.132888
0.087190 0.057838 0.084547
0.280284 0.045997 0.045478
0.608106 0.017169 0.015985
0.806815 0.022980 0.015552
0.834025 0.023774 0.015827
0.093593 0.298894 0.189792
0.083418 0.224057 0.135647
0.238553 0.228501 0.052113
0.525530 0.188717 0.016608
0.830796 0.097737 0.016388
0.894200 0.063532 0.017658
0.123897 0.436341 0.260746
0.121108 0.424286 0.236405
0.226926 0.474134 0.124001
0.567266 0.530150 0.049177
0.791629 0.520180 0.051801
0.862998 0.475740 0.051575
0.145003 0.520732 0.230210
0.251084 0.541723 0.203079
0.422559 0.598993 0.148238
0.636640 0.713790 0.076283
0.870646 0.791867 0.093928
0.941540 0.822495 0.098311
0.406757 0.592102 0.153915
0.442194 0.607977 0.136672
0.547491 0.663325 0.070674
0.714638 0.754525 0.083308
0.864811 0.812284 0.095235
0.947088 0.893883 0.103871
0.074440 0.062312 0.282469
0.076094 0.067335 0.306780
0.254997 0.060182 0.273210
0.704140 0.011139 0.226285
0.862119 0.018482 0.138912
0.865360 0.019727 0.116219
0.075966 0.077485 0.303331
0.075166 0.070381 0.291502
0.267088 0.061909 0.230021
0.673066 0.011450 0.187863
0.871824 0.019678 0.120681
0.889195 0.020508 0.114577
0.099342 0.315227 0.419202
0.085359 0.242307 0.335753
0.212241 0.221909 0.243772
0.553588 0.174643 0.170993
0.886137 0.093227 0.126967
0.936846 0.065852 0.111275
0.130397 0.456403 0.408283
0.128811 0.450147 0.401428
0.141347 0.501509 0.340447
0.556793 0.547521 0.236283
0.795987 0.538445 0.154195
0.864433 0.477388 0.128115
0.149892 0.539696 0.350286
0.159115 0.565441 0.353881
0.393732 0.620575 0.319213
0.629798 0.747018 0.299504
0.874638 0.854820 0.208475
0.943658 0.871653 0.173965
0.425312 0.604602 0.178640
0.456904 0.620465 0.169235
0.558428 0.683259 0.181295
0.709853 0.784683 0.224961
0.870939 0.868217 0.278471
0.951580 0.921758 0.369751
0.083137 0.087233 0.437244
0.095167 0.091463 0.443598
0.248759 0.085158 0.422406
0.608856 0.016339 0.379779
0.920800 0.012952 0.309368
0.934478 0.013776 0.285704
0.085011 0.110524 0.462177
0.090980 0.106465 0.460523
0.255222 0.096522 0.432337
0.641614 0.027228 0.386969
0.948199 0.013397 0.321947
0.970642 0.014215 0.312810
0.103359 0.306249 0.605225
0.094990 0.257029 0.556408
0.222354 0.223032 0.498903
0.586041 0.189462 0.426349
0.972448 0.103053 0.373889
1.000000 0.060816 0.340209
0.136757 0.491005 0.625782
0.135409 0.485029 0.617041
0.147555 0.548785 0.619007
0.550292 0.577655 0.527825
0.835776 0.549810 0.465748
0.906413 0.468360 0.409577
0.157595 0.584570 0.572369
0.164346 0.612293 0.580212
0.352770 0.687367 0.564764
0.628400 0.780771 0.551324
0.876469 0.865470 0.544250
0.945483 0.875303 0.525090
0.380090 0.664015 0.465303
0.429981 0.683168 0.462776
0.556439 0.731521 0.462690
0.723708 0.811160 0.488557
0.888859 0.886577 0.532958
0.958282 0.929320 0.590307
0.086360 0.128402 0.480366
0.112380 0.124733 0.475599
0.226743 0.116957 0.452833
0.459217 0.093910 0.414368
0.798080 0.014215 0.385559
0.991156 0.014069 0.347131
0.087831 0.148879 0.498152
0.105678 0.143209 0.492213
0.222232 0.135671 0.469014
0.468385 0.113228 0.427448
0.823276 0.024353 0.399835
1.000000 0.015772 0.367187
0.097414 0.271574 0.592956
0.094484 0.243729 0.573822
0.225809 0.230930 0.543902
0.520421 0.214383 0.493016
0.829514 0.188510 0.468940
0.999426 0.147121 0.439191
0.142568 0.501430 0.741592
0.142287 0.499855 0.741671
0.159664 0.577850 0.813858
0.557159 0.612665 0.748434
0.833219 0.575818 0.652210
0.908598 0.503444 0.600293
0.164883 0.613898 0.767080
0.172720 0.644788 0.785531
0.208292 0.720302 0.823166
0.632294 0.809049 0.788717
0.885795 0.895665 0.754647
0.946300 0.897240 0.746255
0.328917 0.714357 0.681099
0.413593 0.733242 0.675343
0.567755 0.780044 0.683027
0.747512 0.851969 0.681215
0.903270 0.923546 0.727871
0.957409 0.951702 0.764565
0.088838 0.162417 0.510613
0.105031 0.157888 0.505077
0.186221 0.150845 0.486110
0.373590 0.137740 0.452210
0.600781 0.101210 0.418891
0.914305 0.016449 0.399420
0.090095 0.180368 0.525328
0.098293 0.176248 0.521801
0.191031 0.165914 0.498891
0.377783 0.153237 0.463563
0.594903 0.123134 0.430262
0.912572 0.068122 0.415955
0.095259 0.252634 0.580731
0.094710 0.246921 0.577142
0.202036 0.236905 0.553893
0.388159 0.235569 0.523040
0.641608 0.251188 0.505571
0.899449 0.258061 0.498784
0.142061 0.496236 0.753121
0.145821 0.513216 0.769625
0.205667 0.554437 0.789963
0.534337 0.582538 0.735268
0.756533 0.612195 0.681099
0.884312 0.638563 0.674696
0.181491 0.654151 0.866935
0.191250 0.685158 0.889574
0.313622 0.748574 0.897368
0.680006 0.831980 0.849644
0.888334 0.901396 0.800516
0.942382 0.914696 0.795346
0.325689 0.741299 0.852110
0.402435 0.755435 0.842899
0.578265 0.807382 0.839359
0.776431 0.886143 0.808328
0.914073 0.944176 0.823423
0.959869 0.964752 0.831968
