LUTs/SPK Cube Block1 S16/TheBrim_SPK_Type-R_Block1_S16.cube
TITLE "TheBrim® SPK Block 1"
# © Copyright 2021 - TheBrim® d.o.o. Croatia
LUT_3D_SIZE 6
DOMAIN_MIN 0.000000 0.000000 0.000000
DOMAIN_MAX 1.000000 1.000000 1.000000
0.001068 0.004303 0.006806
0.016028 0.010034 0.017182
0.360778 0.000000 0.006891
0.601251 0.000000 0.019153
0.646003 0.000000 0.036207
0.664179 0.000000 0.051606
0.000000 0.048060 0.028815
0.029255 0.039881 0.021204
0.366577 0.000000 0.007160
0.599658 0.000000 0.019434
0.645808 0.000000 0.035914
0.664179 0.000000 0.051606
0.000000 0.361944 0.146755
0.000000 0.350994 0.139528
0.211240 0.335680 0.090132
0.690382 0.241874 0.007031
0.691505 0.039124 0.031360
0.672084 0.000000 0.051423
0.000000 0.511394 0.230332
0.000000 0.513927 0.230558
0.000000 0.526421 0.209427
0.726131 0.771499 0.071534
0.969403 0.790286 0.000000
0.941881 0.664533 0.000000
0.000000 0.523253 0.226304
0.000000 0.529473 0.219657
0.110152 0.681477 0.220847
0.775998 0.811942 0.134896
0.980792 0.848209 0.000000
0.985620 0.853581 0.000000
0.000000 0.654383 0.223087
0.231534 0.695644 0.216165
0.565637 0.764248 0.187875
0.853404 0.827854 0.062269
0.979113 0.847990 0.000000
0.985443 0.848508 0.000000
0.000000 0.008624 0.048603
0.003674 0.010028 0.049250
0.355834 0.000000 0.102663
0.605597 0.000000 0.106703
0.647364 0.000000 0.082759
0.663514 0.000000 0.114156
0.000000 0.030866 0.063941
0.022315 0.020905 0.051087
0.385235 0.000000 0.074549
0.605042 0.000000 0.083491
0.647120 0.000000 0.069056
0.663648 0.000000 0.105776
0.000000 0.360314 0.146151
0.000000 0.348656 0.139321
0.230539 0.330297 0.105763
0.688405 0.211112 0.062928
0.679219 0.006885 0.059956
0.670143 0.000000 0.097389
0.000000 0.511827 0.230777
0.000000 0.514482 0.231144
0.000000 0.526629 0.209134
0.736410 0.771225 0.058686
0.968457 0.784878 0.000000
0.941466 0.659077 0.000000
0.000000 0.524395 0.225400
0.000000 0.529924 0.218943
0.161294 0.686836 0.218924
0.780868 0.813040 0.133596
0.982257 0.851255 0.000000
0.984564 0.872441 0.210898
0.000000 0.668861 0.224424
0.294774 0.705696 0.211795
0.598096 0.771017 0.179580
0.867503 0.830961 0.048316
0.981030 0.848722 0.000000
0.983832 0.876445 0.262223
0.000000 0.034308 0.220279
0.000000 0.038532 0.244962
0.117946 0.044733 0.284276
0.600085 0.000000 0.346069
0.654212 0.000000 0.282457
0.657844 0.000000 0.283928
0.000000 0.034418 0.217612
0.000000 0.038007 0.233921
0.179013 0.040620 0.272502
0.609430 0.000000 0.314903
0.655232 0.000000 0.260020
0.662556 0.000000 0.267704
0.000000 0.337902 0.342541
0.000000 0.312810 0.334411
0.235923 0.264244 0.314012
0.667304 0.144356 0.283854
0.675459 0.000000 0.225284
0.669844 0.000000 0.232255
0.000000 0.535259 0.364398
0.000000 0.537462 0.366912
0.000000 0.559747 0.375152
0.754397 0.809659 0.444746
0.966058 0.818643 0.389441
0.934105 0.652491 0.378790
0.000000 0.547033 0.332311
0.000000 0.552746 0.337029
0.059120 0.717104 0.397559
0.789688 0.847428 0.423523
0.976983 0.899901 0.472364
0.976092 0.906181 0.524163
0.195901 0.700563 0.260551
0.357971 0.726259 0.254899
0.643012 0.795450 0.278178
0.878654 0.859873 0.349084
0.978143 0.894963 0.431507
0.976306 0.906004 0.520446
0.000000 0.057984 0.366534
0.000000 0.058009 0.386438
0.028669 0.058967 0.405866
0.520031 0.000000 0.479677
0.644410 0.000000 0.413458
0.640998 0.000000 0.406976
0.000000 0.058589 0.377801
0.000000 0.061646 0.394598
0.064051 0.058180 0.417957
0.560821 0.000000 0.480769
0.643561 0.000000 0.407727
0.640723 0.000000 0.405676
0.000000 0.181729 0.421863
0.000000 0.162783 0.415430
0.156875 0.134469 0.442341
0.612848 0.025898 0.458521
0.660676 0.000000 0.390698
0.645386 0.000000 0.373779
0.000000 0.568286 0.562524
0.000000 0.566815 0.561193
0.000000 0.593170 0.576287
0.751583 0.819516 0.706795
0.952630 0.821524 0.681996
0.921776 0.634241 0.630988
0.000000 0.578894 0.509880
0.000000 0.587268 0.515550
0.089821 0.760452 0.618293
0.799588 0.882689 0.677772
0.965405 0.927556 0.728792
0.964404 0.931041 0.761715
0.205740 0.752120 0.538470
0.372009 0.779452 0.552569
0.655885 0.839811 0.583032
0.884068 0.893809 0.626172
0.968487 0.922472 0.676930
0.966241 0.927459 0.724208
0.000000 0.061176 0.398071
0.000000 0.056709 0.401209
0.048255 0.058717 0.414539
0.409314 0.007434 0.472499
0.654725 0.000000 0.488252
0.641999 0.000000 0.404608
0.000000 0.060206 0.400226
0.000000 0.056318 0.400714
0.073396 0.057246 0.420722
0.435462 0.001196 0.474415
0.662507 0.000000 0.480855
0.639551 0.000000 0.402972
0.000000 0.155612 0.455067
0.000000 0.139632 0.448060
0.149239 0.122499 0.489512
0.554961 0.079780 0.527990
0.722683 0.008777 0.507518
0.703896 0.000000 0.471974
0.000000 0.588312 0.679347
0.000000 0.584949 0.677778
0.000000 0.639777 0.727346
0.777475 0.829355 0.853385
0.945635 0.822898 0.831864
0.921746 0.653083 0.762161
0.000000 0.605988 0.633924
0.000000 0.615674 0.641096
0.108455 0.790860 0.773404
0.824796 0.904704 0.835526
0.959203 0.941796 0.875767
0.958495 0.941997 0.887620
0.229923 0.790677 0.714070
0.435700 0.817063 0.727517
0.709822 0.874321 0.760269
0.899406 0.916967 0.793735
0.961120 0.938140 0.834696
0.960192 0.939892 0.854270
0.000000 0.057435 0.401526
0.000000 0.056764 0.399353
0.043745 0.059077 0.413465
0.313707 0.031763 0.465296
0.570599 0.000000 0.480360
0.663905 0.000000 0.450507
0.000000 0.060981 0.405859
0.000000 0.059394 0.402960
0.063276 0.058973 0.419525
0.330236 0.029029 0.467097
0.576654 0.000000 0.480153
0.660871 0.000000 0.440754
0.000000 0.156289 0.454939
0.000000 0.143111 0.452924
0.093501 0.128853 0.482802
0.422156 0.129793 0.532348
0.700081 0.138698 0.562805
0.789267 0.184524 0.569226
0.000000 0.542870 0.663886
0.000000 0.549938 0.664839
0.000000 0.680885 0.786410
0.743679 0.795242 0.840305
0.926458 0.855503 0.855991
0.948138 0.846891 0.842155
0.000000 0.633680 0.709334
0.000000 0.697273 0.766018
0.439551 0.840970 0.863377
0.882170 0.923937 0.905248
0.957214 0.945806 0.920598
0.957140 0.945592 0.920385
0.394202 0.826108 0.827054
0.510906 0.847721 0.839280
0.757449 0.894328 0.861753
0.920006 0.932848 0.894157
0.957458 0.945483 0.916545
0.957214 0.946410 0.923156
