LUTs/SPK Cube Block1 S16/TheBrim_SPK_Type-U_Block 1_S16.cube
TITLE "TheBrim® Industrial Imaging Burau"
# © Copyright 2022 - TheBrim® d.o.o. Croatia
LUT_3D_SIZE 16
0.0127260243 0.0152590219 0.0176394293
0.0332768750 0.0248050660 0.0271366445
0.0619516289 0.0305546654 0.0309208820
0.0962050813 0.0380315862 0.0358220798
0.1519493400 0.0451239796 0.0377996490
0.2402380407 0.0442511635 0.0325932708
0.3426565957 0.0265934234 0.0186221103
0.4062684062 0.0174746319 0.0182742046
0.4733043412 0.0083436332 0.0219180591
0.5333485924 0.0000000000 0.0250247959
0.5823300526 0.0000000000 0.0324406806
0.6269047074 0.0000000000 0.0370916304
0.6530708782 0.0000000000 0.0409857328
0.6625314717 0.0000000000 0.0386663615
0.6656321050 0.0000000000 0.0339665827
0.6711680781 0.0000000000 0.0336003662
0.0241458762 0.0403204395 0.0328191043
0.0378118563 0.0393682765 0.0312077516
0.0644785229 0.0416937514 0.0315678645
0.1025772488 0.0457038224 0.0333501183
0.1646326390 0.0517769131 0.0322819867
0.2477943084 0.0526070039 0.0271305409
0.3348744945 0.0469184405 0.0202944991
0.3996765087 0.0332341497 0.0207766842
0.4721263447 0.0109315633 0.0225101091
0.5325123980 0.0000000000 0.0258060578
0.5820370794 0.0000000000 0.0329411765
0.6264164187 0.0000000000 0.0372320134
0.6532845045 0.0000000000 0.0412848096
0.6629831388 0.0000000000 0.0388799878
0.6662912947 0.0000000000 0.0338139925
0.6839917601 0.0042603189 0.0341435874
0.0294438087 0.0650400549 0.0421210040
0.0431586175 0.0654062715 0.0412909133
0.0654367895 0.0665476463 0.0407537957
0.1030350195 0.0701853971 0.0403021286
0.1586633097 0.0745555810 0.0390142672
0.2379003586 0.0779858091 0.0326115816
0.3156237125 0.0753185321 0.0264713512
0.3910093843 0.0663645380 0.0259281300
0.4634225986 0.0509224079 0.0264957656
0.5276356146 0.0365545129 0.0287846189
0.5866575113 0.0165102617 0.0338750286
0.6321110857 0.0110353246 0.0364385443
0.6669382773 0.0139223316 0.0411322194
0.6802014191 0.0195315480 0.0394842451
0.6872327764 0.0145754177 0.0338933394
0.7059281300 0.0564705882 0.0313786526
0.0324406806 0.0964675364 0.0514717327
0.0467902647 0.0969008927 0.0505500877
0.0704051270 0.0986709392 0.0495551995
0.1043839170 0.1018142977 0.0474189364
0.1611291676 0.1087602045 0.0458197910
0.2293492027 0.1133318074 0.0391607538
0.3078355077 0.1137956817 0.0351201648
0.3835446708 0.1090287633 0.0320622568
0.4614816510 0.1022110323 0.0309514000
0.5342458228 0.0931227588 0.0321416037
0.6015197986 0.0866773480 0.0342473487
0.6524910353 0.0842420081 0.0375249866
0.6935805295 0.0885145342 0.0386541543
0.7124162661 0.0927992676 0.0350591287
0.7209246967 0.0926344701 0.0279423209
0.7317524987 0.1146501869 0.0244449531
0.0220767529 0.1406698711 0.0608224613
0.0358525978 0.1409811551 0.0599374380
0.0669077592 0.1444724193 0.0589242390
0.1058731975 0.1490501259 0.0565011063
0.1537499046 0.1487693599 0.0541329061
0.2183627070 0.1540856031 0.0498847944
0.2942854963 0.1561364157 0.0452216373
0.3780514229 0.1583093004 0.0390142672
0.4622568093 0.1551781491 0.0352666514
0.5444083314 0.1543968872 0.0336980240
0.6157045853 0.1510215915 0.0345159075
0.6742320897 0.1510032807 0.0343938354
0.7194598306 0.1567101549 0.0345769436
0.7451194018 0.1601098650 0.0281742580
0.7540184634 0.1597314412 0.0158754864
0.7600366217 0.1690943771 0.0114015412
0.0000000000 0.1890592813 0.0816052491
0.0020569162 0.1850492103 0.0786327916
0.0453253986 0.1855130846 0.0756359197
0.0895094224 0.1945342184 0.0737438010
0.1488364996 0.1996002136 0.0702281224
0.2109712367 0.2027924010 0.0658884565
0.2923689631 0.2107698177 0.0589974823
0.3778133822 0.2144136721 0.0508491646
0.4689951934 0.2191500725 0.0408880751
0.5533134966 0.2207980468 0.0358464942
0.6321660182 0.2222018769 0.0309758145
0.6985183490 0.2243808652 0.0285343709
0.7463401236 0.2290562295 0.0269779507
0.7800564584 0.2356542306 0.0178652628
0.7944121462 0.2414343481 0.0009521630
0.7965972381 0.2420691234 0.0000000000
0.0000000000 0.2851972229 0.1151873045
0.0000000000 0.2704631113 0.1091020066
0.0000000000 0.2485389487 0.1012649729
0.0446234836 0.2468726635 0.0962294957
0.1287006943 0.2626077668 0.0931227588
0.2096772717 0.2721599145 0.0859632258
0.2916853590 0.2785809110 0.0750072480
0.3850827802 0.2865583276 0.0620981155
0.4812817578 0.2923445487 0.0463508049
0.5710139620 0.2989364462 0.0315129320
0.6532967117 0.3025925078 0.0195986877
0.7251056687 0.3069077592 0.0128908217
0.7763149462 0.3141283284 0.0128480964
0.8122713054 0.3208789197 0.0000000000
0.8328831922 0.3280933852 0.0000000000
0.8345189593 0.3260059510 0.0000000000
0.0000000000 0.3555901427 0.1548668650
0.0000000000 0.3599603265 0.1443137255
0.0000000000 0.3402090486 0.1330342565
0.0000000000 0.3232776379 0.1238056001
0.1016983291 0.3360280766 0.1185015640
0.1988860914 0.3516166934 0.1103227283
0.2986434730 0.3616021973 0.0971328298
0.3924315251 0.3701838712 0.0807751583
0.4971663996 0.3807248035 0.0585763333
0.5895628290 0.3881528954 0.0288639658
0.6774792096 0.3975402457 0.0050049592
0.7550988022 0.4038696880 0.0000000000
0.8071442741 0.4100953689 0.0000000000
0.8472266728 0.4183230335 0.0000000000
0.8713054093 0.4254032197 0.0000000000
0.8725871672 0.4194155795 0.0000000000
0.0000000000 0.4313237201 0.1897917144
0.0000000000 0.4372503243 0.1775112535
0.0000000000 0.4332707713 0.1679468986
0.0000000000 0.4274235142 0.1596276799
0.0121339742 0.4309941253 0.1499839780
0.1841458762 0.4406927596 0.1404440375
0.3037094682 0.4540901808 0.1242206455
0.4087403677 0.4638803693 0.1025101091
0.5122911421 0.4718394751 0.0759777218
0.6079102770 0.4821911955 0.0390081636
0.6995986877 0.4921126116 0.0000000000
0.7809414817 0.5025070573 0.0000000000
0.8332066835 0.5077561608 0.0000000000
0.8750164034 0.5168871595 0.0000000000
0.9020614939 0.5233569848 0.0000000000
0.9085740444 0.5244434272 0.0000000000
0.0000000000 0.4932753491 0.2248386358
0.0000000000 0.5018387121 0.2144258793
0.0000000000 0.5054215305 0.2024017700
0.0000000000 0.5118974594 0.1914091707
0.0000000000 0.5251575494 0.1821622034
0.1579552911 0.5298695354 0.1698695354
0.3026108186 0.5450614176 0.1520958267
0.4224246586 0.5597711147 0.1262714580
0.5302357519 0.5701411460 0.0968886854
0.6247379263 0.5749385824 0.0529121843
0.7179217212 0.5871763180 0.0000000000
0.7994964523 0.5958861677 0.0000000000
0.8544777600 0.6033997101 0.0000000000
0.8971480888 0.6109010452 0.0000000000
0.9264332036 0.6218387121 0.0000000000
0.9355153735 0.6195010300 0.0000000000
0.0000000000 0.5459220264 0.2565041581
0.0000000000 0.5551628901 0.2429175250
0.0000000000 0.5652765698 0.2292027161
0.0000000000 0.5746944381 0.2204806592
0.0000000000 0.5910093843 0.2129427024
0.1492027161 0.6086671244 0.1940337224
0.3063889525 0.6267338064 0.1760463874
0.4333257038 0.6429694057 0.1507225147
0.5467277028 0.6553841459 0.1202655070
0.6457953765 0.6656748302 0.0828076600
0.7352254520 0.6729076066 0.0144655528
0.8202426184 0.6833875029 0.0000000000
0.8752666514 0.6916762036 0.0000000000
0.9146959640 0.6977492943 0.0000000000
0.9433096818 0.7061783780 0.0000000000
0.9554436561 0.7031815061 0.0000000000
0.0000000000 0.5953551537 0.2540016785
0.0000000000 0.6003784237 0.2500587472
0.0000000000 0.6089784085 0.2456580453
0.0000000000 0.6234683757 0.2439917601
0.0000000000 0.6447882811 0.2390600443
0.1537804227 0.6654062715 0.2243076219
0.3232288090 0.6873609522 0.2075471122
0.4492439155 0.7095902953 0.1882841230
0.5677424277 0.7271503777 0.1615503166
0.6660532540 0.7381307698 0.1187396048
0.7557213703 0.7484946975 0.0609811551
0.8340978103 0.7548790723 0.0000000000
0.8874921798 0.7622522316 0.0000000000
0.9266285191 0.7646082246 0.0000000000
0.9554070344 0.7712428473 0.0000000000
0.9681269551 0.7669214923 0.0000000000
0.0000000000 0.6317998016 0.2425696193
0.0000000000 0.6363225757 0.2418432898
0.0000000000 0.6443427176 0.2390234226
0.0278202487 0.6555855650 0.2327000839
0.1849027237 0.6715709163 0.2243198291
0.2954818036 0.6897169451 0.2167025254
0.3955565728 0.7118486305 0.2090302892
0.4938735027 0.7366903182 0.1997955291
0.5860227359 0.7612268254 0.1889066911
0.6819592584 0.7838040742 0.1735927367
0.7655298695 0.7994048981 0.1435629816
0.8447425040 0.8085236896 0.0566048676
0.8950301366 0.8134493019 0.0000000000
0.9360219730 0.8177767605 0.0000000000
0.9647150378 0.8213656825 0.0000000000
0.9780636301 0.8217380026 0.0000000000
0.0335637446 0.6578683146 0.2316014343
0.0750133516 0.6612863355 0.2301060502
0.1436850538 0.6672739757 0.2268833448
0.2227023728 0.6764782177 0.2218966964
0.2967635615 0.6900221256 0.2165621424
0.3717524987 0.7063675898 0.2107148852
0.4605539025 0.7278217746 0.2027008469
0.5416617075 0.7494407568 0.1935332265
0.6145448997 0.7688685435 0.1860257877
0.7017837797 0.7906767376 0.1733119707
0.7799160754 0.8115388724 0.1600122072
0.8504005493 0.8297520409 0.1516441596
0.9045761807 0.8455115587 0.1544213016
0.9463370718 0.8526222629 0.0973281453
0.9710566873 0.8544594491 0.0135133898
0.9849179828 0.8578408484 0.0446601053
0.2482398718 0.6803234913 0.2201876860
0.2635416190 0.6832043946 0.2189486534
0.2906111238 0.6886915389 0.2170321202
0.3282276646 0.6967910277 0.2137361715
0.3793636988 0.7080827039 0.2103730831
0.4427069505 0.7232623789 0.2044831006
0.5105851835 0.7412680247 0.1985870146
0.5812863355 0.7599511711 0.1894560159
0.6564827955 0.7794583047 0.1814724956
0.7243244068 0.7965728237 0.1698146029
0.7919035630 0.8147066453 0.1581567102
0.8538551919 0.8308506905 0.1525474937
0.9018539712 0.8459693294 0.1595300221
0.9411856260 0.8582864118 0.1553856718
0.9684077211 0.8697672999 0.1965911345
0.9847348745 0.8816571298 0.2624673838
0.3512321660 0.7016556039 0.2114900435
0.3637384604 0.7045304036 0.2110322728
0.3848935683 0.7093400473 0.2101045243
0.4199282826 0.7174639506 0.2066803998
0.4640085451 0.7286518654 0.2021759365
0.5090257115 0.7408712902 0.1990081636
0.5609796292 0.7545006485 0.1907011521
0.6214602884 0.7706935225 0.1851712825
0.6875257496 0.7871244373 0.1761135271
0.7483848325 0.8030670634 0.1651392386
0.8063630121 0.8183566033 0.1540245670
0.8591775387 0.8325474937 0.1538902876
0.9034653239 0.8464637217 0.1595117113
0.9399221790 0.8579446098 0.1558312352
0.9654901961 0.8620584421 0.1151689937
0.9801327535 0.8776531624 0.2379797055
0.0185488670 0.0248294804 0.0375432975
0.0314213779 0.0266605631 0.0381780728
0.0582406348 0.0312993057 0.0422919051
0.0906630045 0.0376287480 0.0460028992
0.1513633936 0.0451178759 0.0489814603
0.2429846647 0.0433966583 0.0460456245
0.3541008621 0.0201113909 0.0318669413
0.4116884108 0.0164675364 0.0212283513
0.4761181048 0.0082398718 0.0225223163
0.5348561837 0.0000000000 0.0258854047
0.5837399863 0.0000000000 0.0332890822
0.6279667353 0.0000000000 0.0377019913
0.6536873426 0.0000000000 0.0413153277
0.6629831388 0.0000000000 0.0388616770
0.6657724880 0.0000000000 0.0340703441
0.6694773785 0.0000000000 0.0345037003
0.0170778973 0.0332524605 0.0374578470
0.0271000229 0.0307011521 0.0339604791
0.0601205463 0.0353032731 0.0363042649
0.1016006714 0.0424078737 0.0403326467
0.1680201419 0.0483161669 0.0405767910
0.2489234760 0.0490608072 0.0376104372
0.3411245899 0.0374639506 0.0279118029
0.4085023270 0.0206179904 0.0202334630
0.4765392538 0.0092347601 0.0229617762
0.5346547646 0.0000000000 0.0269047074
0.5836789502 0.0000000000 0.0339299611
0.6278202487 0.0000000000 0.0380010681
0.6540352483 0.0000000000 0.0417608911
0.6630746929 0.0000000000 0.0390936141
0.6660593576 0.0000000000 0.0338872358
0.6825146868 0.0016113527 0.0349858854
0.0163698787 0.0600656138 0.0437201495
0.0319829099 0.0615732052 0.0429755093
0.0608041505 0.0617441062 0.0420660716
0.1054764630 0.0653696498 0.0414435035
0.1644861524 0.0704844739 0.0430731670
0.2428320745 0.0727977417 0.0391363394
0.3219775692 0.0695445182 0.0305485618
0.3960509651 0.0603646906 0.0258548867
0.4679209583 0.0445929656 0.0263920043
0.5303517205 0.0301640345 0.0298039216
0.5873777371 0.0116273747 0.0346318761
0.6321355001 0.0059143969 0.0373479820
0.6648203250 0.0071107042 0.0419073777
0.6782787823 0.0142153048 0.0400030518
0.6848889906 0.0087769894 0.0340337224
0.7047562371 0.0536324102 0.0326970321
0.0152285039 0.0973220417 0.0541878386
0.0347478447 0.0968398566 0.0526192111
0.0641184100 0.0975844968 0.0508491646
0.1036331731 0.1004409857 0.0483955138
0.1643884947 0.1060807202 0.0483222705
0.2343114366 0.1094682231 0.0433234150
0.3124376287 0.1093949798 0.0365056840
0.3881589990 0.1041214618 0.0318669413
0.4634897383 0.0986037995 0.0312504768
0.5358388647 0.0902418555 0.0330327306
0.6027405203 0.0829419394 0.0352788586
0.6529488060 0.0815259022 0.0382635233
0.6930312047 0.0834973678 0.0395513848
0.7109758145 0.0891737240 0.0358464942
0.7186297398 0.0871839475 0.0286259251
0.7309346151 0.1128557259 0.0257877470
0.0015136950 0.1440207523 0.0630930037
0.0225467308 0.1406027314 0.0607980468
0.0563790341 0.1432944228 0.0596749828
0.1005508507 0.1472190433 0.0574288548
0.1535729000 0.1472983902 0.0536202029
0.2212191958 0.1523155566 0.0490730144
0.2991866941 0.1539635309 0.0442328527
0.3816769665 0.1556664378 0.0385748074
0.4644235904 0.1527733272 0.0355107958
0.5463859007 0.1521324483 0.0340581369
0.6178591592 0.1483848325 0.0351750973
0.6748851759 0.1484519722 0.0352666514
0.7195941100 0.1539208057 0.0353459983
0.7440695811 0.1574486915 0.0287602045
0.7522545205 0.1559655146 0.0165407797
0.7596765087 0.1682948043 0.0131532769
0.0000000000 0.1960540169 0.0847119860
0.0000000000 0.1880766003 0.0809582666
0.0326665141 0.1831754025 0.0761486229
0.0812634470 0.1926420996 0.0740123598
0.1456809339 0.1990325780 0.0702159152
0.2108796826 0.2015716793 0.0654734112
0.2941756313 0.2096162356 0.0582772564
0.3798519875 0.2132784009 0.0500129702
0.4704112306 0.2177218280 0.0406317235
0.5550102998 0.2187594415 0.0361394675
0.6336919203 0.2203768978 0.0312260624
0.6994888228 0.2224460212 0.0293034257
0.7471396963 0.2273899443 0.0275211719
0.7799526970 0.2335851072 0.0186953536
0.7932768750 0.2385290303 0.0010376135
0.7964629587 0.2416845960 0.0001525902
0.0000000000 0.2866315709 0.1180132753
0.0000000000 0.2747356374 0.1108232242
0.0000000000 0.2500526436 0.1020035096
0.0419867247 0.2459693294 0.0961379416
0.1271381704 0.2619424735 0.0930922408
0.2097138933 0.2712565805 0.0855420768
0.2921248188 0.2776043336 0.0743358511
0.3860349432 0.2854047456 0.0612924392
0.4820935378 0.2907637140 0.0460517281
0.5726009003 0.2975082017 0.0312016480
0.6546639200 0.3005966278 0.0201785306
0.7256000610 0.3049790188 0.0139833677
0.7768398566 0.3122240024 0.0140627146
0.8121553368 0.3188158999 0.0000000000
0.8321324483 0.3259143969 0.0000000000
0.8339085985 0.3245593957 0.0000000000
0.0000000000 0.3550469215 0.1553063249
0.0000000000 0.3597100786 0.1444846265
0.0000000000 0.3394399939 0.1328511482
0.0000000000 0.3224963760 0.1237018387
0.1020279240 0.3351308461 0.1182574197
0.1997833219 0.3505912871 0.1097062638
0.3000045777 0.3606622416 0.0964126040
0.3930601968 0.3692622263 0.0800732433
0.4981002518 0.3794369421 0.0574410620
0.5906065461 0.3868039979 0.0277042802
0.6783459220 0.3961608301 0.0045777066
0.7554161898 0.4021484703 0.0000000000
0.8074921798 0.4083558404 0.0000000000
0.8471290150 0.4164065003 0.0000000000
0.8708781567 0.4237125200 0.0000000000
0.8721416037 0.4181826505 0.0000000000
0.0000000000 0.4313603418 0.1897489891
0.0000000000 0.4370550088 0.1776638437
0.0000000000 0.4329655909 0.1680506600
0.0000000000 0.4271183337 0.1596765087
0.0152101930 0.4306279088 0.1498924239
0.1848722057 0.4400823987 0.1402243076
0.3038559548 0.4530159457 0.1238056001
0.4097596704 0.4628305486 0.1019790951
0.5126024262 0.4708506905 0.0750560769
0.6085633631 0.4809094377 0.0378850996
0.7001785306 0.4905836576 0.0000000000
0.7814785992 0.5009872587 0.0000000000
0.8336827649 0.5063950561 0.0000000000
0.8752605478 0.5157030594 0.0000000000
0.9018356603 0.5215442130 0.0000000000
0.9082078279 0.5229663539 0.0000000000
0.0000000000 0.4924147402 0.2258152132
0.0000000000 0.5016128786 0.2146761273
0.0000000000 0.5051956970 0.2024444953
0.0000000000 0.5116289006 0.1914518959
0.0000000000 0.5248767834 0.1821255818
0.1603418021 0.5297474632 0.1696742199
0.3036911574 0.5450186923 0.1518883040
0.4228274968 0.5590691997 0.1259113451
0.5309987030 0.5691340505 0.0959731441
0.6245853361 0.5736385138 0.0521004044
0.7181292439 0.5861081865 0.0000000000
0.8000885023 0.5946837568 0.0000000000
0.8546425574 0.6021606775 0.0000000000
0.8978072786 0.6106324865 0.0000000000
0.9266468299 0.6211551080 0.0000000000
0.9354238193 0.6190981918 0.0000000000
0.0000000000 0.5463431754 0.2564919509
0.0000000000 0.5556511788 0.2428076600
0.0000000000 0.5656000610 0.2290562295
0.0000000000 0.5746334020 0.2205966278
0.0000000000 0.5909422446 0.2125642786
0.1510521096 0.6086427100 0.1938384070
0.3070298314 0.6264103151 0.1756801709
0.4339543755 0.6427191577 0.1504173342
0.5472892348 0.6548653391 0.1198016327
0.6461554894 0.6648630503 0.0820386053
0.7357991913 0.6724315251 0.0131776913
0.8210360876 0.6827161059 0.0000000000
0.8758648051 0.6910353246 0.0000000000
0.9150743877 0.6973891814 0.0000000000
0.9435049973 0.7059525444 0.0000000000
0.9554436561 0.7031021592 0.0000000000
0.0000000000 0.5959288930 0.2535317006
0.0000000000 0.6008422980 0.2496620127
0.0000000000 0.6094789044 0.2456885634
0.0000000000 0.6237430381 0.2439368276
0.0000000000 0.6451544976 0.2388464179
0.1550988022 0.6655039292 0.2242160678
0.3245105669 0.6875562676 0.2073029679
0.4499458305 0.7097489891 0.1881315328
0.5685664149 0.7272236210 0.1613183795
0.6672373541 0.7382040131 0.1179888609
0.7563317311 0.7482383459 0.0599862669
0.8346410315 0.7547203784 0.0000000000
0.8881635767 0.7621667811 0.0000000000
0.9270191501 0.7644922560 0.0000000000
0.9556023499 0.7710414282 0.0000000000
0.9685358968 0.7671412222 0.0000000000
0.0000000000 0.6325566491 0.2424048219
0.0000000000 0.6371099413 0.2417517357
0.0000000000 0.6450446326 0.2386022736
0.0317326619 0.6562447547 0.2324071107
0.1903471427 0.6723094530 0.2240024414
0.2985214008 0.6903334096 0.2164156558
0.3971618219 0.7122453651 0.2089570459
0.4954055085 0.7370809491 0.1996307317
0.5870542458 0.7614953841 0.1888151369
0.6827038987 0.7839688716 0.1734584573
0.7663355459 0.7995208667 0.1431540398
0.8453467613 0.8086518654 0.0558907454
0.8955550469 0.8135652705 0.0000000000
0.9365224689 0.8178011749 0.0000000000
0.9649042496 0.8215854124 0.0000000000
0.9788998245 0.8227389944 0.0000000000
0.0406683452 0.6586800946 0.2312352178
0.0841077287 0.6620614939 0.2297764553
0.1513756008 0.6679270619 0.2264316777
0.2273899443 0.6771740291 0.2216342412
0.3001449607 0.6907545586 0.2162996872
0.3746822309 0.7070267796 0.2105256733
0.4625131609 0.7282917525 0.2024811170
0.5427237354 0.7497337301 0.1933989471
0.6156191348 0.7691248951 0.1858121614
0.7031021592 0.7910063325 0.1730617227
0.7811306935 0.8118501564 0.1598657206
0.8510597391 0.8299351492 0.1517479210
0.9053513390 0.8457373922 0.1544701305
0.9468314641 0.8527809567 0.0967483024
0.9711909667 0.8548561837 0.0215152209
0.9847104601 0.8594155795 0.0970656901
0.2525795377 0.6811352712 0.2198397803
0.2678141451 0.6840344854 0.2186739910
0.2944686046 0.6895338369 0.2167208362
0.3317921721 0.6975356680 0.2133455406
0.3826901656 0.7088639658 0.2102204929
0.4458319982 0.7240680552 0.2041657130
0.5125505455 0.7418173495 0.1984466316
0.5830869001 0.7604028382 0.1893400473
0.6582162203 0.7799038682 0.1811978332
0.7261310750 0.7970611124 0.1695704585
0.7932646677 0.8150728618 0.1577355612
0.8547219043 0.8311314565 0.1528526741
0.9023971923 0.8461890593 0.1599938964
0.9404592966 0.8608499275 0.1837613489
0.9674677653 0.8735027085 0.2362218662
0.9838254368 0.8854169528 0.2981307698
0.3568169680 0.7029068437 0.2112275883
0.3687617304 0.7056412604 0.2107148852
0.3899290455 0.7104936294 0.2099214160
0.4245792325 0.7185870146 0.2061249714
0.4679087510 0.7296406500 0.2018524453
0.5121690700 0.7417746242 0.1987090867
0.5634699016 0.7551232166 0.1904753185
0.6239078355 0.7713405051 0.1847989624
0.6900221256 0.7877286946 0.1756252384
0.7504356451 0.8036224918 0.1646387427
0.8080170901 0.8187228199 0.1535851072
0.8599954223 0.8328038453 0.1539818418
0.9042343786 0.8467078660 0.1595056077
0.9403433280 0.8580605783 0.1556176089
0.9657404440 0.8621683070 0.1156145571
0.9792904555 0.8813092241 0.2763469902
0.0183169299 0.0280155642 0.0572701610
0.0288456550 0.0290836957 0.0582162203
0.0524849317 0.0323064012 0.0609445335
0.0845288777 0.0372259098 0.0635141527
0.1536949722 0.0435980774 0.0685679408
0.2474402991 0.0405096513 0.0697398337
0.3555657282 0.0189822232 0.0605111772
0.4162722210 0.0130128939 0.0544014649
0.4804211490 0.0056458381 0.0490058747
0.5388296330 0.0000000000 0.0455207141
0.5864499886 0.0000000000 0.0411566339
0.6299382010 0.0000000000 0.0422125582
0.6544869154 0.0000000000 0.0442816815
0.6635996033 0.0000000000 0.0421759365
0.6661692226 0.0000000000 0.0403814755
0.6698558022 0.0000000000 0.0579354543
0.0149050126 0.0346929122 0.0608957046
0.0238590066 0.0331731136 0.0613717861
0.0539742123 0.0359563592 0.0611825742
0.0949843595 0.0425360494 0.0636728466
0.1660059510 0.0486579690 0.0657358663
0.2505531395 0.0484138247 0.0647348745
0.3426199741 0.0353704128 0.0571786069
0.4132326238 0.0179324025 0.0496833753
0.4799145495 0.0072144656 0.0448798352
0.5391348135 0.0000000000 0.0415777829
0.5865659571 0.0000000000 0.0387335012
0.6298710613 0.0000000000 0.0414312963
0.6547981994 0.0000000000 0.0437262531
0.6637338827 0.0000000000 0.0416327153
0.6664133669 0.0000000000 0.0390325780
0.6828503853 0.0010437171 0.0594796674
0.0091371023 0.0548348211 0.0609628443
0.0224979019 0.0546761273 0.0594857710
0.0521858549 0.0569588769 0.0597177081
0.1003982605 0.0626779583 0.0628000305
0.1597070268 0.0676890211 0.0634042878
0.2344701305 0.0702403296 0.0622568093
0.3125902190 0.0672434577 0.0566842145
0.3889829862 0.0575143053 0.0480476081
0.4642587930 0.0417364767 0.0406195163
0.5321339742 0.0249576562 0.0369512474
0.5886839094 0.0032593271 0.0381170367
0.6323918517 0.0014160372 0.0400640879
0.6596139467 0.0009643702 0.0432867933
0.6742259861 0.0051392386 0.0415289540
0.6844678416 0.0067261769 0.0384527352
0.7049820706 0.0504341192 0.0621530480
0.0000000000 0.1030838483 0.0710521096
0.0143129625 0.0947890440 0.0665720607
0.0526497292 0.0955153735 0.0654062715
0.0988418402 0.0981155108 0.0665598535
0.1601770047 0.1034134432 0.0669810025
0.2272922866 0.1055130846 0.0651316091
0.3045334554 0.1053971160 0.0601449607
0.3818417639 0.1015030137 0.0518135348
0.4612497139 0.0960036622 0.0439215686
0.5369802396 0.0872083619 0.0383978027
0.6036682689 0.0765636683 0.0384832532
0.6535591669 0.0764415961 0.0400946059
0.6914320592 0.0750804913 0.0405035477
0.7083146410 0.0820630198 0.0383550774
0.7178423743 0.0845593957 0.0332219425
0.7316548409 0.1114091707 0.0571358816
0.0000000000 0.1579674983 0.0751415274
0.0000000000 0.1478355077 0.0700633249
0.0376287480 0.1384847791 0.0664682994
0.0927016098 0.1414633402 0.0673472190
0.1501792935 0.1436179141 0.0665476463
0.2198702983 0.1483421073 0.0630685893
0.2977889677 0.1502586404 0.0595040818
0.3810421912 0.1516807813 0.0524666209
0.4649301900 0.1498802167 0.0436896315
0.5478629740 0.1482200351 0.0384100099
0.6203128099 0.1446982528 0.0376104372
0.6760570687 0.1441855497 0.0369207294
0.7193011368 0.1493064775 0.0365606165
0.7424887465 0.1529686427 0.0316105898
0.7506675822 0.1522301061 0.0200320439
0.7602319371 0.1672571908 0.0482124056
0.0000000000 0.2149568933 0.0920302129
0.0000000000 0.1967742428 0.0850843061
0.0082520790 0.1833829252 0.0779369802
0.0723277638 0.1903837644 0.0741954681
0.1421896696 0.1979156176 0.0704844739
0.2111909667 0.2001800565 0.0659555962
0.2953536278 0.2075654231 0.0604867628
0.3815548943 0.2112214847 0.0525032425
0.4720958267 0.2146211948 0.0440619516
0.5566399634 0.2153597314 0.0379644465
0.6360906386 0.2171358816 0.0325261311
0.7009292744 0.2194796674 0.0301213092
0.7483726253 0.2241916533 0.0285709926
0.7800015259 0.2311253529 0.0205081254
0.7918059052 0.2342076753 0.0079774166
0.7970366979 0.2412512398 0.0380621042
0.0000000000 0.2808758679 0.1230731670
0.0000000000 0.2813946746 0.1130815595
0.0000000000 0.2523048753 0.1031754025
0.0378240635 0.2447547112 0.0962294957
