LUTs/SPK Cube Block1 S16/TheBrim_SPK_Type-O_Block1_S16.cube
TITLE "TheBrim® SPK Block 1"
# © Copyright 2021 - TheBrim® d.o.o. Croatia
LUT_3D_SIZE 16
DOMAIN_MIN 0.000000 0.000000 0.000000
DOMAIN_MAX 1.000000 1.000000 1.000000
0.001770 0.000977 0.001221
0.006006 0.003595 0.003607
0.008319 0.004224 0.004181
0.013233 0.005072 0.004681
0.027289 0.006232 0.005090
0.080232 0.007111 0.004242
0.165988 0.003345 0.000800
0.270182 0.000000 0.000000
0.382354 0.000000 0.000000
0.468000 0.000000 0.000000
0.538048 0.000000 0.000000
0.583313 0.000000 0.000000
0.608960 0.000000 0.000000
0.621180 0.000000 0.000000
0.623340 0.000000 0.000000
0.625818 0.000000 0.000000
0.006256 0.006738 0.005628
0.006873 0.006159 0.005090
0.009015 0.006061 0.004944
0.015149 0.006543 0.004938
0.035059 0.007849 0.004956
0.090645 0.009339 0.003882
0.173367 0.007672 0.000659
0.275047 0.000000 0.000000
0.383233 0.000000 0.000000
0.467579 0.000000 0.000000
0.537841 0.000000 0.000000
0.582885 0.000000 0.000000
0.609039 0.000000 0.000000
0.621375 0.000000 0.000000
0.623651 0.000000 0.000000
0.632184 0.000000 0.000000
0.006574 0.012818 0.009082
0.007282 0.012573 0.008606
0.010407 0.012586 0.008014
0.017688 0.012854 0.007404
0.041205 0.014856 0.006781
0.099300 0.018598 0.005274
0.182376 0.019190 0.001794
0.289696 0.004523 0.000000
0.397852 0.000000 0.000000
0.477754 0.000000 0.000000
0.547771 0.000000 0.000000
0.591113 0.000000 0.000000
0.617334 0.000000 0.000000
0.631086 0.000000 0.000000
0.634174 0.000000 0.000000
0.646210 0.000000 0.000000
0.004285 0.029053 0.017072
0.005548 0.028864 0.016242
0.010236 0.029529 0.015082
0.021192 0.031324 0.013587
0.052216 0.036213 0.011951
0.113777 0.044294 0.008734
0.201590 0.049482 0.004346
0.310735 0.043781 0.000000
0.420154 0.015021 0.000000
0.502882 0.000000 0.000000
0.573462 0.000000 0.000000
0.617310 0.000000 0.000000
0.643470 0.000000 0.000000
0.656428 0.000000 0.000000
0.658546 0.000000 0.000000
0.668299 0.000000 0.000000
0.000000 0.070631 0.036304
0.000000 0.069813 0.034430
0.003302 0.070533 0.031055
0.020514 0.072779 0.027143
0.063606 0.079567 0.023432
0.132021 0.089302 0.018817
0.225205 0.099117 0.011145
0.338524 0.102852 0.000171
0.452869 0.092494 0.000000
0.538231 0.072706 0.000000
0.611218 0.035779 0.000000
0.653608 0.002875 0.000000
0.680311 0.000000 0.000000
0.691536 0.000000 0.000000
0.692946 0.000000 0.000000
0.698140 0.000000 0.000000
0.000000 0.134951 0.086000
0.000000 0.133230 0.081965
0.000000 0.133101 0.075990
0.000000 0.134511 0.068940
0.057331 0.141616 0.059718
0.144442 0.153567 0.047791
0.250077 0.167636 0.031354
0.371624 0.176974 0.008002
0.488640 0.178500 0.000000
0.579876 0.171408 0.000000
0.656397 0.156985 0.000000
0.700880 0.141689 0.000000
0.725789 0.124587 0.000000
0.738039 0.107961 0.000000
0.740041 0.090144 0.000000
0.739498 0.085664 0.000000
0.000000 0.222379 0.161025
0.000000 0.217423 0.154104
0.000000 0.213730 0.144430
0.000000 0.215702 0.133010
0.000000 0.224021 0.118245
0.134298 0.241813 0.100673
0.264384 0.258701 0.076246
0.401172 0.273167 0.039344
0.527568 0.278038 0.000000
0.623542 0.276616 0.000000
0.706288 0.269108 0.000000
0.750460 0.255692 0.000000
0.777139 0.242570 0.000000
0.787924 0.226725 0.000000
0.790121 0.213248 0.000000
0.787369 0.204398 0.000000
0.000000 0.315666 0.233011
0.000000 0.313408 0.229117
0.000000 0.305290 0.213993
0.000000 0.307677 0.199399
0.000000 0.318865 0.185489
0.039393 0.341875 0.168869
0.255790 0.364715 0.142208
0.417646 0.383673 0.101466
0.559063 0.392969 0.040705
0.663185 0.390826 0.000000
0.752694 0.387842 0.000000
0.800229 0.377166 0.000000
0.828086 0.362267 0.000000
0.840964 0.347375 0.000000
0.843906 0.334453 0.000000
0.838981 0.319670 0.000000
0.000000 0.405127 0.303246
0.000000 0.404132 0.300572
0.000000 0.395605 0.285350
0.000000 0.397754 0.268620
0.000000 0.410517 0.251487
0.000000 0.440516 0.234495
0.215140 0.472303 0.207352
0.420893 0.498503 0.167153
0.577350 0.513280 0.110286
0.695131 0.518279 0.025367
0.793668 0.514067 0.000000
0.845328 0.506200 0.000000
0.877964 0.493028 0.000000
0.893138 0.478505 0.000000
0.895579 0.459541 0.000000
0.892985 0.447639 0.000000
0.000000 0.463752 0.355181
0.000000 0.463685 0.354052
0.000000 0.460682 0.347765
0.000000 0.464839 0.331810
0.000000 0.483656 0.317345
0.000000 0.520708 0.300554
0.077388 0.560778 0.272758
0.404785 0.601355 0.230649
0.576605 0.623316 0.176925
0.713521 0.632770 0.092061
0.821494 0.637104 0.000000
0.879643 0.627570 0.000000
0.918071 0.616828 0.000000
0.936663 0.603809 0.000000
0.941759 0.586145 0.000000
0.938457 0.567633 0.000000
0.000000 0.499367 0.389136
0.000000 0.499043 0.387768
0.000000 0.497786 0.382458
0.000000 0.505193 0.370459
0.000000 0.528356 0.362103
0.000000 0.575982 0.351995
0.000000 0.623145 0.330590
0.369854 0.670332 0.292607
0.568133 0.699892 0.239738
0.718868 0.716762 0.169143
0.835874 0.722347 0.041627
0.901408 0.718624 0.000000
0.944640 0.711891 0.000000
0.964800 0.698067 0.000000
0.972467 0.682374 0.000000
0.972351 0.667811 0.000000
0.000000 0.510918 0.397650
0.000000 0.511278 0.396069
0.000000 0.515306 0.389343
0.000000 0.530187 0.385150
0.000000 0.558221 0.381970
0.000000 0.601654 0.379596
0.000000 0.653333 0.366076
0.330944 0.706075 0.340526
0.557189 0.742898 0.291472
0.718947 0.764108 0.224240
0.842887 0.775271 0.126290
0.910069 0.774594 0.000000
0.956341 0.770944 0.000000
0.979828 0.760256 0.000000
0.990784 0.748544 0.000000
0.993884 0.736886 0.000000
0.000000 0.540276 0.383557
0.000000 0.545830 0.382788
0.000000 0.558312 0.382184
0.000000 0.578466 0.381671
0.000000 0.609131 0.379968
0.000000 0.644685 0.374084
0.115224 0.687312 0.362603
0.392853 0.726992 0.342589
0.567089 0.760867 0.308769
0.714199 0.785800 0.257981
0.834775 0.801254 0.183291
0.910289 0.804050 0.054176
0.960027 0.801834 0.000000
0.986578 0.794974 0.000000
0.999097 0.784256 0.000000
1.000000 0.774820 0.000000
0.000000 0.582660 0.381677
0.000000 0.589105 0.381402
0.000000 0.600812 0.380755
0.000000 0.618842 0.378863
0.000000 0.645350 0.373944
0.011847 0.676820 0.365948
0.329308 0.715181 0.351128
0.482844 0.744387 0.327080
0.617755 0.770401 0.295463
0.736464 0.790408 0.249369
0.847562 0.807523 0.183035
0.910100 0.814328 0.089870
0.961401 0.817716 0.000000
0.990100 0.812735 0.000000
1.000000 0.803458 0.000000
1.000000 0.794675 0.000000
0.000000 0.626484 0.377722
0.000000 0.632398 0.376764
0.000000 0.642896 0.374530
0.000000 0.658186 0.370892
0.077955 0.680110 0.365051
0.289836 0.708571 0.355029
0.425489 0.733120 0.337798
0.557879 0.759048 0.311144
0.680323 0.781283 0.274485
0.767813 0.795431 0.233921
0.858250 0.808798 0.173288
0.914348 0.814780 0.081013
0.959240 0.818363 0.000000
0.985925 0.817063 0.000000
1.000000 0.818875 0.000000
1.000000 0.816300 0.000000
0.000000 0.668086 0.368322
0.000000 0.673445 0.366912
0.081593 0.682521 0.364343
0.215634 0.698384 0.358770
0.335058 0.716231 0.350512
0.422827 0.732601 0.338354
0.518291 0.751369 0.319744
0.629267 0.772476 0.292015
0.719222 0.787643 0.257847
0.803238 0.801041 0.213443
0.869139 0.809964 0.158785
0.920586 0.815390 0.068196
0.960363 0.818399 0.000000
0.985083 0.817185 0.000000
0.999609 0.813285 0.000000
1.000000 0.817655 0.000000
0.005597 0.004102 0.005121
0.006159 0.004096 0.005029
0.007977 0.004401 0.005188
0.012573 0.005121 0.005512
0.027253 0.006201 0.005737
0.082405 0.007105 0.005591
0.172683 0.002161 0.002289
0.277494 0.000000 0.000000
0.387152 0.000000 0.000000
0.470478 0.000000 0.000000
0.539391 0.000000 0.000000
0.584259 0.000000 0.000000
0.609607 0.000000 0.000000
0.621546 0.000000 0.000000
0.623395 0.000000 0.000000
0.625263 0.000000 0.000000
0.005780 0.005975 0.006195
0.006232 0.005011 0.005206
0.008344 0.005078 0.005078
0.015119 0.006116 0.005365
0.037195 0.007276 0.005280
0.093562 0.008618 0.004846
0.179379 0.004175 0.001733
0.278599 0.000000 0.000000
0.389142 0.000000 0.000000
0.470906 0.000000 0.000000
0.539397 0.000000 0.000000
0.584051 0.000000 0.000000
0.609821 0.000000 0.000000
0.621576 0.000000 0.000000
0.623554 0.000000 0.000000
0.631531 0.000000 0.000000
0.005737 0.012268 0.009522
0.006696 0.011682 0.008759
0.009558 0.011267 0.007922
0.018036 0.011347 0.007141
0.044996 0.013892 0.007190
0.104573 0.016803 0.006110
0.188663 0.015833 0.002203
0.292284 0.000128 0.000000
0.400226 0.000000 0.000000
0.479054 0.000000 0.000000
0.547466 0.000000 0.000000
0.590735 0.000000 0.000000
0.616162 0.000000 0.000000
0.629828 0.000000 0.000000
0.632862 0.000000 0.000000
0.645496 0.000000 0.000000
0.002667 0.030719 0.019184
0.004309 0.029444 0.017542
0.008710 0.029194 0.015656
0.020917 0.030481 0.013703
0.054682 0.035126 0.012445
0.117867 0.042518 0.009711
0.206760 0.046125 0.004504
0.314079 0.037775 0.000000
0.421973 0.009949 0.000000
0.503951 0.000000 0.000000
0.573303 0.000000 0.000000
0.616980 0.000000 0.000000
0.641981 0.000000 0.000000
0.654945 0.000000 0.000000
0.656501 0.000000 0.000000
0.667555 0.000000 0.000000
0.000000 0.072615 0.039686
0.000000 0.070607 0.036304
0.000549 0.070222 0.032544
0.018000 0.071620 0.027765
0.063093 0.077937 0.022687
0.133913 0.087135 0.017707
0.229343 0.096504 0.009833
0.341051 0.099550 0.000000
0.454273 0.088844 0.000000
0.539117 0.068263 0.000000
0.611011 0.029096 0.000000
0.653028 0.000000 0.000000
0.679091 0.000000 0.000000
0.690089 0.000000 0.000000
0.690816 0.000000 0.000000
0.697853 0.000000 0.000000
0.000000 0.137710 0.091255
0.000000 0.134243 0.085158
0.000000 0.132595 0.077839
0.000000 0.133443 0.069545
0.052833 0.140383 0.059779
0.144253 0.152120 0.046802
0.251798 0.166030 0.029798
0.373352 0.175344 0.006799
0.489940 0.176571 0.000000
0.580554 0.168191 0.000000
0.656330 0.153909 0.000000
0.700478 0.137704 0.000000
0.725118 0.120522 0.000000
0.736757 0.102571 0.000000
0.738247 0.082942 0.000000
0.739406 0.084865 0.000000
0.000000 0.223972 0.163107
0.000000 0.218631 0.156179
0.000000 0.213602 0.145205
0.000000 0.215018 0.132924
0.000000 0.223154 0.118056
0.134621 0.240690 0.099556
0.265409 0.257548 0.074769
0.402258 0.271702 0.037336
0.528209 0.276097 0.000000
0.624872 0.274809 0.000000
0.706062 0.266020 0.000000
0.750124 0.252995 0.000000
0.776419 0.239506 0.000000
0.786947 0.223771 0.000000
0.788901 0.210184 0.000000
0.786679 0.202683 0.000000
0.000000 0.315416 0.233182
0.000000 0.313115 0.229154
0.000000 0.304692 0.213614
0.000000 0.306987 0.199130
0.000000 0.317906 0.184994
0.044550 0.340832 0.167715
0.258848 0.363787 0.140554
0.419025 0.382501 0.099629
0.560449 0.391095 0.037995
0.664137 0.388702 0.000000
0.752731 0.385657 0.000000
0.799979 0.374578 0.000000
0.827451 0.359655 0.000000
0.839933 0.344427 0.000000
0.842979 0.332073 0.000000
0.838535 0.318492 0.000000
0.000000 0.404913 0.303331
0.000000 0.403925 0.300621
0.000000 0.395300 0.285466
0.000000 0.397406 0.268595
0.000000 0.410388 0.251255
0.000000 0.439893 0.234006
0.216727 0.471077 0.206394
0.422614 0.497252 0.165725
0.578552 0.512236 0.108357
0.695900 0.516539 0.021997
0.794101 0.511943 0.000000
0.845359 0.504057 0.000000
0.877556 0.490791 0.000000
0.892583 0.476448 0.000000
0.894627 0.456898 0.000000
0.892845 0.446973 0.000000
0.000000 0.463618 0.355340
0.000000 0.463532 0.354168
0.000000 0.460407 0.347710
0.000000 0.464552 0.331749
0.000000 0.483491 0.317290
0.000000 0.520970 0.300310
0.081526 0.560961 0.272404
0.405884 0.600812 0.229850
0.578338 0.622547 0.175320
0.713832 0.631678 0.089271
0.821909 0.635926 0.000000
0.879936 0.625904 0.000000
0.917754 0.615027 0.000000
0.936626 0.602686 0.000000
0.941369 0.584601 0.000000
0.938293 0.567272 0.000000
0.000000 0.499495 0.389361
0.000000 0.499135 0.387939
0.000000 0.497835 0.382361
0.000000 0.505089 0.370489
0.000000 0.528734 0.361883
0.000000 0.576306 0.351604
0.000983 0.623267 0.330138
0.371252 0.670234 0.292100
0.569641 0.699586 0.238755
0.719600 0.716036 0.167642
0.836838 0.721785 0.039380
0.901946 0.717617 0.000000
0.944781 0.710872 0.000000
0.964880 0.697322 0.000000
0.972412 0.681874 0.000000
0.972357 0.668055 0.000000
0.000000 0.510954 0.397546
0.000000 0.511266 0.395789
0.000000 0.515612 0.389142
0.000000 0.530480 0.385119
0.000000 0.558770 0.381939
0.000000 0.601923 0.379559
0.000000 0.653852 0.365820
0.332555 0.706349 0.340343
0.558972 0.743142 0.290904
0.720589 0.764248 0.223191
0.843870 0.775180 0.124276
0.910808 0.774459 0.000000
0.956725 0.770730 0.000000
0.980029 0.759982 0.000000
0.990808 0.748208 0.000000
0.994067 0.738515 0.000000
0.000000 0.541253 0.383416
0.000000 0.546868 0.382696
0.000000 0.559527 0.382129
0.000000 0.579693 0.381622
0.000000 0.610523 0.379858
0.000000 0.645869 0.373791
0.125252 0.688038 0.362359
0.395947 0.727584 0.342101
0.568975 0.761251 0.308305
0.715096 0.785916 0.257481
0.835892 0.801352 0.182315
0.911064 0.804074 0.051887
0.960412 0.801785 0.000000
0.986877 0.794791 0.000000
0.999139 0.784805 0.000000
1.000000 0.779794 0.000000
0.000000 0.584167 0.381616
0.000000 0.590552 0.381347
0.000000 0.602191 0.380706
0.000000 0.620191 0.378650
0.000000 0.646656 0.373620
0.027430 0.678096 0.365600
0.333196 0.715883 0.350726
0.484767 0.744753 0.326690
0.619648 0.770736 0.294859
0.738161 0.790677 0.248606
0.849082 0.807749 0.181863
0.910875 0.814420 0.088179
0.961913 0.817722 0.000000
0.990430 0.812668 0.000000
1.000000 0.804416 0.000000
1.000000 0.798917 0.000000
0.000000 0.628132 0.377520
0.000000 0.634046 0.376434
0.000000 0.644434 0.374157
0.000000 0.659730 0.370538
0.092213 0.681587 0.364471
0.298204 0.709889 0.354247
0.429145 0.733828 0.337182
0.561285 0.759725 0.310253
0.682698 0.781680 0.273533
0.770492 0.795853 0.232346
0.859373 0.808920 0.172244
0.915398 0.814878 0.078602
0.959600 0.818430 0.000000
0.985455 0.820352 0.000000
1.000000 0.822049 0.000000
1.000000 0.820114 0.000000
0.000000 0.670478 0.367736
0.000000 0.675648 0.366271
0.111708 0.684694 0.363549
0.231290 0.700508 0.358032
0.342101 0.717549 0.349688
0.428534 0.733718 0.337310
0.523241 0.752316 0.318730
0.633051 0.773129 0.290953
0.722280 0.788132 0.256400
0.806247 0.801505 0.211765
0.870414 0.810098 0.156844
0.921532 0.815488 0.065296
0.960864 0.818430 0.000000
0.985364 0.817136 0.000000
0.999640 0.813278 0.000000
1.000000 0.821689 0.000000
0.005548 0.004950 0.008502
0.006018 0.004858 0.008307
0.007562 0.004950 0.008246
0.012262 0.005469 0.008130
0.028882 0.006256 0.008380
0.086165 0.006976 0.008386
0.175814 0.002130 0.005774
0.281096 0.000000 0.001471
0.390088 0.000000 0.000000
0.474098 0.000000 0.000000
0.542211 0.000000 0.000000
0.586188 0.000000 0.000000
0.610846 0.000000 0.000000
0.622406 0.000000 0.000000
0.624305 0.000000 0.000000
0.627924 0.000000 0.000000
0.005359 0.006946 0.010694
0.005939 0.006183 0.009772
0.007947 0.005713 0.008606
0.014795 0.006659 0.008423
0.038410 0.007593 0.008374
0.096156 0.008460 0.008063
0.182858 0.003943 0.005597
0.282908 0.000000 0.000916
0.391498 0.000000 0.000000
0.475630 0.000000 0.000000
0.542217 0.000000 0.000000
0.586004 0.000000 0.000000
0.610925 0.000000 0.000000
0.622394 0.000000 0.000000
0.624274 0.000000 0.000000
0.634070 0.000000 0.000000
0.004749 0.012830 0.014307
0.005701 0.011756 0.012811
0.008368 0.011121 0.011359
0.017871 0.011786 0.010785
0.046528 0.013861 0.010462
0.106630 0.016980 0.010169
0.193826 0.015576 0.007391
0.295879 0.000000 0.001678
0.402808 0.000000 0.000000
0.482667 0.000000 0.000000
0.546777 0.000000 0.000000
0.589905 0.000000 0.000000
0.613495 0.000000 0.000000
0.627637 0.000000 0.000000
0.633088 0.000000 0.000000
0.648212 0.000000 0.000000
0.000439 0.034412 0.027356
0.001569 0.032007 0.024317
0.005859 0.030219 0.021082
0.019794 0.031336 0.018610
0.056562 0.036054 0.017359
0.119570 0.042963 0.015686
0.211362 0.045795 0.011719
0.317449 0.036597 0.003388
0.426038 0.005902 0.000000
0.506465 0.000000 0.000000
0.573400 0.000000 0.000000
0.616394 0.000000 0.000000
0.639368 0.000000 0.000000
0.652589 0.000000 0.000000
0.656074 0.000000 0.000000
0.669941 0.000000 0.000000
0.000000 0.080238 0.052784
0.000000 0.076045 0.047602
0.000000 0.071888 0.041279
0.012616 0.072822 0.036579
0.060926 0.079274 0.032074
0.135140 0.087965 0.026197
0.232926 0.096693 0.017920
0.344909 0.098372 0.005243
0.456623 0.085963 0.000000
0.540386 0.061476 0.000000
0.610797 0.020752 0.000000
0.652399 0.000000 0.000000
0.676985 0.000000 0.000000
0.688057 0.000000 0.000000
0.689070 0.000000 0.000000
0.700972 0.000000 0.000000
0.000000 0.143264 0.099385
0.000000 0.137655 0.091841
0.000000 0.132009 0.080525
0.000000 0.132259 0.070301
0.047547 0.138576 0.060108
0.144546 0.151009 0.047187
0.253397 0.164456 0.031916
0.375402 0.173501 0.008466
0.492381 0.173269 0.000000
0.581482 0.163699 0.000000
0.656513 0.148977 0.000000
0.699940 0.131716 0.000000
0.723854 0.112599 0.000000
0.735348 0.095802 0.000000
0.736324 0.072462 0.000000
0.743062 0.086744 0.000000
0.000000 0.225168 0.165463
0.000000 0.220987 0.159762
0.000000 0.213675 0.146700
0.000000 0.214285 0.133413
0.000000 0.221543 0.117476
0.135750 0.238596 0.097719
0.268327 0.255351 0.071656
0.403912 0.268943 0.034583
0.529741 0.272880 0.000000
0.626044 0.271019 0.000000
0.705452 0.261222 0.000000
0.749355 0.247788 0.000000
0.775332 0.235257 0.000000
0.785690 0.219553 0.000000
0.787564 0.205722 0.000000
0.789963 0.205362 0.000000
0.000000 0.315050 0.233793
0.000000 0.312749 0.229837
0.000000 0.303972 0.213803
0.000000 0.306517 0.199680
0.000000 0.316930 0.184836
0.051191 0.339104 0.166085
0.263597 0.362005 0.137649
0.422632 0.380481 0.096150
0.562390 0.388116 0.033845
0.665943 0.385400 0.000000
0.752749 0.381646 0.000000
0.799673 0.370489 0.000000
0.826438 0.355346 0.000000
0.838749 0.340386 0.000000
0.842045 0.328991 0.000000
0.841093 0.321166 0.000000
0.000000 0.404639 0.303575
0.000000 0.403632 0.301018
0.000000 0.394824 0.285600
0.000000 0.397040 0.268516
0.000000 0.410150 0.251139
0.000000 0.438984 0.233317
0.219693 0.470259 0.205270
0.425483 0.495164 0.163314
0.580664 0.510155 0.104372
0.697639 0.513530 0.016352
0.794821 0.509374 0.000000
0.845347 0.500328 0.000000
0.876933 0.487138 0.000000
0.891630 0.473054 0.000000
0.893907 0.454511 0.000000
0.895384 0.451991 0.000000
0.000000 0.463471 0.355718
0.000000 0.463301 0.354437
0.000000 0.460011 0.347790
0.000000 0.463923 0.331786
0.000000 0.482997 0.317369
0.000000 0.521172 0.300108
0.088582 0.561273 0.271788
0.408362 0.600201 0.228672
0.580859 0.621698 0.173159
0.714821 0.630164 0.084584
0.822971 0.634003 0.000000
0.880491 0.622931 0.000000
0.917259 0.611945 0.000000
0.936547 0.601032 0.000000
0.941381 0.584332 0.000000
0.940612 0.574664 0.000000
0.000000 0.499635 0.389569
0.000000 0.499263 0.388067
0.000000 0.497847 0.382061
0.000000 0.504997 0.370581
0.000000 0.528923 0.361444
0.000000 0.575781 0.351135
0.001611 0.622650 0.329503
0.373742 0.670057 0.291228
0.573474 0.699214 0.236747
0.721144 0.714730 0.164767
0.837974 0.720418 0.035242
0.903233 0.716677 0.000000
0.945025 0.709126 0.000000
0.965045 0.696773 0.000000
0.972796 0.683522 0.000000
0.973748 0.675276 0.000000
0.000000 0.511046 0.397241
0.000000 0.511504 0.395093
0.000000 0.516258 0.388763
0.000000 0.531371 0.384912
0.000000 0.560046 0.381915
0.000000 0.602991 0.379382
0.000000 0.654865 0.365319
0.334545 0.706685 0.340111
0.560394 0.743246 0.290367
0.722213 0.764193 0.221958
0.845499 0.774997 0.120668
0.912285 0.774234 0.000000
0.957391 0.770297 0.000000
0.980352 0.760140 0.000000
0.990790 0.750222 0.000000
0.994440 0.746291 0.000000
0.000000 0.542644 0.383197
0.000000 0.548516 0.382611
0.000000 0.560888 0.382068
0.000000 0.581433 0.381585
0.000000 0.612494 0.379596
0.000000 0.648029 0.373278
0.145229 0.689393 0.361907
0.401770 0.728688 0.341234
0.572271 0.761917 0.307457
0.716841 0.786136 0.256535
0.838083 0.801614 0.180490
0.912505 0.804154 0.047761
0.961108 0.801724 0.000000
0.987134 0.795554 0.000000
0.999207 0.791275 0.000000
1.000000 0.788754 0.000000
0.000000 0.586792 0.381476
0.000000 0.593133 0.381213
0.000000 0.604706 0.380462
0.000000 0.622797 0.378283
0.000000 0.648945 0.373095
0.058003 0.680562 0.364868
0.339696 0.717079 0.349920
0.488087 0.745394 0.326073
0.623291 0.771414 0.293809
0.741280 0.791177 0.247178
0.851102 0.807968 0.180002
0.911992 0.815207 0.093910
0.962341 0.819480 0.000000
0.990216 0.816660 0.000000
1.000000 0.812979 0.000000
1.000000 0.807687 0.000000
0.000000 0.631257 0.377038
0.000000 0.637061 0.375763
0.000000 0.647199 0.373516
0.000000 0.662593 0.369757
0.109462 0.684407 0.363507
0.310527 0.712020 0.353075
0.436872 0.735335 0.335747
0.567272 0.760897 0.308806
0.686525 0.782345 0.272093
0.775143 0.796616 0.229551
0.861466 0.809140 0.169754
0.916942 0.815665 0.083662
0.958801 0.823160 0.007697
0.983929 0.827945 0.000000
0.999860 0.828556 0.000000
1.000000 0.825278 0.000000
0.000000 0.674391 0.366632
0.019763 0.679231 0.365289
0.144295 0.688698 0.362164
0.258445 0.704195 0.356719
0.354504 0.719826 0.348174
0.438727 0.735708 0.335448
0.532341 0.754104 0.316765
0.639844 0.774289 0.288841
0.727932 0.789047 0.253538
0.811777 0.802292 0.208695
0.872667 0.810355 0.153512
0.923253 0.815647 0.060029
0.961810 0.818466 0.000000
0.985852 0.817075 0.000000
0.999615 0.818430 0.000000
1.000000 0.829038 0.000000
0.004834 0.006061 0.018647
0.005402 0.005530 0.017823
0.007544 0.005335 0.017169
0.013904 0.005927 0.015857
0.035285 0.006226 0.015979
0.090578 0.006793 0.016584
0.180502 0.002802 0.014978
0.285484 0.000000 0.012177
0.395251 0.000000 0.006195
0.477937 0.000000 0.001685
0.548644 0.000000 0.000000
0.592566 0.000000 0.000000
0.616272 0.000000 0.000000
0.627716 0.000000 0.000000
0.629151 0.000000 0.000000
0.633381 0.000000 0.000000
0.004022 0.008118 0.024421
0.004712 0.006903 0.023517
0.007007 0.006439 0.020117
0.014813 0.007483 0.018421
0.040699 0.007807 0.017713
0.098299 0.008545 0.017267
0.185367 0.004309 0.014923
0.288261 0.000000 0.011212
0.396191 0.000000 0.005127
0.479628 0.000000 0.000458
0.548766 0.000000 0.000000
0.592273 0.000000 0.000000
0.616211 0.000000 0.000000
0.627527 0.000000 0.000000
0.629145 0.000000 0.000000
0.639704 0.000000 0.000000
0.002454 0.015198 0.031592
0.003723 0.013788 0.029310
0.006775 0.012988 0.025989
0.016675 0.013574 0.023621
0.046601 0.015503 0.022290
0.107826 0.018134 0.021314
0.196030 0.016522 0.019477
0.299608 0.000000 0.014923
0.407666 0.000000 0.006006
0.486696 0.000000 0.000317
0.553344 0.000000 0.000000
0.594910 0.000000 0.000000
0.617816 0.000000 0.000000
0.630933 0.000000 0.000000
0.638001 0.000000 0.000000
0.654304 0.000000 0.000000
0.000000 0.039490 0.053175
0.000000 0.036561 0.047620
0.002234 0.034064 0.040986
0.016876 0.034284 0.035785
0.054731 0.038831 0.033985
0.120534 0.046558 0.032380
0.214737 0.049201 0.029578
0.321526 0.038550 0.022229
0.430506 0.006787 0.011682
0.512459 0.000000 0.003699
0.579785 0.000000 0.000000
0.620978 0.000000 0.000000
0.642011 0.000000 0.000000
0.655024 0.000000 0.000000
0.661170 0.000000 0.000000
0.675514 0.000000 0.000000
0.000000 0.087422 0.085579
0.000000 0.083381 0.079799
0.000000 0.078810 0.070954
0.005151 0.079005 0.063630
0.057197 0.083699 0.058369
0.135293 0.092805 0.053358
0.235068 0.101491 0.047218
0.348553 0.101778 0.035138
0.463154 0.090278 0.021607
0.546374 0.063233 0.008917
0.616822 0.020862 0.000000
0.657655 0.000000 0.000000
0.679713 0.000000 0.000000
0.691206 0.000000 0.000000
0.694502 0.000000 0.000000
0.706062 0.000000 0.000000
0.000000 0.149795 0.125557
0.000000 0.146401 0.121761
0.000000 0.139028 0.110866
0.000000 0.139254 0.102229
0.035193 0.145541 0.094563
0.141097 0.158090 0.085158
0.255247 0.171463 0.073530
0.377594 0.179055 0.056684
0.499260 0.178628 0.033521
0.586328 0.166744 0.012958
0.660383 0.150027 0.000000
0.704164 0.130141 0.000000
0.726992 0.110671 0.000000
0.739120 0.091737 0.000000
0.741482 0.073072 0.000000
0.748525 0.090419 0.000000
0.000000 0.225644 0.169442
0.000000 0.223404 0.166213
0.000000 0.214774 0.153548
0.000000 0.216373 0.143960
0.000000 0.223508 0.131521
0.129464 0.241685 0.120919
0.267930 0.260294 0.105739
0.405695 0.274260 0.083088
0.535808 0.278349 0.050159
0.630683 0.274809 0.019495
0.709010 0.264115 0.000000
0.753719 0.250706 0.000000
0.778732 0.236088 0.000000
0.790341 0.222733 0.000000
0.791824 0.207578 0.000000
0.795285 0.210251 0.000000
0.000000 0.315129 0.235856
0.000000 0.314098 0.232963
