LUTs/SPK Cube Block1 S16/TheBrim_SPK_Type-Z_Block1_S16.cube
TITLE "TheBrim® Industrial Imaging Burau"
# © Copyright 2022 - TheBrim® d.o.o. Croatia
LUT_3D_SIZE 16
DOMAIN_MIN 0.000000 0.000000 0.000000
DOMAIN_MAX 1.000000 1.000000 1.000000
0.000000 0.000000 0.000000
0.000000 0.000000 0.000000
0.000000 0.000000 0.000000
0.000000 0.000000 0.000000
0.000000 0.000000 0.000000
0.000000 0.000000 0.000000
0.000000 0.000000 0.000000
0.000000 0.000000 0.000000
0.002167 0.002167 0.002167
0.004272 0.004272 0.004272
0.008636 0.008636 0.008636
0.015540 0.015540 0.015540
0.028082 0.028082 0.028082
0.043908 0.043908 0.043908
0.065699 0.065699 0.065699
0.101624 0.101624 0.101624
0.000000 0.000000 0.000000
0.000000 0.000000 0.000000
0.000000 0.000000 0.000000
0.000000 0.000000 0.000000
0.000000 0.000000 0.000000
0.000000 0.000000 0.000000
0.002167 0.002167 0.002167
0.004444 0.004444 0.004444
0.008813 0.008813 0.008813
0.015845 0.015845 0.015845
0.027661 0.027661 0.027661
0.043164 0.043164 0.043164
0.065460 0.065460 0.065460
0.100262 0.100262 0.100262
0.150861 0.150861 0.150861
0.203973 0.203973 0.203973
0.000000 0.000000 0.000000
0.000000 0.000000 0.000000
0.000000 0.000000 0.000000
0.000000 0.000000 0.000000
0.001959 0.001959 0.001959
0.003809 0.003809 0.003809
0.008740 0.008740 0.008740
0.016016 0.016016 0.016016
0.027210 0.027210 0.027210
0.042090 0.042090 0.042090
0.063910 0.063910 0.063910
0.098962 0.098962 0.098962
0.149054 0.149054 0.149054
0.202850 0.202850 0.202850
0.258289 0.258289 0.258289
0.307953 0.307953 0.307953
0.000000 0.000000 0.000000
0.000000 0.000000 0.000000
0.001617 0.001617 0.001617
0.003449 0.003449 0.003449
0.008777 0.008777 0.008777
0.015070 0.015070 0.015070
0.026776 0.026776 0.026776
0.041974 0.041974 0.041974
0.063989 0.063989 0.063989
0.098596 0.098596 0.098596
0.147284 0.147284 0.147284
0.202191 0.202191 0.202191
0.255902 0.255902 0.255902
0.306134 0.306134 0.306134
0.359986 0.359986 0.359986
0.412451 0.412451 0.412451
0.001825 0.001825 0.001825
0.003876 0.003876 0.003876
0.008612 0.008612 0.008612
0.014728 0.014728 0.014728
0.026361 0.026361 0.026361
0.042022 0.042022 0.042022
0.062970 0.062970 0.062970
0.096594 0.096594 0.096594
0.145691 0.145691 0.145691
0.200793 0.200793 0.200793
0.253461 0.253461 0.253461
0.304749 0.304749 0.304749
0.357416 0.357416 0.357416
0.410474 0.410474 0.410474
0.465699 0.465699 0.465699
0.521222 0.521222 0.521222
0.008606 0.008606 0.008606
0.015174 0.015174 0.015174
0.025903 0.025903 0.025903
0.040826 0.040826 0.040826
0.061706 0.061706 0.061706
0.093475 0.093475 0.093475
0.143786 0.143786 0.143786
0.197418 0.197418 0.197418
0.253003 0.253003 0.253003
0.303290 0.303290 0.303290
0.354706 0.354706 0.354706
0.409948 0.409948 0.409948
0.463245 0.463245 0.463245
0.519067 0.519067 0.519067
0.575031 0.575031 0.575031
0.631195 0.631195 0.631195
0.025464 0.025464 0.025464
0.039453 0.039453 0.039453
0.061304 0.061304 0.061304
0.093786 0.093786 0.093786
0.141998 0.141998 0.141998
0.195386 0.195386 0.195386
0.252240 0.252240 0.252240
0.302130 0.302130 0.302130
0.354010 0.354010 0.354010
0.407965 0.407965 0.407965
0.461865 0.461865 0.461865
0.516925 0.516925 0.516925
0.572229 0.572229 0.572229
0.627387 0.627387 0.627387
0.670245 0.670245 0.670245
0.707312 0.707312 0.707312
0.060242 0.060242 0.060242
0.093732 0.093732 0.093732
0.140405 0.140405 0.140405
0.194610 0.194610 0.194610
0.249085 0.249085 0.249085
0.300733 0.300733 0.300733
0.352875 0.352875 0.352875
0.405182 0.405182 0.405182
0.460877 0.460877 0.460877
0.515680 0.515680 0.515680
0.571100 0.571100 0.571100
0.625183 0.625183 0.625183
0.668689 0.668689 0.668689
0.706769 0.706769 0.706769
0.742816 0.742816 0.742816
0.778211 0.778211 0.778211
0.138580 0.138580 0.138580
0.192114 0.192114 0.192114
0.246509 0.246509 0.246509
0.299066 0.299066 0.299066
0.350238 0.350238 0.350238
0.403113 0.403113 0.403113
0.458484 0.458484 0.458484
0.514551 0.514551 0.514551
0.570667 0.570667 0.570667
0.624579 0.624579 0.624579
0.666748 0.666748 0.666748
0.705407 0.705407 0.705407
0.740894 0.740894 0.740894
0.776587 0.776587 0.776587
0.810340 0.810340 0.810340
0.842993 0.842993 0.842993
0.246167 0.246167 0.246167
0.296875 0.296875 0.296875
0.348364 0.348364 0.348364
0.402337 0.402337 0.402337
0.455762 0.455762 0.455762
0.511810 0.511810 0.511810
0.567956 0.567956 0.567956
0.623260 0.623260 0.623260
0.665582 0.665582 0.665582
0.703369 0.703369 0.703369
0.739423 0.739423 0.739423
0.776074 0.776074 0.776074
0.809405 0.809405 0.809405
0.841626 0.841626 0.841626
0.870752 0.870752 0.870752
0.896350 0.896350 0.896350
0.347473 0.347473 0.347473
0.400513 0.400513 0.400513
0.455273 0.455273 0.455273
0.509204 0.509204 0.509204
0.565375 0.565375 0.565375
0.621216 0.621216 0.621216
0.665429 0.665429 0.665429
0.702875 0.702875 0.702875
0.738794 0.738794 0.738794
0.775152 0.775152 0.775152
0.808472 0.808472 0.808472
0.841089 0.841089 0.841089
0.869738 0.869738 0.869738
0.896295 0.896295 0.896295
0.919696 0.919696 0.919696
0.940704 0.940704 0.940704
0.454053 0.454053 0.454053
0.507977 0.507977 0.507977
0.564026 0.564026 0.564026
0.618158 0.618158 0.618158
0.663727 0.663727 0.663727
0.702441 0.702441 0.702441
0.737921 0.737921 0.737921
0.773303 0.773303 0.773303
0.807648 0.807648 0.807648
0.840124 0.840124 0.840124
0.868787 0.868787 0.868787
0.896717 0.896717 0.896717
0.919043 0.919043 0.919043
0.940058 0.940058 0.940058
0.958008 0.958008 0.958008
0.972058 0.972058 0.972058
0.562482 0.562482 0.562482
0.616400 0.616400 0.616400
0.661529 0.661529 0.661529
0.700610 0.700610 0.700610
0.736133 0.736133 0.736133
0.771570 0.771570 0.771570
0.806592 0.806592 0.806592
0.839087 0.839087 0.839087
0.867834 0.867834 0.867834
0.894995 0.894995 0.894995
0.919110 0.919110 0.919110
0.939221 0.939221 0.939221
0.956256 0.956256 0.956256
0.970795 0.970795 0.970795
0.981061 0.981061 0.981061
0.987726 0.987726 0.987726
0.661072 0.661072 0.661072
0.698834 0.698834 0.698834
0.734973 0.734973 0.734973
0.771356 0.771356 0.771356
0.805176 0.805176 0.805176
0.837964 0.837964 0.837964
0.866907 0.866907 0.866907
0.893640 0.893640 0.893640
0.918060 0.918060 0.918060
0.938214 0.938214 0.938214
0.956208 0.956208 0.956208
0.970569 0.970569 0.970569
0.980121 0.980121 0.980121
0.987115 0.987115 0.987115
0.993731 0.993731 0.993731
0.996063 0.996063 0.996063
0.734631 0.734631 0.734631
0.770166 0.770166 0.770166
0.804144 0.804144 0.804144
0.836450 0.836450 0.836450
0.865942 0.865942 0.865942
0.893359 0.893359 0.893359
0.916547 0.916547 0.916547
0.938001 0.938001 0.938001
0.956183 0.956183 0.956183
0.970691 0.970691 0.970691
0.979602 0.979602 0.979602
0.987500 0.987500 0.987500
0.992987 0.992987 0.992987
0.996063 0.996063 0.996063
0.999213 0.999213 0.999213
1.000000 1.000000 1.000000
0.803711 0.803711 0.803711
0.836328 0.836328 0.836328
0.865039 0.865039 0.865039
0.893060 0.893060 0.893060
0.916064 0.916064 0.916064
0.938354 0.938354 0.938354
0.955805 0.955805 0.955805
0.970758 0.970758 0.970758
0.979950 0.979950 0.979950
0.987616 0.987616 0.987616
0.992157 0.992157 0.992157
0.996063 0.996063 0.996063
1.000000 1.000000 1.000000
1.000000 1.000000 1.000000
1.000000 1.000000 1.000000
1.000000 1.000000 1.000000
0.000000 0.000000 0.000000
0.000000 0.000000 0.000000
0.000000 0.000000 0.000000
0.000000 0.000000 0.000000
0.000000 0.000000 0.000000
0.000000 0.000000 0.000000
0.000000 0.000000 0.000000
0.000372 0.000372 0.000372
0.002167 0.002167 0.002167
0.005927 0.005927 0.005927
0.010864 0.010864 0.010864
0.019751 0.019751 0.019751
0.032941 0.032941 0.032941
0.050940 0.050940 0.050940
0.078326 0.078326 0.078326
0.119641 0.119641 0.119641
0.000000 0.000000 0.000000
0.000000 0.000000 0.000000
0.000000 0.000000 0.000000
0.000000 0.000000 0.000000
0.000000 0.000000 0.000000
0.000433 0.000433 0.000433
0.002594 0.002594 0.002594
0.005493 0.005493 0.005493
0.011121 0.011121 0.011121
0.019360 0.019360 0.019360
0.032605 0.032605 0.032605
0.050678 0.050678 0.050678
0.076514 0.076514 0.076514
0.118231 0.118231 0.118231
0.170239 0.170239 0.170239
0.226434 0.226434 0.226434
0.000000 0.000000 0.000000
0.000000 0.000000 0.000000
0.000000 0.000000 0.000000
0.000867 0.000867 0.000867
0.002326 0.002326 0.002326
0.005261 0.005261 0.005261
0.010913 0.010913 0.010913
0.019085 0.019085 0.019085
0.032050 0.032050 0.032050
0.049805 0.049805 0.049805
0.075220 0.075220 0.075220
0.116565 0.116565 0.116565
0.168298 0.168298 0.168298
0.224457 0.224457 0.224457
0.276514 0.276514 0.276514
0.327893 0.327893 0.327893
0.000000 0.000000 0.000000
0.000433 0.000433 0.000433
0.002252 0.002252 0.002252
0.005628 0.005628 0.005628
0.010681 0.010681 0.010681
0.018671 0.018671 0.018671
0.031598 0.031598 0.031598
0.049072 0.049072 0.049072
0.075397 0.075397 0.075397
0.114777 0.114777 0.114777
0.166778 0.166778 0.166778
0.221698 0.221698 0.221698
0.275006 0.275006 0.275006
0.326184 0.326184 0.326184
0.378418 0.378418 0.378418
0.432947 0.432947 0.432947
0.002167 0.002167 0.002167
0.004987 0.004987 0.004987
0.010663 0.010663 0.010663
0.018622 0.018622 0.018622
0.031153 0.031153 0.031153
0.047711 0.047711 0.047711
0.073626 0.073626 0.073626
0.113190 0.113190 0.113190
0.165039 0.165039 0.165039
0.219483 0.219483 0.219483
0.273230 0.273230 0.273230
0.323523 0.323523 0.323523
0.377179 0.377179 0.377179
0.431604 0.431604 0.431604
0.486908 0.486908 0.486908
0.542749 0.542749 0.542749
0.010675 0.010675 0.010675
0.017627 0.017627 0.017627
0.030743 0.030743 0.030743
0.047436 0.047436 0.047436
0.072272 0.072272 0.072272
0.111469 0.111469 0.111469
0.163287 0.163287 0.163287
0.219275 0.219275 0.219275
0.271014 0.271014 0.271014
0.321430 0.321430 0.321430
0.376422 0.376422 0.376422
0.428857 0.428857 0.428857
0.484692 0.484692 0.484692
0.540863 0.540863 0.540863
0.594952 0.594952 0.594952
0.645862 0.645862 0.645862
0.030304 0.030304 0.030304
0.047638 0.047638 0.047638
0.071552 0.071552 0.071552
0.110010 0.110010 0.110010
0.161401 0.161401 0.161401
0.218359 0.218359 0.218359
0.268487 0.268487 0.268487
0.320477 0.320477 0.320477
0.373920 0.373920 0.373920
0.426953 0.426953 0.426953
0.482135 0.482135 0.482135
0.538189 0.538189 0.538189
0.593927 0.593927 0.593927
0.645190 0.645190 0.645190
0.683301 0.683301 0.683301
0.721716 0.721716 0.721716
0.071393 0.071393 0.071393
0.108331 0.108331 0.108331
0.159607 0.159607 0.159607
0.214337 0.214337 0.214337
0.267737 0.267737 0.267737
0.319055 0.319055 0.319055
0.371368 0.371368 0.371368
0.426446 0.426446 0.426446
0.479645 0.479645 0.479645
0.535821 0.535821 0.535821
0.591498 0.591498 0.591498
0.644128 0.644128 0.644128
0.682702 0.682702 0.682702
0.719702 0.719702 0.719702
0.755292 0.755292 0.755292
0.790766 0.790766 0.790766
0.158026 0.158026 0.158026
0.212567 0.212567 0.212567
0.266711 0.266711 0.266711
0.317560 0.317560 0.317560
0.369690 0.369690 0.369690
0.424334 0.424334 0.424334
0.478296 0.478296 0.478296
0.534052 0.534052 0.534052
0.588660 0.588660 0.588660
0.641284 0.641284 0.641284
0.681561 0.681561 0.681561
0.718164 0.718164 0.718164
0.754321 0.754321 0.754321
0.790430 0.790430 0.790430
0.823169 0.823169 0.823169
0.853528 0.853528 0.853528
0.264942 0.264942 0.264942
0.315698 0.315698 0.315698
0.368463 0.368463 0.368463
0.421680 0.421680 0.421680
0.477753 0.477753 0.477753
0.533020 0.533020 0.533020
0.588312 0.588312 0.588312
0.639996 0.639996 0.639996
0.680023 0.680023 0.680023
0.717340 0.717340 0.717340
0.753864 0.753864 0.753864
0.789038 0.789038 0.789038
0.821350 0.821350 0.821350
0.852539 0.852539 0.852539
0.881275 0.881275 0.881275
0.906390 0.906390 0.906390
0.366736 0.366736 0.366736
0.419073 0.419073 0.419073
0.474939 0.474939 0.474939
0.531006 0.531006 0.531006
0.586957 0.586957 0.586957
0.640131 0.640131 0.640131
0.677789 0.677789 0.677789
0.716113 0.716113 0.716113
0.752008 0.752008 0.752008
0.787744 0.787744 0.787744
0.819055 0.819055 0.819055
0.851599 0.851599 0.851599
0.880310 0.880310 0.880310
0.905115 0.905115 0.905115
0.927515 0.927515 0.927515
0.945959 0.945959 0.945959
0.472663 0.472663 0.472663
0.528302 0.528302 0.528302
0.584375 0.584375 0.584375
0.637934 0.637934 0.637934
0.677258 0.677258 0.677258
0.714783 0.714783 0.714783
0.750250 0.750250 0.750250
0.786358 0.786358 0.786358
0.818799 0.818799 0.818799
0.850635 0.850635 0.850635
0.879346 0.879346 0.879346
0.903375 0.903375 0.903375
0.927246 0.927246 0.927246
0.946277 0.946277 0.946277
0.963757 0.963757 0.963757
0.974151 0.974151 0.974151
0.581909 0.581909 0.581909
0.635248 0.635248 0.635248
0.677313 0.677313 0.677313
0.713397 0.713397 0.713397
0.749384 0.749384 0.749384
0.785962 0.785962 0.785962
0.818200 0.818200 0.818200
0.849670 0.849670 0.849670
0.878381 0.878381 0.878381
0.903729 0.903729 0.903729
0.926398 0.926398 0.926398
0.945746 0.945746 0.945746
0.963275 0.963275 0.963275
0.975311 0.975311 0.975311
0.982947 0.982947 0.982947
0.989795 0.989795 0.989795
0.675104 0.675104 0.675104
0.712903 0.712903 0.712903
0.748621 0.748621 0.748621
0.784558 0.784558 0.784558
0.817206 0.817206 0.817206
0.848767 0.848767 0.848767
0.877429 0.877429 0.877429
0.903662 0.903662 0.903662
0.925311 0.925311 0.925311
0.944519 0.944519 0.944519
0.962805 0.962805 0.962805
0.974805 0.974805 0.974805
0.982977 0.982977 0.982977
0.990399 0.990399 0.990399
0.994684 0.994684 0.994684
0.997339 0.997339 0.997339
0.747241 0.747241 0.747241
0.782678 0.782678 0.782678
0.815814 0.815814 0.815814
0.847790 0.847790 0.847790
0.876465 0.876465 0.876465
0.902032 0.902032 0.902032
0.925268 0.925268 0.925268
0.944006 0.944006 0.944006
0.961878 0.961878 0.961878
0.973535 0.973535 0.973535
0.983508 0.983508 0.983508
0.989960 0.989960 0.989960
0.995233 0.995233 0.995233
0.997064 0.997064 0.997064
1.000000 1.000000 1.000000
1.000000 1.000000 1.000000
0.814282 0.814282 0.814282
0.846839 0.846839 0.846839
0.875549 0.875549 0.875549
0.900818 0.900818 0.900818
0.924683 0.924683 0.924683
0.943585 0.943585 0.943585
0.961872 0.961872 0.961872
0.973413 0.973413 0.973413
0.982580 0.982580 0.982580
0.989642 0.989642 0.989642
0.995599 0.995599 0.995599
0.996484 0.996484 0.996484
1.000000 1.000000 1.000000
1.000000 1.000000 1.000000
1.000000 1.000000 1.000000
1.000000 1.000000 1.000000
0.000000 0.000000 0.000000
0.000000 0.000000 0.000000
0.000000 0.000000 0.000000
0.000000 0.000000 0.000000
0.000000 0.000000 0.000000
0.000000 0.000000 0.000000
0.000000 0.000000 0.000000
0.001856 0.001856 0.001856
0.003381 0.003381 0.003381
0.007922 0.007922 0.007922
0.014496 0.014496 0.014496
0.024573 0.024573 0.024573
0.038897 0.038897 0.038897
0.059216 0.059216 0.059216
0.090027 0.090027 0.090027
0.138343 0.138343 0.138343
0.000000 0.000000 0.000000
0.000000 0.000000 0.000000
0.000000 0.000000 0.000000
0.000000 0.000000 0.000000
0.000000 0.000000 0.000000
0.001654 0.001654 0.001654
0.002820 0.002820 0.002820
0.007758 0.007758 0.007758
0.013739 0.013739 0.013739
0.024158 0.024158 0.024158
0.037976 0.037976 0.037976
0.059363 0.059363 0.059363
0.090991 0.090991 0.090991
0.136798 0.136798 0.136798
0.190210 0.190210 0.190210
0.246167 0.246167 0.246167
0.000000 0.000000 0.000000
0.000000 0.000000 0.000000
0.000000 0.000000 0.000000
0.001062 0.001062 0.001062
0.003021 0.003021 0.003021
0.007336 0.007336 0.007336
0.013001 0.013001 0.013001
0.023706 0.023706 0.023706
0.038190 0.038190 0.038190
0.057984 0.057984 0.057984
0.089465 0.089465 0.089465
0.135248 0.135248 0.135248
0.189410 0.189410 0.189410
0.243103 0.243103 0.243103
0.295258 0.295258 0.295258
0.347052 0.347052 0.347052
0.000000 0.000000 0.000000
0.001300 0.001300 0.001300
0.003156 0.003156 0.003156
0.006885 0.006885 0.006885
0.013202 0.013202 0.013202
0.023267 0.023267 0.023267
0.037335 0.037335 0.037335
0.057092 0.057092 0.057092
0.087470 0.087470 0.087470
0.133612 0.133612 0.133612
0.186005 0.186005 0.186005
0.242011 0.242011 0.242011
0.294037 0.294037 0.294037
0.344580 0.344580 0.344580
0.398364 0.398364 0.398364
0.452552 0.452552 0.452552
0.002826 0.002826 0.002826
0.006683 0.006683 0.006683
0.013031 0.013031 0.013031
0.022876 0.022876 0.022876
0.036292 0.036292 0.036292
0.055481 0.055481 0.055481
0.085590 0.085590 0.085590
0.131677 0.131677 0.131677
0.184088 0.184088 0.184088
0.241217 0.241217 0.241217
0.291944 0.291944 0.291944
0.343707 0.343707 0.343707
0.396692 0.396692 0.396692
0.450549 0.450549 0.450549
0.505768 0.505768 0.505768
0.561884 0.561884 0.561884
0.012707 0.012707 0.012707
0.022387 0.022387 0.022387
0.035694 0.035694 0.035694
0.054669 0.054669 0.054669
0.084558 0.084558 0.084558
0.129541 0.129541 0.129541
0.182544 0.182544 0.182544
0.238257 0.238257 0.238257
0.290088 0.290088 0.290088
0.342151 0.342151 0.342151
0.394727 0.394727 0.394727
0.450079 0.450079 0.450079
0.504364 0.504364 0.504364
0.560211 0.560211 0.560211
0.615137 0.615137 0.615137
0.661645 0.661645 0.661645
0.035760 0.035760 0.035760
0.054431 0.054431 0.054431
0.084344 0.084344 0.084344
0.128253 0.128253 0.128253
0.181470 0.181470 0.181470
0.235809 0.235809 0.235809
0.287958 0.287958 0.287958
0.339764 0.339764 0.339764
0.392975 0.392975 0.392975
0.448028 0.448028 0.448028
0.502966 0.502966 0.502966
0.559356 0.559356 0.559356
0.612158 0.612158 0.612158
0.659406 0.659406 0.659406
0.698364 0.698364 0.698364
0.733722 0.733722 0.733722
0.082306 0.082306 0.082306
0.126758 0.126758 0.126758
0.180078 0.180078 0.180078
0.234827 0.234827 0.234827
0.286304 0.286304 0.286304
0.337073 0.337073 0.337073
0.391931 0.391931 0.391931
0.445263 0.445263 0.445263
0.501337 0.501337 0.501337
0.557483 0.557483 0.557483
0.611603 0.611603 0.611603
0.657660 0.657660 0.657660
0.696332 0.696332 0.696332
0.732617 0.732617 0.732617
0.768530 0.768530 0.768530
0.803674 0.803674 0.803674
0.177222 0.177222 0.177222
0.234039 0.234039 0.234039
0.284088 0.284088 0.284088
0.336231 0.336231 0.336231
0.390314 0.390314 0.390314
0.443543 0.443543 0.443543
0.498614 0.498614 0.498614
0.554694 0.554694 0.554694
0.610706 0.610706 0.610706
0.657312 0.657312 0.657312
0.694904 0.694904 0.694904
0.731958 0.731958 0.731958
0.767523 0.767523 0.767523
0.801404 0.801404 0.801404
0.834180 0.834180 0.834180
0.864038 0.864038 0.864038
0.283197 0.283197 0.283197
0.334839 0.334839 0.334839
0.387622 0.387622 0.387622
0.442383 0.442383 0.442383
0.495904 0.495904 0.495904
0.552185 0.552185 0.552185
0.607953 0.607953 0.607953
0.656116 0.656116 0.656116
0.693982 0.693982 0.693982
0.730823 0.730823 0.730823
0.766230 0.766230 0.766230
0.801050 0.801050 0.801050
0.833569 0.833569 0.833569
0.863074 0.863074 0.863074
0.890955 0.890955 0.890955
0.914258 0.914258 0.914258
0.385150 0.385150 0.385150
0.440595 0.440595 0.440595
0.495392 0.495392 0.495392
0.550934 0.550934 0.550934
0.605719 0.605719 0.605719
0.654480 0.654480 0.654480
0.693152 0.693152 0.693152
0.729212 0.729212 0.729212
0.765112 0.765112 0.765112
0.800635 0.800635 0.800635
0.833398 0.833398 0.833398
0.862109 0.862109 0.862109
0.890308 0.890308 0.890308
0.914001 0.914001 0.914001
0.936053 0.936053 0.936053
0.953424 0.953424 0.953424
0.494177 0.494177 0.494177
0.550287 0.550287 0.550287
0.605145 0.605145 0.605145
0.652692 0.652692 0.652692
0.691339 0.691339 0.691339
0.727520 0.727520 0.727520
0.764172 0.764172 0.764172
0.799096 0.799096 0.799096
0.831116 0.831116 0.831116
0.861157 0.861157 0.861157
0.889074 0.889074 0.889074
0.913580 0.913580 0.913580
0.934045 0.934045 0.934045
0.952277 0.952277 0.952277
0.968365 0.968365 0.968365
0.978681 0.978681 0.978681
0.603491 0.603491 0.603491
0.651715 0.651715 0.651715
0.689087 0.689087 0.689087
0.726904 0.726904 0.726904
0.763287 0.763287 0.763287
0.797851 0.797851 0.797851
0.829224 0.829224 0.829224
0.860180 0.860180 0.860180
0.887488 0.887488 0.887488
0.912121 0.912121 0.912121
0.933551 0.933551 0.933551
0.951843 0.951843 0.951843
0.967407 0.967407 0.967407
0.977405 0.977405 0.977405
0.985712 0.985712 0.985712
0.992425 0.992425 0.992425
0.689087 0.689087 0.689087
0.725714 0.725714 0.725714
0.761469 0.761469 0.761469
0.796350 0.796350 0.796350
0.828992 0.828992 0.828992
0.859277 0.859277 0.859277
0.887372 0.887372 0.887372
0.911151 0.911151 0.911151
0.933631 0.933631 0.933631
0.952087 0.952087 0.952087
0.968060 0.968060 0.968060
0.977527 0.977527 0.977527
0.985663 0.985663 0.985663
0.990924 0.990924 0.990924
0.995788 0.995788 0.995788
0.998450 0.998450 0.998450
0.759655 0.759655 0.759655
0.796185 0.796185 0.796185
0.828235 0.828235 0.828235
0.858313 0.858313 0.858313
0.887024 0.887024 0.887024
0.911377 0.911377 0.911377
0.932953 0.932953 0.932953
0.950873 0.950873 0.950873
0.967578 0.967578 0.967578
0.978467 0.978467 0.978467
0.985309 0.985309 0.985309
0.991406 0.991406 0.991406
0.995697 0.995697 0.995697
0.998993 0.998993 0.998993
1.000000 1.000000 1.000000
1.000000 1.000000 1.000000
0.827344 0.827344 0.827344
0.857410 0.857410 0.857410
0.886084 0.886084 0.886084
0.910620 0.910620 0.910620
0.932147 0.932147 0.932147
0.949066 0.949066 0.949066
0.967126 0.967126 0.967126
0.977551 0.977551 0.977551
0.985187 0.985187 0.985187
0.991980 0.991980 0.991980
0.996063 0.996063 0.996063
0.999029 0.999029 0.999029
1.000000 1.000000 1.000000
1.000000 1.000000 1.000000
1.000000 1.000000 1.000000
1.000000 1.000000 1.000000
0.000000 0.000000 0.000000
0.000000 0.000000 0.000000
0.000000 0.000000 0.000000
0.000000 0.000000 0.000000
0.000000 0.000000 0.000000
0.000000 0.000000 0.000000
0.000000 0.000000 0.000000
0.002167 0.002167 0.002167
0.004395 0.004395 0.004395
0.010028 0.010028 0.010028
0.016394 0.016394 0.016394
0.029395 0.029395 0.029395
0.045868 0.045868 0.045868
0.069305 0.069305 0.069305
0.106494 0.106494 0.106494
0.157983 0.157983 0.157983
0.000000 0.000000 0.000000
0.000000 0.000000 0.000000
0.000000 0.000000 0.000000
0.000000 0.000000 0.000000
0.000159 0.000159 0.000159
0.002167 0.002167 0.002167
0.004865 0.004865 0.004865
0.009869 0.009869 0.009869
0.017047 0.017047 0.017047
0.028973 0.028973 0.028973
0.045703 0.045703 0.045703
0.068665 0.068665 0.068665
0.104968 0.104968 0.104968
0.156091 0.156091 0.156091
0.211511 0.211511 0.211511
0.263879 0.263879 0.263879
0.000000 0.000000 0.000000
0.000000 0.000000 0.000000
0.000183 0.000183 0.000183
0.002155 0.002155 0.002155
0.004669 0.004669 0.004669
0.009424 0.009424 0.009424
0.017053 0.017053 0.017053
0.028528 0.028528 0.028528
0.044476 0.044476 0.044476
0.068268 0.068268 0.068268
0.103277 0.103277 0.103277
0.154309 0.154309 0.154309
0.207977 0.207977 0.207977
0.262995 0.262995 0.262995
0.313727 0.313727 0.313727
0.365564 0.365564 0.365564
0.000000 0.000000 0.000000
0.002045 0.002045 0.002045
0.004108 0.004108 0.004108
0.009052 0.009052 0.009052
0.016297 0.016297 0.016297
0.028106 0.028106 0.028106
0.043610 0.043610 0.043610
0.067346 0.067346 0.067346
0.104053 0.104053 0.104053
0.152759 0.152759 0.152759
0.207214 0.207214 0.207214
0.261487 0.261487 0.261487
0.312128 0.312128 0.312128
0.364813 0.364813 0.364813
0.418402 0.418402 0.418402
0.473700 0.473700 0.473700
0.003876 0.003876 0.003876
0.008832 0.008832 0.008832
0.015570 0.015570 0.015570
0.027661 0.027661 0.027661
0.043488 0.043488 0.043488
0.065106 0.065106 0.065106
0.101306 0.101306 0.101306
0.150989 0.150989 0.150989
0.205591 0.205591 0.205591
0.258673 0.258673 0.258673
0.310419 0.310419 0.310419
0.363104 0.363104 0.363104
0.415875 0.415875 0.415875
0.471674 0.471674 0.471674
0.527722 0.527722 0.527722
0.583105 0.583105 0.583105
0.015076 0.015076 0.015076
0.027216 0.027216 0.027216
0.042365 0.042365 0.042365
0.063715 0.063715 0.063715
0.098645 0.098645 0.098645
0.149072 0.149072 0.149072
0.202796 0.202796 0.202796
0.257837 0.257837 0.257837
0.308734 0.308734 0.308734
0.361169 0.361169 0.361169
0.413830 0.413830 0.413830
0.468957 0.468957 0.468957
0.525018 0.525018 0.525018
0.581098 0.581098 0.581098
0.635559 0.635559 0.635559
0.673914 0.673914 0.673914
0.041309 0.041309 0.041309
0.063641 0.063641 0.063641
0.097693 0.097693 0.097693
0.147259 0.147259 0.147259
0.200580 0.200580 0.200580
0.256646 0.256646 0.256646
0.306928 0.306928 0.306928
0.359345 0.359345 0.359345
0.412805 0.412805 0.412805
0.467713 0.467713 0.467713
0.523004 0.523004 0.523004
0.578296 0.578296 0.578296
0.632489 0.632489 0.632489
0.673712 0.673712 0.673712
0.710999 0.710999 0.710999
0.746735 0.746735 0.746735
0.096491 0.096491 0.096491
0.145557 0.145557 0.145557
