LUTs/SPK Cube Block1 S16/TheBrim_SPK_Type-S_Block1_S16.cube
TITLE "TheBrim® Industrial Imaging Burau"
# © Copyright 2022 - TheBrim® d.o.o. Croatia
LUT_3D_SIZE 6
DOMAIN_MIN 0.000000 0.000000 0.000000
DOMAIN_MAX 1.000000 1.000000 1.000000
0.000061 0.000061 0.000031
0.068036 0.000061 0.000031
0.327948 0.000061 0.000031
0.683631 0.000061 0.000031
0.969476 0.000061 0.000031
0.999878 0.000061 0.000031
0.000061 0.101727 0.000031
0.068036 0.101727 0.000031
0.327948 0.101727 0.000031
0.683631 0.101727 0.000031
0.969476 0.101727 0.000031
0.999878 0.101727 0.000031
0.000061 0.336255 0.000031
0.068036 0.336255 0.000031
0.327948 0.336255 0.000031
0.683631 0.336255 0.000031
0.969476 0.336255 0.000031
0.999878 0.336255 0.000031
0.000061 0.661279 0.000031
0.068036 0.661279 0.000031
0.327948 0.661279 0.000031
0.683631 0.661279 0.000031
0.969476 0.661279 0.000031
0.999878 0.661279 0.000031
0.000061 0.958722 0.000031
0.068036 0.958722 0.000031
0.327948 0.958722 0.000031
0.683631 0.958722 0.000031
0.969476 0.958722 0.000031
0.999878 0.958722 0.000031
0.000061 0.997498 0.000031
0.068036 0.997498 0.000031
0.327948 0.997498 0.000031
0.683631 0.997498 0.000031
0.969476 0.997498 0.000031
0.999878 0.997498 0.000031
0.000061 0.000061 0.113855
0.068036 0.000061 0.113855
0.327948 0.000061 0.113855
0.683631 0.000061 0.113855
0.969476 0.000061 0.113855
0.999878 0.000061 0.113855
0.000061 0.101727 0.113855
0.068036 0.101727 0.113855
0.327948 0.101727 0.113855
0.683631 0.101727 0.113855
0.969476 0.101727 0.113855
0.999878 0.101727 0.113855
0.000061 0.336255 0.113855
0.068036 0.336255 0.113855
0.327948 0.336255 0.113855
0.683631 0.336255 0.113855
0.969476 0.336255 0.113855
0.999878 0.336255 0.113855
0.000061 0.661279 0.113855
0.068036 0.661279 0.113855
0.327948 0.661279 0.113855
0.683631 0.661279 0.113855
0.969476 0.661279 0.113855
0.999878 0.661279 0.113855
0.000061 0.958722 0.113855
0.068036 0.958722 0.113855
0.327948 0.958722 0.113855
0.683631 0.958722 0.113855
0.969476 0.958722 0.113855
0.999878 0.958722 0.113855
0.000061 0.997498 0.113855
0.068036 0.997498 0.113855
0.327948 0.997498 0.113855
0.683631 0.997498 0.113855
0.969476 0.997498 0.113855
0.999878 0.997498 0.113855
0.000061 0.000061 0.348224
0.068036 0.000061 0.348224
0.327948 0.000061 0.348224
0.683631 0.000061 0.348224
0.969476 0.000061 0.348224
0.999878 0.000061 0.348224
0.000061 0.101727 0.348224
0.068036 0.101727 0.348224
0.327948 0.101727 0.348224
0.683631 0.101727 0.348224
0.969476 0.101727 0.348224
0.999878 0.101727 0.348224
0.000061 0.336255 0.348224
0.068036 0.336255 0.348224
0.327948 0.336255 0.348224
0.683631 0.336255 0.348224
0.969476 0.336255 0.348224
0.999878 0.336255 0.348224
0.000061 0.661279 0.348224
0.068036 0.661279 0.348224
0.327948 0.661279 0.348224
0.683631 0.661279 0.348224
0.969476 0.661279 0.348224
0.999878 0.661279 0.348224
0.000061 0.958722 0.348224
0.068036 0.958722 0.348224
0.327948 0.958722 0.348224
0.683631 0.958722 0.348224
0.969476 0.958722 0.348224
0.999878 0.958722 0.348224
0.000061 0.997498 0.348224
0.068036 0.997498 0.348224
0.327948 0.997498 0.348224
0.683631 0.997498 0.348224
0.969476 0.997498 0.348224
0.999878 0.997498 0.348224
0.000061 0.000061 0.624164
0.068036 0.000061 0.624164
0.327948 0.000061 0.624164
0.683631 0.000061 0.624164
0.969476 0.000061 0.624164
0.999878 0.000061 0.624164
0.000061 0.101727 0.624164
0.068036 0.101727 0.624164
0.327948 0.101727 0.624164
0.683631 0.101727 0.624164
0.969476 0.101727 0.624164
0.999878 0.101727 0.624164
0.000061 0.336255 0.624164
0.068036 0.336255 0.624164
0.327948 0.336255 0.624164
0.683631 0.336255 0.624164
0.969476 0.336255 0.624164
0.999878 0.336255 0.624164
0.000061 0.661279 0.624164
0.068036 0.661279 0.624164
0.327948 0.661279 0.624164
0.683631 0.661279 0.624164
0.969476 0.661279 0.624164
0.999878 0.661279 0.624164
0.000061 0.958722 0.624164
0.068036 0.958722 0.624164
0.327948 0.958722 0.624164
0.683631 0.958722 0.624164
0.969476 0.958722 0.624164
0.999878 0.958722 0.624164
0.000061 0.997498 0.624164
0.068036 0.997498 0.624164
0.327948 0.997498 0.624164
0.683631 0.997498 0.624164
0.969476 0.997498 0.624164
0.999878 0.997498 0.624164
0.000061 0.000061 0.940130
0.068036 0.000061 0.940130
0.327948 0.000061 0.940130
0.683631 0.000061 0.940130
0.969476 0.000061 0.940130
0.999878 0.000061 0.940130
0.000061 0.101727 0.940130
0.068036 0.101727 0.940130
0.327948 0.101727 0.940130
0.683631 0.101727 0.940130
0.969476 0.101727 0.940130
0.999878 0.101727 0.940130
0.000061 0.336255 0.940130
0.068036 0.336255 0.940130
0.327948 0.336255 0.940130
0.683631 0.336255 0.940130
0.969476 0.336255 0.940130
0.999878 0.336255 0.940130
0.000061 0.661279 0.940130
0.068036 0.661279 0.940130
0.327948 0.661279 0.940130
0.683631 0.661279 0.940130
0.969476 0.661279 0.940130
0.999878 0.661279 0.940130
0.000061 0.958722 0.940130
0.068036 0.958722 0.940130
0.327948 0.958722 0.940130
0.683631 0.958722 0.940130
0.969476 0.958722 0.940130
0.999878 0.958722 0.940130
0.000061 0.997498 0.940130
0.068036 0.997498 0.940130
0.327948 0.997498 0.940130
0.683631 0.997498 0.940130
0.969476 0.997498 0.940130
0.999878 0.997498 0.940130
0.000061 0.000061 0.986267
0.068036 0.000061 0.986267
0.327948 0.000061 0.986267
0.683631 0.000061 0.986267
0.969476 0.000061 0.986267
0.999878 0.000061 0.986267
0.000061 0.101727 0.986267
0.068036 0.101727 0.986267
0.327948 0.101727 0.986267
0.683631 0.101727 0.986267
0.969476 0.101727 0.986267
0.999878 0.101727 0.986267
0.000061 0.336255 0.986267
0.068036 0.336255 0.986267
0.327948 0.336255 0.986267
0.683631 0.336255 0.986267
0.969476 0.336255 0.986267
0.999878 0.336255 0.986267
0.000061 0.661279 0.986267
0.068036 0.661279 0.986267
0.327948 0.661279 0.986267
0.683631 0.661279 0.986267
0.969476 0.661279 0.986267
0.999878 0.661279 0.986267
0.000061 0.958722 0.986267
0.068036 0.958722 0.986267
0.327948 0.958722 0.986267
0.683631 0.958722 0.986267
0.969476 0.958722 0.986267
0.999878 0.958722 0.986267
0.000061 0.997498 0.986267
0.068036 0.997498 0.986267
0.327948 0.997498 0.986267
0.683631 0.997498 0.986267
0.969476 0.997498 0.986267
0.999878 0.997498 0.986267
