LUTs/SPK Cube Block1 S16/TheBrim_SPK_Type-H_Block1_S16.cube
TITLE "TheBrim® SPK Block 1"
# © Copyright 2021 - TheBrim® d.o.o. Croatia
LUT_3D_SIZE 16
DOMAIN_MIN 0.000000 0.000000 0.000000
DOMAIN_MAX 1.000000 1.000000 1.000000
0.068330 0.020264 0.046204
0.071339 0.021662 0.047846
0.084590 0.021350 0.045179
0.101601 0.023047 0.044575
0.143471 0.023938 0.040320
0.223392 0.023377 0.030976
0.345861 0.017206 0.020356
0.459699 0.012842 0.016785
0.562676 0.015839 0.016223
0.652052 0.018451 0.015766
0.718410 0.020386 0.015412
0.771475 0.021955 0.015186
0.789603 0.022467 0.015363
0.799265 0.022754 0.015473
0.802084 0.022827 0.015503
0.803555 0.022889 0.015534
0.069355 0.032551 0.053321
0.072535 0.030262 0.049726
0.083900 0.027070 0.045594
0.109566 0.026502 0.042731
0.155691 0.026313 0.038044
0.233426 0.026209 0.028864
0.327337 0.020349 0.021295
0.441529 0.012482 0.017072
0.558880 0.015735 0.016248
0.650324 0.018402 0.015766
0.717128 0.020349 0.015412
0.770852 0.021930 0.015180
0.789578 0.022467 0.015363
0.799271 0.022754 0.015473
0.802231 0.022834 0.015503
0.806851 0.022986 0.015564
0.069215 0.049177 0.059223
0.071888 0.047871 0.056245
0.079548 0.044941 0.051704
0.103792 0.041389 0.045948
0.149282 0.038807 0.040198
0.216507 0.036023 0.031336
0.299388 0.029700 0.023084
0.407147 0.015497 0.018030
0.521038 0.014618 0.016461
0.625971 0.017688 0.015888
0.705647 0.020014 0.015485
0.767282 0.021827 0.015204
0.793271 0.022583 0.015406
0.804544 0.022913 0.015534
0.807950 0.023011 0.015570
0.815207 0.023230 0.015637
0.068989 0.074952 0.066627
0.071138 0.072645 0.063557
0.079127 0.070900 0.058338
0.096504 0.069129 0.051063
0.140700 0.066859 0.043091
0.197714 0.064332 0.035065
0.283806 0.055207 0.024585
0.374652 0.039692 0.019593
0.496471 0.016529 0.016590
0.599402 0.016919 0.016034
0.696614 0.019757 0.015534
0.763766 0.021711 0.015204
0.807993 0.023005 0.015564
0.818241 0.023316 0.015662
0.821689 0.023413 0.015705
0.826444 0.023554 0.015747
0.073848 0.124831 0.087880
0.073097 0.116542 0.081074
0.074153 0.109267 0.073494
0.095119 0.108418 0.062904
0.126509 0.106752 0.050965
0.185647 0.103230 0.038813
0.266764 0.097511 0.027668
0.350176 0.086250 0.021167
0.451496 0.065834 0.017200
0.573944 0.032892 0.016138
0.692616 0.019629 0.015558
0.767471 0.021814 0.015210
0.823935 0.023487 0.015717
0.838242 0.023914 0.015857
0.839738 0.023957 0.015888
0.843259 0.024048 0.015918
0.081971 0.211154 0.140841
0.079774 0.187796 0.126308
0.077522 0.162930 0.106325
0.077809 0.158090 0.095033
0.120204 0.160494 0.072724
0.167697 0.157900 0.052186
0.252891 0.153921 0.033613
0.345501 0.144240 0.022168
0.437000 0.130947 0.018677
0.531249 0.111781 0.016211
0.658869 0.079072 0.015595
0.769326 0.037952 0.015290
0.842948 0.024042 0.015918
0.869157 0.024848 0.016193
0.874345 0.024988 0.016266
0.874815 0.024994 0.016266
0.093709 0.299522 0.189108
0.093471 0.298149 0.187057
0.089796 0.278782 0.174154
0.083265 0.221872 0.131984
0.086421 0.224137 0.114846
0.167575 0.231229 0.078791
0.237632 0.234189 0.043690
0.338903 0.231388 0.023627
0.436365 0.216837 0.019977
0.521038 0.203775 0.016986
0.621479 0.177194 0.015558
0.728304 0.151046 0.015778
0.816556 0.120266 0.016419
0.870097 0.089790 0.017157
0.879759 0.079902 0.017395
0.880912 0.077040 0.017334
0.105666 0.360522 0.223435
0.105702 0.360632 0.222330
0.104823 0.355975 0.215079
0.096590 0.313335 0.180075
0.093928 0.298607 0.153616
0.134298 0.313329 0.121932
0.244395 0.322564 0.063679
0.335412 0.329564 0.028528
0.434137 0.325591 0.024732
0.530901 0.313182 0.020435
0.609760 0.295256 0.016938
0.715798 0.269065 0.016742
0.792630 0.239774 0.019019
0.841752 0.217142 0.021765
0.854893 0.200107 0.021912
0.857224 0.187057 0.021381
0.114095 0.396265 0.243528
0.114022 0.395837 0.240897
0.113814 0.394897 0.237559
0.110433 0.380529 0.214963
0.110219 0.378772 0.190701
0.112715 0.388025 0.164279
0.240275 0.404022 0.097029
0.349114 0.423346 0.039887
0.438703 0.427765 0.037061
0.548974 0.436854 0.034339
0.632764 0.429761 0.031501
0.707308 0.416522 0.030964
0.769027 0.385785 0.031916
0.821707 0.354559 0.032343
0.842741 0.331768 0.031342
0.845206 0.317357 0.029816
0.124080 0.437147 0.260447
0.124147 0.437287 0.259098
0.124184 0.437427 0.256638
0.121309 0.425098 0.235721
0.122914 0.430494 0.205838
0.128170 0.450697 0.175332
0.222983 0.474397 0.126070
0.363787 0.506685 0.052241
0.452760 0.524620 0.052076
0.563458 0.534093 0.049989
0.659821 0.543066 0.050178
0.742831 0.543578 0.053370
0.792325 0.533519 0.053785
0.841312 0.522939 0.056153
0.861961 0.511196 0.056275
0.856675 0.478010 0.051374
0.137026 0.489418 0.264042
0.136989 0.489137 0.262419
0.136873 0.488631 0.258653
0.136287 0.485811 0.245719
0.136178 0.484413 0.216947
0.140658 0.503685 0.197024
0.263645 0.528905 0.143081
0.384314 0.562774 0.059791
0.483845 0.589795 0.061280
0.584271 0.610773 0.062300
0.686915 0.631373 0.065705
0.777334 0.648835 0.072029
0.842277 0.662019 0.076533
0.870817 0.656703 0.077028
0.881010 0.640504 0.075068
0.882322 0.614984 0.071870
0.141048 0.505321 0.257035
0.141323 0.506377 0.254990
0.141842 0.508318 0.249168
0.143722 0.515532 0.239139
0.176419 0.528862 0.220603
0.286693 0.549822 0.191995
0.365698 0.574670 0.161978
0.437092 0.604352 0.120058
0.521752 0.643037 0.068373
0.610620 0.680317 0.072041
0.718831 0.715639 0.078456
0.794437 0.728792 0.083339
0.859965 0.741353 0.087709
0.895348 0.743697 0.089363
0.909319 0.733748 0.088496
0.908116 0.705635 0.084755
0.144289 0.517766 0.232444
0.147146 0.521459 0.229398
0.173519 0.528710 0.221549
0.235538 0.538604 0.207126
0.308104 0.556091 0.186484
0.366052 0.575714 0.168093
0.417884 0.596918 0.149996
0.477864 0.625690 0.110011
0.557311 0.668910 0.071247
0.633161 0.712068 0.076081
0.720320 0.753280 0.083400
0.799435 0.771969 0.088905
0.866258 0.785501 0.093153
0.907512 0.793362 0.095277
0.925573 0.784604 0.095015
0.929912 0.773043 0.093941
0.247349 0.540380 0.204129
0.264262 0.544347 0.199948
0.291722 0.551574 0.192087
0.325182 0.561120 0.181070
0.366906 0.576080 0.167727
0.405310 0.591553 0.154330
0.453205 0.613275 0.128511
0.519689 0.648444 0.076265
0.582068 0.683107 0.072743
0.649226 0.721089 0.077144
0.735268 0.761666 0.085023
0.800314 0.786447 0.090541
0.862022 0.809097 0.094868
0.908818 0.819742 0.097304
0.931463 0.819767 0.097865
0.940496 0.810159 0.097346
0.337646 0.565191 0.177969
0.347411 0.568652 0.175015
0.363494 0.574731 0.169229
0.383923 0.582739 0.160647
0.409436 0.593182 0.153219
0.443043 0.608411 0.136056
0.492393 0.633277 0.099336
0.553210 0.666590 0.071009
0.614728 0.702400 0.074965
0.671083 0.732491 0.078840
0.745406 0.763900 0.085707
0.804215 0.788406 0.090852
0.858500 0.807675 0.094612
0.900804 0.820212 0.097133
0.929802 0.841611 0.099483
0.944060 0.853947 0.100771
0.394812 0.587243 0.156802
0.401202 0.589831 0.155251
0.412329 0.594348 0.152493
0.431440 0.603095 0.144363
0.454633 0.613989 0.127163
0.491127 0.632563 0.100801
0.535943 0.657020 0.070039
0.588159 0.686635 0.073133
0.637958 0.715328 0.076466
0.700203 0.747756 0.081898
0.757443 0.767086 0.086580
0.809897 0.791092 0.091286
0.860246 0.808457 0.094759
0.899583 0.819834 0.097060
0.923680 0.829856 0.098451
0.941985 0.847898 0.100252
0.068659 0.022913 0.057575
0.070021 0.021814 0.054615
0.079872 0.021210 0.049989
0.094258 0.022528 0.048200
0.139120 0.023255 0.042957
0.221573 0.022693 0.033716
0.372485 0.014380 0.019324
0.470222 0.013147 0.016736
0.567144 0.015979 0.016205
0.653364 0.018488 0.015766
0.719387 0.020417 0.015412
0.771969 0.021961 0.015186
0.789975 0.022486 0.015363
0.799423 0.022754 0.015473
0.802097 0.022827 0.015503
0.803171 0.022858 0.015528
0.067616 0.027424 0.057197
0.069636 0.024799 0.051441
0.082570 0.022315 0.046424
0.106661 0.023822 0.044776
0.161001 0.024469 0.038911
0.237089 0.023865 0.030127
0.349194 0.017047 0.020233
0.464546 0.012958 0.016761
0.567523 0.015998 0.016193
0.652564 0.018463 0.015766
0.718502 0.020386 0.015412
0.771450 0.021955 0.015186
0.789993 0.022486 0.015363
0.799387 0.022754 0.015473
0.802188 0.022834 0.015503
0.806406 0.022962 0.015540
0.066651 0.049604 0.064271
0.069593 0.045197 0.058326
0.078419 0.041224 0.051533
0.109230 0.036689 0.044685
0.157864 0.034156 0.039442
0.230686 0.032270 0.030292
0.310991 0.026600 0.022284
0.417804 0.012818 0.017646
0.530224 0.014887 0.016413
0.632642 0.017877 0.015857
0.709358 0.020130 0.015454
0.768533 0.021875 0.015210
0.792691 0.022571 0.015406
0.803842 0.022882 0.015521
0.807114 0.022986 0.015558
0.814707 0.023200 0.015637
0.069776 0.083766 0.073933
0.068946 0.074580 0.066670
0.076747 0.071229 0.059944
0.096205 0.067768 0.050977
0.145663 0.064186 0.042805
0.205624 0.059760 0.034491
0.291551 0.050086 0.023816
0.384387 0.035242 0.019171
0.502361 0.014435 0.016577
0.604181 0.017047 0.016010
0.698964 0.019825 0.015515
0.765365 0.021772 0.015210
0.807022 0.022980 0.015564
0.817502 0.023285 0.015662
0.820658 0.023383 0.015698
0.826041 0.023554 0.015735
0.075276 0.140700 0.101656
0.073817 0.124569 0.087617
0.072523 0.110298 0.075990
0.091695 0.107387 0.063929
0.126235 0.105348 0.050538
0.188669 0.100813 0.038373
0.271666 0.094771 0.027002
0.355059 0.082832 0.020935
0.454945 0.062794 0.017102
0.578393 0.030451 0.016107
0.696883 0.019751 0.015528
0.768466 0.021851 0.015216
0.823911 0.023481 0.015723
0.837308 0.023883 0.015857
0.838450 0.023920 0.015863
0.842991 0.024048 0.015918
0.082795 0.219809 0.146163
0.081733 0.208341 0.139065
0.077943 0.167874 0.111775
0.077021 0.156393 0.095393
0.117421 0.160006 0.073921
0.167526 0.156747 0.052021
0.254545 0.152102 0.033246
0.347509 0.142550 0.022052
0.439020 0.129024 0.018579
0.534887 0.108852 0.016175
0.662855 0.074940 0.015589
0.773239 0.033820 0.015290
0.843705 0.024073 0.015918
0.868217 0.024811 0.016193
0.872898 0.024952 0.016236
0.874632 0.024994 0.016266
0.093703 0.299394 0.189187
0.093758 0.299651 0.188455
0.090309 0.281602 0.175924
0.083284 0.222275 0.132656
0.085585 0.223441 0.115065
0.167507 0.230442 0.078602
0.237717 0.233207 0.043445
0.339635 0.229941 0.023584
0.437482 0.215030 0.019916
0.522374 0.201621 0.016913
0.624897 0.173965 0.015552
0.730367 0.148507 0.015778
0.819474 0.116622 0.016419
0.871458 0.086195 0.017090
0.880784 0.076533 0.017304
0.881602 0.074702 0.017267
0.105635 0.360381 0.223386
0.105647 0.360369 0.222165
0.104683 0.355334 0.214658
0.096535 0.313011 0.179928
0.093770 0.297777 0.153219
0.136318 0.312352 0.120534
0.245432 0.321685 0.062531
0.336156 0.328338 0.028412
0.435224 0.323839 0.024561
0.531865 0.310637 0.020221
0.611267 0.292576 0.016797
0.717446 0.265934 0.016718
0.794498 0.236008 0.018970
0.842570 0.213950 0.021662
0.855186 0.197745 0.021802
0.857438 0.185537 0.021302
0.114089 0.396191 0.243540
0.113991 0.395727 0.240842
0.113777 0.394757 0.237504
0.110359 0.380224 0.214780
0.110219 0.378711 0.190426
0.112605 0.387591 0.163900
0.240739 0.403204 0.096510
0.349627 0.422150 0.039649
0.438880 0.426874 0.036915
0.549682 0.435364 0.034076
0.633332 0.427747 0.031183
0.707613 0.413886 0.030616
0.769937 0.382483 0.031568
0.822556 0.351843 0.032099
0.843149 0.328472 0.030982
0.845420 0.315367 0.029609
0.124044 0.436933 0.260484
0.124068 0.437006 0.259098
0.124092 0.436994 0.256699
0.121193 0.424604 0.235563
0.122884 0.430359 0.205692
0.128176 0.450660 0.175051
0.224454 0.474549 0.125405
0.364111 0.506184 0.052137
0.453162 0.523961 0.051972
0.563134 0.532848 0.049793
0.659992 0.541912 0.049982
0.743032 0.541711 0.053065
0.792081 0.531054 0.053413
0.841904 0.522029 0.056086
0.861552 0.508730 0.055897
0.856547 0.476844 0.051209
0.137057 0.489540 0.264073
0.136989 0.489155 0.262345
0.136886 0.488649 0.258628
0.136269 0.485719 0.245786
0.136178 0.484340 0.216324
0.140621 0.503703 0.196420
0.264054 0.528777 0.142483
0.384668 0.562719 0.059773
0.484150 0.589380 0.061213
0.584570 0.610156 0.062171
0.687160 0.630506 0.065577
0.777798 0.647913 0.071931
0.842649 0.661054 0.076435
0.870866 0.655921 0.076930
0.880992 0.639991 0.074989
0.882408 0.614887 0.071858
0.141073 0.505431 0.256895
0.141341 0.506419 0.254777
0.141891 0.508458 0.248826
0.143740 0.515618 0.238895
0.178061 0.529131 0.220175
0.287089 0.549944 0.191867
0.366339 0.574951 0.161733
0.437421 0.604504 0.119692
0.522362 0.643281 0.068391
0.611743 0.680629 0.072084
0.719557 0.715474 0.078444
0.795175 0.728811 0.083369
0.860740 0.741341 0.087745
0.895579 0.743410 0.089320
0.909300 0.733291 0.088429
0.908690 0.707021 0.084968
0.144393 0.518236 0.231901
0.149404 0.522124 0.228556
0.177273 0.529265 0.220560
0.238724 0.539257 0.206332
0.310649 0.556817 0.185635
0.367852 0.576416 0.167471
0.418750 0.597284 0.149624
0.479091 0.626294 0.109071
0.558184 0.669435 0.071296
0.633631 0.712258 0.076106
0.721242 0.753738 0.083491
0.800198 0.772110 0.088966
0.866880 0.785776 0.093196
0.907878 0.793130 0.095265
0.925884 0.785037 0.095051
0.933117 0.781875 0.094954
0.251249 0.541326 0.203201
0.268083 0.545275 0.199185
0.294597 0.552313 0.191073
0.327349 0.561773 0.180563
0.368688 0.576776 0.167019
0.406891 0.592126 0.153866
0.454389 0.613825 0.127572
0.520513 0.648853 0.075801
0.583087 0.683754 0.072828
0.650343 0.721639 0.077211
0.736269 0.761886 0.085078
0.801022 0.786813 0.090602
0.862852 0.809464 0.094929
0.909374 0.819883 0.097346
0.932116 0.821927 0.098042
0.940465 0.809989 0.097316
0.340685 0.566223 0.177200
0.350005 0.569622 0.174130
0.365545 0.575500 0.168331
0.385553 0.583410 0.160018
0.411102 0.593884 0.152798
0.444758 0.609186 0.134719
0.494176 0.634284 0.097511
0.554766 0.667469 0.071101
0.615998 0.703151 0.075056
0.673103 0.733492 0.079042
0.746603 0.764211 0.085786
0.805100 0.788827 0.090919
0.859062 0.807907 0.094649
0.901366 0.823752 0.097420
0.930620 0.846293 0.099867
0.944701 0.859318 0.101198
0.397626 0.588360 0.156118
0.403925 0.590942 0.154598
0.414954 0.595532 0.151772
0.433912 0.604248 0.142446
0.456947 0.615161 0.125258
0.493831 0.634113 0.098122
0.538177 0.658332 0.070167
0.590375 0.687874 0.073268
0.639869 0.716365 0.076594
0.702809 0.749062 0.082167
0.758798 0.767385 0.086677
0.810837 0.791507 0.091353
0.861027 0.808823 0.094807
0.899992 0.820017 0.097096
0.923937 0.830002 0.098457
0.943603 0.857292 0.101009
0.068067 0.023151 0.074000
0.068965 0.022113 0.071418
0.074238 0.021283 0.063325
0.088154 0.022718 0.056025
0.136007 0.022400 0.050703
0.218186 0.022089 0.041413
0.383209 0.013312 0.021546
0.485261 0.013574 0.016645
0.579736 0.016333 0.016144
0.660243 0.018689 0.015723
0.723073 0.020514 0.015381
0.773623 0.022016 0.015210
0.790414 0.022498 0.015393
0.799466 0.022754 0.015473
0.802310 0.022852 0.015503
0.804105 0.022901 0.015534
0.067353 0.025898 0.080183
0.068373 0.023590 0.074726
0.074788 0.021991 0.061744
0.096352 0.023468 0.054432
0.152157 0.023713 0.047456
0.232682 0.022943 0.037446
0.356896 0.016223 0.022199
0.480140 0.013422 0.016681
0.578143 0.016297 0.016150
0.659590 0.018665 0.015723
0.721785 0.020484 0.015399
0.773062 0.021991 0.015192
0.790433 0.022498 0.015393
0.799490 0.022754 0.015473
0.802347 0.022840 0.015503
0.807657 0.022998 0.015570
0.066255 0.039985 0.077241
0.066780 0.037714 0.072407
0.074037 0.033606 0.060157
0.105537 0.031385 0.051972
0.155435 0.030591 0.044593
0.226633 0.029822 0.035804
0.310533 0.024866 0.024927
0.418109 0.012201 0.017621
0.530199 0.014887 0.016413
0.638605 0.018067 0.015839
0.717928 0.020368 0.015424
0.770956 0.021930 0.015186
0.791568 0.022541 0.015393
0.802341 0.022840 0.015515
0.807053 0.022980 0.015546
0.816178 0.023243 0.015650
0.069880 0.086983 0.088643
0.069642 0.084230 0.085249
0.071382 0.069184 0.069722
0.093519 0.064436 0.057508
0.146706 0.061073 0.047761
0.203830 0.055067 0.039594
0.290819 0.045838 0.027985
0.382489 0.032929 0.019220
0.503142 0.014099 0.016559
0.608569 0.017176 0.015979
0.702785 0.019928 0.015503
0.768142 0.021851 0.015210
0.805295 0.022937 0.015540
0.815946 0.023255 0.015644
0.820133 0.023383 0.015692
0.827103 0.023578 0.015760
0.075953 0.148220 0.108199
0.075819 0.146847 0.107143
0.073085 0.116683 0.082802
0.086366 0.104585 0.067817
0.124849 0.101839 0.053089
0.190780 0.096229 0.040803
0.274376 0.089894 0.029053
0.357922 0.077943 0.020764
0.458204 0.058662 0.016992
0.584961 0.026264 0.016101
0.702498 0.019928 0.015503
0.770858 0.021930 0.015204
0.823557 0.023462 0.015735
0.835721 0.023835 0.015839
0.837290 0.023896 0.015857
0.843333 0.024073 0.015918
0.082948 0.221299 0.147048
0.082795 0.219718 0.146108
0.079091 0.180563 0.121999
0.076869 0.155032 0.095943
0.114455 0.158968 0.074934
0.167636 0.155471 0.051679
0.256083 0.149245 0.033436
0.349737 0.139785 0.021924
0.442506 0.124935 0.018390
0.539812 0.104189 0.016144
0.669966 0.068043 0.015564
0.779117 0.028101 0.015320
0.845316 0.024121 0.015949
0.867106 0.024775 0.016175
0.870964 0.024897 0.016217
0.876579 0.025049 0.016278
0.093696 0.299510 0.189664
0.093788 0.299834 0.189187
0.090925 0.284959 0.178006
0.083375 0.223258 0.133809
0.084620 0.222110 0.115187
0.167788 0.228678 0.077925
0.238273 0.231040 0.042756
0.341363 0.227201 0.023481
0.439911 0.211801 0.019794
0.524010 0.197256 0.016791
0.629425 0.169009 0.015546
0.734615 0.142824 0.015778
0.823484 0.111464 0.016419
0.873570 0.081160 0.016980
0.883415 0.069703 0.017139
0.886564 0.067408 0.017267
0.105574 0.360046 0.223404
0.105550 0.359918 0.222074
0.104524 0.354571 0.214163
0.096699 0.313896 0.180813
0.093623 0.297002 0.152853
0.138888 0.310912 0.118636
0.247202 0.320305 0.060920
0.338152 0.326159 0.028180
0.436988 0.321068 0.024311
0.533806 0.306658 0.019879
0.613593 0.287773 0.016547
0.720241 0.260813 0.016651
0.797690 0.230124 0.018909
0.844114 0.208676 0.021491
0.855985 0.193588 0.021643
0.860270 0.180111 0.021234
0.114046 0.396051 0.243717
0.113936 0.395526 0.240989
0.113741 0.394556 0.237436
0.110225 0.379681 0.213993
0.110134 0.378344 0.190085
0.112404 0.386755 0.162997
0.241691 0.402527 0.095821
0.350573 0.420203 0.039246
0.439014 0.424982 0.036585
0.551244 0.432831 0.033588
0.635059 0.425257 0.030744
0.708302 0.409467 0.030054
0.771841 0.377252 0.031049
0.823899 0.346758 0.031592
0.843784 0.324193 0.030518
0.847697 0.309734 0.029126
0.123940 0.436585 0.260600
0.123970 0.436622 0.259361
0.123915 0.436329 0.256803
0.121010 0.423871 0.235673
0.122774 0.429932 0.205661
0.128157 0.450562 0.174777
0.226523 0.474739 0.124367
0.365118 0.505489 0.051930
0.453791 0.523107 0.051826
0.563708 0.531414 0.049525
0.660621 0.540124 0.049677
0.743038 0.537786 0.052412
0.791720 0.526491 0.052717
0.842618 0.519930 0.055860
0.860923 0.502785 0.055048
0.858634 0.473378 0.050910
0.137087 0.489644 0.263975
0.137026 0.489296 0.262168
0.136904 0.488685 0.258482
0.136269 0.485670 0.245933
0.136025 0.483748 0.215488
0.140389 0.502690 0.195456
0.262431 0.527837 0.141299
0.385583 0.562658 0.059706
0.485292 0.588812 0.061109
0.585339 0.609149 0.062007
0.687190 0.628638 0.065303
0.779129 0.647077 0.071858
0.843198 0.659272 0.076216
0.870927 0.654383 0.076735
0.881254 0.639228 0.074897
0.884001 0.618701 0.072474
0.141146 0.505742 0.256480
0.141390 0.506627 0.254191
0.141958 0.508727 0.248069
0.143819 0.515911 0.238260
0.182614 0.529772 0.219156
0.288719 0.550317 0.191104
0.367456 0.575360 0.161300
0.437952 0.604736 0.119356
0.522826 0.643415 0.068403
0.612793 0.680763 0.072078
0.720870 0.715181 0.078462
0.796542 0.728853 0.083430
0.861967 0.741274 0.087788
0.896031 0.743203 0.089314
0.909886 0.734102 0.088563
0.912291 0.717299 0.086415
0.144625 0.519170 0.231296
0.152718 0.523113 0.227463
0.181833 0.529894 0.219425
0.243265 0.540160 0.205106
0.314165 0.557818 0.184506
0.370806 0.577569 0.166226
0.420337 0.597974 0.149075
0.481740 0.627649 0.106941
0.559576 0.670173 0.071382
0.634705 0.712764 0.076161
0.722823 0.754336 0.083632
0.801572 0.772396 0.089052
0.868040 0.786343 0.093306
0.908556 0.793710 0.095326
0.927825 0.790420 0.095540
0.937920 0.799423 0.096455
0.258360 0.542943 0.201444
0.274449 0.546911 0.197653
0.299742 0.553704 0.189273
0.331743 0.563250 0.179446
0.371814 0.577960 0.165676
0.409906 0.593378 0.153121
0.456556 0.614887 0.126113
0.522026 0.649732 0.075050
0.585284 0.685060 0.072969
0.652357 0.722640 0.077333
0.738070 0.762271 0.085206
0.802298 0.787686 0.090724
0.864207 0.811374 0.095131
0.910527 0.823471 0.097633
0.934813 0.836112 0.099184
0.944842 0.826365 0.098677
0.345672 0.567980 0.175558
0.354760 0.571447 0.172506
0.369335 0.577020 0.166690
0.388598 0.584686 0.158981
0.414484 0.595459 0.151705
0.448017 0.610779 0.132253
0.497832 0.636353 0.094197
0.557403 0.668965 0.071254
0.618128 0.704286 0.075178
0.676582 0.735366 0.079396
0.748885 0.764822 0.085945
0.806772 0.789834 0.091066
0.860233 0.813187 0.095113
0.902165 0.836918 0.098445
0.932164 0.862846 0.101149
0.945910 0.870127 0.102034
0.402387 0.590320 0.154977
0.408307 0.592706 0.153555
0.419733 0.597717 0.150155
0.438148 0.606098 0.139437
0.461274 0.617145 0.122036
0.498720 0.636921 0.093263
0.542272 0.660505 0.070393
0.594086 0.690156 0.073542
0.643586 0.718355 0.076838
0.707576 0.751260 0.082625
0.761514 0.768124 0.086879
0.812638 0.792142 0.091481
0.862480 0.809519 0.094917
0.900725 0.820230 0.097139
0.925444 0.836851 0.099019
0.945299 0.875157 0.102412
0.068202 0.025580 0.117910
0.068379 0.024860 0.114833
0.070668 0.023566 0.103536
0.086195 0.023261 0.083717
0.137356 0.023346 0.080720
0.222214 0.023517 0.069191
0.361022 0.016895 0.054902
0.489467 0.012769 0.036139
0.594403 0.016443 0.022394
0.673738 0.019068 0.015644
0.731948 0.020789 0.015351
0.779239 0.022174 0.015259
0.795743 0.022657 0.015442
0.804483 0.022901 0.015521
0.806772 0.022980 0.015552
0.811545 0.023127 0.015613
0.067897 0.027417 0.121907
0.068379 0.026441 0.123043
0.069801 0.024195 0.106032
0.087666 0.023963 0.084883
0.143948 0.023847 0.075941
0.228507 0.023700 0.062043
0.348614 0.017536 0.046296
0.485447 0.012909 0.030665
0.592297 0.016584 0.018482
0.673158 0.019062 0.015650
0.731148 0.020758 0.015351
0.777993 0.022144 0.015247
0.795230 0.022638 0.015442
0.803848 0.022882 0.015521
0.806571 0.022968 0.015552
0.814975 0.023224 0.015644
0.067085 0.035053 0.120870
0.066865 0.032618 0.118007
0.070509 0.029853 0.097719
0.089259 0.029499 0.083137
0.138540 0.029462 0.070967
0.210562 0.029425 0.058283
0.303093 0.025470 0.043928
0.411157 0.013440 0.031818
0.542522 0.015125 0.018885
0.649165 0.018372 0.015772
0.724404 0.020551 0.015387
0.775784 0.022077 0.015229
0.795377 0.022638 0.015436
0.804508 0.022907 0.015534
0.811179 0.023108 0.015601
0.823307 0.023468 0.015717
0.069453 0.076570 0.132888
0.069288 0.075160 0.130031
0.068727 0.060999 0.100154
0.087190 0.057838 0.084547
0.133040 0.054469 0.071656
0.190121 0.053339 0.059712
0.280284 0.045997 0.045478
0.373828 0.032477 0.032435
0.497404 0.013812 0.019825
0.608106 0.017169 0.015985
0.702943 0.019947 0.015503
0.769107 0.021888 0.015216
0.806815 0.022980 0.015552
0.816568 0.023261 0.015650
0.824314 0.023499 0.015729
0.834025 0.023774 0.015827
0.075062 0.146767 0.152737
0.074977 0.145925 0.152547
0.072712 0.118666 0.117928
0.079805 0.104256 0.100368
0.118563 0.098421 0.083638
0.184891 0.093941 0.066999
0.262943 0.087886 0.053169
0.352551 0.075300 0.036078
0.453944 0.057704 0.020734
0.583038 0.025599 0.016107
0.703865 0.019959 0.015485
0.770889 0.021924 0.015204
0.825107 0.023517 0.015741
0.836161 0.023841 0.015845
0.841172 0.024005 0.015906
0.850211 0.024274 0.015998
0.082576 0.220267 0.162210
0.082502 0.219596 0.162948
0.080214 0.194376 0.142708
0.076802 0.157357 0.114784
0.111482 0.154794 0.096168
0.164456 0.152096 0.076002
0.255088 0.146346 0.055586
0.345592 0.135683 0.036817
0.444276 0.122481 0.020233
0.541100 0.098787 0.016150
0.674775 0.058943 0.015546
0.786398 0.022388 0.015344
0.845585 0.024134 0.015955
0.869847 0.024854 0.016211
0.875157 0.025013 0.016260
0.882835 0.025226 0.016345
0.093593 0.298894 0.189792
0.093562 0.298778 0.189664
0.091237 0.286589 0.179324
0.083418 0.224057 0.135647
0.084450 0.220053 0.116085
0.165756 0.226304 0.083314
0.238553 0.228501 0.052113
0.342107 0.223880 0.029889
0.443842 0.207169 0.019593
0.525530 0.188717 0.016608
0.632581 0.161526 0.015546
0.740481 0.134456 0.015766
0.830796 0.097737 0.016388
0.882542 0.070546 0.017127
0.891563 0.059510 0.017243
0.894200 0.063532 0.017658
0.105537 0.359899 0.223880
0.105501 0.359692 0.222379
