LUTs/SPK Cube Block1 S16/TheBrim_SPK_Type-F_Block1_S16.cube
TITLE "TheBrim® SPK Block 1"
# © Copyright 2021 - TheBrim® d.o.o. Croatia
LUT_3D_SIZE 6
DOMAIN_MIN 0.000000 0.000000 0.000000
DOMAIN_MAX 1.000000 1.000000 1.000000
0.005615 0.006592 0.005554
0.080116 0.007996 0.001794
0.359600 0.000000 0.000000
0.533129 0.000000 0.000000
0.574853 0.000000 0.000000
0.588708 0.000000 0.000000
0.000000 0.090120 0.004846
0.085310 0.080433 0.000427
0.325426 0.083803 0.000000
0.562621 0.006793 0.000000
0.646223 0.000000 0.000000
0.654987 0.000000 0.000000
0.000000 0.312065 0.000000
0.102937 0.296898 0.000000
0.376367 0.304442 0.000000
0.650782 0.290153 0.000000
0.759341 0.249955 0.000000
0.767898 0.217099 0.000000
0.000000 0.420356 0.000000
0.111574 0.485859 0.000000
0.453407 0.554308 0.000000
0.743423 0.577551 0.000000
0.886046 0.563598 0.000000
0.906590 0.519185 0.000000
0.000000 0.460883 0.000000
0.183041 0.561462 0.000000
0.507481 0.647779 0.000000
0.790182 0.709474 0.000000
0.942266 0.727584 0.000000
0.981695 0.717171 0.000000
0.000000 0.461189 0.000000
0.197311 0.570019 0.000000
0.500774 0.662391 0.000000
0.769607 0.739339 0.000000
0.944292 0.777377 0.000000
0.997162 0.775082 0.000000
0.000000 0.005798 0.147054
0.075801 0.009876 0.096486
0.380548 0.000000 0.059638
0.574481 0.000000 0.001868
0.602985 0.000000 0.000000
0.610016 0.000000 0.000000
0.000000 0.107454 0.134469
0.064173 0.085713 0.086122
0.306194 0.089754 0.061653
0.569787 0.016278 0.006854
0.673701 0.000000 0.000000
0.681630 0.000000 0.000000
0.000000 0.340313 0.157998
0.037128 0.280583 0.104622
0.352935 0.304558 0.067091
0.636884 0.292741 0.000000
0.773092 0.255460 0.000000
0.791366 0.227048 0.000000
0.000000 0.473347 0.170193
0.000000 0.527141 0.113362
0.414472 0.574511 0.003955
0.725344 0.593738 0.000000
0.890129 0.575525 0.000000
0.921544 0.538598 0.000000
0.000000 0.539586 0.207272
0.002576 0.631397 0.198483
0.477006 0.705019 0.132235
0.775869 0.755563 0.000000
0.940667 0.766946 0.000000
0.987268 0.749435 0.000000
0.000000 0.542931 0.177633
0.073664 0.647028 0.188937
0.478422 0.729311 0.218869
0.758999 0.794687 0.238932
0.938421 0.823246 0.201358
0.995172 0.818625 0.039820
0.000000 0.000000 0.329277
0.065785 0.000000 0.344860
0.362060 0.000000 0.342760
0.597296 0.000000 0.281376
0.631995 0.000000 0.171395
0.639741 0.000000 0.098738
0.000000 0.122536 0.378125
0.015015 0.102596 0.307042
0.298357 0.106392 0.291759
0.580145 0.040510 0.262876
0.697505 0.000000 0.197195
0.709627 0.000000 0.143899
0.000000 0.365649 0.417261
0.000000 0.319353 0.344042
0.330034 0.335357 0.334301
0.635889 0.323729 0.304533
0.788522 0.288597 0.252946
0.814206 0.261875 0.175180
0.000000 0.521239 0.429468
0.000000 0.564239 0.383197
0.361352 0.616730 0.370336
0.709517 0.640143 0.338933
0.887663 0.619428 0.287871
0.928893 0.581189 0.172653
0.000000 0.590600 0.444373
0.000000 0.685505 0.444929
0.428394 0.752700 0.433198
0.754916 0.802597 0.395972
0.927276 0.811502 0.337060
0.981744 0.791006 0.227445
0.000000 0.619727 0.431342
0.000000 0.717421 0.467866
0.477913 0.785208 0.495604
0.768051 0.839255 0.501006
0.929766 0.860819 0.473304
0.985315 0.854722 0.384027
0.000000 0.000000 0.391223
0.047224 0.000000 0.418207
0.278318 0.000000 0.462452
0.562554 0.000000 0.460731
0.650568 0.000000 0.403705
0.661830 0.000000 0.342126
0.000000 0.127926 0.485499
0.000000 0.109187 0.487892
0.282878 0.108107 0.503474
0.575518 0.049610 0.490504
0.712911 0.000000 0.457850
0.730806 0.000000 0.413404
0.000000 0.368164 0.570129
0.000000 0.344524 0.552380
0.303056 0.362469 0.564233
0.630158 0.353545 0.555969
0.794852 0.321617 0.529833
0.826456 0.301707 0.487636
0.000000 0.544805 0.607416
0.000000 0.597174 0.605774
0.302678 0.648768 0.615161
0.688319 0.675276 0.608930
0.877726 0.658503 0.586084
0.923388 0.630225 0.529967
0.000000 0.617609 0.619617
0.000000 0.711733 0.642426
0.377630 0.784329 0.651075
0.732015 0.835435 0.640192
0.909007 0.846531 0.615442
0.964868 0.833970 0.568316
0.000000 0.669837 0.623261
0.000000 0.757119 0.657478
0.472432 0.819071 0.684120
0.766012 0.868907 0.693513
0.916997 0.889506 0.680421
0.969549 0.888713 0.629676
0.000000 0.000000 0.410828
0.040143 0.000000 0.444385
0.223667 0.000000 0.490376
0.506722 0.000000 0.517217
0.659541 0.000000 0.507951
0.673262 0.000000 0.487135
0.000000 0.124086 0.510277
0.000000 0.135976 0.547424
0.258750 0.139339 0.589014
0.561309 0.093239 0.611548
0.722884 0.000000 0.605994
0.745675 0.000000 0.582788
0.000000 0.352703 0.610278
0.000000 0.371075 0.648737
0.265232 0.395642 0.684492
0.619904 0.392505 0.699300
0.800668 0.357147 0.690217
0.835172 0.332280 0.671711
0.000000 0.546484 0.668360
0.000000 0.611951 0.711739
0.242936 0.667884 0.743197
0.669557 0.698952 0.757418
0.871379 0.690486 0.752505
0.919377 0.668629 0.735451
0.000000 0.624207 0.693434
0.000000 0.721913 0.738418
0.334441 0.795096 0.762716
0.714955 0.848844 0.772268
0.897368 0.865104 0.770602
0.952459 0.858335 0.755898
0.000000 0.688746 0.722237
0.000000 0.772110 0.757235
0.473628 0.835288 0.780557
0.761038 0.881938 0.789358
0.908312 0.902593 0.785446
0.959069 0.906865 0.772226
0.000000 0.000000 0.417121
0.056513 0.000000 0.453107
0.214340 0.000000 0.497783
0.465126 0.000000 0.526848
0.646058 0.000000 0.527123
0.667750 0.000000 0.503349
0.000000 0.107967 0.515831
0.000000 0.128121 0.559814
0.260075 0.148666 0.603485
0.533349 0.130324 0.629468
0.719063 0.017560 0.630811
0.743648 0.000000 0.612244
0.000000 0.326958 0.614850
0.000000 0.368225 0.662470
0.261161 0.411078 0.703224
0.606091 0.419208 0.725960
0.802261 0.387842 0.726467
0.837144 0.339947 0.714791
0.000000 0.540844 0.684028
0.000000 0.612219 0.733516
0.205948 0.676765 0.770431
0.651643 0.713576 0.792227
0.868913 0.713533 0.797574
0.917986 0.680208 0.792026
0.000000 0.634314 0.717690
0.000000 0.721187 0.764053
0.284800 0.795590 0.795743
0.697591 0.852836 0.815360
0.891557 0.873576 0.821390
0.947863 0.867686 0.820346
0.000000 0.679530 0.739651
0.000000 0.765359 0.780929
0.446589 0.835789 0.807095
0.749844 0.885032 0.821585
0.903728 0.907689 0.826523
0.954589 0.913756 0.826810
