LUTs/SPK Cube Block1 S16/TheBrim_SPK_Type-V_Block1_S16.cube
TITLE "TheBrim® SPK Block 1"
# © Copyright 2021 - TheBrim® d.o.o. Croatia
LUT_3D_SIZE 16
DOMAIN_MIN 0.000000 0.000000 0.000000
DOMAIN_MAX 1.000000 1.000000 1.000000
0.007721 0.009491 0.011383
0.016168 0.010584 0.011786
0.038044 0.012836 0.012396
0.088582 0.017096 0.013196
0.164456 0.020569 0.012232
0.263371 0.015747 0.007660
0.364660 0.000000 0.000000
0.449543 0.000000 0.000000
0.509313 0.000000 0.000000
0.544067 0.000000 0.000000
0.570550 0.000000 0.000000
0.583581 0.000000 0.000000
0.591925 0.000000 0.000000
0.598309 0.000000 0.000000
0.603351 0.000000 0.000000
0.608850 0.000000 0.000000
0.007935 0.017511 0.012848
0.016468 0.017420 0.012702
0.038508 0.020233 0.013495
0.081666 0.024567 0.014282
0.151632 0.031092 0.013599
0.243394 0.031794 0.009644
0.349865 0.020246 0.001147
0.440534 0.000000 0.000000
0.511931 0.000000 0.000000
0.557098 0.000000 0.000000
0.590405 0.000000 0.000000
0.609046 0.000000 0.000000
0.618408 0.000000 0.000000
0.624994 0.000000 0.000000
0.629566 0.000000 0.000000
0.632844 0.000000 0.000000
0.005548 0.039899 0.015161
0.017572 0.038703 0.014936
0.039539 0.038965 0.015540
0.082741 0.044324 0.016083
0.143832 0.051655 0.015198
0.230973 0.056757 0.011505
0.333794 0.054994 0.003668
0.429340 0.041071 0.000000
0.508952 0.017444 0.000000
0.569598 0.000220 0.000000
0.609784 0.000000 0.000000
0.638874 0.000000 0.000000
0.649067 0.000000 0.000000
0.656934 0.000000 0.000000
0.661274 0.000000 0.000000
0.664546 0.000000 0.000000
0.000000 0.083497 0.017603
0.010071 0.085286 0.017414
0.041608 0.085158 0.017920
0.085078 0.083363 0.017835
0.148928 0.090559 0.016266
0.229184 0.096858 0.011939
0.330608 0.101912 0.003119
0.430695 0.099263 0.000000
0.519951 0.088423 0.000000
0.589129 0.073738 0.000000
0.634980 0.058845 0.000000
0.669776 0.050623 0.000000
0.688826 0.046033 0.000000
0.696468 0.044599 0.000000
0.701039 0.037995 0.000000
0.703804 0.031543 0.000000
0.000000 0.150014 0.017285
0.000000 0.146474 0.016718
0.024146 0.150307 0.016150
0.088118 0.147518 0.015705
0.154269 0.147793 0.013660
0.237742 0.156002 0.007800
0.336614 0.162277 0.000000
0.442103 0.166378 0.000000
0.534997 0.163296 0.000000
0.610748 0.156637 0.000000
0.666786 0.149276 0.000000
0.705684 0.143667 0.000000
0.731087 0.140627 0.000000
0.740157 0.139223 0.000000
0.744131 0.134884 0.000000
0.747329 0.131710 0.000000
0.000000 0.247105 0.005646
0.000000 0.232444 0.006763
0.000000 0.230179 0.005762
0.071113 0.227927 0.004425
0.162612 0.228721 0.000500
0.248051 0.232975 0.000000
0.355901 0.243742 0.000000
0.464662 0.251463 0.000000
0.563684 0.252348 0.000000
0.644904 0.249369 0.000000
0.707790 0.244968 0.000000
0.749245 0.241941 0.000000
0.775064 0.236777 0.000000
0.788431 0.234592 0.000000
0.791214 0.226700 0.000000
0.793484 0.221012 0.000000
0.000000 0.324126 0.000000
0.000000 0.324413 0.000000
0.000000 0.315294 0.000000
0.016425 0.317803 0.000000
0.155624 0.321141 0.000000
0.260661 0.330480 0.000000
0.369494 0.339043 0.000000
0.487379 0.352123 0.000000
0.588238 0.355431 0.000000
0.676637 0.355822 0.000000
0.745229 0.351641 0.000000
0.789792 0.349059 0.000000
0.819016 0.345116 0.000000
0.836222 0.340917 0.000000
0.839145 0.332323 0.000000
0.841788 0.326513 0.000000
0.000000 0.378906 0.000000
0.000000 0.390472 0.000000
0.000000 0.397485 0.000000
0.000000 0.405835 0.000000
0.137063 0.415540 0.000000
0.264182 0.426691 0.000000
0.387036 0.439783 0.000000
0.503737 0.450715 0.000000
0.610950 0.457954 0.000000
0.701491 0.460945 0.000000
0.776693 0.458711 0.000000
0.821415 0.454865 0.000000
0.854551 0.454902 0.000000
0.876188 0.453639 0.000000
0.882176 0.442823 0.000000
0.885252 0.436347 0.000000
0.000000 0.426044 0.000000
0.000000 0.442127 0.000000
0.000000 0.459754 0.000000
0.000000 0.478529 0.000000
0.098787 0.497087 0.000000
0.264616 0.516844 0.000000
0.394623 0.534606 0.000000
0.520751 0.551000 0.000000
0.626020 0.557806 0.000000
0.721901 0.564929 0.000000
0.801590 0.565405 0.000000
0.846592 0.563268 0.000000
0.883354 0.563781 0.000000
0.907890 0.563049 0.000000
0.918065 0.552038 0.000000
0.921416 0.545415 0.000000
0.000000 0.466835 0.000000
0.000000 0.487361 0.000000
0.000000 0.510823 0.000000
0.000000 0.535021 0.000000
0.088295 0.559197 0.000000
0.269114 0.583581 0.000000
0.405811 0.606390 0.000000
0.532555 0.626575 0.000000
0.641230 0.639643 0.000000
0.734420 0.648426 0.000000
0.817612 0.654597 0.000000
0.865397 0.655921 0.000000
0.904967 0.658595 0.000000
0.930687 0.658985 0.000000
0.943890 0.648646 0.000000
0.947655 0.638758 0.000000
0.000000 0.492256 0.000000
0.000000 0.520397 0.000000
0.000000 0.550231 0.000000
0.000000 0.579132 0.000000
0.092506 0.608081 0.000000
0.292302 0.637812 0.000000
0.423432 0.661988 0.000000
0.548809 0.685347 0.000000
0.652393 0.700356 0.000000
0.746267 0.712490 0.000000
0.827726 0.721889 0.000000
0.877916 0.726052 0.000000
0.917284 0.727498 0.000000
0.944573 0.729171 0.000000
0.958685 0.719368 0.000000
0.965881 0.714229 0.000000
0.000000 0.511278 0.000000
0.000000 0.541741 0.000000
0.000000 0.574090 0.000000
0.000000 0.605188 0.000000
0.141213 0.637299 0.000000
0.321166 0.670875 0.000000
0.449195 0.701253 0.000000
0.566522 0.727004 0.000000
0.668977 0.745589 0.000000
0.756814 0.758676 0.000000
0.839054 0.771017 0.000000
0.886979 0.776809 0.000000
0.926879 0.780093 0.000000
0.953912 0.780911 0.000000
0.968865 0.775216 0.000000
0.977801 0.771115 0.000000
0.000000 0.516338 0.000000
0.000000 0.551092 0.000000
0.000000 0.585980 0.000000
0.000000 0.619849 0.000000
0.173245 0.651826 0.000000
0.329931 0.684431 0.000000
0.455293 0.714302 0.000000
0.570404 0.741579 0.000000
0.672700 0.764364 0.000000
0.762704 0.783243 0.000000
0.844419 0.798984 0.000000
0.892357 0.807083 0.000000
0.932024 0.812045 0.000000
0.959692 0.815390 0.000000
0.976806 0.817691 0.000000
0.986072 0.816904 0.000000
0.000000 0.519518 0.000000
0.000000 0.555865 0.000000
0.000000 0.594635 0.000000
0.000000 0.628882 0.000000
0.189944 0.662013 0.000000
0.337212 0.694130 0.000000
0.458180 0.724239 0.000000
0.569830 0.751839 0.000000
0.670704 0.775253 0.000000
0.760824 0.795114 0.000000
0.843235 0.811667 0.000000
0.892076 0.821390 0.000000
0.933227 0.829032 0.000000
0.961407 0.834128 0.000000
0.979803 0.841324 0.000000
0.989960 0.845573 0.000000
0.000000 0.521361 0.000000
0.000000 0.557440 0.000000
0.000000 0.596045 0.000000
0.000000 0.631879 0.000000
0.189737 0.665217 0.000000
0.334014 0.697633 0.000000
0.452827 0.727700 0.000000
0.560711 0.756155 0.000000
0.660066 0.780569 0.000000
0.750582 0.802432 0.000000
0.833371 0.821109 0.000000
0.886955 0.832834 0.000000
0.930285 0.842167 0.000000
0.959832 0.847703 0.000000
0.979425 0.850492 0.000000
0.990228 0.856449 0.000000
0.000000 0.522911 0.000000
0.000000 0.558782 0.000000
0.000000 0.597003 0.000000
0.000000 0.632923 0.000000
0.187430 0.667201 0.000000
0.331945 0.699580 0.000000
0.447077 0.729818 0.000000
0.553741 0.758871 0.000000
0.649311 0.784298 0.000000
0.739883 0.808298 0.000000
0.821592 0.828458 0.000000
0.880357 0.843381 0.000000
0.925524 0.854014 0.000000
0.957134 0.861332 0.000000
0.977887 0.864073 0.000000
0.990082 0.865293 0.000000
0.006403 0.009851 0.019934
0.014752 0.010986 0.019806
0.036609 0.013562 0.021204
0.088258 0.017810 0.022895
0.165737 0.021259 0.023066
0.265885 0.016095 0.019525
0.372216 0.000000 0.012134
0.458460 0.000000 0.004205
0.518254 0.000000 0.000000
0.552038 0.000000 0.000000
0.575134 0.000000 0.000000
0.587390 0.000000 0.000000
0.595618 0.000000 0.000000
0.601935 0.000000 0.000000
0.606531 0.000000 0.000000
0.611188 0.000000 0.000000
0.006824 0.016333 0.019690
0.014679 0.017060 0.019556
0.035621 0.019641 0.020630
0.076637 0.023975 0.022040
0.146572 0.030549 0.022858
0.237040 0.031781 0.020740
0.344817 0.021106 0.014215
0.435615 0.000226 0.005902
0.512456 0.000000 0.000220
0.559094 0.000000 0.000000
0.591876 0.000000 0.000000
0.612146 0.000000 0.000000
0.622260 0.000000 0.000000
0.628516 0.000000 0.000000
0.632886 0.000000 0.000000
0.636036 0.000000 0.000000
0.004144 0.036860 0.023371
0.015161 0.036548 0.022773
0.036109 0.036994 0.023096
0.077406 0.042475 0.024341
0.138070 0.050117 0.025422
0.223734 0.055653 0.023859
0.327001 0.054823 0.018213
0.423395 0.041736 0.009534
0.508476 0.017505 0.000867
0.570568 0.000140 0.000000
0.610455 0.000000 0.000000
0.641004 0.000000 0.000000
0.653425 0.000000 0.000000
0.661207 0.000000 0.000000
0.665089 0.000000 0.000000
0.667866 0.000000 0.000000
0.000000 0.085646 0.029169
0.009326 0.076918 0.027149
0.039039 0.077119 0.027234
0.080439 0.078102 0.027607
0.143490 0.085512 0.028620
0.221811 0.092250 0.026520
0.323107 0.098274 0.020771
0.423865 0.096242 0.010779
0.516600 0.086543 0.000818
0.586658 0.071882 0.000000
0.634211 0.057465 0.000000
0.670295 0.049299 0.000000
0.691762 0.045405 0.000000
0.699623 0.044947 0.000000
0.704628 0.039930 0.000000
0.706966 0.033136 0.000000
0.000000 0.149300 0.032667
0.000000 0.132869 0.030219
0.025489 0.138119 0.030481
0.083381 0.140523 0.030439
0.147274 0.139913 0.030512
0.228928 0.149520 0.026838
0.326775 0.156698 0.019294
0.431818 0.161270 0.005896
0.526061 0.159713 0.000000
0.603717 0.153445 0.000000
0.662849 0.146426 0.000000
0.703493 0.141079 0.000000
0.731405 0.139730 0.000000
0.743093 0.139864 0.000000
0.747665 0.136580 0.000000
0.750552 0.132802 0.000000
0.000000 0.239109 0.028864
0.000000 0.212802 0.028083
0.000000 0.210233 0.027228
0.066181 0.219156 0.025446
0.156374 0.218479 0.024451
0.240006 0.225046 0.018116
0.345208 0.235007 0.006372
0.452399 0.242142 0.000000
0.550146 0.244468 0.000000
0.632850 0.241727 0.000000
0.698659 0.237699 0.000000
0.742678 0.234977 0.000000
0.772848 0.233048 0.000000
0.790018 0.232920 0.000000
0.794662 0.229227 0.000000
0.796506 0.222098 0.000000
0.000000 0.325859 0.013123
0.000000 0.314269 0.012653
0.000000 0.301592 0.012378
0.017475 0.305211 0.008453
0.150100 0.309044 0.003339
0.252494 0.320024 0.000000
0.359387 0.329503 0.000000
0.475630 0.341778 0.000000
0.576635 0.347478 0.000000
0.666609 0.348186 0.000000
0.738448 0.345910 0.000000
0.784903 0.343462 0.000000
0.817038 0.341857 0.000000
0.836716 0.338042 0.000000
0.841660 0.333117 0.000000
0.843198 0.324529 0.000000
0.000000 0.385351 0.000830
0.000000 0.386096 0.000000
0.000000 0.390759 0.000000
0.000000 0.392450 0.000000
0.130575 0.401746 0.000000
0.254990 0.415277 0.000000
0.376129 0.428553 0.000000
0.491737 0.439777 0.000000
0.599805 0.449928 0.000000
0.692634 0.453925 0.000000
0.771719 0.454847 0.000000
0.818143 0.451380 0.000000
0.854081 0.451234 0.000000
0.876957 0.449531 0.000000
0.884623 0.442951 0.000000
0.886619 0.433777 0.000000
0.000000 0.430231 0.000000
0.000000 0.439289 0.000000
0.000000 0.456281 0.000000
0.000000 0.474800 0.000000
0.091743 0.491511 0.000000
0.256254 0.510466 0.000000
0.385718 0.525316 0.000000
0.510930 0.540899 0.000000
0.615546 0.549261 0.000000
0.713777 0.557122 0.000000
0.796011 0.560522 0.000000
0.844004 0.557733 0.000000
0.881627 0.556133 0.000000
0.907433 0.557885 0.000000
0.920385 0.554266 0.000000
0.922142 0.542419 0.000000
0.000000 0.472651 0.000000
0.000000 0.489186 0.000000
0.000000 0.511662 0.000000
0.000000 0.536077 0.000000
0.056458 0.558874 0.000000
0.258811 0.581744 0.000000
0.395166 0.602576 0.000000
0.522564 0.621942 0.000000
0.631110 0.635981 0.000000
0.727535 0.645014 0.000000
0.813321 0.653297 0.000000
0.863401 0.654102 0.000000
0.902794 0.655238 0.000000
0.930022 0.657374 0.000000
0.945599 0.653468 0.000000
0.948388 0.639002 0.000000
0.000000 0.504173 0.000000
0.000000 0.530199 0.000000
0.000000 0.557861 0.000000
0.000000 0.586285 0.000000
0.054017 0.612317 0.000000
0.274650 0.638965 0.000000
0.408026 0.662049 0.000000
0.536553 0.685188 0.000000
0.642353 0.701015 0.000000
0.740322 0.713936 0.000000
0.822147 0.722444 0.000000
0.875267 0.727102 0.000000
0.915709 0.728261 0.000000
0.944103 0.730941 0.000000
0.960381 0.727272 0.000000
0.966491 0.716896 0.000000
0.000000 0.525109 0.001239
0.000000 0.554156 0.000000
0.000000 0.586902 0.000000
0.000000 0.617407 0.000000
0.105025 0.647358 0.000000
0.299791 0.678840 0.000000
0.428998 0.706069 0.000000
0.552306 0.730886 0.000000
0.657343 0.750069 0.000000
0.749508 0.763894 0.000000
0.832181 0.775882 0.000000
0.883250 0.781289 0.000000
0.924712 0.784604 0.000000
0.952947 0.785910 0.000000
0.969848 0.783682 0.000000
0.977783 0.776193 0.000000
0.000000 0.534453 0.000000
0.000000 0.570941 0.000000
0.000000 0.605396 0.000000
0.000000 0.637018 0.000000
0.148531 0.666621 0.000000
0.313823 0.696980 0.000000
0.442396 0.725252 0.000000
0.562957 0.752944 0.000000
0.666432 0.775027 0.000000
0.759127 0.794095 0.000000
0.839823 0.807480 0.000000
0.889311 0.815018 0.000000
0.929931 0.820432 0.000000
0.958428 0.823911 0.000000
0.976318 0.825705 0.000000
0.984985 0.823740 0.000000
0.000000 0.535973 0.000000
0.000000 0.573046 0.000000
0.000000 0.611786 0.000000
0.000000 0.644398 0.000000
0.158926 0.676466 0.000000
0.319677 0.707143 0.000000
0.444947 0.736806 0.000000
0.561816 0.764877 0.000000
0.663777 0.787735 0.000000
0.756710 0.807773 0.000000
0.839750 0.824137 0.000000
0.889781 0.833860 0.000000
0.931341 0.841495 0.000000
0.960150 0.846470 0.000000
0.978820 0.851743 0.000000
0.988495 0.855912 0.000000
0.000000 0.535399 0.000000
0.000000 0.571136 0.000000
0.000000 0.610602 0.000000
0.000000 0.646748 0.000000
0.163174 0.680165 0.000000
0.320684 0.712380 0.000000
0.442536 0.742397 0.000000
0.553222 0.771139 0.000000
0.653767 0.795267 0.000000
0.747048 0.817368 0.003766
0.831559 0.835465 0.008698
0.885325 0.846909 0.017957
0.928869 0.855448 0.028553
0.958599 0.860685 0.024848
0.978332 0.863133 0.009155
0.988763 0.870701 0.110774
0.000000 0.536193 0.000000
0.000000 0.571252 0.000000
0.000000 0.610956 0.000000
0.000000 0.647053 0.000000
0.161691 0.681654 0.000000
0.318755 0.713948 0.000000
0.435651 0.744247 0.000000
0.544683 0.773593 0.000000
0.640699 0.799173 0.006989
0.734200 0.823362 0.056983
0.817240 0.843302 0.121474
0.876933 0.858427 0.163565
0.922887 0.868644 0.187057
0.954742 0.875840 0.206680
0.975750 0.878251 0.195822
0.988171 0.878679 0.179190
0.004260 0.010504 0.043116
0.012653 0.011933 0.042255
0.034376 0.014447 0.042756
0.086482 0.018653 0.046162
0.164773 0.022083 0.048139
0.265086 0.016846 0.047541
0.372815 0.000000 0.042707
0.462641 0.000000 0.036805
0.523943 0.000000 0.029352
0.557891 0.000000 0.024414
0.579339 0.000000 0.019611
0.591992 0.000000 0.013184
0.600403 0.000000 0.009046
0.606622 0.000000 0.005676
0.610455 0.000000 0.002985
0.613739 0.000000 0.002148
0.004083 0.017469 0.040589
0.012085 0.018030 0.039185
0.033045 0.020703 0.039442
0.074482 0.025000 0.042396
0.145522 0.031989 0.044984
0.236051 0.033204 0.045673
0.344256 0.022571 0.042097
0.439106 0.000262 0.035859
0.517949 0.000000 0.030286
0.564245 0.000000 0.023731
0.597070 0.000000 0.020417
0.616980 0.000000 0.015167
0.627283 0.000000 0.012012
0.634022 0.000000 0.008679
0.637836 0.000000 0.007111
0.640150 0.000000 0.005304
0.001990 0.034583 0.041376
0.012860 0.034314 0.039356
0.032575 0.036201 0.039344
0.072950 0.041456 0.041865
0.131246 0.049732 0.044892
0.213974 0.055293 0.046259
0.314672 0.055274 0.043909
0.411695 0.044129 0.037848
0.498668 0.021039 0.031086
0.566198 0.001489 0.024097
0.608490 0.000000 0.019324
0.640723 0.000000 0.013916
0.657276 0.000000 0.012238
0.665925 0.000000 0.009754
0.669667 0.000000 0.008771
0.672071 0.000000 0.008014
0.000000 0.082930 0.052198
0.005670 0.073689 0.047303
0.034241 0.074067 0.046485
0.075428 0.075990 0.047669
0.136019 0.083662 0.050526
0.211881 0.090809 0.051490
0.310582 0.097188 0.049915
0.411640 0.096437 0.043458
0.505412 0.088258 0.035480
0.579107 0.074568 0.027155
0.631635 0.059400 0.020569
0.669679 0.051691 0.013025
0.695174 0.045930 0.008136
0.704115 0.047718 0.005945
0.709187 0.043018 0.005536
0.711238 0.035511 0.005762
0.000000 0.152145 0.061280
0.000000 0.136165 0.056452
0.024646 0.126894 0.053809
0.079347 0.130202 0.054908
0.141323 0.134548 0.056056
0.221146 0.144570 0.055927
0.317681 0.152554 0.053211
0.421595 0.158077 0.045631
0.516173 0.157345 0.036274
0.596759 0.152755 0.025641
0.659590 0.146120 0.016010
0.702132 0.141170 0.008673
0.731716 0.139821 0.004602
0.746041 0.140346 0.001672
0.750710 0.136965 0.000647
0.753933 0.134115 0.001123
0.000000 0.237424 0.064643
0.000000 0.210452 0.060627
0.000488 0.190439 0.058161
0.066548 0.203238 0.059083
0.150265 0.211527 0.059040
0.232883 0.218540 0.056745
0.336663 0.229319 0.051417
0.441547 0.236204 0.040253
0.539678 0.239188 0.027601
0.623651 0.238242 0.015351
0.692641 0.234806 0.006384
0.737948 0.232181 0.003729
0.770712 0.230924 0.000793
0.791952 0.232200 0.000000
0.797556 0.230741 0.000000
0.799857 0.224686 0.000000
0.000000 0.320049 0.061360
0.000000 0.306493 0.058058
0.000000 0.277086 0.056715
0.027338 0.284422 0.055647
0.144015 0.301683 0.052595
0.245707 0.312975 0.046204
0.352026 0.323400 0.036194
0.465223 0.334502 0.018653
0.565789 0.339422 0.003003
0.654725 0.341167 0.000000
0.729220 0.339153 0.000000
0.775320 0.336504 0.000000
0.811246 0.335845 0.000000
0.835087 0.335473 0.000000
0.843259 0.333117 0.000000
0.846305 0.328423 0.000000
0.000000 0.388928 0.055415
0.000000 0.387927 0.050135
0.000000 0.377563 0.048090
0.000000 0.376275 0.044678
0.124379 0.388562 0.037513
0.247977 0.404517 0.023749
0.367572 0.419495 0.005188
0.481080 0.430811 0.000000
0.589276 0.440571 0.000000
0.682783 0.447260 0.000000
0.763821 0.448652 0.000000
0.812131 0.447333 0.000000
0.850663 0.447620 0.000000
0.876176 0.448066 0.000000
0.886430 0.444367 0.000000
0.889787 0.439600 0.000000
0.000000 0.437525 0.050690
0.000000 0.446235 0.043397
0.000000 0.453687 0.034180
0.000000 0.469276 0.014588
0.075038 0.479347 0.007471
0.247599 0.499602 0.000000
0.376031 0.517229 0.000000
0.499715 0.532525 0.000000
0.604956 0.541070 0.000000
0.704170 0.551928 0.000000
0.786734 0.556078 0.000000
0.839432 0.556439 0.000000
0.879295 0.555023 0.000000
0.907213 0.556109 0.000000
0.921727 0.554046 0.000000
0.924651 0.547326 0.000000
0.000000 0.479524 0.055897
0.000000 0.495470 0.044630
0.000000 0.510780 0.031867
0.000000 0.534276 0.005908
0.025599 0.556451 0.000000
0.247337 0.579425 0.000000
0.385907 0.601196 0.000000
0.513420 0.618927 0.000000
0.622937 0.632654 0.000000
0.719734 0.643104 0.000000
0.806009 0.651283 0.000000
0.860038 0.654395 0.000000
0.900896 0.653437 0.000000
0.928411 0.652741 0.000000
0.945898 0.654176 0.000000
0.951299 0.649555 0.000000
0.000000 0.515727 0.069038
0.000000 0.539715 0.058845
0.000000 0.562853 0.041053
0.000000 0.589935 0.010974
0.015735 0.615784 0.000000
0.257603 0.642219 0.000000
0.397418 0.665657 0.000000
0.526836 0.687361 0.000000
0.634015 0.702705 0.000000
0.732595 0.716597 0.000000
0.816172 0.724202 0.000000
0.872331 0.729299 0.000000
0.914086 0.729555 0.000000
0.942065 0.731099 0.000000
0.960400 0.731600 0.000000
0.968341 0.727919 0.000000
0.000000 0.541790 0.091823
0.000000 0.571252 0.084462
0.000000 0.602460 0.077302
0.000000 0.632789 0.052326
0.057240 0.661830 0.025446
0.283299 0.690309 0.009979
0.417755 0.715254 0.000000
0.541906 0.738271 0.000000
0.648524 0.756698 0.000000
0.742458 0.771383 0.000000
0.827793 0.782364 0.000000
0.879521 0.787015 0.000000
0.922472 0.789895 0.000000
0.951128 0.790335 0.000000
0.969866 0.790646 0.000000
0.979113 0.788003 0.000000
0.000000 0.552453 0.090163
0.000000 0.590228 0.097975
0.000000 0.622773 0.096156
0.000000 0.654481 0.105068
0.087538 0.683772 0.090889
0.298009 0.713417 0.078993
0.432703 0.740829 0.040143
0.552789 0.766500 0.017115
0.657227 0.787045 0.000000
0.750912 0.804385 0.000000
0.834257 0.817124 0.000000
0.884544 0.824344 0.000000
0.926799 0.829850 0.000000
0.956072 0.832779 0.000000
0.975329 0.834092 0.000000
0.985211 0.832956 0.000000
0.000000 0.558129 0.081868
0.000000 0.597418 0.091237
0.000000 0.636384 0.102016
0.000000 0.668910 0.113381
0.111659 0.699568 0.126558
0.310747 0.728627 0.130953
0.440381 0.756655 0.128237
0.556695 0.781729 0.115315
0.658967 0.802548 0.090278
0.752419 0.820749 0.075666
0.838096 0.837137 0.068885
0.886809 0.846390 0.074897
0.929198 0.854026 0.077003
0.957940 0.858634 0.072853
0.977270 0.861198 0.070124
0.987488 0.862657 0.100899
0.000000 0.556957 0.062611
0.000000 0.595416 0.071943
0.000000 0.634705 0.082850
0.000000 0.670466 0.097786
0.116695 0.701930 0.113265
0.307420 0.732393 0.132485
0.434491 0.761019 0.141695
0.545965 0.787881 0.161605
0.647785 0.810513 0.166946
0.741811 0.830832 0.177469
0.829282 0.848954 0.190695
0.881975 0.859739 0.205484
0.926360 0.868193 0.214786
0.956017 0.873344 0.217337
0.976184 0.875383 0.204410
0.987042 0.879637 0.229160
0.000000 0.557910 0.047132
0.000000 0.591351 0.042762
0.000000 0.630591 0.056110
0.000000 0.666517 0.070411
0.105080 0.700172 0.086317
0.301592 0.731417 0.105318
0.423816 0.761068 0.129671
0.535009 0.789261 0.162307
0.633448 0.814444 0.193350
0.728774 0.837504 0.226645
0.814585 0.857346 0.260850
0.874357 0.870799 0.285844
0.920922 0.880491 0.302617
0.952850 0.886723 0.312572
0.973736 0.889323 0.307091
0.985931 0.890245 0.298631
0.000342 0.010517 0.102754
0.008508 0.011945 0.099422
0.029462 0.014368 0.098152
0.080531 0.018347 0.095839
0.158938 0.021698 0.100099
0.260472 0.016638 0.102846
0.371814 0.000000 0.102681
0.463307 0.000000 0.101137
0.529699 0.000000 0.092946
0.565539 0.000000 0.087306
0.584759 0.000000 0.076936
0.597247 0.000000 0.067964
0.605805 0.000000 0.055653
0.612030 0.000000 0.049262
0.615692 0.000000 0.042847
0.618030 0.000000 0.039051
0.000024 0.018964 0.091292
0.008331 0.019214 0.078608
0.029279 0.021784 0.077400
0.071449 0.025940 0.078737
0.143313 0.033118 0.083919
0.234153 0.034260 0.087288
0.342956 0.023542 0.087843
0.438196 0.000629 0.086488
0.520946 0.000000 0.084968
0.568975 0.000000 0.080238
0.601740 0.000000 0.075764
0.621704 0.000000 0.069038
0.632380 0.000000 0.060786
0.639356 0.000000 0.055280
0.643079 0.000000 0.051081
0.645136 0.000000 0.047919
0.000000 0.038209 0.088643
0.007593 0.036506 0.075428
0.027778 0.037946 0.073408
0.069368 0.043787 0.075679
0.128664 0.052021 0.080769
0.211801 0.057380 0.084450
0.312688 0.057429 0.086085
0.410394 0.046619 0.085493
0.500804 0.022333 0.083571
0.569836 0.001855 0.081569
0.612110 0.000000 0.077223
0.644764 0.000000 0.072712
0.662477 0.000000 0.066334
0.671327 0.000000 0.062965
0.675196 0.000000 0.059986
0.677296 0.000000 0.058479
0.000000 0.081086 0.092958
0.002472 0.070784 0.077540
0.030634 0.070985 0.075233
0.070576 0.076350 0.079365
0.131441 0.084108 0.084059
0.205509 0.091182 0.086915
0.302959 0.097536 0.089125
0.404468 0.097121 0.088515
0.497490 0.090407 0.086354
0.573205 0.076997 0.083680
0.630927 0.061189 0.081221
0.670350 0.053944 0.076832
0.697987 0.047810 0.071235
0.708272 0.049030 0.068281
0.713851 0.046003 0.065254
0.715785 0.037995 0.065126
0.000000 0.148403 0.106606
0.000000 0.134908 0.092030
0.019080 0.123659 0.086079
0.072364 0.128688 0.089223
0.135982 0.134212 0.092396
0.214572 0.143972 0.094874
0.310539 0.152218 0.096529
0.414191 0.157815 0.095351
0.508464 0.158102 0.092805
0.591028 0.153799 0.089668
0.658051 0.148171 0.086360
0.702296 0.143307 0.083565
0.733516 0.142177 0.077382
0.749837 0.142824 0.071949
0.754794 0.139663 0.065180
0.758114 0.137050 0.065620
0.000000 0.230045 0.114083
0.000000 0.215995 0.104085
0.000000 0.196567 0.098305
0.058405 0.197067 0.097426
0.144759 0.206339 0.100069
0.226786 0.215073 0.102058
0.330083 0.226450 0.102663
0.435077 0.234208 0.099934
0.533446 0.238810 0.097017
0.619519 0.238645 0.093257
0.691438 0.236777 0.089284
0.738405 0.234330 0.087178
0.772738 0.233817 0.079835
0.795071 0.235312 0.073640
0.801004 0.233872 0.063020
0.803507 0.228367 0.058045
0.000000 0.315935 0.120522
0.000000 0.307164 0.111342
0.000000 0.277928 0.105672
0.025458 0.274058 0.103896
0.137087 0.295500 0.106673
0.238932 0.310143 0.107082
0.345525 0.320940 0.105238
0.459016 0.332512 0.100362
0.558947 0.337188 0.095027
0.649738 0.339440 0.089918
0.725216 0.338683 0.085542
0.772842 0.336278 0.087446
0.810043 0.336004 0.082246
0.835801 0.336876 0.075746
0.845383 0.335424 0.064088
0.849375 0.333013 0.054627
0.000000 0.388818 0.124788
0.000000 0.385992 0.114961
