LUTs/SPK Cube Block1 S16/TheBrim_SPK_Type-W_Block1_S16.cube
TITLE "TheBrim® Industrial Imaging Burau"
# © Copyright 2022 - TheBrim® d.o.o. Croatia
LUT_3D_SIZE 16
DOMAIN_MIN 0.000000 0.000000 0.000000
DOMAIN_MAX 1.000000 1.000000 1.000000
0.038086 0.065277 0.119720
0.039667 0.065125 0.119428
0.046435 0.065326 0.119074
0.065698 0.065704 0.118683
0.107001 0.064820 0.118170
0.186310 0.063171 0.118164
0.310895 0.063171 0.118164
0.427209 0.063171 0.118164
0.496069 0.063171 0.118164
0.536658 0.063171 0.118164
0.561859 0.063171 0.118164
0.572504 0.063171 0.118164
0.579108 0.063171 0.118164
0.584399 0.063171 0.118164
0.588623 0.063171 0.118164
0.592194 0.063171 0.118164
0.038171 0.068896 0.119977
0.040124 0.067871 0.119562
0.047272 0.068231 0.119214
0.064001 0.068829 0.118811
0.100317 0.069256 0.118176
0.168531 0.066681 0.118164
0.292383 0.063171 0.118164
0.411902 0.063171 0.118164
0.499908 0.063171 0.118164
0.545911 0.063171 0.118164
0.576953 0.063171 0.118164
0.590771 0.063171 0.118164
0.597614 0.063171 0.118164
0.602698 0.063171 0.118164
0.605713 0.063171 0.118164
0.607470 0.063171 0.118164
0.037311 0.078119 0.120014
0.040479 0.076117 0.119604
0.048047 0.075433 0.119305
0.065515 0.076385 0.118793
0.096265 0.077325 0.118176
0.159174 0.076752 0.118164
0.271533 0.072119 0.118164
0.397363 0.064691 0.118164
0.499024 0.063171 0.118164
0.554089 0.063171 0.118164
0.591492 0.063171 0.118164
0.610821 0.063171 0.118164
0.618567 0.063171 0.118164
0.623889 0.063171 0.118164
0.626270 0.063171 0.118164
0.627558 0.063171 0.118164
0.036145 0.094635 0.119525
0.038684 0.093274 0.119086
0.049878 0.092212 0.118744
0.067773 0.090948 0.118378
0.099322 0.092414 0.118170
0.160119 0.093243 0.118164
0.266015 0.092157 0.118164
0.396539 0.086871 0.118164
0.503894 0.076606 0.118164
0.567456 0.066968 0.118164
0.608887 0.063812 0.118164
0.631678 0.063208 0.118164
0.642859 0.063171 0.118164
0.647382 0.063171 0.118164
0.649621 0.063171 0.118164
0.650287 0.063171 0.118164
0.036133 0.124756 0.118249
0.036231 0.119464 0.118176
0.048334 0.120251 0.118170
0.072754 0.118475 0.118164
0.104559 0.117230 0.118164
0.171997 0.119904 0.118164
0.275153 0.119501 0.118164
0.410132 0.117157 0.118164
0.515625 0.110400 0.118164
0.587304 0.101441 0.118164
0.629748 0.092096 0.118164
0.656525 0.083039 0.118164
0.670477 0.076550 0.118164
0.674615 0.073450 0.118164
0.675867 0.070441 0.118164
0.676355 0.069098 0.118164
0.036133 0.188690 0.118164
0.036133 0.172137 0.118164
0.042371 0.168183 0.118164
0.074909 0.165131 0.118164
0.116394 0.163629 0.118164
0.189575 0.165985 0.118164
0.304346 0.168225 0.118164
0.441095 0.167816 0.118164
0.545013 0.161316 0.118164
0.616388 0.151880 0.118164
0.658875 0.141602 0.118164
0.687848 0.132202 0.118164
0.701886 0.123278 0.118164
0.707855 0.117615 0.118164
0.707513 0.111328 0.118164
0.706573 0.106506 0.118164
0.036133 0.263251 0.118164
0.036133 0.258948 0.118164
0.037580 0.246710 0.118164
0.074945 0.245984 0.118164
0.126605 0.246375 0.118164
0.219177 0.254016 0.118164
0.335187 0.254279 0.118164
0.476764 0.257154 0.118164
0.573499 0.249591 0.118164
0.645752 0.238574 0.118164
0.688831 0.223072 0.118164
0.721985 0.209680 0.118164
0.738367 0.196668 0.118164
0.746960 0.185052 0.118164
0.746490 0.174817 0.118164
0.745691 0.167298 0.118164
0.036133 0.315082 0.118164
0.036133 0.324701 0.118164
0.036560 0.335095 0.118164
0.072168 0.347272 0.118164
0.138074 0.358063 0.118164
0.246777 0.368335 0.118164
0.377216 0.372620 0.118164
0.509253 0.375568 0.118164
0.604278 0.373102 0.118164
0.675097 0.364954 0.118164
0.721454 0.348047 0.118164
0.758044 0.330634 0.118164
0.778290 0.316504 0.118164
0.790302 0.301764 0.118164
0.790021 0.280652 0.118164
0.788666 0.267712 0.118164
0.036133 0.363549 0.118164
0.036133 0.383972 0.118164
0.036377 0.407434 0.118164
0.071301 0.428760 0.118164
0.148675 0.448511 0.118164
0.273957 0.469849 0.118164
0.409839 0.484015 0.118164
0.543671 0.496118 0.118164
0.630029 0.496081 0.118164
0.703229 0.494092 0.118164
0.753357 0.481579 0.118164
0.794177 0.467725 0.118164
0.817926 0.454718 0.118164
0.832636 0.440167 0.118164
0.834393 0.415167 0.118164
0.833161 0.400903 0.118164
0.036133 0.401355 0.118164
0.036133 0.427197 0.118164
0.036548 0.455780 0.118164
0.077844 0.483380 0.118164
0.166364 0.511200 0.118164
0.300891 0.536700 0.118164
0.440899 0.554846 0.118164
0.567041 0.569049 0.118164
0.652081 0.574683 0.118164
0.724066 0.576849 0.118164
0.780634 0.574390 0.118164
0.825097 0.569177 0.118164
0.853632 0.563104 0.118164
0.870575 0.554859 0.118164
0.874969 0.534729 0.118164
0.873529 0.519446 0.118164
0.036133 0.427795 0.118164
0.036133 0.462579 0.118164
0.038196 0.494141 0.118164
0.089368 0.523377 0.118164
0.193689 0.552313 0.118164
0.333191 0.576996 0.118164
0.471027 0.595807 0.118164
0.589563 0.613641 0.118164
0.668225 0.623968 0.118164
0.743457 0.632043 0.118164
0.801392 0.634430 0.118164
0.849017 0.633862 0.118164
0.878802 0.628351 0.118164
0.897363 0.622412 0.118164
0.904377 0.608105 0.118164
0.905701 0.598450 0.118164
0.036133 0.448743 0.118164
0.036133 0.485413 0.118164
0.040772 0.518689 0.118164
0.105054 0.548431 0.118164
0.222247 0.578363 0.118164
0.361773 0.602490 0.118164
0.499878 0.624237 0.118164
0.608063 0.642700 0.118164
0.684082 0.654962 0.118164
0.757141 0.663910 0.118164
0.815973 0.668970 0.118164
0.864258 0.671356 0.118164
0.896686 0.670605 0.118164
0.916687 0.667474 0.118164
0.926440 0.659754 0.118164
0.929339 0.651880 0.118164
0.036133 0.453266 0.118164
0.036133 0.494519 0.118164
0.043029 0.529876 0.118164
0.120184 0.562164 0.118164
0.241235 0.590887 0.118164
0.372980 0.613989 0.118164
0.508002 0.635779 0.118164
0.612909 0.655585 0.118164
0.688904 0.670697 0.118164
0.765582 0.684094 0.118164
0.824109 0.691956 0.118164
0.874896 0.697589 0.118164
0.907788 0.698432 0.118164
0.929065 0.697186 0.118164
0.941596 0.694727 0.118164
0.945942 0.690033 0.118164
0.036133 0.454590 0.118164
0.036133 0.498120 0.118164
0.044647 0.536889 0.118164
0.130884 0.569562 0.118164
0.253766 0.598956 0.118164
0.380896 0.621594 0.118164
0.510791 0.643872 0.118164
0.612769 0.664411 0.118164
0.687781 0.680292 0.118164
0.764935 0.694898 0.118164
0.825031 0.703919 0.118164
0.876971 0.710437 0.118164
0.912006 0.713385 0.118164
0.934699 0.714093 0.118164
0.949768 0.716968 0.118164
0.956640 0.717755 0.118164
0.036133 0.454278 0.118164
0.036133 0.497760 0.118164
0.044439 0.536737 0.118164
0.131928 0.570758 0.118164
0.254907 0.600592 0.118164
0.378412 0.623822 0.118164
0.505335 0.646442 0.118164
0.605591 0.668310 0.118164
0.679865 0.685675 0.118164
0.756262 0.702429 0.118164
0.819616 0.714386 0.118164
0.873468 0.722430 0.118164
0.912109 0.727057 0.118164
0.936145 0.727960 0.118164
0.951697 0.726416 0.118164
0.959442 0.728582 0.118164
0.036133 0.453674 0.118164
0.036133 0.497058 0.118164
0.044488 0.535828 0.118164
0.130695 0.570203 0.118164
0.255084 0.600897 0.118164
0.376587 0.624268 0.118164
0.499866 0.647400 0.118164
0.599848 0.670081 0.118164
0.672143 0.688922 0.118164
0.746851 0.707886 0.118164
0.812256 0.722382 0.118164
0.867718 0.733063 0.118164
0.909765 0.739331 0.118164
0.935785 0.742090 0.118164
0.953082 0.740454 0.118164
0.961090 0.737518 0.118164
0.037494 0.065600 0.123883
0.039221 0.065393 0.122144
0.046222 0.065686 0.121442
0.066205 0.066028 0.120679
0.109204 0.065014 0.119433
0.192761 0.063171 0.118201
0.327728 0.063171 0.118164
0.447760 0.063171 0.118164
0.513800 0.063171 0.118164
0.552057 0.063171 0.118164
0.571887 0.063171 0.118164
0.580554 0.063171 0.118164
0.585877 0.063171 0.118164
0.590802 0.063171 0.118164
0.594494 0.063171 0.118164
0.597479 0.063171 0.118164
0.037274 0.068909 0.123309
0.039270 0.068268 0.122119
0.046130 0.068439 0.121436
0.062182 0.068994 0.120782
0.097729 0.069458 0.119702
0.164954 0.067023 0.118323
0.290594 0.063183 0.118164
0.412201 0.063171 0.118164
0.507672 0.063171 0.118164
0.554370 0.063171 0.118164
0.584711 0.063171 0.118164
0.598670 0.063171 0.118164
0.605145 0.063171 0.118164
0.609174 0.063171 0.118164
0.611737 0.063171 0.118164
0.613312 0.063171 0.118164
0.036194 0.078552 0.124231
0.038898 0.076550 0.122718
0.046392 0.075470 0.121875
0.063391 0.076386 0.121094
0.093396 0.077405 0.120087
0.155249 0.076990 0.118487
0.266961 0.072571 0.118164
0.396283 0.064972 0.118164
0.504627 0.063171 0.118164
0.561365 0.063171 0.118164
0.598450 0.063171 0.118164
0.618646 0.063171 0.118164
0.626837 0.063171 0.118164
0.631439 0.063171 0.118164
0.632898 0.063171 0.118164
0.633417 0.063171 0.118164
0.036133 0.098352 0.125061
0.036725 0.091944 0.123028
0.047620 0.090656 0.122046
0.065381 0.090143 0.121137
0.096270 0.091724 0.119971
0.155517 0.092694 0.118427
0.260730 0.091773 0.118164
0.393952 0.086548 0.118164
0.505816 0.076398 0.118164
0.572125 0.066687 0.118164
0.614246 0.063757 0.118164
0.638287 0.063190 0.118164
0.650666 0.063171 0.118164
0.654816 0.063171 0.118164
0.656751 0.063171 0.118164
0.656610 0.063171 0.118164
0.036133 0.128857 0.124573
0.036133 0.116144 0.122443
0.045209 0.117352 0.121326
0.069183 0.117474 0.120074
0.100025 0.115942 0.119159
0.165143 0.118689 0.118207
0.265961 0.118341 0.118164
0.402771 0.116242 0.118164
0.512012 0.110132 0.118164
0.588281 0.101074 0.118164
0.631940 0.091705 0.118164
0.661505 0.082148 0.118164
0.676935 0.075873 0.118164
0.682239 0.072986 0.118164
0.683356 0.070471 0.118164
0.683520 0.068969 0.118164
0.036133 0.191370 0.121881
0.036133 0.162848 0.120001
0.039856 0.159253 0.119006
0.069287 0.163708 0.118304
0.110602 0.161651 0.118213
0.180713 0.163727 0.118164
0.293036 0.165673 0.118164
0.429956 0.164881 0.118164
0.536872 0.159338 0.118164
0.612726 0.150055 0.118164
0.657190 0.139838 0.118164
0.689880 0.130420 0.118164
0.706445 0.122430 0.118164
0.714856 0.117017 0.118164
0.715222 0.112579 0.118164
0.714051 0.107031 0.118164
0.036133 0.277716 0.118793
0.036133 0.257513 0.118195
0.036401 0.240228 0.118164
0.066815 0.240887 0.118164
0.118610 0.241620 0.118164
0.207019 0.248749 0.118164
0.322211 0.249408 0.118164
0.464929 0.251770 0.118164
0.566535 0.246460 0.118164
0.642047 0.236133 0.118164
0.688196 0.222327 0.118164
0.724164 0.208771 0.118164
0.742889 0.196405 0.118164
0.752978 0.184350 0.118164
0.753351 0.176318 0.118164
0.751880 0.166772 0.118164
0.036133 0.336841 0.118487
0.036133 0.334851 0.118164
0.036133 0.341980 0.118164
0.058679 0.344483 0.118164
0.126947 0.351404 0.118164
0.231213 0.362177 0.118164
0.361621 0.366760 0.118164
0.497131 0.370215 0.118164
0.597626 0.370447 0.118164
0.670850 0.362793 0.118164
0.721314 0.348486 0.118164
0.760272 0.330432 0.118164
0.782031 0.314166 0.118164
0.794385 0.297974 0.118164
0.795227 0.280975 0.118164
0.793005 0.264563 0.118164
0.036133 0.383630 0.118390
0.036133 0.397949 0.118164
0.036133 0.417535 0.118164
0.055707 0.434461 0.118164
0.135492 0.451447 0.118164
0.258618 0.472455 0.118164
0.395783 0.483795 0.118164
0.533728 0.494037 0.118164
0.623340 0.493933 0.118164
0.698389 0.491162 0.118164
0.752374 0.480713 0.118164
0.794903 0.464923 0.118164
0.819373 0.448535 0.118164
0.835516 0.436187 0.118164
0.839801 0.418793 0.118164
0.836994 0.398230 0.118164
0.036133 0.423151 0.118695
0.036133 0.445679 0.118164
0.036133 0.471588 0.118164
0.058563 0.495996 0.118164
0.148810 0.521039 0.118164
0.283252 0.543939 0.118164
0.425561 0.558374 0.118164
0.557043 0.570264 0.118164
0.645581 0.576294 0.118164
0.719367 0.577618 0.118164
0.779706 0.576269 0.118164
0.825769 0.570166 0.118164
0.854822 0.562134 0.118164
0.873205 0.554651 0.118164
0.880267 0.540955 0.118164
0.877466 0.520600 0.118164
0.036133 0.454633 0.119281
0.036133 0.484271 0.118188
0.036133 0.512610 0.118164
0.065289 0.538361 0.118164
0.171551 0.563593 0.118164
0.310229 0.585285 0.118164
0.452008 0.601996 0.118164
0.578522 0.618866 0.118164
0.661719 0.629407 0.118164
0.739258 0.636871 0.118164
0.798908 0.637610 0.118164
0.848523 0.636621 0.118164
0.880359 0.631232 0.118164
0.900311 0.625891 0.118164
0.909473 0.615814 0.118164
0.909253 0.601343 0.118164
0.036133 0.477759 0.119964
0.036133 0.509802 0.118439
0.036298 0.540802 0.118195
0.080316 0.567267 0.118164
0.196820 0.593115 0.118164
0.336126 0.613873 0.118164
0.479474 0.633307 0.118164
0.596820 0.650702 0.118164
0.676398 0.662817 0.118164
0.751971 0.671374 0.118164
0.812983 0.676043 0.118164
0.863116 0.678137 0.118164
0.898035 0.677344 0.118164
0.919251 0.673993 0.118164
0.930591 0.667688 0.118164
0.932587 0.657098 0.118164
0.036133 0.486756 0.119684
0.036133 0.525501 0.118585
0.037183 0.556830 0.118268
0.099444 0.584857 0.118201
0.219269 0.609467 0.118164
0.351434 0.629572 0.118164
0.493231 0.649121 0.118164
0.606311 0.668689 0.118164
0.684387 0.682886 0.118164
0.762988 0.695850 0.118164
0.822089 0.702673 0.118164
0.873883 0.707276 0.118164
0.908643 0.708105 0.118164
0.930872 0.706232 0.118164
0.944037 0.702912 0.118164
0.948095 0.697387 0.118164
0.036133 0.485687 0.119128
0.036133 0.525922 0.118317
0.038080 0.561066 0.118243
0.107239 0.590442 0.118225
0.228717 0.616785 0.118170
0.358539 0.637573 0.118164
0.495911 0.658740 0.118164
0.605768 0.679101 0.118164
0.682788 0.694501 0.118164
0.762207 0.709290 0.118164
0.823175 0.718176 0.118164
0.876587 0.724426 0.118164
0.912799 0.727167 0.118164
0.936432 0.727301 0.118164
0.951502 0.728204 0.118164
0.958044 0.729193 0.118164
0.036133 0.481573 0.118585
0.036133 0.521106 0.118213
0.037805 0.558142 0.118188
0.109949 0.590802 0.118164
0.232874 0.618616 0.118164
0.359650 0.641016 0.118164
0.492804 0.662982 0.118164
0.598724 0.684693 0.118164
0.674988 0.701861 0.118164
0.753626 0.718780 0.118164
0.817944 0.730072 0.118164
0.873248 0.737891 0.118164
0.912262 0.741736 0.118164
0.937115 0.742346 0.118164
0.953088 0.740222 0.118164
0.960859 0.744086 0.118164
0.036133 0.479773 0.118243
0.036133 0.518732 0.118164
0.037604 0.556384 0.118164
0.108368 0.589252 0.118164
0.233093 0.618341 0.118164
0.358026 0.641016 0.118164
0.486347 0.663568 0.118164
0.591602 0.686182 0.118164
0.665454 0.704840 0.118164
0.742066 0.723694 0.118164
0.808630 0.737866 0.118164
0.865558 0.748450 0.118164
0.908533 0.754285 0.118164
0.935236 0.756824 0.118164
0.952984 0.755279 0.118164
0.961621 0.751935 0.118164
0.036603 0.065857 0.137201
0.038367 0.065820 0.133124
0.045563 0.066101 0.129944
0.065936 0.066437 0.128113
0.109924 0.065350 0.125763
0.195502 0.063171 0.122846
0.334930 0.063171 0.119281
0.460101 0.063171 0.118225
0.527051 0.063171 0.118164
0.564056 0.063171 0.118164
0.582086 0.063171 0.118164
0.590149 0.063171 0.118164
0.595288 0.063171 0.118164
0.599268 0.063171 0.118164
0.601538 0.063171 0.118164
0.603052 0.063171 0.118164
0.036170 0.070178 0.136176
0.037799 0.069189 0.132257
0.044983 0.069269 0.129010
0.061578 0.069794 0.127527
0.097992 0.070331 0.125507
0.166962 0.067731 0.123053
0.295526 0.063226 0.119666
0.423340 0.063171 0.118225
0.520068 0.063171 0.118164
0.565448 0.063171 0.118164
0.595026 0.063171 0.118164
0.608020 0.063171 0.118164
0.614453 0.063171 0.118164
0.618640 0.063171 0.118164
0.620190 0.063171 0.118164
0.620496 0.063171 0.118164
0.036133 0.079224 0.135455
0.037036 0.076764 0.131280
0.044324 0.076208 0.128802
0.061316 0.076972 0.127337
0.089770 0.078247 0.125903
0.148907 0.077905 0.123749
0.254944 0.073847 0.120605
0.386798 0.065973 0.118420
0.498151 0.063171 0.118164
0.562433 0.063171 0.118164
0.602441 0.063171 0.118164
0.624457 0.063171 0.118164
0.634973 0.063171 0.118164
0.639875 0.063171 0.118164
0.641327 0.063171 0.118164
0.641321 0.063171 0.118164
0.036133 0.100366 0.138983
0.036157 0.093048 0.133520
0.044122 0.091278 0.130481
0.062494 0.091046 0.128674
0.092059 0.092560 0.127087
0.148664 0.093512 0.124780
0.249188 0.092694 0.121423
0.383404 0.088037 0.118567
0.497687 0.078540 0.118164
0.572785 0.067773 0.118164
0.616962 0.064020 0.118164
0.643640 0.063250 0.118164
0.658148 0.063171 0.118164
0.663110 0.063171 0.118164
0.664923 0.063171 0.118164
0.664545 0.063171 0.118164
0.036133 0.136469 0.141015
0.036133 0.122327 0.135663
0.040796 0.115320 0.131787
0.065259 0.115827 0.129681
0.095715 0.115594 0.127722
0.158490 0.118329 0.124823
0.257330 0.118408 0.121210
0.394330 0.116791 0.118408
0.506622 0.111072 0.118164
0.588281 0.102423 0.118164
0.634143 0.093005 0.118164
0.666242 0.082977 0.118164
0.682928 0.076117 0.118164
0.689862 0.072718 0.118164
0.690759 0.070428 0.118164
0.690759 0.069116 0.118164
0.036133 0.200372 0.141358
0.036133 0.169324 0.135803
0.036939 0.152167 0.131659
0.063812 0.158923 0.129449
0.104425 0.161383 0.126733
0.172742 0.163428 0.123047
0.283942 0.165973 0.119379
0.419903 0.165131 0.118188
0.530829 0.159839 0.118164
0.609662 0.151178 0.118164
0.656970 0.141034 0.118164
0.692139 0.131244 0.118164
0.711120 0.123083 0.118164
0.721857 0.117334 0.118164
0.722717 0.113592 0.118164
0.721405 0.108398 0.118164
0.036133 0.287622 0.139892
0.036133 0.261224 0.134247
0.036145 0.225385 0.129968
0.060058 0.228955 0.126483
0.109961 0.241901 0.122455
0.196753 0.248303 0.119159
0.312146 0.249457 0.118310
0.454541 0.250958 0.118164
0.559924 0.245343 0.118164
0.636347 0.235919 0.118164
0.685602 0.222455 0.118164
0.723535 0.208942 0.118164
0.745526 0.196509 0.118164
0.758429 0.185401 0.118164
0.760229 0.177911 0.118164
0.759180 0.170691 0.118164
0.036133 0.357434 0.138904
0.036133 0.352551 0.131696
0.036133 0.344098 0.125537
0.045953 0.337671 0.121759
0.113086 0.346301 0.119403
0.216504 0.359162 0.118262
0.347992 0.365551 0.118164
0.485639 0.369129 0.118164
0.590735 0.368884 0.118164
0.665240 0.362939 0.118164
0.718817 0.349072 0.118164
0.760229 0.332856 0.118164
0.784900 0.316113 0.118164
0.799255 0.300147 0.118164
0.801556 0.284699 0.118164
0.800293 0.272571 0.118164
0.036133 0.408441 0.138477
0.036133 0.420850 0.130646
0.036133 0.428156 0.122449
0.039483 0.441431 0.119495
0.115308 0.452863 0.118323
0.238513 0.473450 0.118164
0.379468 0.486060 0.118164
0.521124 0.494574 0.118164
0.615405 0.493390 0.118164
0.691803 0.492242 0.118164
0.749286 0.482373 0.118164
0.794458 0.469080 0.118164
0.821985 0.452173 0.118164
0.839056 0.437042 0.118164
0.844031 0.420752 0.118164
0.842633 0.405677 0.118164
0.036133 0.446624 0.142743
0.036133 0.467481 0.133722
0.036133 0.489233 0.123224
0.039636 0.510870 0.118677
0.124347 0.531732 0.118176
0.260730 0.551532 0.118164
0.409185 0.564880 0.118164
0.546643 0.574628 0.118164
0.638928 0.579797 0.118164
0.713562 0.581677 0.118164
0.776886 0.580054 0.118164
0.825311 0.574652 0.118164
0.856232 0.564435 0.118164
0.874554 0.553460 0.118164
0.883673 0.544019 0.118164
0.883612 0.532245 0.118164
0.036133 0.479944 0.148797
0.036133 0.507013 0.140918
0.036133 0.532013 0.129150
0.043066 0.555078 0.120746
0.142499 0.577203 0.118359
0.285340 0.597125 0.118164
0.435150 0.613269 0.118164
0.568970 0.628814 0.118164
0.655322 0.637787 0.118164
0.733386 0.644019 0.118164
0.795892 0.643420 0.118164
0.847589 0.641827 0.118164
0.881311 0.635284 0.118164
0.901325 0.628693 0.118164
0.912555 0.621246 0.118164
0.914465 0.612048 0.118164
0.036133 0.505908 0.155835
0.036133 0.535852 0.148718
0.036133 0.562549 0.141089
0.049164 0.587183 0.128399
0.169702 0.610547 0.121149
0.313886 0.629474 0.118664
0.463403 0.646838 0.118176
0.587006 0.662427 0.118164
0.669385 0.673041 0.118164
0.746301 0.681452 0.118164
0.810327 0.685767 0.118164
0.861401 0.686896 0.118164
0.898480 0.685547 0.118164
0.920319 0.681073 0.118164
0.933307 0.675336 0.118164
0.936737 0.667730 0.118164
0.036133 0.516180 0.155066
0.036133 0.552094 0.152399
0.036133 0.579162 0.147198
0.062475 0.605469 0.143689
0.194122 0.627899 0.131073
0.332342 0.647143 0.123846
0.480902 0.665637 0.120099
0.597729 0.683423 0.118298
0.677386 0.696033 0.118164
0.756763 0.708350 0.118164
0.818158 0.714618 0.118164
0.870771 0.718658 0.118164
0.907727 0.719269 0.118164
0.930902 0.716370 0.118164
0.945288 0.711994 0.118164
0.950452 0.706439 0.118164
0.036133 0.519641 0.151520
0.036133 0.556799 0.149512
0.036133 0.588794 0.148004
0.084405 0.615936 0.145404
0.209515 0.638562 0.142743
0.346155 0.658020 0.137189
0.488623 0.677545 0.128595
0.600769 0.695636 0.121808
0.678790 0.709442 0.119031
0.758960 0.722827 0.118237
0.821185 0.731695 0.118164
0.874768 0.737872 0.118164
0.911963 0.740619 0.118164
0.936151 0.740680 0.118164
0.951660 0.738983 0.118164
0.958374 0.736865 0.118164
0.036133 0.515991 0.145148
0.036133 0.553149 0.142615
0.036133 0.586139 0.141321
0.085187 0.616003 0.139428
0.212744 0.639557 0.138196
0.344458 0.660327 0.137921
0.483209 0.680817 0.133685
0.592700 0.700897 0.127899
0.670471 0.716772 0.124652
0.749756 0.732300 0.122101
0.815466 0.743219 0.119604
0.871136 0.750684 0.118579
0.910944 0.754376 0.118420
0.936218 0.755084 0.118225
0.952710 0.752936 0.118164
0.960583 0.753015 0.118164
0.036133 0.514807 0.140155
0.036133 0.547095 0.133942
0.036133 0.580615 0.132941
0.076831 0.611011 0.131165
0.207690 0.636939 0.128864
0.338300 0.658270 0.128992
0.472839 0.679730 0.129517
0.583545 0.701172 0.128717
0.660071 0.719428 0.130493
0.738031 0.737293 0.133722
0.805670 0.750934 0.134124
0.863696 0.760822 0.127857
0.906927 0.766431 0.124444
0.934082 0.768432 0.121802
0.951874 0.766595 0.118506
0.960956 0.763098 0.118164
0.036133 0.064997 0.168518
0.037347 0.065271 0.160162
0.044208 0.065747 0.154309
0.063947 0.066309 0.147992
0.107269 0.065338 0.145074
0.193610 0.063171 0.141003
0.338861 0.063171 0.135639
0.467468 0.063171 0.129620
0.539478 0.063171 0.123340
0.577582 0.063171 0.119806
0.593103 0.063171 0.118475
0.600586 0.063171 0.118164
0.605212 0.063171 0.118164
0.609143 0.063171 0.118164
0.610895 0.063171 0.118164
0.611536 0.063171 0.118164
0.036133 0.071124 0.163702
0.036285 0.069910 0.151740
0.043390 0.070014 0.146832
0.060327 0.070502 0.143323
0.097040 0.071191 0.140948
0.167340 0.068561 0.137848
0.298181 0.063306 0.133502
0.428314 0.063171 0.128314
0.529437 0.063171 0.122925
0.575513 0.063171 0.119623
0.604553 0.063171 0.118427
0.617285 0.063171 0.118164
0.623547 0.063171 0.118164
0.627801 0.063171 0.118164
0.629132 0.063171 0.118164
0.629175 0.063171 0.118164
0.036133 0.082324 0.162140
0.036139 0.079040 0.150482
0.041364 0.078162 0.146014
0.059351 0.079010 0.143066
0.088483 0.080164 0.141260
0.148664 0.079761 0.138550
0.255725 0.075726 0.134723
0.390729 0.067194 0.129852
0.505933 0.063232 0.124274
0.571381 0.063171 0.120270
0.610834 0.063171 0.118561
0.633081 0.063171 0.118170
0.643890 0.063171 0.118164
0.648785 0.063171 0.118164
0.650165 0.063171 0.118164
0.649872 0.063171 0.118164
0.036133 0.102222 0.163611
0.036133 0.093775 0.150397
0.040802 0.092090 0.145654
0.059235 0.093097 0.144445
0.089038 0.094550 0.142609
0.144074 0.095404 0.139935
0.242731 0.094507 0.136322
0.378192 0.089966 0.131488
0.493554 0.081000 0.125983
0.573792 0.069598 0.120953
0.620587 0.064544 0.118878
0.649878 0.063409 0.118244
0.665515 0.063171 0.118164
0.671179 0.063171 0.118164
0.673078 0.063171 0.118164
0.672565 0.063171 0.118164
0.036133 0.140375 0.169763
0.036133 0.126044 0.156329
0.036701 0.117810 0.149731
0.059363 0.118378 0.147833
0.091266 0.118390 0.145496
0.152466 0.120807 0.142359
0.250641 0.120959 0.138452
0.388153 0.119330 0.133124
0.502930 0.113952 0.127319
0.588220 0.105292 0.121350
0.637189 0.095862 0.119080
0.671753 0.085522 0.118262
0.689582 0.077985 0.118164
0.698016 0.073920 0.118164
0.698895 0.071136 0.118164
0.698682 0.069794 0.118164
0.036133 0.203754 0.172113
0.036133 0.182117 0.161084
0.036145 0.163257 0.154077
0.055414 0.159888 0.149927
0.098102 0.163050 0.147229
0.165405 0.166516 0.143988
0.276502 0.169256 0.139221
0.414441 0.168835 0.133008
0.528393 0.163971 0.126074
0.609906 0.155151 0.120611
0.660046 0.145160 0.118768
0.697131 0.134918 0.118201
0.717713 0.126361 0.118164
0.729614 0.120166 0.118164
0.730536 0.116040 0.118164
0.729114 0.110577 0.118164
0.036133 0.296820 0.174475
0.036133 0.274127 0.163758
0.036133 0.237018 0.156164
0.048419 0.228015 0.151153
0.099878 0.244654 0.148389
0.185852 0.254346 0.143720
0.303204 0.255505 0.137738
0.448279 0.257099 0.129730
0.556524 0.250909 0.122699
0.634943 0.241571 0.119501
0.686523 0.228809 0.118390
0.726495 0.214923 0.118164
0.750360 0.201868 0.118164
0.764905 0.190393 0.118164
0.767474 0.182257 0.118164
0.766803 0.175958 0.118164
0.036133 0.373242 0.175763
0.036133 0.366486 0.164960
