LUTs/SPK Cube Block1 S16/TheBrim_SPK_Type-V_Block1_S16.cube
TITLE "TheBrim® SPK Block 1"
# © Copyright 2021 - TheBrim® d.o.o. Croatia
LUT_3D_SIZE 6
DOMAIN_MIN 0.000000 0.000000 0.000000
DOMAIN_MAX 1.000000 1.000000 1.000000
0.007721 0.009491 0.011383
0.088582 0.017096 0.013196
0.364660 0.000000 0.000000
0.544067 0.000000 0.000000
0.591925 0.000000 0.000000
0.608850 0.000000 0.000000
0.000000 0.083497 0.017603
0.085078 0.083363 0.017835
0.330608 0.101912 0.003119
0.589129 0.073738 0.000000
0.688826 0.046033 0.000000
0.703804 0.031543 0.000000
0.000000 0.324126 0.000000
0.016425 0.317803 0.000000
0.369494 0.339043 0.000000
0.676637 0.355822 0.000000
0.819016 0.345116 0.000000
0.841788 0.326513 0.000000
0.000000 0.466835 0.000000
0.000000 0.535021 0.000000
0.405811 0.606390 0.000000
0.734420 0.648426 0.000000
0.904967 0.658595 0.000000
0.947655 0.638758 0.000000
0.000000 0.516338 0.000000
0.000000 0.619849 0.000000
0.455293 0.714302 0.000000
0.762704 0.783243 0.000000
0.932024 0.812045 0.000000
0.986072 0.816904 0.000000
0.000000 0.522911 0.000000
0.000000 0.632923 0.000000
0.447077 0.729818 0.000000
0.739883 0.808298 0.000000
0.925524 0.854014 0.000000
0.990082 0.865293 0.000000
0.000342 0.010517 0.102754
0.080531 0.018347 0.095839
0.371814 0.000000 0.102681
0.565539 0.000000 0.087306
0.605805 0.000000 0.055653
0.618030 0.000000 0.039051
0.000000 0.081086 0.092958
0.070576 0.076350 0.079365
0.302959 0.097536 0.089125
0.573205 0.076997 0.083680
0.697987 0.047810 0.071235
0.715785 0.037995 0.065126
0.000000 0.315935 0.120522
0.025458 0.274058 0.103896
0.345525 0.320940 0.105238
0.649738 0.339440 0.089918
0.810043 0.336004 0.082246
0.849375 0.333013 0.054627
0.000000 0.488942 0.135848
0.000000 0.537121 0.119069
0.374316 0.602972 0.075898
0.713417 0.646558 0.024353
0.898265 0.657795 0.004132
0.952508 0.654804 0.000000
0.000000 0.572796 0.182052
0.000000 0.671980 0.209616
0.424347 0.757192 0.199777
0.745846 0.816245 0.157961
0.923992 0.839670 0.123238
0.984271 0.841862 0.095467
0.000000 0.582495 0.155044
0.000000 0.692409 0.205698
0.425226 0.783828 0.277183
0.728579 0.853660 0.349743
0.918596 0.890178 0.382940
0.983819 0.899065 0.375305
0.000000 0.000000 0.288359
0.068782 0.000000 0.345440
0.351812 0.000000 0.389606
0.580499 0.000000 0.377496
0.623371 0.000000 0.282841
0.635639 0.000000 0.224381
0.000000 0.082631 0.307427
0.042976 0.080702 0.275895
0.293803 0.098384 0.304594
0.573407 0.074165 0.323369
0.709383 0.046400 0.309953
0.732277 0.039680 0.282908
0.000000 0.320342 0.350030
0.000000 0.295152 0.317931
0.326604 0.331987 0.346545
0.643531 0.350762 0.365374
0.814914 0.351611 0.368511
0.859165 0.355975 0.338628
0.000000 0.522918 0.382556
0.000000 0.560211 0.372894
0.327904 0.629541 0.396045
0.699019 0.672493 0.409766
0.890922 0.681556 0.414978
0.950311 0.682338 0.377691
0.000000 0.617810 0.419489
0.000000 0.718788 0.457929
0.372851 0.795279 0.480174
0.726436 0.850419 0.485978
0.911394 0.870146 0.475068
0.976709 0.870256 0.443439
0.000000 0.654249 0.419940
0.000000 0.757534 0.490105
0.429230 0.830881 0.544323
0.739828 0.887553 0.582586
0.914269 0.916393 0.599921
0.976129 0.921672 0.568109
0.001520 0.000000 0.360101
0.059419 0.000000 0.419855
0.274882 0.000000 0.509612
0.549169 0.000000 0.540142
0.640436 0.000000 0.508217
0.655866 0.000000 0.460255
0.000000 0.069014 0.434839
0.026557 0.062953 0.455982
0.281431 0.069160 0.510652
0.566229 0.035108 0.540166
0.721559 0.001752 0.546477
0.749776 0.005621 0.524877
0.000000 0.311284 0.514751
0.000000 0.304198 0.524907
0.308428 0.338848 0.572863
0.637916 0.358825 0.604047
0.818088 0.362383 0.614527
0.865586 0.371661 0.603595
0.000000 0.533782 0.563281
0.000000 0.580914 0.593652
0.283030 0.645490 0.635517
0.682783 0.687294 0.661054
0.883165 0.697365 0.670399
0.944170 0.703438 0.653956
0.000000 0.641096 0.596551
0.000000 0.737716 0.649757
0.326647 0.816495 0.685548
0.708663 0.869303 0.701820
0.898961 0.889439 0.706001
0.965673 0.892052 0.691652
0.000000 0.702028 0.620343
0.000000 0.792624 0.679414
0.429694 0.857652 0.725252
0.749648 0.909740 0.755862
0.907823 0.933837 0.766860
0.966888 0.940380 0.750582
0.008148 0.000000 0.393695
0.059187 0.000000 0.450947
0.218949 0.000000 0.530974
0.492775 0.000000 0.593201
0.649140 0.000000 0.615735
0.667073 0.000000 0.601672
0.000000 0.055567 0.477180
0.012885 0.067005 0.537829
0.260807 0.067555 0.612390
0.557958 0.021436 0.666688
0.729805 0.000000 0.685267
0.763192 0.000000 0.675856
0.000000 0.291875 0.583178
0.000000 0.315477 0.645679
0.278843 0.352471 0.708443
0.629224 0.376098 0.747915
0.821115 0.377697 0.761489
0.871720 0.382959 0.760977
0.000000 0.524718 0.657111
0.000000 0.585449 0.719545
0.234360 0.651954 0.773733
0.667921 0.696706 0.806491
0.877629 0.709065 0.819535
0.940868 0.717269 0.819217
0.000000 0.648396 0.697804
0.000000 0.744546 0.764346
0.280204 0.821665 0.806802
0.694173 0.875010 0.830741
0.891496 0.897429 0.842783
0.958611 0.902574 0.841874
0.000000 0.721022 0.742501
0.000000 0.806076 0.795938
0.435578 0.871879 0.833030
0.749038 0.919884 0.853770
0.902214 0.942217 0.861460
0.961456 0.950268 0.860777
0.018372 0.000000 0.419471
0.073896 0.000000 0.475770
0.211789 0.000000 0.547247
0.456825 0.000000 0.606067
0.631537 0.000000 0.630829
0.658839 0.000000 0.627131
0.000000 0.028492 0.499004
0.058930 0.045136 0.564123
0.263993 0.067109 0.634461
0.535790 0.054279 0.687276
0.722469 0.000000 0.709499
0.757046 0.000000 0.705183
0.000000 0.262437 0.600305
0.000000 0.308891 0.670600
0.277971 0.362121 0.734981
0.616999 0.392200 0.780331
0.819229 0.396460 0.798343
0.870951 0.376934 0.799454
0.000000 0.507900 0.682203
0.000000 0.580706 0.753768
0.200418 0.654444 0.811002
0.651917 0.704610 0.848209
0.873521 0.722609 0.864024
0.939049 0.715315 0.867808
0.000000 0.654701 0.734481
0.000000 0.742068 0.800906
0.206772 0.819736 0.848612
0.677931 0.875694 0.877891
0.885985 0.900084 0.890916
0.955822 0.904521 0.896037
0.000000 0.711269 0.768032
0.000000 0.798154 0.826767
0.406452 0.872215 0.866752
0.735567 0.921495 0.889073
0.898497 0.945391 0.899644
0.959136 0.954101 0.904753
