LUTs/SPK Cube Block1 S16/TheBrim_SPK_Type-I_Block1_S16.cube
TITLE "TheBrim® SPK Block 1"
# © Copyright 2021 - TheBrim® d.o.o. Croatia
LUT_3D_SIZE 16
DOMAIN_MIN 0.000000 0.000000 0.000000
DOMAIN_MAX 1.000000 1.000000 1.000000
0.006195 0.007263 0.008331
0.007196 0.008423 0.009619
0.009509 0.010748 0.012323
0.013941 0.015558 0.017536
0.021588 0.023957 0.026532
0.034516 0.037903 0.041352
0.054389 0.059174 0.063087
0.080165 0.086049 0.090309
0.107601 0.113680 0.119899
0.137624 0.143441 0.151876
0.168612 0.174228 0.184878
0.188925 0.194760 0.206705
0.204465 0.210477 0.223392
0.219596 0.225510 0.239506
0.235489 0.240592 0.256028
0.255009 0.259068 0.276310
0.007453 0.008698 0.009912
0.008923 0.010150 0.011615
0.011695 0.013031 0.014874
0.016205 0.018067 0.020172
0.025135 0.027802 0.030732
0.039637 0.043439 0.047047
0.061720 0.066835 0.070777
0.089668 0.095637 0.100575
0.121364 0.127370 0.134603
0.153774 0.159347 0.168991
0.192465 0.198337 0.210483
0.222086 0.227884 0.242094
0.243174 0.247861 0.264018
0.261613 0.265336 0.283201
0.278862 0.281743 0.301073
0.295659 0.298491 0.317375
0.010108 0.011341 0.013025
0.012213 0.013623 0.015497
0.015326 0.017090 0.019153
0.021588 0.023944 0.026520
0.030835 0.033960 0.037244
0.046418 0.050752 0.054572
0.070130 0.075673 0.079652
0.099544 0.105592 0.111226
0.133547 0.139400 0.147536
0.169943 0.175564 0.186288
0.211136 0.217234 0.230552
0.259544 0.263389 0.281059
0.282847 0.285692 0.304936
0.304210 0.307262 0.325298
0.323101 0.326635 0.342834
0.341576 0.345592 0.359966
0.014899 0.016608 0.018647
0.018006 0.020032 0.022284
0.023346 0.025873 0.028614
0.029438 0.032453 0.035651
0.042286 0.046302 0.049989
0.059547 0.064582 0.068507
0.084163 0.090083 0.094636
0.113350 0.119417 0.126058
0.150533 0.156179 0.165579
0.190060 0.195908 0.207913
0.235776 0.240855 0.256339
0.286741 0.289451 0.308916
0.326403 0.330034 0.345898
0.348345 0.352551 0.366271
0.369213 0.372570 0.385089
0.390356 0.391791 0.403723
0.024060 0.026630 0.029462
0.028034 0.030951 0.034107
0.036469 0.040040 0.043531
0.045368 0.049628 0.053419
0.058534 0.063502 0.067433
0.078065 0.083925 0.088063
0.103169 0.109242 0.115157
0.134865 0.140694 0.148934
0.172103 0.177749 0.188608
0.213358 0.219437 0.232926
0.263468 0.267094 0.285136
0.315996 0.319347 0.336229
0.368682 0.372082 0.384619
0.395666 0.396625 0.408411
0.417450 0.416413 0.427613
0.439435 0.436603 0.446882
0.044129 0.048310 0.052064
0.047669 0.052100 0.055982
0.057038 0.061939 0.065858
0.068019 0.073463 0.077430
0.083400 0.089308 0.093794
0.103212 0.109255 0.115175
0.132131 0.138027 0.146041
0.164181 0.169754 0.180099
0.204862 0.210886 0.223807
0.250834 0.255137 0.272007
0.300938 0.303899 0.322271
0.353234 0.357427 0.370752
0.409033 0.408759 0.420197
0.448560 0.445435 0.454640
0.471815 0.468232 0.474238
0.492653 0.488655 0.491768
0.070387 0.075935 0.079908
0.078401 0.084273 0.088411
0.085652 0.091597 0.096254
0.099226 0.105257 0.110884
0.114803 0.120900 0.127651
0.139309 0.145083 0.153671
0.166421 0.171987 0.182504
0.202768 0.208756 0.221549
0.244352 0.248991 0.265251
0.291771 0.294554 0.313658
0.340612 0.344604 0.359088
0.394525 0.395593 0.407398
0.449189 0.446052 0.455164
0.500621 0.496471 0.498485
0.523418 0.519243 0.518151
0.543456 0.540551 0.536846
0.098366 0.104402 0.109969
0.110170 0.116249 0.122676
0.122139 0.128139 0.135433
0.138723 0.144515 0.153042
0.157833 0.163430 0.173336
0.182901 0.188669 0.200204
0.213333 0.219260 0.232792
0.250211 0.254527 0.271348
0.293730 0.296562 0.315465
0.338775 0.342730 0.357379
0.388415 0.390027 0.402020
0.440308 0.437562 0.447572
0.494154 0.490144 0.493056
0.542901 0.539977 0.536333
0.570501 0.569366 0.562121
0.589996 0.589935 0.579980
0.135964 0.141781 0.150100
0.150942 0.156576 0.166000
0.166860 0.172476 0.183011
0.186673 0.192490 0.204276
0.207633 0.213675 0.226773
0.235392 0.240488 0.255924
0.268522 0.271879 0.290391
0.306346 0.309453 0.327282
0.345568 0.349700 0.363684
0.393225 0.394403 0.406250
0.441651 0.438782 0.448737
0.491899 0.487907 0.491130
0.539696 0.536565 0.533336
0.584375 0.583978 0.574792
0.621613 0.622181 0.606860
0.640919 0.641852 0.623194
0.185525 0.191324 0.203037
0.203928 0.209921 0.222794
0.224820 0.230405 0.244889
0.248124 0.252543 0.269169
0.272593 0.275755 0.294603
0.298863 0.301762 0.320342
0.331511 0.335265 0.350634
0.368096 0.371411 0.384051
0.411017 0.410565 0.421936
0.454206 0.451026 0.459358
0.500911 0.496767 0.498714
0.543584 0.540703 0.536950
0.586114 0.585858 0.576434
0.630176 0.630915 0.614105
0.668751 0.670973 0.646406
0.687153 0.691041 0.661329
0.227634 0.233158 0.247868
0.262791 0.266441 0.284422
0.291838 0.294554 0.313799
0.320049 0.323510 0.339995
0.347167 0.351342 0.365185
0.378637 0.381140 0.393408
0.410004 0.409650 0.421051
0.445997 0.442933 0.452473
0.481697 0.477925 0.482545
0.521776 0.517546 0.516667
0.558404 0.556481 0.550805
0.597705 0.597833 0.586615
0.637562 0.638441 0.620356
0.676454 0.679304 0.652668
0.705995 0.711684 0.676564
0.730495 0.736294 0.696345
0.267393 0.270835 0.289226
0.304643 0.307713 0.325707
0.341375 0.345403 0.359808
0.375995 0.378747 0.391089
0.413849 0.413135 0.424439
0.452302 0.449116 0.457807
0.492522 0.488536 0.491661
0.527141 0.523198 0.521611
0.556432 0.554376 0.548962
0.585241 0.584936 0.575653
0.622095 0.622675 0.607257
0.658265 0.659754 0.637787
0.690394 0.694594 0.663948
0.721846 0.728219 0.689381
0.748501 0.752395 0.710915
0.774319 0.775583 0.731777
0.286418 0.289000 0.308800
0.330517 0.334252 0.349718
0.371118 0.374328 0.386767
0.413220 0.412580 0.423890
0.451069 0.447877 0.456745
0.490907 0.486940 0.490291
0.528771 0.524932 0.523131
0.564874 0.563366 0.556860
0.603174 0.603406 0.591229
0.644092 0.645093 0.625904
0.680671 0.683925 0.656092
0.712349 0.718379 0.681691
0.741427 0.746065 0.705208
0.771975 0.773593 0.729928
0.796439 0.798917 0.750546
0.814328 0.818766 0.765939
0.303838 0.306871 0.324944
0.349883 0.354064 0.367663
0.397974 0.398706 0.410443
0.440632 0.437855 0.447852
0.481526 0.477766 0.482405
0.521471 0.517186 0.516326
0.556738 0.554711 0.549248
0.594525 0.594598 0.583923
0.635114 0.635938 0.618299
0.674275 0.676924 0.650910
0.708602 0.714546 0.678669
0.743160 0.747616 0.706600
0.777090 0.778268 0.734084
0.802951 0.806143 0.756149
0.830430 0.835929 0.781118
0.850163 0.856101 0.801529
0.318181 0.321587 0.338274
0.365069 0.368823 0.381439
0.413849 0.413159 0.424457
0.458534 0.455207 0.463032
0.499770 0.495656 0.497762
0.538585 0.535369 0.532287
0.574261 0.573364 0.565618
0.615045 0.615509 0.601294
0.656995 0.658332 0.636768
0.694569 0.699165 0.667329
0.731899 0.737551 0.697505
0.768496 0.770254 0.727059
0.798392 0.801089 0.752224
0.822995 0.828196 0.773751
0.842625 0.848392 0.793741
0.863816 0.870146 0.815018
0.332555 0.336370 0.351629
0.380499 0.382824 0.395026
0.429017 0.426923 0.437818
0.473683 0.470076 0.475795
0.516283 0.511833 0.511687
0.552941 0.550683 0.545708
0.590014 0.589990 0.580102
0.632502 0.633289 0.616071
0.673622 0.676210 0.650373
0.712496 0.718819 0.681813
0.751949 0.755489 0.713710
0.788711 0.790359 0.743893
0.816727 0.821421 0.768008
0.839744 0.845432 0.790750
0.858665 0.864799 0.810153
0.874662 0.881468 0.825162
0.007221 0.008447 0.009625
0.009125 0.010346 0.011847
0.012299 0.013721 0.015589
0.017963 0.020008 0.022248
0.027936 0.030835 0.033985
0.044935 0.049152 0.052949
0.070356 0.075904 0.079908
0.101411 0.107454 0.113234
0.133132 0.138997 0.147103
0.164077 0.169668 0.180020
0.192093 0.197971 0.210098
0.208585 0.214646 0.227793
0.222080 0.227884 0.242087
0.238651 0.243589 0.259318
0.254148 0.258268 0.275438
0.271702 0.274925 0.293706
0.008991 0.010211 0.011707
0.010504 0.011786 0.013501
0.014044 0.015674 0.017639
0.019428 0.021607 0.023975
0.030066 0.033143 0.036396
0.046632 0.050977 0.054810
0.072370 0.077992 0.082033
0.102608 0.108656 0.114528
0.140591 0.146358 0.155013
0.176028 0.181735 0.192837
0.213577 0.219620 0.233127
0.247184 0.251682 0.268199
0.266392 0.269883 0.288170
0.281114 0.284019 0.303209
0.297624 0.300493 0.319182
0.314379 0.317693 0.334734
0.012341 0.013764 0.015637
0.014649 0.016327 0.018341
0.018048 0.020093 0.022358
0.025238 0.027906 0.030835
0.037696 0.041346 0.044874
0.056043 0.060902 0.064814
0.081587 0.087495 0.091865
0.112929 0.118978 0.125600
0.152316 0.157925 0.167446
0.192642 0.198508 0.210672
0.235196 0.240317 0.255735
0.285130 0.287919 0.307231
0.310246 0.313463 0.330901
0.329143 0.332848 0.348449
0.344695 0.348797 0.362878
0.361089 0.365014 0.377862
0.019001 0.021149 0.023487
0.021527 0.023877 0.026441
0.026697 0.029487 0.032544
0.034821 0.038264 0.041700
0.049622 0.054139 0.057996
0.069081 0.074580 0.078541
0.096657 0.102675 0.108119
0.128676 0.134597 0.142379
0.169247 0.174874 0.185550
0.210568 0.216611 0.229917
0.259409 0.263255 0.280912
0.311571 0.314818 0.332122
0.354797 0.358843 0.372125
0.376123 0.378875 0.391180
0.396149 0.397046 0.408826
0.413898 0.413202 0.424482
0.030445 0.033558 0.036829
0.033649 0.036994 0.040388
0.042670 0.046717 0.050428
0.054011 0.058759 0.062660
0.067878 0.073310 0.077272
0.089693 0.095644 0.100600
0.115651 0.121724 0.128524
0.149740 0.155380 0.164718
0.190042 0.195877 0.207871
0.234647 0.239786 0.255149
0.284685 0.287309 0.307036
0.338341 0.342278 0.356994
0.394293 0.395373 0.407208
0.425727 0.423938 0.434913
0.446424 0.443433 0.452790
0.466816 0.463325 0.470002
0.052998 0.057691 0.061598
0.054701 0.059492 0.063398
0.064631 0.069899 0.073866
0.078566 0.084419 0.088606
0.095570 0.101558 0.106941
0.115584 0.121675 0.128475
0.146645 0.152328 0.161434
0.180972 0.186728 0.198160
0.222074 0.227836 0.242051
0.270011 0.273295 0.291930
0.320281 0.323754 0.340227
0.373938 0.376886 0.389264
0.431098 0.428882 0.439600
0.477040 0.473353 0.478621
0.499254 0.495128 0.497337
0.520110 0.515715 0.515038
0.085158 0.091072 0.095686
0.091133 0.097102 0.102168
0.097621 0.103621 0.109145
0.111354 0.117421 0.123922
0.129323 0.135219 0.143044
0.153738 0.159371 0.168991
0.182956 0.188742 0.200284
0.219846 0.225644 0.239707
0.263975 0.267588 0.285673
0.312078 0.315337 0.332592
0.361370 0.365460 0.378186
0.416925 0.415967 0.427143
0.472193 0.468611 0.474549
0.524956 0.520964 0.519670
0.546404 0.543706 0.539605
0.566729 0.565344 0.558587
0.117159 0.123232 0.130166
0.128060 0.133999 0.141714
0.140011 0.145785 0.154403
0.152700 0.158328 0.167868
0.173019 0.178683 0.189603
0.198935 0.204886 0.217447
0.231302 0.236619 0.251664
0.269157 0.272538 0.290996
0.314104 0.317418 0.334478
0.359692 0.363543 0.376544
0.411810 0.411286 0.422650
0.463313 0.459889 0.467060
0.515996 0.511949 0.511870
0.562780 0.561144 0.554894
0.592578 0.592584 0.582202
0.613178 0.613587 0.599707
0.155801 0.161379 0.171157
0.168936 0.174551 0.185220
0.185995 0.191794 0.203537
0.204263 0.210288 0.223160
0.227115 0.232609 0.247300
0.256944 0.260917 0.278355
0.289213 0.292064 0.311058
0.327373 0.331023 0.346789
0.368072 0.371283 0.383978
0.415918 0.415027 0.426258
0.463612 0.460188 0.467304
0.512187 0.507994 0.508434
0.556085 0.554022 0.548650
0.602368 0.602594 0.590570
0.643616 0.644605 0.625483
0.661561 0.663172 0.640528
0.208096 0.214157 0.227292
0.224393 0.230002 0.244437
0.246836 0.251341 0.267839
0.269395 0.272709 0.291289
0.293962 0.296886 0.315581
0.321471 0.324981 0.341320
0.352508 0.356591 0.370043
0.388879 0.390460 0.402423
0.430677 0.428498 0.439246
0.472279 0.468690 0.474611
0.518798 0.514507 0.514031
0.559442 0.557586 0.551775
0.601971 0.602179 0.590222
0.647431 0.648475 0.628711
0.685127 0.688801 0.659675
0.704121 0.709627 0.675038
0.263944 0.267552 0.285618
0.293413 0.296165 0.315276
0.318364 0.321782 0.338445
0.344298 0.348388 0.362506
0.369714 0.373040 0.385528
0.398267 0.398987 0.410706
0.427478 0.425531 0.436445
0.461707 0.458314 0.465705
0.498784 0.494670 0.496941
0.537176 0.533880 0.530986
0.572802 0.571814 0.564245
0.613648 0.614093 0.600104
0.653828 0.655048 0.634119
0.690748 0.694990 0.664234
0.722725 0.729213 0.690083
0.747182 0.751192 0.709834
0.305687 0.308763 0.326653
0.339745 0.343627 0.358227
0.377649 0.380249 0.392523
0.411371 0.410889 0.422254
0.445838 0.442811 0.452314
0.480647 0.476899 0.481672
0.511705 0.507622 0.508128
0.540649 0.537578 0.534221
0.570959 0.569830 0.562506
0.601166 0.601367 0.589545
0.637098 0.637964 0.619983
0.671638 0.674037 0.648786
0.703352 0.708766 0.674415
0.735634 0.740883 0.700508
0.764852 0.766989 0.724105
0.787485 0.788992 0.742824
0.331603 0.335369 0.350738
0.377423 0.380047 0.392328
0.418787 0.417621 0.428797
0.457032 0.453730 0.461769
0.490849 0.486900 0.490269
0.525658 0.521617 0.520220
0.556457 0.554400 0.548986
0.592236 0.592181 0.581805
0.629310 0.630036 0.613367
0.667652 0.669703 0.645533
0.695314 0.699977 0.667915
0.725026 0.731215 0.691939
0.754830 0.758053 0.716023
0.783792 0.785202 0.739736
0.805936 0.809458 0.758718
0.822971 0.828128 0.773800
0.346966 0.351135 0.364990
0.395306 0.396295 0.408093
0.442506 0.439649 0.449451
0.482118 0.478334 0.482899
0.519951 0.515770 0.515135
0.552477 0.550170 0.545269
0.586291 0.586029 0.576599
0.624768 0.625397 0.609528
0.662019 0.663771 0.640876
0.696699 0.701503 0.669038
0.730019 0.735866 0.695973
0.764254 0.766470 0.723641
0.793082 0.795200 0.747652
0.817685 0.822446 0.768875
0.840037 0.845750 0.791055
0.857926 0.864060 0.809335
0.359228 0.363439 0.376257
0.407892 0.407739 0.419196
0.456092 0.452815 0.460975
0.500102 0.495964 0.498045
0.537432 0.534154 0.531218
0.572509 0.571490 0.563977
0.608197 0.608545 0.595514
0.648945 0.650043 0.629993
0.683931 0.687489 0.658711
0.720186 0.726656 0.688038
0.755984 0.759078 0.716957
0.788669 0.790323 0.743856
0.814487 0.818943 0.766073
0.835929 0.841544 0.786813
0.854844 0.860868 0.806351
0.875828 0.882689 0.826261
0.373974 0.376922 0.389306
0.422010 0.420587 0.431629
0.470430 0.466877 0.473060
0.514195 0.509886 0.510033
0.551141 0.548754 0.544036
0.586413 0.586249 0.576880
0.624298 0.624939 0.609131
0.664814 0.666566 0.643262
0.699690 0.704756 0.671455
0.738167 0.743160 0.702553
0.776358 0.777328 0.733425
0.806381 0.809964 0.759121
0.831455 0.836979 0.782168
0.853147 0.859123 0.804611
0.870018 0.876622 0.820816
0.885588 0.892833 0.835386
0.009448 0.010669 0.012244
0.012158 0.013556 0.015424
0.016388 0.018250 0.020368
0.024817 0.027448 0.030335
0.039124 0.042896 0.046473
0.060005 0.065064 0.068983
0.088637 0.094582 0.099471
0.124044 0.130050 0.137472
0.159579 0.165176 0.175210
0.192795 0.198660 0.210837
0.218723 0.224686 0.238584
0.237198 0.242210 0.257816
0.251963 0.256187 0.273161
0.265055 0.268608 0.286790
0.276188 0.279155 0.298369
0.289506 0.292161 0.311662
0.011597 0.012921 0.014752
0.013965 0.015576 0.017536
0.018378 0.020472 0.022742
0.026038 0.028779 0.031769
0.041236 0.045173 0.048823
0.061854 0.066981 0.070918
0.090242 0.096193 0.101198
0.124471 0.130440 0.137899
0.166751 0.172348 0.182870
0.203720 0.209714 0.222586
0.245963 0.250492 0.266911
0.277073 0.280131 0.299107
0.296471 0.299321 0.318120
0.311687 0.314928 0.332238
0.325554 0.329162 0.345116
0.338195 0.342126 0.356841
0.015192 0.016956 0.018988
0.018030 0.020075 0.022309
0.022827 0.025306 0.027997
0.031611 0.034803 0.038135
0.045692 0.049964 0.053754
0.066444 0.071803 0.075782
0.093593 0.099568 0.104805
0.125972 0.131930 0.139486
0.166555 0.172171 0.182675
0.209885 0.215933 0.229197
0.256748 0.260722 0.278129
0.305925 0.309032 0.326903
0.338793 0.342748 0.357415
0.358294 0.362097 0.375244
0.374585 0.377465 0.389813
0.390661 0.392071 0.403986
0.024445 0.027051 0.029902
0.026905 0.029712 0.032782
0.033735 0.037086 0.040485
0.043287 0.047376 0.051112
0.060285 0.065351 0.069282
0.080543 0.086433 0.090730
0.109004 0.115077 0.121407
0.142995 0.148745 0.157583
0.185196 0.190994 0.202670
0.230588 0.235941 0.250932
0.281028 0.283812 0.303319
0.332567 0.336352 0.351617
0.385235 0.387152 0.399219
0.407489 0.407361 0.418830
0.426484 0.424622 0.435578
0.443500 0.440613 0.450306
0.040772 0.044678 0.048316
0.044300 0.048475 0.052247
0.050495 0.055055 0.058936
0.063880 0.069117 0.073054
0.078938 0.084749 0.089021
0.102406 0.108467 0.114314
0.131295 0.137179 0.145144
0.166152 0.171762 0.182223
0.207810 0.213852 0.226969
0.256828 0.260795 0.278221
0.307842 0.310985 0.328673
0.361083 0.365032 0.377862
0.418836 0.417670 0.428827
0.455097 0.451844 0.460139
0.474879 0.471235 0.476808
0.493825 0.489802 0.492763
0.065748 0.071089 0.075038
0.067774 0.073194 0.077168
0.072920 0.078614 0.082594
0.090364 0.096327 0.101320
0.108608 0.114717 0.120998
0.132247 0.138143 0.146169
0.163235 0.168795 0.179092
0.199252 0.205203 0.217765
0.243919 0.248588 0.264805
0.291685 0.294493 0.313573
0.342522 0.346581 0.360870
0.396948 0.397790 0.409528
0.453797 0.450556 0.459040
0.505663 0.501408 0.502733
0.525432 0.521379 0.520018
0.542455 0.539489 0.535900
0.098189 0.104195 0.109755
0.104005 0.110066 0.116036
0.106050 0.112111 0.118227
0.122640 0.128640 0.135976
0.146151 0.151852 0.160922
0.172164 0.177823 0.188675
0.202591 0.208511 0.221335
0.242185 0.246946 0.262998
0.286198 0.289067 0.308165
0.333666 0.337481 0.352636
0.384594 0.386560 0.398651
0.437824 0.435248 0.445417
0.492598 0.488603 0.491722
0.543267 0.540362 0.536669
0.569360 0.568139 0.561035
0.587811 0.587652 0.578033
0.136831 0.142654 0.151028
0.147427 0.153085 0.162264
0.155056 0.160684 0.170401
0.167782 0.173397 0.183987
0.190384 0.196237 0.208249
0.217728 0.223545 0.237443
0.253239 0.257401 0.274485
0.291118 0.294041 0.312816
0.335967 0.339855 0.354772
0.383490 0.385553 0.397662
0.435462 0.433021 0.443366
0.486198 0.482341 0.486345
0.536449 0.533098 0.530297
0.582623 0.582110 0.573150
0.616352 0.616828 0.602405
0.635578 0.636432 0.618695
0.179330 0.185074 0.196390
0.193600 0.199490 0.211710
0.205911 0.211930 0.224930
0.225266 0.230790 0.245353
0.246439 0.250950 0.267424
0.276982 0.279942 0.299138
0.310961 0.314183 0.331572
0.348980 0.352911 0.366748
0.391125 0.392486 0.404407
0.439655 0.437061 0.446937
0.487239 0.483351 0.487221
0.533758 0.530242 0.527794
0.576220 0.575409 0.567382
0.622718 0.623328 0.607794
0.663465 0.665284 0.642078
0.679274 0.682411 0.654963
0.231687 0.236985 0.252061
0.249534 0.253892 0.270640
0.266007 0.269499 0.287767
0.289177 0.292045 0.311034
0.313939 0.317241 0.334337
0.342632 0.346685 0.360955
0.376269 0.379004 0.391315
0.412531 0.411939 0.423273
0.453962 0.450794 0.459156
0.496181 0.492122 0.494740
0.539202 0.536034 0.532879
0.579071 0.578442 0.570019
0.621082 0.621656 0.606409
0.663325 0.665144 0.641950
0.700337 0.705489 0.671986
0.720418 0.726949 0.688222
0.294102 0.296880 0.315911
0.319530 0.322979 0.339513
0.337914 0.341857 0.356591
0.364471 0.368267 0.380896
0.391913 0.393207 0.405097
0.421228 0.419861 0.430951
0.451826 0.448615 0.457374
0.485255 0.481404 0.485536
0.520531 0.516313 0.515599
0.555627 0.553533 0.548229
0.589929 0.589905 0.580029
0.630994 0.631745 0.614795
0.668812 0.670942 0.646497
0.703835 0.709328 0.674812
0.737343 0.742409 0.701888
0.763168 0.765481 0.722756
0.344622 0.348724 0.362811
0.380243 0.382605 0.394812
0.416101 0.415186 0.426429
0.448646 0.445515 0.454707
0.479908 0.476173 0.481038
0.507066 0.502907 0.504048
0.532946 0.529393 0.527044
0.558679 0.556768 0.551067
0.587848 0.587604 0.577911
0.619648 0.620191 0.605200
0.654664 0.655970 0.634784
0.685310 0.689015 0.659834
0.716994 0.723140 0.685444
0.748409 0.752316 0.710842
0.778726 0.779812 0.735427
0.798849 0.801602 0.752621
0.373449 0.376422 0.388830
0.421375 0.420020 0.431073
0.458173 0.454853 0.462733
0.495656 0.491603 0.494301
0.526299 0.522374 0.520897
0.556817 0.554791 0.549322
0.586651 0.586328 0.576788
0.620838 0.621418 0.606189
0.654285 0.655683 0.634424
0.683937 0.687520 0.658723
0.709529 0.715554 0.679426
0.738344 0.743307 0.702705
0.767990 0.769979 0.726705
0.793289 0.795431 0.747823
0.815537 0.820060 0.767019
0.832346 0.837894 0.783102
0.396826 0.397668 0.409424
0.445838 0.442817 0.452314
0.491304 0.487343 0.490632
0.528051 0.524242 0.522545
0.559496 0.557647 0.551836
0.590802 0.590729 0.580609
0.623670 0.624280 0.608594
0.657563 0.659095 0.637153
0.687324 0.691225 0.661469
0.718282 0.724599 0.686488
0.751315 0.754897 0.713167
0.782718 0.783932 0.738784
0.807700 0.811405 0.760226
0.829599 0.835068 0.780270
0.848069 0.853947 0.799374
0.863273 0.869596 0.814511
0.409888 0.409540 0.420948
0.459004 0.455665 0.463429
0.504781 0.500575 0.502010
0.543194 0.540288 0.536602
0.575476 0.574646 0.566748
0.610163 0.610529 0.597156
0.644416 0.645411 0.626166
0.678254 0.681294 0.654139
0.708925 0.714900 0.678932
0.742281 0.746828 0.705885
0.777273 0.778262 0.734200
0.803293 0.806528 0.756435
0.827628 0.833036 0.778268
0.847184 0.853043 0.798453
0.864646 0.871031 0.815793
0.882542 0.889665 0.832535
0.425397 0.423645 0.434620
0.469026 0.465498 0.471882
0.514665 0.510552 0.510649
0.552178 0.549859 0.545006
0.586737 0.586517 0.577014
0.622351 0.622937 0.607483
0.658253 0.659699 0.637800
0.691011 0.695253 0.664442
0.724849 0.731063 0.691798
0.761074 0.763613 0.721047
0.793387 0.795541 0.747909
0.820938 0.826011 0.771792
0.843107 0.848875 0.794235
0.863163 0.869487 0.814414
0.879405 0.886400 0.829612
0.893004 0.899748 0.842545
0.014063 0.015680 0.017670
0.017957 0.020014 0.022242
0.024964 0.027619 0.030524
0.036335 0.039899 0.043372
0.055604 0.060426 0.064332
0.080696 0.086574 0.090889
0.114290 0.120357 0.127077
0.155422 0.161032 0.170761
0.195615 0.201523 0.213864
0.232047 0.237321 0.252451
0.256272 0.260282 0.277641
0.273454 0.276579 0.295525
0.285093 0.287822 0.307317
0.298149 0.301030 0.319664
0.308104 0.311247 0.328905
0.319023 0.322460 0.339049
0.016559 0.018470 0.020587
0.018927 0.021064 0.023383
0.025586 0.028290 0.031250
0.036292 0.039850 0.043330
0.055555 0.060377 0.064302
0.079048 0.084913 0.089119
0.110988 0.117079 0.123549
0.149709 0.155349 0.164688
0.196439 0.202347 0.214749
0.237253 0.242264 0.257865
0.279472 0.282274 0.301775
0.310613 0.313823 0.331237
0.328429 0.332122 0.347784
0.343255 0.347314 0.361535
0.356518 0.360632 0.373730
0.369158 0.372528 0.385040
0.022254 0.024683 0.027326
0.024903 0.027546 0.030433
0.030994 0.034131 0.037427
0.043073 0.047156 0.050867
0.060932 0.066017 0.069960
0.084102 0.089998 0.094551
0.113735 0.119820 0.126485
0.150124 0.155758 0.165127
0.194913 0.200797 0.213095
0.243241 0.247935 0.264097
0.288786 0.291472 0.310900
0.338305 0.342248 0.356951
0.371594 0.374743 0.387189
0.392139 0.393420 0.405292
0.407922 0.407770 0.419214
0.423243 0.421674 0.432721
0.032496 0.035755 0.039106
0.034766 0.038190 0.041639
0.042609 0.046650 0.050355
0.055073 0.059883 0.063777
0.074043 0.079731 0.083790
0.096645 0.102663 0.108095
0.126998 0.132943 0.140591
0.162533 0.168148 0.178372
0.205527 0.211563 0.224533
0.254789 0.258885 0.276109
0.307512 0.310649 0.328362
0.359374 0.363195 0.376233
0.414807 0.414014 0.425293
0.439478 0.436909 0.446760
0.457539 0.454249 0.462196
0.474073 0.470436 0.476118
0.052729 0.057386 0.061280
0.056721 0.061616 0.065522
0.063307 0.068513 0.072456
0.077803 0.083577 0.087819
0.095491 0.101485 0.106844
0.119820 0.125838 0.132967
0.150863 0.156509 0.165914
0.188205 0.194028 0.205911
0.231620 0.236918 0.252000
0.281761 0.284611 0.303911
0.334582 0.338433 0.353491
0.390094 0.391559 0.403510
0.446473 0.443494 0.452821
0.486305 0.482429 0.486427
0.505428 0.501189 0.502516
0.522570 0.518474 0.517510
0.078169 0.084034 0.088161
0.084743 0.090657 0.095253
0.091481 0.097456 0.102528
0.104823 0.110890 0.116915
0.126253 0.132210 0.139797
0.151290 0.156930 0.166384
0.185428 0.191220 0.202914
0.222251 0.227982 0.242234
0.269517 0.272825 0.291423
0.318370 0.321801 0.338445
0.370629 0.373883 0.386346
0.426191 0.424402 0.435322
0.482210 0.478419 0.482979
0.532244 0.528637 0.526378
0.549834 0.547369 0.542809
0.566210 0.564782 0.558087
0.113338 0.119435 0.126076
0.122023 0.128042 0.135323
0.125100 0.131069 0.138582
0.138882 0.144674 0.153188
0.165115 0.170712 0.181125
0.194766 0.200668 0.212955
0.226658 0.232206 0.246848
0.268730 0.272111 0.290556
0.312975 0.316246 0.333428
0.360888 0.364691 0.377606
0.413062 0.412439 0.423749
0.465663 0.462202 0.469032
0.518486 0.514421 0.513988
0.566088 0.564660 0.557989
0.593725 0.593750 0.583185
0.611743 0.612146 0.598499
0.155477 0.161080 0.170828
0.165512 0.171115 0.181546
