LUTs/SPK Cube Block1 S16/TheBrim_SPK_Type-C_Block1_S16.cube
TITLE "TheBrim® SPK Block 1"
# TheBrim® d.o.o. Croatia
# Copyright: (C) Copyright 2020 TheBrim® d.o.o. Croatia
LUT_3D_SIZE 16
0.0000000000 0.0000000000 0.0000000000
0.0000244000 0.0000000000 0.0000000000
0.0015806000 0.0000000000 0.0000000000
0.0046450000 0.0000000000 0.0000000000
0.0147890000 0.0000000000 0.0000000000
0.0385740000 0.0000000000 0.0000000000
0.0926088000 0.0000000000 0.0000000000
0.1752014000 0.0000124000 0.0000124000
0.2797060000 0.0000796000 0.0000796000
0.4019104000 0.0001220000 0.0001220000
0.5263670000 0.0003660000 0.0003660000
0.6402832000 0.0006222000 0.0006222000
0.7345518000 0.0008908000 0.0008908000
0.8081358000 0.0011656000 0.0011656000
0.8606018000 0.0014528000 0.0014528000
0.8964230000 0.0017400000 0.0017400000
0.0000000000 0.0001098000 0.0000000000
0.0002196000 0.0002196000 0.0000000000
0.0021302000 0.0004270000 0.0000000000
0.0066288000 0.0006774000 0.0000000000
0.0190366000 0.0009518000 0.0000000000
0.0503848000 0.0012388000 0.0000062000
0.1125980000 0.0015260000 0.0000672000
0.2021606000 0.0018064000 0.0001464000
0.3116578000 0.0020814000 0.0003660000
0.4363402000 0.0023740000 0.0006222000
0.5591002000 0.0026668000 0.0008786000
0.6677492000 0.0031070000 0.0011656000
0.7564512000 0.0036316000 0.0014528000
0.8243592000 0.0042724000 0.0017396000
0.8715882000 0.0051758000 0.0020262000
0.9039546000 0.0060790000 0.0022824000
0.0000000000 0.0021302000 0.0000000000
0.0006654000 0.0024234000 0.0000000000
0.0027830000 0.0027830000 0.0000000000
0.0092348000 0.0031800000 0.0000124000
0.0247312000 0.0037840000 0.0000674000
0.0644040000 0.0044008000 0.0001464000
0.1344664000 0.0053588000 0.0003540000
0.2303952000 0.0063542000 0.0005922000
0.3447938000 0.0075866000 0.0008788000
0.4704406000 0.0089048000 0.0011596000
0.5910218000 0.0103882000 0.0014342000
0.6940732000 0.0120910000 0.0017214000
0.7769896000 0.0138614000 0.0020082000
0.8391236000 0.0158998000 0.0022824000
0.8815550000 0.0179684000 0.0025510000
0.9104432000 0.0205506000 0.0029542000
0.0000000000 0.0077822000 0.0000000000
0.0012088000 0.0091856000 0.0000062000
0.0037598000 0.0106628000 0.0000614000
0.0124330000 0.0124330000 0.0001286000
0.0325074000 0.0142030000 0.0003360000
0.0806274000 0.0162838000 0.0005922000
0.1582824000 0.0184142000 0.0008670000
0.2596132000 0.0210266000 0.0011476000
0.3788576000 0.0240230000 0.0014404000
0.5040528000 0.0273678000 0.0017276000
0.6212710000 0.0315982000 0.0019962000
0.7189820000 0.0360410000 0.0022824000
0.7962038000 0.0416624000 0.0025390000
0.8524290000 0.0473572000 0.0029480000
0.8907346000 0.0540526000 0.0034000000
0.9161928000 0.0610168000 0.0040222000
0.0000550000 0.0245180000 0.0000550000
0.0017700000 0.0278260000 0.0001222000
0.0052918000 0.0323546000 0.0003360000
0.0161990000 0.0369018000 0.0005922000
0.0425966000 0.0425966000 0.0008484000
0.0989380000 0.0484800000 0.0011356000
0.1838986000 0.0551206000 0.0014218000
0.2901368000 0.0624146000 0.0017090000
0.4132692000 0.0700256000 0.0019962000
0.5372374000 0.0786256000 0.0022524000
0.6495968000 0.0872194000 0.0025386000
0.7420960000 0.0970092000 0.0029116000
0.8137636000 0.1068544000 0.0033812000
0.8644290000 0.1175842000 0.0040036000
0.8990414000 0.1286622000 0.0048280000
0.9216496000 0.1401918000 0.0057314000
0.0003360000 0.0711980000 0.0003360000
0.0023256000 0.0800352000 0.0005922000
0.0074158000 0.0888730000 0.0008484000
0.0207398000 0.0986022000 0.0011356000
0.0548280000 0.1087098000 0.0014218000
0.1193540000 0.1193540000 0.0017090000
0.2112364000 0.1306580000 0.0019962000
0.3223876000 0.1421264000 0.0022524000
0.4476808000 0.1545960000 0.0025086000
0.5698238000 0.1670410000 0.0029056000
0.6768190000 0.1804500000 0.0033570000
0.7636228000 0.1939698000 0.0039736000
0.8295590000 0.2080932000 0.0048032000
0.8750610000 0.2225402000 0.0056704000
0.9062316000 0.2370972000 0.0068660000
0.9268190000 0.2518620000 0.0080260000
0.0008484000 0.1569766000 0.0008484000
0.0030028000 0.1697140000 0.0011108000
0.0101748000 0.1830076000 0.0013978000
0.0269288000 0.1967468000 0.0016842000
0.0694218000 0.2107422000 0.0019714000
0.1416988000 0.2252438000 0.0022524000
0.2397946000 0.2397946000 0.0025148000
0.3558776000 0.2547730000 0.0028994000
0.4815856000 0.2697330000 0.0033510000
0.6013488000 0.2855896000 0.0039428000
0.7027774000 0.3016846000 0.0047792000
0.7837650000 0.3182250000 0.0056518000
0.8438108000 0.3350768000 0.0068116000
0.8846984000 0.3521180000 0.0080202000
0.9123476000 0.3694886000 0.0094724000
0.9316528000 0.3868776000 0.0110354000
0.0013918000 0.2727906000 0.0013918000
0.0041016000 0.2885866000 0.0016844000
0.0135314000 0.3048648000 0.0019652000
0.0353638000 0.3213014000 0.0022338000
0.0863828000 0.3383116000 0.0025086000
0.1662904000 0.3553402000 0.0028746000
0.2692872000 0.3727658000 0.0033448000
0.3902282000 0.3902282000 0.0039246000
0.5150880000 0.4077574000 0.0047546000
0.6307070000 0.4252992000 0.0056274000
0.7269528000 0.4427366000 0.0067810000
0.8022702000 0.4600650000 0.0079832000
0.8564940000 0.4772824000 0.0094116000
0.8935242000 0.4944336000 0.0109804000
0.9179812000 0.5114440000 0.0126954000
0.9361876000 0.5282776000 0.0146060000
0.0019652000 0.4109922000 0.0019652000
0.0058656000 0.4284484000 0.0022214000
0.0175414000 0.4458986000 0.0024776000
0.0464172000 0.4632206000 0.0028566000
0.1055724000 0.4804868000 0.0033142000
0.1926332000 0.4975218000 0.0039002000
0.3006288000 0.5145018000 0.0047182000
0.4246762000 0.5312866000 0.0056092000
0.5479802000 0.5479802000 0.0067384000
0.6585754000 0.5645266000 0.0079284000
0.7492978000 0.5807434000 0.0093812000
0.8190798000 0.5968144000 0.0109190000
0.8679320000 0.6119568000 0.0126342000
0.9013426000 0.6270268000 0.0145388000
0.9233218000 0.6413820000 0.0165402000
0.9402590000 0.6555236000 0.0187988000
0.0024776000 0.5511168000 0.0024776000
0.0082398000 0.5676942000 0.0028506000
0.0226260000 0.5837402000 0.0033020000
0.0596312000 0.5998046000 0.0038878000
0.1268130000 0.6148498000 0.0046998000
0.2206600000 0.6297668000 0.0055358000
0.3334168000 0.6440854000 0.0066892000
0.4589236000 0.6581238000 0.0078860000
0.5802308000 0.6719542000 0.0093200000
0.6853088000 0.6853088000 0.0108582000
0.7703554000 0.6986696000 0.0125730000
0.8343386000 0.7111204000 0.0144716000
0.8782474000 0.7235106000 0.0164488000
0.9082154000 0.7351316000 0.0187138000
0.9283872000 0.7464658000 0.0210084000
0.9435668000 0.7574952000 0.0242496000
0.0032960000 0.6745910000 0.0032960000
0.0112242000 0.6878476000 0.0038268000
0.0295896000 0.7010862000 0.0046632000
0.0750614000 0.7135744000 0.0054994000
0.1499208000 0.7257444000 0.0066590000
0.2494200000 0.7374880000 0.0078430000
0.3671996000 0.7486020000 0.0092592000
0.4926878000 0.7595762000 0.0108274000
0.6110596000 0.7700258000 0.0125122000
0.7107300000 0.7804258000 0.0144044000
0.7900700000 0.7900700000 0.0163570000
0.8481810000 0.7995848000 0.0186338000
0.8877016000 0.8084536000 0.0209106000
0.9142270000 0.8168824000 0.0241274000
0.9331662000 0.8250240000 0.0275452000
0.9462590000 0.8325810000 0.0317380000
0.0046264000 0.7718382000 0.0046264000
0.0148564000 0.7820556000 0.0054936000
0.0389648000 0.7917356000 0.0066286000
0.0927308000 0.8010558000 0.0078184000
0.1750490000 0.8099916000 0.0092222000
0.2794742000 0.8182556000 0.0107666000
0.4015382000 0.8264468000 0.0124454000
0.5260496000 0.8338256000 0.0143372000
0.6400148000 0.8412230000 0.0163146000
0.7344300000 0.8479188000 0.0185668000
0.8081664000 0.8544558000 0.0208864000
0.8605222000 0.8605222000 0.0240112000
0.8962644000 0.8662290000 0.0274232000
0.9197938000 0.8717836000 0.0315736000
0.9376098000 0.8768554000 0.0363950000
0.9486818000 0.8819032000 0.0415648000
0.0065796000 0.8423704000 0.0065796000
0.0191160000 0.8491146000 0.0077638000
0.0506284000 0.8554258000 0.0091676000
0.1125180000 0.8616088000 0.0107120000
0.2018246000 0.8671872000 0.0123836000
0.3112122000 0.8727294000 0.0142824000
0.4360778000 0.8777344000 0.0162476000
0.5587526000 0.8826848000 0.0184878000
0.6675354000 0.8873474000 0.0208378000
0.7563906000 0.8918700000 0.0239076000
0.8245240000 0.8961424000 0.0273068000
0.8716244000 0.9000608000 0.0314084000
0.9038696000 0.9038696000 0.0362368000
0.9250612000 0.9071838000 0.0414244000
0.9414610000 0.9104674000 0.0475830000
0.9508482000 0.9133914000 0.0539060000
0.0091062000 0.8882628000 0.0091062000
0.0246212000 0.8926394000 0.0106750000
0.0644104000 0.8969482000 0.0123228000
0.1342530000 0.9007262000 0.0142338000
0.2300782000 0.9045164000 0.0161806000
0.3443848000 0.9078064000 0.0184018000
0.4701416000 0.9109804000 0.0207274000
0.5907958000 0.9139406000 0.0238038000
0.6940184000 0.9168030000 0.0272036000
0.7771178000 0.9196110000 0.0312560000
0.8393008000 0.9223084000 0.0360658000
0.8815370000 0.9249814000 0.0412356000
0.9103454000 0.9275024000 0.0473570000
0.9300106000 0.9300106000 0.0537354000
0.9444702000 0.9323854000 0.0609802000
0.9527892000 0.9347472000 0.0685300000
0.0122500000 0.9173160000 0.0122500000
0.0321656000 0.9201234000 0.0141664000
0.0804564000 0.9227968000 0.0160950000
0.1579468000 0.9254514000 0.0183348000
0.2589596000 0.9279848000 0.0206116000
0.3784726000 0.9304688000 0.0236696000
0.5038392000 0.9328310000 0.0270874000
0.6209720000 0.9351622000 0.0311096000
0.7187928000 0.9374026000 0.0359194000
0.7962280000 0.9393676000 0.0410770000
0.8525814000 0.9413634000 0.0471492000
0.8907044000 0.9429200000 0.0534058000
0.9161132000 0.9444274000 0.0607604000
0.9346616000 0.9457580000 0.0682740000
0.9470396000 0.9470396000 0.0766298000
0.9545408000 0.9482788000 0.0854430000
0.0159910000 0.9378660000 0.0159910000
0.0421142000 0.9398196000 0.0182618000
0.0987426000 0.9417422000 0.0205446000
0.1836424000 0.9432860000 0.0235778000
0.2897644000 0.9446958000 0.0269652000
0.4130550000 0.9460450000 0.0309450000
0.5369568000 0.9472960000 0.0357540000
0.6493162000 0.9485226000 0.0407290000
0.7418458000 0.9496280000 0.0469480000
0.8136292000 0.9507510000 0.0531678000
0.8643800000 0.9517520000 0.0604860000
0.8989380000 0.9527158000 0.0680234000
0.9215512000 0.9536376000 0.0763124000
0.9389164000 0.9545044000 0.0851746000
0.9493774000 0.9553464000 0.0943728000
0.9561160000 0.9561160000 0.1044620000
0.0000000000 0.0000000000 0.0000122000
0.0000492000 0.0000000000 0.0000492000
0.0016966000 0.0000000000 0.0001468000
0.0049622000 0.0000000000 0.0002688000
0.0155028000 0.0000000000 0.0005250000
0.0404478000 0.0000000000 0.0007874000
0.0960818000 0.0000000000 0.0010498000
0.1800352000 0.0000370000 0.0013370000
0.2854800000 0.0000920000 0.0016232000
0.4083804000 0.0002078000 0.0019042000
0.5325686000 0.0004640000 0.0021852000
0.6455746000 0.0007202000 0.0024782000
0.7388550000 0.0010074000 0.0027892000
0.8113892000 0.0012756000 0.0032898000
0.8628054000 0.0015686000 0.0038268000
0.8979612000 0.0018620000 0.0046016000
0.0000000000 0.0001590000 0.0001590000
0.0002688000 0.0002688000 0.0002688000
0.0022278000 0.0005004000 0.0005004000
0.0070434000 0.0007626000 0.0007626000
0.0198914000 0.0010498000 0.0010498000
0.0527158000 0.0013370000 0.0013370000
0.1163638000 0.0016232000 0.0016232000
0.2072752000 0.0019042000 0.0019042000
0.3177002000 0.0021914000 0.0021914000
0.4427244000 0.0024842000 0.0024842000
0.5651672000 0.0027832000 0.0027832000
0.6728092000 0.0033018000 0.0033018000
0.7603760000 0.0038454000 0.0038454000
0.8272644000 0.0046082000 0.0046082000
0.8735288000 0.0055050000 0.0055050000
0.9052366000 0.0065364000 0.0065364000
0.0000000000 0.0022276000 0.0005004000
0.0007626000 0.0025450000 0.0007626000
0.0029114000 0.0029114000 0.0010498000
0.0097596000 0.0034056000 0.0013246000
0.0258848000 0.0040098000 0.0016052000
0.0671632000 0.0047486000 0.0018862000
0.1387024000 0.0057310000 0.0021606000
0.2357298000 0.0067442000 0.0024842000
0.3510806000 0.0080688000 0.0027894000
0.4767514000 0.0093872000 0.0032714000
0.5968136000 0.0110046000 0.0038022000
0.6988464000 0.0127194000 0.0045836000
0.7806826000 0.0146180000 0.0054812000
0.8416992000 0.0166624000 0.0064880000
0.8833130000 0.0188600000 0.0077514000
0.9115294000 0.0215640000 0.0090454000
0.0000000000 0.0082944000 0.0010312000
0.0013060000 0.0097110000 0.0013060000
0.0039976000 0.0113098000 0.0015992000
0.0130862000 0.0130862000 0.0018858000
0.0341738000 0.0149414000 0.0021604000
0.0838806000 0.0170656000 0.0024472000
0.1629456000 0.0192386000 0.0027772000
0.2652038000 0.0221312000 0.0032530000
0.3852784000 0.0251100000 0.0037840000
0.5102602000 0.0289550000 0.0045290000
0.6266174000 0.0331664000 0.0054320000
0.7233646000 0.0380738000 0.0064454000
0.7995114000 0.0437498000 0.0077026000
0.8546874000 0.0496766000 0.0090274000
0.8923154000 0.0566346000 0.0105832000
0.9172120000 0.0636536000 0.0122250000
0.0000858000 0.0256896000 0.0015932000
0.0018740000 0.0294556000 0.0018740000
0.0056456000 0.0340208000 0.0021544000
0.0169984000 0.0388366000 0.0024412000
0.0447570000 0.0447570000 0.0027586000
0.1026550000 0.0506718000 0.0032104000
0.1889468000 0.0578066000 0.0037780000
0.2961184000 0.0650818000 0.0044980000
0.4196838000 0.0731810000 0.0053956000
0.5433414000 0.0817748000 0.0064088000
0.6546448000 0.0907714000 0.0076414000
0.7461242000 0.1006286000 0.0089536000
0.8167176000 0.1106078000 0.0105284000
0.8664002000 0.1216430000 0.0121582000
0.9003722000 0.1327212000 0.0140198000
0.9226196000 0.1446900000 0.0159908000
0.0004270000 0.0744326000 0.0021544000
0.0024412000 0.0832766000 0.0024412000
0.0078980000 0.0922420000 0.0027342000
0.0218260000 0.1023130000 0.0031980000
0.0574950000 0.1124086000 0.0037296000
0.1234924000 0.1234924000 0.0044674000
0.2165160000 0.1347716000 0.0053586000
0.3286500000 0.1467102000 0.0063722000
0.4540286000 0.1591676000 0.0076112000
0.5757260000 0.1718992000 0.0088990000
0.6816590000 0.1854190000 0.0104616000
0.7674196000 0.1989806000 0.0120854000
0.8322876000 0.2133846000 0.0139526000
0.8769108000 0.2278562000 0.0159300000
0.9074524000 0.2425046000 0.0180664000
0.9277466000 0.2572814000 0.0205262000
0.0009464000 0.1616520000 0.0027400000
0.0032224000 0.1743832000 0.0032224000
0.0107972000 0.1880554000 0.0037474000
0.0284608000 0.2017698000 0.0044554000
0.0725524000 0.2160336000 0.0053648000
0.1462826000 0.2305906000 0.0063172000
0.2453304000 0.2453304000 0.0075866000
0.3622740000 0.2602964000 0.0088686000
0.4878724000 0.2754272000 0.0104308000
0.6070558000 0.2915224000 0.0120666000
0.7074648000 0.3075498000 0.0139038000
0.7873718000 0.3244690000 0.0159118000
0.8463134000 0.3412902000 0.0180666000
0.8864258000 0.3585082000 0.0205566000
0.9134342000 0.3758664000 0.0231936000
0.9325374000 0.3933408000 0.0268250000
0.0014952000 0.2783996000 0.0037228000
0.0044190000 0.2945436000 0.0044190000
0.0142698000 0.3108338000 0.0053160000
0.0373472000 0.3275574000 0.0062806000
0.0898132000 0.3445498000 0.0075316000
0.1710266000 0.3617128000 0.0088136000
0.2749022000 0.3791504000 0.0103944000
0.3966306000 0.3966306000 0.0120178000
0.5213076000 0.4141970000 0.0138366000
0.6360536000 0.4317080000 0.0158264000
0.7313478000 0.4490970000 0.0179384000
0.8056154000 0.4664306000 0.0204832000
0.8588016000 0.4835510000 0.0231140000
0.8951354000 0.5006228000 0.0267210000
0.9190184000 0.5176452000 0.0304564000
0.9370482000 0.5343810000 0.0351744000
0.0020632000 0.4173706000 0.0052734000
0.0062498000 0.4348818000 0.0062498000
0.0183352000 0.4522398000 0.0075012000
0.0485350000 0.4695312000 0.0087888000
0.1091978000 0.4867246000 0.0103210000
0.1976562000 0.5037536000 0.0119262000
0.3065736000 0.5207028000 0.0137756000
0.4311158000 0.5374208000 0.0157530000
0.5541014000 0.5541014000 0.0178344000
0.6637022000 0.5704652000 0.0203488000
0.7533692000 0.5866634000 0.0230042000
0.8221070000 0.6023922000 0.0265932000
0.8699710000 0.6174682000 0.0303284000
0.9027402000 0.6323974000 0.0350036000
0.9242978000 0.6465760000 0.0401000000
0.9409666000 0.6606934000 0.0458310000
0.0025758000 0.5572208000 0.0074400000
0.0087218000 0.5735960000 0.0087218000
0.0236570000 0.5896362000 0.0102538000
0.0622378000 0.6054690000 0.0118836000
0.1308900000 0.6202756000 0.0137026000
0.2259642000 0.6351622000 0.0156676000
0.3395870000 0.6492492000 0.0177614000
0.4652710000 0.6632446000 0.0202518000
0.5861572000 0.6768496000 0.0229306000
0.6902222000 0.6902222000 0.0263916000
0.7742004000 0.7032960000 0.0300840000
0.8370240000 0.7156740000 0.0348328000
0.8800658000 0.7279296000 0.0399294000
0.9093934000 0.7392942000 0.0456358000
0.9292846000 0.7506164000 0.0520998000
0.9440792000 0.7613584000 0.0588926000
0.0034542000 0.6794618000 0.0101806000
0.0118282000 0.6927184000 0.0118282000
0.0310672000 0.7058472000 0.0136354000
0.0781312000 0.7180600000 0.0156004000
0.1544068000 0.7302308000 0.0176942000
0.2548342000 0.7415592000 0.0201236000
0.3736022000 0.7526732000 0.0227170000
0.4989502000 0.7634034000 0.0262880000
0.6166016000 0.7738528000 0.0299376000
0.7152768000 0.7840452000 0.0346132000
0.7935608000 0.7935608000 0.0396730000
0.8505736000 0.8030276000 0.0454282000
0.8893308000 0.8115294000 0.0518736000
0.9152772000 0.8199770000 0.0586182000
0.9340088000 0.8278012000 0.0663146000
0.9467042000 0.8353392000 0.0741272000
0.0049436000 0.7755738000 0.0135804000
0.0155698000 0.7857914000 0.0155698000
0.0409422000 0.7951296000 0.0176572000
0.0962708000 0.8044312000 0.0201478000
0.1799192000 0.8129884000 0.0226624000
0.2852602000 0.8212828000 0.0262210000
0.4079892000 0.8291320000 0.0299564000
0.5321898000 0.8365294000 0.0345762000
0.6452086000 0.8437682000 0.0396486000
0.7385806000 0.8503110000 0.0452700000
0.8112730000 0.8568236000 0.0517332000
0.8626100000 0.8626100000 0.0583926000
0.8977048000 0.8683166000 0.0661928000
0.9207888000 0.8736328000 0.0739806000
0.9383420000 0.8786864000 0.0828612000
0.9490722000 0.8836182000 0.0919310000
0.0070130000 0.8449954000 0.0175354000
0.0200682000 0.8514222000 0.0200682000
0.0531188000 0.8577576000 0.0226624000
0.1164736000 0.8636476000 0.0261048000
0.2070494000 0.8692262000 0.0298034000
0.3173766000 0.8745850000 0.0343324000
0.4424376000 0.8795530000 0.0394774000
0.5647338000 0.8844790000 0.0450438000
0.6724794000 0.8890074000 0.0515198000
0.7602724000 0.8935180000 0.0581606000
0.8272892000 0.8975828000 0.0658508000
0.8734742000 0.9014892000 0.0737548000
0.9050724000 0.9050724000 0.0825192000
0.9259950000 0.9083678000 0.0916382000
0.9420716000 0.9115662000 0.1013610000
0.9512206000 0.9144528000 0.1116818000
0.0096802000 0.8898742000 0.0225098000
0.0259952000 0.8942504000 0.0259952000
0.0673766000 0.8983400000 0.0296630000
0.1386656000 0.9020996000 0.0341618000
0.2354734000 0.9057616000 0.0392456000
0.3507142000 0.9089720000 0.0448058000
0.4764224000 0.9121280000 0.0512940000
0.5964174000 0.9149902000 0.0579710000
0.6986144000 0.9178408000 0.0656006000
0.7807376000 0.9205932000 0.0734740000
0.8418762000 0.9232968000 0.0821836000
0.8833070000 0.9259034000 0.0913268000
0.9114686000 0.9284178000 0.1009950000
0.9309018000 0.9309018000 0.1113648000
0.9449888000 0.9332460000 0.1219786000
0.9531370000 0.9355898000 0.1334594000
0.0129456000 0.9183532000 0.0294614000
0.0339904000 0.9211184000 0.0339904000
0.0838442000 0.9237732000 0.0390868000
0.1626952000 0.9264100000 0.0446046000
0.2647158000 0.9288940000 0.0510192000
0.3849182000 0.9313658000 0.0576842000
0.5100402000 0.9336976000 0.0653564000
0.6263978000 0.9360048000 0.0731566000
0.7232972000 0.9381288000 0.0818784000
0.7996824000 0.9401060000 0.0909790000
0.8549624000 0.9419614000 0.1006104000
0.8923524000 0.9434690000 0.1109864000
0.9171570000 0.9449400000 0.1216186000
0.9355164000 0.9462278000 0.1330626000
0.9475220000 0.9475220000 0.1447326000
0.9548526000 0.9486876000 0.1571592000
0.0168216000 0.9385986000 0.0388550000
0.0443850000 0.9405212000 0.0443850000
0.1024476000 0.9423888000 0.0507998000
0.1886106000 0.9437990000 0.0573790000
0.2956054000 0.9452086000 0.0650208000
0.4195252000 0.9464964000 0.0728272000
0.5431154000 0.9477476000 0.0815796000
0.6545042000 0.9489200000 0.0906738000
0.7459718000 0.9500428000 0.1002988000
0.8167662000 0.9511168000 0.1106082000
0.8665286000 0.9521054000 0.1212098000
0.9004152000 0.9530880000 0.1327084000
0.9225526000 0.9539548000 0.1442686000
0.9396668000 0.9548216000 0.1567748000
0.9497986000 0.9556150000 0.1694218000
0.9563782000 0.9563782000 0.1827390000
0.0000000000 0.0000000000 0.0012208000
0.0000736000 0.0000000000 0.0015074000
0.0017946000 0.0000000000 0.0017946000
0.0053344000 0.0000000000 0.0020694000
0.0162966000 0.0000000000 0.0023436000
0.0427306000 0.0000000000 0.0026730000
0.0997678000 0.0000000000 0.0030582000
0.1849790000 0.0000610000 0.0036436000
0.2913578000 0.0001100000 0.0042542000
0.4148438000 0.0003052000 0.0051390000
0.5386596000 0.0005614000 0.0061100000
0.6507692000 0.0008176000 0.0072692000
0.7430174000 0.0011048000 0.0086056000
0.8145018000 0.0013916000 0.0100464000
0.8649596000 0.0016782000 0.0117066000
0.8994994000 0.0019654000 0.0134644000
0.0000000000 0.0001712000 0.0017946000
0.0003420000 0.0003420000 0.0020694000
0.0023440000 0.0006044000 0.0023440000
0.0075136000 0.0008666000 0.0026914000
0.0208128000 0.0011476000 0.0030520000
0.0550844000 0.0014342000 0.0036194000
0.1202456000 0.0017212000 0.0042298000
0.2124512000 0.0020022000 0.0051330000
0.3237852000 0.0023010000 0.0061032000
0.4491212000 0.0025998000 0.0072450000
0.5712218000 0.0029482000 0.0085696000
0.6778504000 0.0035094000 0.0100096000
0.7643674000 0.0040530000 0.0116942000
0.8301516000 0.0049318000 0.0133972000
0.8754702000 0.0058412000 0.0154054000
0.9065186000 0.0069884000 0.0174562000
0.0000000000 0.0023256000 0.0023256000
0.0008606000 0.0026796000 0.0026796000
0.0030398000 0.0030398000 0.0030398000
0.0102780000 0.0036380000 0.0036380000
0.0271298000 0.0042358000 0.0042358000
0.0700256000 0.0051022000 0.0051022000
0.1429930000 0.0060852000 0.0060852000
0.2410828000 0.0072512000 0.0072512000
0.3573790000 0.0085694000 0.0085694000
0.4830806000 0.0099548000 0.0099548000
0.6026610000 0.0116390000 0.0116390000
0.7036194000 0.0133300000 0.0133300000
0.7843564000 0.0153566000 0.0153566000
0.8442442000 0.0174256000 0.0174256000
0.8850708000 0.0198728000 0.0198728000
0.9126162000 0.0225768000 0.0225768000
0.0000000000 0.0088134000 0.0030152000
0.0014222000 0.0102356000 0.0035948000
0.0042238000 0.0119690000 0.0042238000
0.0137266000 0.0137266000 0.0050660000
0.0358398000 0.0157226000 0.0060362000
0.0870852000 0.0178344000 0.0071592000
0.1675660000 0.0202392000 0.0084962000
0.2708070000 0.0232180000 0.0098936000
0.3916932000 0.0263060000 0.0115782000
0.5164854000 0.0305236000 0.0132936000
0.6319578000 0.0347412000 0.0152710000
0.7277158000 0.0401610000 0.0173342000
0.8028322000 0.0458192000 0.0197814000
0.8569578000 0.0522400000 0.0224854000
0.8938840000 0.0592164000 0.0255676000
0.9182248000 0.0665408000 0.0295290000
0.0001160000 0.0268736000 0.0041688000
0.0019714000 0.0311340000 0.0050232000
0.0060062000 0.0356876000 0.0060062000
0.0177612000 0.0409790000 0.0071106000
0.0469238000 0.0469238000 0.0084288000
0.1063480000 0.0531676000 0.0098390000
0.1939760000 0.0604736000 0.0115174000
0.3020998000 0.0678588000 0.0132324000
0.4261168000 0.0763426000 0.0152038000
0.5494080000 0.0849426000 0.0172424000
0.6597594000 0.0943788000 0.0195742000
0.7501588000 0.1042298000 0.0223328000
0.8196776000 0.1146176000 0.0254210000
0.8683840000 0.1257020000 0.0293824000
0.9017030000 0.1369690000 0.0335814000
0.9235904000 0.1491698000 0.0387024000
0.0005004000 0.0776796000 0.0059450000
0.0025512000 0.0865354000 0.0070678000
0.0083982000 0.0959044000 0.0083982000
0.0229126000 0.1060180000 0.0097900000
0.0601622000 0.1163334000 0.0114382000
0.1275998000 0.1275998000 0.0131284000
0.2218324000 0.1389284000 0.0151182000
0.3348938000 0.1512816000 0.0171752000
0.4603576000 0.1637270000 0.0194944000
0.5816160000 0.1768676000 0.0221984000
0.6865296000 0.1903870000 0.0252684000
0.7711486000 0.2042480000 0.0291746000
0.8349366000 0.2186950000 0.0333558000
0.8787050000 0.2331668000 0.0385192000
0.9085696000 0.2479368000 0.0438904000
0.9286436000 0.2627018000 0.0502134000
0.0010438000 0.1663088000 0.0083558000
0.0034120000 0.1793944000 0.0097474000
0.0114078000 0.1930910000 0.0114078000
0.0300292000 0.2069028000 0.0131042000
