LUTs/SPK Cube Block1 S16/TheBrim_SPK_Type-E_Block 1_S16.cube
TITLE "TheBrim® Industrial Imaging Burau"
# © Copyright 2022 - TheBrim® d.o.o. Croatia
LUT_3D_SIZE 6
0.0077821012 0.0134279393 0.0119020371
0.0935683223 0.0343450065 0.0209170672
0.3443839170 0.0000000000 0.0000000000
0.5314503700 0.0000000000 0.0000000000
0.6377752346 0.0000000000 0.0000000000
0.6502021820 0.0000000000 0.0000000000
0.0202212558 0.1050064851 0.0474982834
0.1040543221 0.1040787366 0.0289066911
0.3072312505 0.1015213245 0.0000000000
0.5286488136 0.0460395209 0.0000000000
0.6682993820 0.0000000000 0.0000000000
0.6944655528 0.0000000000 0.0000000000
0.0000000000 0.3002548257 0.1392294194
0.0507209888 0.2534706645 0.0953994049
0.3025558862 0.2661051347 0.0305546654
0.5584893568 0.2612039368 0.0000000000
0.7449118791 0.2431982910 0.0000000000
0.7808133059 0.2282017243 0.0000000000
0.0000000000 0.4978652628 0.2583718624
0.0000000000 0.5067215991 0.1964446479
0.3428091859 0.5290821698 0.1163836118
0.6349858854 0.5353261616 0.0000000000
0.8453467613 0.5265796902 0.0000000000
0.9025131609 0.5067582208 0.0000000000
0.0158815900 0.6092591745 0.2342687114
0.2145052262 0.6293095293 0.2123262379
0.4453009842 0.6721690700 0.1536949722
0.7089555200 0.7284199283 0.0008361944
0.9124986648 0.7410421912 0.0000000000
0.9795468070 0.7281147478 0.0000000000
0.4063172351 0.6637216754 0.1633020523
0.4670420386 0.6768200198 0.1465293355
0.6010376135 0.7074479286 0.0797680629
0.7773952850 0.7446738384 0.0000000000
0.9246204318 0.7766140230 0.0000000000
0.9909971771 0.7941863127 0.0000000000
0.0014404517 0.0354375525 0.1187396048
0.0864637217 0.0338323033 0.1017288472
0.3495170520 0.0000000000 0.0753124285
0.5457328145 0.0000000000 0.0243900206
0.6458381018 0.0000000000 0.0000000000
0.6591073472 0.0000000000 0.0000000000
0.0000000000 0.1225055314 0.1497581445
0.0836682689 0.1056473640 0.1071610590
0.2966353857 0.0981948577 0.0723094530
0.5290333410 0.0405951019 0.0174502174
0.6691172656 0.0000000000 0.0000000000
0.7034500649 0.0000000000 0.0000000000
0.0000000000 0.2952132448 0.1606652934
0.0365545129 0.2524391547 0.1049576562
0.3007797360 0.2628641184 0.0656260014
0.5585870146 0.2573037308 0.0007690547
0.7468345159 0.2381017777 0.0000000000
0.7886564431 0.2310276951 0.0000000000
0.0000000000 0.4940016785 0.2663431754
0.0000000000 0.5059891661 0.1977386130
0.3450003815 0.5280689708 0.1153459983
0.6370061799 0.5302479591 0.0000000000
0.8436255436 0.5211871519 0.0000000000
0.9053574426 0.5084306096 0.0000000000
0.0379034104 0.6126710918 0.2319005112
0.2303013657 0.6316227970 0.2093110552
0.4532173648 0.6738841840 0.1514122225
0.7135088121 0.7291523613 0.0000000000
0.9134874495 0.7447287709 0.0000000000
0.9816220340 0.7486167697 0.0000000000
0.4265201801 0.6681345846 0.1589318685
0.4858350500 0.6811841001 0.1396261540
0.6125001907 0.7099259937 0.0745799954
0.7902250706 0.7474204623 0.0000000000
0.9276295109 0.7789394980 0.0000000000
0.9873289082 0.8188265812 0.1335347524
0.0000000000 0.0537422751 0.2735637446
0.0542793927 0.0554757000 0.2850812543
0.2748638132 0.0554329747 0.2804608225
0.5523979553 0.0000000000 0.2695048447
0.6663767453 0.0000000000 0.2061432822
0.6768566415 0.0000000000 0.1669764248
0.0000000000 0.1156267643 0.3045273518
0.0226504921 0.1058609903 0.2908735790
0.2790814069 0.1097306783 0.2759868772
0.5477714199 0.0657480735 0.2530861372
0.6914137484 0.0000000000 0.2000762951
0.7223529412 0.0071168078 0.1775417716
0.0000000000 0.3114793622 0.3591241321
0.0000000000 0.2824261845 0.3109788663
0.2809430076 0.2897566186 0.2952864881
0.5621698329 0.2844708934 0.2660135805
0.7590112154 0.2648050660 0.2329076066
0.8033661402 0.2554543374 0.1941496910
0.0000000000 0.5111741817 0.4058167391
0.0000000000 0.5209643702 0.3547722591
0.3033432517 0.5552727550 0.3272327764
0.6249027237 0.5642206455 0.2873334859
0.8394018463 0.5537346456 0.2498878462
0.9076279850 0.5351247425 0.2050812543
0.0000000000 0.6378728923 0.3658686198
0.1283405814 0.6582650492 0.3652216373
0.4131532769 0.7049210346 0.3631647211
0.6908705272 0.7661158160 0.3492179751
0.8992477302 0.7839932860 0.3030746929
0.9741817350 0.7833463035 0.2591103990
0.4522102693 0.6836865797 0.2122713054
0.5031662470 0.6962600137 0.2101106279
0.6176882582 0.7292072938 0.2211276417
0.7832913710 0.7767483024 0.2615091173
0.9160387579 0.8224948501 0.3346303502
0.9781002518 0.8554177157 0.4208010986
0.0000000000 0.1063736934 0.4208316167
0.0561348898 0.1026749065 0.4436346990
0.2774578470 0.0941115435 0.4555733577
0.5195361257 0.0139101244 0.4431158923
0.6812939651 0.0000000000 0.4073182269
0.7087907225 0.0000000000 0.3735591669
0.0000000000 0.1599328603 0.4658823529
0.0000000000 0.1385763333 0.4773022049
0.2877912566 0.1342732891 0.4839978637
0.5509514000 0.1005386435 0.4701182574
0.7068986038 0.0270023651 0.4347966735
0.7430502785 0.0447150378 0.4174807355
0.0000000000 0.3393057145 0.5368642710
0.0000000000 0.3266651408 0.5267200732
0.2780926223 0.3326894026 0.5299610895
0.5780514229 0.3252979324 0.5213000687
0.7688990616 0.2984115358 0.4996353094
0.8128511482 0.2871992065 0.4625680934
0.0000000000 0.5355703059 0.5767330434
0.0000000000 0.5545952544 0.5667170214
0.2462500954 0.5908567941 0.5668329900
0.6084412909 0.6027588312 0.5567498283
0.8341649500 0.5941283284 0.5413382162
0.9034042878 0.5741512169 0.5090714885
0.0000000000 0.6731517510 0.5748836500
0.0000000000 0.6929823758 0.5781795987
0.3456534676 0.7419394217 0.5901060502
0.6624948501 0.8001251240 0.5966613260
0.8799725338 0.8186495766 0.5819455253
0.9588738842 0.8226230259 0.5641474022
0.3864194705 0.7308247501 0.5073319600
0.4477607385 0.7438986801 0.5117448692
0.5830991073 0.7765285725 0.5268726635
0.7622034028 0.8216342412 0.5567009995
0.9045578698 0.8622293431 0.6002868696
0.9656977188 0.8884382391 0.6470771344
0.0000000000 0.1902616922 0.5101853971
0.0556221866 0.1906401160 0.5126085298
0.2597940032 0.1892423896 0.5136766613
0.4595101854 0.1756740673 0.5055527581
0.6276554513 0.1455771725 0.4839307240
0.7388509957 0.1313862821 0.4681284810
0.0000000000 0.2230319677 0.5313282979
0.0222232395 0.2248935683 0.5353444724
0.2606607156 0.2275547417 0.5359304189
0.4684153506 0.2150057221 0.5247241932
0.6457587549 0.1902494850 0.5074387732
0.7567589837 0.1836270695 0.4904432746
0.0000000000 0.3464042115 0.5946654459
0.0000000000 0.3455497063 0.5998107881
0.2620889601 0.3485099565 0.6074219883
0.5190356298 0.3494010834 0.5997497520
0.7149126421 0.3499137865 0.5848386358
0.8188082704 0.3500114443 0.5630182345
0.0000000000 0.5400503548 0.6598214694
0.0000000000 0.5729915312 0.6878675517
0.1810574502 0.6150881209 0.7100724804
0.5978332189 0.6368108644 0.7171404593
0.8275364309 0.6309086748 0.7082841230
0.9037277790 0.6198550393 0.6870618753
0.0000000000 0.6898084993 0.7017715724
0.0000000000 0.7141252766 0.7114152743
0.2799114977 0.7658106355 0.7314717327
0.6475715267 0.8168368048 0.7444480049
0.8723979553 0.8420019837 0.7495445182
0.9469779507 0.8460791943 0.7469687953
0.3524528878 0.7643213550 0.6865491722
0.4254276341 0.7779751278 0.6919386587
0.5706477455 0.8084382391 0.7040848402
0.7576745251 0.8509010452 0.7269184405
0.9031174182 0.8866254673 0.7528160525
0.9576592660 0.9075913634 0.7838712139
0.0000000000 0.2470435645 0.5478751812
0.0139650568 0.2477454795 0.5502189670
0.2266025788 0.2504005493 0.5509208820
0.3930174716 0.2433997101 0.5422659648
0.5592828260 0.2231174182 0.5264393072
0.6940566110 0.2082551308 0.5127489128
0.0000000000 0.2704142824 0.5627924010
0.0045227741 0.2715068284 0.5657953765
0.2252719921 0.2726848249 0.5656366827
0.3974303807 0.2682169833 0.5572503243
0.5656794079 0.2553444724 0.5434073396
0.7160540169 0.2586892500 0.5356679637
0.0000000000 0.3552910658 0.6040405890
0.0000000000 0.3530327306 0.6053833829
0.2310704204 0.3534172580 0.6094483864
0.4247562371 0.3623895628 0.6116639963
0.6338445106 0.3901060502 0.6146608682
0.7833951324 0.4169619287 0.6126527810
0.0000000000 0.5554680705 0.6928053712
0.0000000000 0.5681879911 0.6988235294
0.3108506905 0.5932799268 0.7079423209
0.5770199130 0.6192324712 0.7135759518
0.7619897765 0.6451972229 0.7168291752
0.8735576410 0.6670908675 0.7160906386
0.0000000000 0.7034805829 0.7513817044
0.0000000000 0.7339681086 0.7653650721
0.3423147936 0.7834195468 0.7849027237
0.6765392538 0.8255161364 0.7952178225
0.8732402533 0.8479713130 0.7953582055
0.9352651255 0.8565346761 0.7915312428
0.3443350881 0.7850308995 0.7687037461
0.4091309987 0.7965728237 0.7727809567
0.5727840085 0.8277439536 0.7841763943
0.7678980697 0.8681315328 0.8010894942
0.9063889525 0.9002426184 0.8187716487
0.9545891508 0.9137560082 0.8268101015
