LUTs/SPK Cube Block1 S16/TheBrim_SPK_Type-N_Block1_S16.cube
TITLE "TheBrim® SPK Block 1"
# TheBrim® d.o.o. Croatia
# Copyright: (C) Copyright 2020 TheBrim® d.o.o. Croatia
LUT_3D_SIZE 6
0.0000920000 0.0000310000 0.0002750000
0.0114200000 0.0008484000 0.0005980000
0.1334896000 0.0000000000 0.0000000000
0.3611448000 0.0000000000 0.0000000000
0.5518130000 0.0000000000 0.0000000000
0.6163330000 0.0000000000 0.0000000000
0.0000000000 0.0101990000 0.0015074000
0.0286010000 0.0212404000 0.0013794000
0.1869936000 0.0405154000 0.0000000000
0.4414976000 0.0270446000 0.0000000000
0.5943054000 0.0039980000 0.0000000000
0.6389466000 0.0003294000 0.0000000000
0.0000000000 0.1278806000 0.0139100000
0.0000000000 0.1646362000 0.0221800000
0.2651794000 0.2336122000 0.0000000000
0.5638548000 0.2668150000 0.0000000000
0.7152220000 0.2764100000 0.0000000000
0.7535950000 0.2798460000 0.0000000000
0.0000000000 0.3018558000 0.0084842000
0.0000000000 0.3680356000 0.0021482000
0.1903990000 0.4988342000 0.0000000000
0.6771908000 0.5901852000 0.0000000000
0.8204404000 0.5741396000 0.0000000000
0.8537472000 0.5769834000 0.0000000000
0.0000000000 0.3732302000 0.0000000000
0.0000000000 0.4524294000 0.0000000000
0.0474916000 0.6088748000 0.0000000000
0.6559568000 0.7332032000 0.0000000000
0.8816346000 0.7574648000 0.0000000000
0.9201114000 0.7551578000 0.0000000000
0.0000000000 0.3838810000 0.0000000000
0.0000000000 0.4647642000 0.0000000000
0.0172974000 0.6248112000 0.0000000000
0.6472598000 0.7521122000 0.0000000000
0.8777836000 0.7857850000 0.0000000000
0.9244080000 0.7876590000 0.0000000000
0.0000000000 0.0004882000 0.0075318000
0.0143740000 0.0011108000 0.0183716000
0.1538698000 0.0015258000 0.0269104000
0.3952332000 0.0000000000 0.0214352000
0.5825746000 0.0000000000 0.0302734000
0.6386474000 0.0000000000 0.0449282000
0.0000000000 0.0150758000 0.0142698000
0.0277102000 0.0288514000 0.0296080000
0.2074036000 0.0480160000 0.0349304000
0.4750308000 0.0241390000 0.0153018000
0.6254578000 0.0000000000 0.0237000000
0.6618346000 0.0000000000 0.0402648000
0.0000000000 0.1346984000 0.0282834000
0.0000000000 0.1720642000 0.0444640000
0.2734864000 0.2479554000 0.0293704000
0.6001282000 0.2853516000 0.0000000000
0.7560424000 0.2928588000 0.0000000000
0.7914246000 0.2946778000 0.0000000000
0.0000000000 0.3069278000 0.0245362000
0.0000000000 0.3735658000 0.0274292000
0.1806700000 0.5048460000 0.0000000000
0.6799196000 0.5981630000 0.0000000000
0.8594726000 0.6102174000 0.0000000000
0.8946348000 0.6136476000 0.0000000000
0.0000000000 0.3784180000 0.0036682000
0.0000000000 0.4584046000 0.0000000000
0.0180358000 0.6150880000 0.0000000000
0.6555848000 0.7393738000 0.0000000000
0.8847534000 0.7660220000 0.0000000000
0.9287902000 0.7684264000 0.0000000000
0.0000000000 0.3889892000 0.0000000000
0.0000000000 0.4704588000 0.0000000000
0.0102294000 0.6309938000 0.0000000000
0.6468080000 0.7580808000 0.0000000000
0.8796628000 0.7927490000 0.0000000000
0.9277650000 0.7959962000 0.0000000000
0.0000000000 0.0000000000 0.0814390000
0.0176880000 0.0000000000 0.1263854000
0.2215090000 0.0394532000 0.2259276000
0.5076108000 0.0005494000 0.2623534000
0.6379516000 0.0000000000 0.2786438000
0.6664612000 0.0000000000 0.2868838000
0.0000000000 0.0229614000 0.1185794000
0.0133972000 0.0331970000 0.1725036000
0.2368284000 0.0728088000 0.2405334000
0.5267274000 0.0492922000 0.2711424000
0.6606994000 0.0000000000 0.2874816000
0.6896302000 0.0000000000 0.2957154000
0.0000000000 0.1661622000 0.1562438000
0.0000000000 0.2101198000 0.2140746000
0.2737242000 0.2783878000 0.2800968000
0.6268796000 0.3170166000 0.3074218000
0.7819578000 0.3203860000 0.3231444000
0.8136538000 0.3191220000 0.3310362000
0.0000000000 0.3459226000 0.1736082000
0.0000000000 0.4149964000 0.2208008000
0.0562498000 0.5487366000 0.2863162000
0.6819640000 0.6454652000 0.2931338000
0.8782408000 0.6689270000 0.2876586000
0.9154542000 0.6730534000 0.2968688000
0.0000000000 0.4206178000 0.1667056000
0.0000000000 0.5033632000 0.2090884000
0.0000000000 0.6616882000 0.2631528000
0.6502134000 0.7840090000 0.2816286000
0.8867798000 0.8198304000 0.2430174000
0.9338012000 0.8256714000 0.2366946000
0.0000000000 0.4310550000 0.1562868000
0.0000000000 0.5155454000 0.1956298000
0.0000000000 0.6778690000 0.2432864000
0.6409726000 0.8035580000 0.2562626000
0.8802490000 0.8433774000 0.2214968000
0.9308530000 0.8500550000 0.2069520000
0.0020140000 0.0000000000 0.1853942000
0.0299620000 0.0000000000 0.2509644000
0.2243650000 0.0000000000 0.4374698000
0.5599610000 0.0206180000 0.5329710000
0.6965576000 0.0000000000 0.5510682000
0.7235900000 0.0000000000 0.5570070000
0.0000000000 0.0136964000 0.2674680000
0.0084168000 0.0000732000 0.3517696000
0.2403256000 0.0052366000 0.4765868000
0.5724916000 0.0766418000 0.5458798000
0.7111940000 0.0406676000 0.5632932000
0.7385864000 0.0240296000 0.5692014000
0.0000000000 0.1916442000 0.3661132000
0.0000000000 0.2302612000 0.4655092000
0.2626526000 0.2878296000 0.5748718000
0.6444336000 0.3516420000 0.6177798000
0.8013186000 0.3589052000 0.6353028000
0.8321352000 0.3577822000 0.6415708000
0.0000000000 0.4048954000 0.4099978000
0.0000000000 0.4839296000 0.5028134000
0.0201294000 0.6101926000 0.6173948000
0.6809450000 0.6843504000 0.6748172000
0.8708314000 0.7070984000 0.6930480000
0.9079896000 0.7101870000 0.6996828000
0.0000000000 0.5004030000 0.4291626000
0.0000000000 0.5954160000 0.5203794000
0.0000000000 0.7353270000 0.6186218000
0.6610718000 0.8361938000 0.6766662000
0.8768310000 0.8691100000 0.6935306000
0.9205078000 0.8747984000 0.6985842000
0.0000000000 0.5101258000 0.4200562000
0.0000000000 0.6053894000 0.5083802000
0.0000000000 0.7533080000 0.6095948000
0.6519168000 0.8606448000 0.6679324000
0.8727660000 0.8958192000 0.6852358000
0.9185246000 0.9021790000 0.6893982000
0.0054752000 0.0000000000 0.2297974000
0.0402404000 0.0000000000 0.3035400000
0.2374696000 0.0000000000 0.5257080000
0.5652650000 0.0000000000 0.6519290000
0.7138490000 0.0000000000 0.6695252000
0.7405212000 0.0000000000 0.6721010000
0.0000000000 0.0004030000 0.3337460000
0.0193726000 0.0000000000 0.4294312000
0.2531556000 0.0000000000 0.5737488000
0.5767882000 0.0152406000 0.6677550000
0.7272458000 0.0168152000 0.6839782000
0.7542848000 0.0052978000 0.6864134000
0.0000000000 0.1947018000 0.4646486000
0.0000000000 0.2280822000 0.5809328000
0.2701534000 0.2772768000 0.7040410000
0.6438782000 0.3425784000 0.7618164000
0.8091370000 0.3649414000 0.7700620000
0.8398864000 0.3643984000 0.7727054000
0.0000000000 0.4194274000 0.5260740000
0.0000000000 0.4905702000 0.6262634000
0.0000000000 0.6233276000 0.7791870000
0.6803956000 0.6923278000 0.8421632000
0.8697206000 0.7210146000 0.8516844000
0.9066284000 0.7249636000 0.8544738000
0.0000000000 0.5166808000 0.5472350000
0.0000000000 0.6100464000 0.6531064000
0.0000000000 0.7638796000 0.7883786000
0.6668578000 0.8575500000 0.8540224000
0.8761416000 0.8850282000 0.8748654000
0.9166932000 0.8902526000 0.8784916000
0.0000000000 0.5384708000 0.5550050000
0.0000000000 0.6356504000 0.6619754000
0.0000000000 0.7845090000 0.7857118000
0.6588258000 0.8838014000 0.8514590000
0.8742612000 0.9140078000 0.8742678000
0.9161622000 0.9197266000 0.8784178000
0.0065310000 0.0000000000 0.2379460000
0.0431340000 0.0000000000 0.3127808000
0.2422124000 0.0000000000 0.5411316000
0.5652770000 0.0000000000 0.6718932000
0.7158324000 0.0000000000 0.6935424000
0.7428890000 0.0000000000 0.6953430000
0.0000000000 0.0000000000 0.3461484000
0.0248044000 0.0000000000 0.4438540000
0.2582948000 0.0000000000 0.5910950000
0.5769222000 0.0000000000 0.6886964000
0.7288878000 0.0100648000 0.7082766000
0.7562130000 0.0028014000 0.7099668000
0.0000000000 0.1930478000 0.4848326000
0.0000000000 0.2247496000 0.6039672000
0.2765992000 0.2717348000 0.7287840000
0.6446776000 0.3352540000 0.7887394000
0.8092528000 0.3639160000 0.7974728000
0.8401920000 0.3640320000 0.7991086000
0.0000000000 0.4215572000 0.5534362000
0.0000000000 0.4924254000 0.6563904000
0.0000000000 0.6237430000 0.8134886000
0.6829160000 0.6911624000 0.8751096000
0.8690670000 0.7215882000 0.8840762000
0.9058654000 0.7261350000 0.8857180000
0.0000000000 0.5203128000 0.5735964000
0.0000000000 0.6115724000 0.6803956000
0.0000000000 0.7684998000 0.8248476000
0.6678406000 0.8612426000 0.8918338000
0.8763492000 0.8875002000 0.9104922000
0.9160828000 0.8927126000 0.9129884000
0.0000000000 0.5449220000 0.5856320000
0.0000000000 0.6399234000 0.6941036000
0.0000000000 0.7895870000 0.8239626000
0.6598264000 0.8884458000 0.8914734000
0.8747986000 0.9173704000 0.9126282000
0.9158330000 0.9228820000 0.9154970000
