LUTs/SPK Cube Block1 S16/TheBrim_SPK_Type-N_Block1_S16.cube
TITLE "TheBrim® SPK Block 1"
# TheBrim® d.o.o. Croatia
# Copyright: (C) Copyright 2020 TheBrim® d.o.o. Croatia
LUT_3D_SIZE 16
0.0000920000 0.0000310000 0.0002750000
0.0022702000 0.0001590000 0.0004942000
0.0042908000 0.0002994000 0.0005190000
0.0114200000 0.0008484000 0.0005980000
0.0314088000 0.0015016000 0.0001526000
0.0727840000 0.0014650000 0.0000000000
0.1334896000 0.0000000000 0.0000000000
0.2064390000 0.0000000000 0.0000000000
0.2882082000 0.0000000000 0.0000000000
0.3611448000 0.0000000000 0.0000000000
0.4320980000 0.0000000000 0.0000000000
0.4952150000 0.0000000000 0.0000000000
0.5518130000 0.0000000000 0.0000000000
0.5883118000 0.0000000000 0.0000000000
0.6096134000 0.0000000000 0.0000000000
0.6163330000 0.0000000000 0.0000000000
0.0000000000 0.0020750000 0.0006470000
0.0054630000 0.0041384000 0.0008912000
0.0074642000 0.0042478000 0.0008912000
0.0146364000 0.0047610000 0.0008726000
0.0374880000 0.0063906000 0.0000610000
0.0804808000 0.0074466000 0.0000000000
0.1436032000 0.0072022000 0.0000000000
0.2189330000 0.0031736000 0.0000000000
0.3031188000 0.0000000000 0.0000000000
0.3774232000 0.0000000000 0.0000000000
0.4496584000 0.0000000000 0.0000000000
0.5130796000 0.0000000000 0.0000000000
0.5698122000 0.0000000000 0.0000000000
0.6000366000 0.0000000000 0.0000000000
0.6141604000 0.0000000000 0.0000000000
0.6206356000 0.0000000000 0.0000000000
0.0000000000 0.0038760000 0.0008298000
0.0052368000 0.0060546000 0.0012510000
0.0106570000 0.0079832000 0.0010014000
0.0178652000 0.0085142000 0.0009704000
0.0435486000 0.0112486000 0.0000610000
0.0880740000 0.0132994000 0.0000000000
0.1535706000 0.0148496000 0.0000000000
0.2312804000 0.0120060000 0.0000000000
0.3173648000 0.0046752000 0.0000000000
0.3935304000 0.0000000000 0.0000000000
0.4670102000 0.0000000000 0.0000000000
0.5306336000 0.0000000000 0.0000000000
0.5803530000 0.0000000000 0.0000000000
0.6041928000 0.0000000000 0.0000000000
0.6183046000 0.0000000000 0.0000000000
0.6248778000 0.0000000000 0.0000000000
0.0000000000 0.0101990000 0.0015074000
0.0038944000 0.0124512000 0.0025452000
0.0092956000 0.0143678000 0.0022946000
0.0286010000 0.0212404000 0.0013794000
0.0616578000 0.0267274000 0.0000794000
0.1144836000 0.0337768000 0.0000000000
0.1869936000 0.0405154000 0.0000000000
0.2738096000 0.0423706000 0.0000000000
0.3634154000 0.0379272000 0.0000000000
0.4414976000 0.0270446000 0.0000000000
0.5094296000 0.0136048000 0.0000000000
0.5555172000 0.0068300000 0.0000000000
0.5943054000 0.0039980000 0.0000000000
0.6183044000 0.0025086000 0.0000000000
0.6323486000 0.0011352000 0.0000000000
0.6389466000 0.0003294000 0.0000000000
0.0000000000 0.0286314000 0.0031308000
0.0001220000 0.0329832000 0.0058712000
0.0061400000 0.0367800000 0.0056824000
0.0294130000 0.0484924000 0.0042176000
0.0756528000 0.0611996000 0.0017520000
0.1364262000 0.0725828000 0.0000000000
0.2156130000 0.0834104000 0.0000000000
0.3067626000 0.0917054000 0.0000000000
0.3991332000 0.0942264000 0.0000000000
0.4778932000 0.0907470000 0.0000000000
0.5450808000 0.0845764000 0.0000000000
0.5905276000 0.0814210000 0.0000000000
0.6285278000 0.0800292000 0.0000000000
0.6519166000 0.0799012000 0.0000000000
0.6656246000 0.0793582000 0.0000000000
0.6719846000 0.0786562000 0.0000000000
0.0000000000 0.0691220000 0.0069270000
0.0000000000 0.0743350000 0.0094236000
0.0000000000 0.0791936000 0.0117614000
0.0167722000 0.0961182000 0.0121640000
0.0773254000 0.1159364000 0.0095886000
0.1515200000 0.1316530000 0.0000000000
0.2421022000 0.1458922000 0.0000000000
0.3397890000 0.1592528000 0.0000000000
0.4376282000 0.1683468000 0.0000000000
0.5207822000 0.1720706000 0.0000000000
0.5904240000 0.1725460000 0.0000000000
0.6349422000 0.1731082000 0.0000000000
0.6718812000 0.1745180000 0.0000000000
0.6942442000 0.1758420000 0.0000000000
0.7077206000 0.1767514000 0.0000000000
0.7138980000 0.1770020000 0.0000000000
0.0000000000 0.1278806000 0.0139100000
0.0000000000 0.1348694000 0.0154418000
0.0000000000 0.1414310000 0.0168882000
0.0000000000 0.1646362000 0.0221800000
0.0411620000 0.1934816000 0.0222898000
0.1484866000 0.2159178000 0.0159426000
0.2651794000 0.2336122000 0.0000000000
0.3722470000 0.2441714000 0.0000000000
0.4755554000 0.2577576000 0.0000000000
0.5638548000 0.2668150000 0.0000000000
0.6368594000 0.2718140000 0.0000000000
0.6806582000 0.2741452000 0.0000000000
0.7152220000 0.2764100000 0.0000000000
0.7355710000 0.2782164000 0.0000000000
0.7479370000 0.2793576000 0.0000000000
0.7535950000 0.2798460000 0.0000000000
0.0000000000 0.1914736000 0.0174748000
0.0000000000 0.2002438000 0.0196958000
0.0000000000 0.2085386000 0.0217526000
0.0000000000 0.2376832000 0.0233338000
0.0000000000 0.2762632000 0.0218386000
0.1129640000 0.3036984000 0.0152648000
0.2602048000 0.3361390000 0.0000000000
0.4050718000 0.3554262000 0.0000000000
0.5101138000 0.3562806000 0.0000000000
0.6016420000 0.3674682000 0.0000000000
0.6784424000 0.3760132000 0.0000000000
0.7227172000 0.3797546000 0.0000000000
0.7555358000 0.3819398000 0.0000000000
0.7733946000 0.3829652000 0.0000000000
0.7836610000 0.3833984000 0.0000000000
0.7883974000 0.3835448000 0.0000000000
0.0000000000 0.2527158000 0.0149354000
0.0000000000 0.2637818000 0.0148194000
0.0000000000 0.2742066000 0.0146728000
0.0000000000 0.3102906000 0.0153564000
0.0000000000 0.3576540000 0.0082398000
0.0231138000 0.3897766000 0.0000000000
0.2284730000 0.4262024000 0.0000000000
0.3974668000 0.4644348000 0.0000000000
0.5518920000 0.4841188000 0.0000000000
0.6365966000 0.4714964000 0.0000000000
0.7126464000 0.4772826000 0.0000000000
0.7583190000 0.4824402000 0.0000000000
0.7922424000 0.4858216000 0.0000000000
0.8101928000 0.4872924000 0.0000000000
0.8204650000 0.4878846000 0.0000000000
0.8251584000 0.4880982000 0.0000000000
0.0000000000 0.3018558000 0.0084842000
0.0000000000 0.3145814000 0.0086972000
0.0000000000 0.3264648000 0.0090086000
0.0000000000 0.3680356000 0.0021482000
0.0000000000 0.4231812000 0.0000000000
0.0000000000 0.4596984000 0.0000000000
0.1903990000 0.4988342000 0.0000000000
0.3702822000 0.5403868000 0.0000000000
0.5431030000 0.5767580000 0.0000000000
0.6771908000 0.5901852000 0.0000000000
0.7459292000 0.5736758000 0.0000000000
0.7870546000 0.5717594000 0.0000000000
0.8204404000 0.5741396000 0.0000000000
0.8384704000 0.5757384000 0.0000000000
0.8489560000 0.5766176000 0.0000000000
0.8537472000 0.5769834000 0.0000000000
0.0000000000 0.3391420000 0.0001830000
0.0000000000 0.3529968000 0.0000000000
0.0000000000 0.3659974000 0.0000000000
0.0000000000 0.4120852000 0.0000000000
0.0000000000 0.4729618000 0.0000000000
0.0000000000 0.5134580000 0.0000000000
0.1432980000 0.5557800000 0.0000000000
0.3424258000 0.5976744000 0.0000000000
0.5254942000 0.6414554000 0.0000000000
0.6711732000 0.6674802000 0.0000000000
0.7792360000 0.6749270000 0.0000000000
0.8231812000 0.6647948000 0.0000000000
0.8502382000 0.6579346000 0.0000000000
0.8658324000 0.6559816000 0.0000000000
0.8750734000 0.6554382000 0.0000000000
0.8794250000 0.6552120000 0.0000000000
0.0000000000 0.3605288000 0.0000000000
0.0000000000 0.3751706000 0.0000000000
0.0000000000 0.3889464000 0.0000000000
0.0000000000 0.4377442000 0.0000000000
0.0000000000 0.5018798000 0.0000000000
0.0000000000 0.5444394000 0.0000000000
0.0983580000 0.5890318000 0.0000000000
0.3247074000 0.6312868000 0.0000000000
0.5114382000 0.6768370000 0.0000000000
0.6626890000 0.7093080000 0.0000000000
0.7762148000 0.7229372000 0.0000000000
0.8398434000 0.7249024000 0.0000000000
0.8763920000 0.7217348000 0.0000000000
0.8902834000 0.7149538000 0.0000000000
0.8974734000 0.7115660000 0.0000000000
0.9012386000 0.7103270000 0.0000000000
0.0000000000 0.3732302000 0.0000000000
0.0000000000 0.3883054000 0.0000000000
0.0000000000 0.4024662000 0.0000000000
0.0000000000 0.4524294000 0.0000000000
0.0000000000 0.5188722000 0.0000000000
0.0000000000 0.5629032000 0.0000000000
0.0474916000 0.6088748000 0.0000000000
0.3127688000 0.6516296000 0.0000000000
0.5000978000 0.6974850000 0.0000000000
0.6559568000 0.7332032000 0.0000000000
0.7707094000 0.7511414000 0.0000000000
0.8383788000 0.7562746000 0.0000000000
0.8816346000 0.7574648000 0.0000000000
0.9060548000 0.7586610000 0.0000000000
0.9167296000 0.7569154000 0.0000000000
0.9201114000 0.7551578000 0.0000000000
0.0000000000 0.3796386000 0.0000000000
0.0000000000 0.3949156000 0.0000000000
0.0000000000 0.4092166000 0.0000000000
0.0000000000 0.4600342000 0.0000000000
0.0000000000 0.5272584000 0.0000000000
0.0000000000 0.5719784000 0.0000000000
0.0201416000 0.6186338000 0.0000000000
0.3058472000 0.6618408000 0.0000000000
0.4932984000 0.7076964000 0.0000000000
0.6516482000 0.7447448000 0.0000000000
0.7667420000 0.7649720000 0.0000000000
0.8357300000 0.7717772000 0.0000000000
0.8802064000 0.7742798000 0.0000000000
0.9057800000 0.7750796000 0.0000000000
0.9192686000 0.7758238000 0.0000000000
0.9252806000 0.7760620000 0.0000000000
0.0000000000 0.3827392000 0.0000000000
0.0000000000 0.3981872000 0.0000000000
0.0000000000 0.4125732000 0.0000000000
0.0000000000 0.4633852000 0.0000000000
0.0000000000 0.5311276000 0.0000000000
0.0000000000 0.5761476000 0.0000000000
0.0181152000 0.6230164000 0.0000000000
0.3014036000 0.6663270000 0.0000000000
0.4888064000 0.7120728000 0.0000000000
0.6486514000 0.7498536000 0.0000000000
0.7639648000 0.7712770000 0.0000000000
0.8335018000 0.7790708000 0.0000000000
0.8787050000 0.7822814000 0.0000000000
0.9049254000 0.7836856000 0.0000000000
0.9186462000 0.7838382000 0.0000000000
0.9247436000 0.7841736000 0.0000000000
0.0000000000 0.3838810000 0.0000000000
0.0000000000 0.3993468000 0.0000000000
0.0000000000 0.4138186000 0.0000000000
0.0000000000 0.4647642000 0.0000000000
0.0000000000 0.5325686000 0.0000000000
0.0000000000 0.5777280000 0.0000000000
0.0172974000 0.6248112000 0.0000000000
0.2994016000 0.6682188000 0.0000000000
0.4867188000 0.7139772000 0.0000000000
0.6472598000 0.7521122000 0.0000000000
0.7626650000 0.7740170000 0.0000000000
0.8324582000 0.7822876000 0.0000000000
0.8777836000 0.7857850000 0.0000000000
0.9044376000 0.7873350000 0.0000000000
0.9182798000 0.7876280000 0.0000000000
0.9244080000 0.7876590000 0.0000000000
0.0000920000 0.0001220000 0.0016298000
0.0027774000 0.0001590000 0.0036560000
0.0047850000 0.0002868000 0.0037902000
0.0119750000 0.0009094000 0.0038880000
0.0330442000 0.0017944000 0.0044006000
0.0753416000 0.0020872000 0.0043336000
0.1373538000 0.0002688000 0.0036438000
0.2114992000 0.0000000000 0.0013852000
0.2944030000 0.0000000000 0.0000000000
0.3678772000 0.0000000000 0.0000000000
0.4387332000 0.0000000000 0.0000000000
0.5018126000 0.0000000000 0.0000000000
0.5580322000 0.0000000000 0.0000000000
0.5945680000 0.0000000000 0.0000000000
0.6157288000 0.0000000000 0.0000000000
0.6224668000 0.0000000000 0.0007322000
0.0000000000 0.0028746000 0.0028994000
0.0054020000 0.0054382000 0.0057802000
0.0074582000 0.0055546000 0.0060364000
0.0146180000 0.0061338000 0.0061338000
0.0387514000 0.0080264000 0.0064454000
0.0829162000 0.0090946000 0.0057558000
0.1475894000 0.0086488000 0.0040774000
0.2240110000 0.0044190000 0.0002322000
0.3092588000 0.0000000000 0.0000000000
0.3841250000 0.0000000000 0.0000000000
0.4562684000 0.0000000000 0.0000000000
0.5197270000 0.0000000000 0.0000000000
0.5760438000 0.0000000000 0.0000000000
0.6061766000 0.0000000000 0.0000000000
0.6202454000 0.0000000000 0.0000000000
0.6267454000 0.0000000000 0.0002014000
0.0000000000 0.0048218000 0.0032652000
0.0049256000 0.0074154000 0.0061398000
0.0105102000 0.0094360000 0.0064394000
0.0177794000 0.0100036000 0.0064086000
0.0447816000 0.0128784000 0.0063294000
0.0905456000 0.0150022000 0.0051084000
0.1575498000 0.0162902000 0.0028444000
0.2363586000 0.0132386000 0.0000000000
0.3235230000 0.0050416000 0.0000000000
0.4002196000 0.0000000000 0.0000000000
0.4736876000 0.0000000000 0.0000000000
0.5372678000 0.0000000000 0.0000000000
0.5864318000 0.0000000000 0.0000000000
0.6103516000 0.0000000000 0.0000000000
0.6244262000 0.0000000000 0.0000000000
0.6309814000 0.0000000000 0.0000000000
0.0000000000 0.0111326000 0.0039186000
0.0034302000 0.0137082000 0.0067870000
0.0091368000 0.0158080000 0.0077088000
0.0284790000 0.0226988000 0.0067870000
0.0628538000 0.0283326000 0.0063600000
0.1168886000 0.0353940000 0.0033570000
0.1908812000 0.0418760000 0.0000000000
0.2786254000 0.0434752000 0.0000000000
0.3691222000 0.0383666000 0.0000000000
0.4478334000 0.0270264000 0.0000000000
0.5156068000 0.0128662000 0.0000000000
0.5619568000 0.0060730000 0.0000000000
0.6005918000 0.0030702000 0.0000000000
0.6246460000 0.0013002000 0.0000000000
0.6386534000 0.0000000000 0.0000000000
0.6452330000 0.0000000000 0.0000000000
0.0000000000 0.0305050000 0.0059750000
0.0000000000 0.0348940000 0.0087956000
0.0049928000 0.0389954000 0.0112974000
0.0283876000 0.0507446000 0.0103150000
0.0762696000 0.0634340000 0.0090272000
0.1381040000 0.0747924000 0.0030210000
0.2189758000 0.0854856000 0.0000000000
0.3112732000 0.0935122000 0.0000000000
0.4048460000 0.0955934000 0.0000000000
0.4842038000 0.0917544000 0.0000000000
0.5515504000 0.0852172000 0.0000000000
0.5971926000 0.0815980000 0.0000000000
0.6350710000 0.0799010000 0.0000000000
0.6584840000 0.0794862000 0.0000000000
0.6721496000 0.0788454000 0.0000000000
0.6784974000 0.0781312000 0.0000000000
0.0000000000 0.0713992000 0.0099978000
0.0000000000 0.0767032000 0.0125244000
0.0000000000 0.0815610000 0.0148802000
0.0145812000 0.0988038000 0.0186158000
0.0763978000 0.1186708000 0.0167908000
0.1528508000 0.1343996000 0.0073002000
0.2453186000 0.1486208000 0.0000000000
0.3443296000 0.1618166000 0.0000000000
0.4435484000 0.1706300000 0.0000000000
0.5274476000 0.1740968000 0.0000000000
0.5973512000 0.1743470000 0.0000000000
0.6421264000 0.1746338000 0.0000000000
0.6789124000 0.1758668000 0.0000000000
0.7013610000 0.1770752000 0.0000000000
0.7147156000 0.1779542000 0.0000000000
0.7209472000 0.1782408000 0.0000000000
0.0000000000 0.1303100000 0.0171690000
0.0000000000 0.1373172000 0.0188846000
0.0000000000 0.1439090000 0.0203612000
0.0000000000 0.1671384000 0.0256714000
0.0379026000 0.1964050000 0.0292296000
0.1484256000 0.2188846000 0.0240234000
0.2673400000 0.2373414000 0.0000000000
0.3765260000 0.2480226000 0.0000000000
0.4814638000 0.2614562000 0.0000000000
0.5706540000 0.2703430000 0.0000000000
0.6440978000 0.2751832000 0.0000000000
0.6883180000 0.2774174000 0.0000000000
0.7228824000 0.2795900000 0.0000000000
0.7433166000 0.2813658000 0.0000000000
0.7556090000 0.2824828000 0.0000000000
0.7613950000 0.2830074000 0.0000000000
0.0000000000 0.1923766000 0.0200498000
0.0000000000 0.2011598000 0.0222716000
0.0000000000 0.2094482000 0.0243284000
0.0000000000 0.2387208000 0.0281614000
0.0000000000 0.2773072000 0.0271786000
0.1114380000 0.3047550000 0.0213868000
0.2600950000 0.3372196000 0.0039244000
0.4084168000 0.3600462000 0.0000000000
0.5156802000 0.3610902000 0.0000000000
0.6082578000 0.3722654000 0.0000000000
0.6856264000 0.3807558000 0.0000000000
0.7303892000 0.3845034000 0.0000000000
0.7634460000 0.3866882000 0.0000000000
0.7814088000 0.3877198000 0.0000000000
0.7917666000 0.3881532000 0.0000000000
0.7965148000 0.3883242000 0.0000000000
0.0000000000 0.2537290000 0.0175902000
0.0000000000 0.2647826000 0.0176210000
0.0000000000 0.2752322000 0.0174988000
0.0000000000 0.3113038000 0.0182436000
0.0000000000 0.3587888000 0.0137146000
0.0183658000 0.3909240000 0.0019044000
0.2276428000 0.4273134000 0.0000000000
0.3974486000 0.4655700000 0.0000000000
0.5537232000 0.4870058000 0.0000000000
0.6426820000 0.4776916000 0.0000000000
0.7195070000 0.4834900000 0.0000000000
0.7657592000 0.4886476000 0.0000000000
0.8000368000 0.4921020000 0.0000000000
0.8180360000 0.4935484000 0.0000000000
0.8284546000 0.4942444000 0.0000000000
0.8331176000 0.4944336000 0.0000000000
0.0000000000 0.3028016000 0.0114500000
0.0000000000 0.3155210000 0.0116640000
0.0000000000 0.3274168000 0.0120300000
0.0000000000 0.3691284000 0.0079896000
0.0000000000 0.4242860000 0.0002686000
0.0000000000 0.4608032000 0.0000000000
0.1889036000 0.4999696000 0.0000000000
0.3700072000 0.5415284000 0.0000000000
0.5431702000 0.5779176000 0.0000000000
0.6777406000 0.5916748000 0.0000000000
0.7523134000 0.5801942000 0.0000000000
0.7941102000 0.5784426000 0.0000000000
0.8278078000 0.5809082000 0.0000000000
0.8459778000 0.5825440000 0.0000000000
0.8565916000 0.5835328000 0.0000000000
0.8614076000 0.5838804000 0.0000000000
0.0000000000 0.3401246000 0.0030948000
0.0000000000 0.3540042000 0.0010806000
0.0000000000 0.3669800000 0.0000000000
0.0000000000 0.4131410000 0.0000000000
0.0000000000 0.4741088000 0.0000000000
0.0000000000 0.5146298000 0.0000000000
0.1398012000 0.5569580000 0.0000000000
0.3416684000 0.5989078000 0.0000000000
0.5254088000 0.6426270000 0.0000000000
0.6713254000 0.6687014000 0.0000000000
0.7798342000 0.6765018000 0.0000000000
0.8293154000 0.6712770000 0.0000000000
0.8569090000 0.6645814000 0.0000000000
0.8728702000 0.6627626000 0.0000000000
0.8821898000 0.6622984000 0.0000000000
0.8866394000 0.6621462000 0.0000000000
0.0000000000 0.3615176000 0.0000000000
0.0000000000 0.3761842000 0.0000000000
0.0000000000 0.3899472000 0.0000000000
0.0000000000 0.4387634000 0.0000000000
0.0000000000 0.5030516000 0.0000000000
0.0000000000 0.5456420000 0.0000000000
0.0926268000 0.5902282000 0.0000000000
0.3238892000 0.6324588000 0.0000000000
0.5111940000 0.6780092000 0.0000000000
0.6626954000 0.7104738000 0.0000000000
0.7764340000 0.7242370000 0.0000000000
0.8404848000 0.7265444000 0.0000000000
0.8817564000 0.7276794000 0.0000000000
0.8967530000 0.7218138000 0.0000000000
0.9042358000 0.7185728000 0.0000000000
0.9080016000 0.7173400000 0.0000000000
0.0000000000 0.3741882000 0.0000000000
0.0000000000 0.3893920000 0.0000000000
0.0000000000 0.4035708000 0.0000000000
0.0000000000 0.4535340000 0.0000000000
0.0000000000 0.5199892000 0.0000000000
0.0000000000 0.5640440000 0.0000000000
0.0404236000 0.6100404000 0.0000000000
0.3116516000 0.6527894000 0.0000000000
0.4998106000 0.6986574000 0.0000000000
0.6558776000 0.7343504000 0.0000000000
0.7709104000 0.7524108000 0.0000000000
0.8387942000 0.7577026000 0.0000000000
0.8822694000 0.7591062000 0.0000000000
0.9067626000 0.7602966000 0.0000000000
0.9197390000 0.7606202000 0.0000000000
0.9253418000 0.7607362000 0.0000000000
0.0000000000 0.3806028000 0.0000000000
0.0000000000 0.3959288000 0.0000000000
0.0000000000 0.4103332000 0.0000000000
0.0000000000 0.4611574000 0.0000000000
0.0000000000 0.5283752000 0.0000000000
0.0000000000 0.5731510000 0.0000000000
0.0192260000 0.6198000000 0.0000000000
0.3045228000 0.6630064000 0.0000000000
0.4929688000 0.7088504000 0.0000000000
0.6515502000 0.7458924000 0.0000000000
0.7668640000 0.7661560000 0.0000000000
0.8360232000 0.7730650000 0.0000000000
0.8808106000 0.7758542000 0.0000000000
0.9064150000 0.7766786000 0.0000000000
0.9199402000 0.7774414000 0.0000000000
0.9259640000 0.7777038000 0.0000000000
0.0000000000 0.3836916000 0.0000000000
0.0000000000 0.3991334000 0.0000000000
0.0000000000 0.4136474000 0.0000000000
0.0000000000 0.4644774000 0.0000000000
0.0000000000 0.5322386000 0.0000000000
0.0000000000 0.5772706000 0.0000000000
0.0171936000 0.6241640000 0.0000000000
0.3000732000 0.6674802000 0.0000000000
0.4884584000 0.7132446000 0.0000000000
0.6485594000 0.7509946000 0.0000000000
0.7640568000 0.7724064000 0.0000000000
0.8337830000 0.7803406000 0.0000000000
0.8791810000 0.7836852000 0.0000000000
0.9055726000 0.7852658000 0.0000000000
0.9193418000 0.7854374000 0.0000000000
0.9254338000 0.7857668000 0.0000000000
0.0000000000 0.3848026000 0.0000000000
0.0000000000 0.4002684000 0.0000000000
0.0000000000 0.4148380000 0.0000000000
0.0000000000 0.4658268000 0.0000000000
0.0000000000 0.5336546000 0.0000000000
0.0000000000 0.5788388000 0.0000000000
0.0163696000 0.6259398000 0.0000000000
0.2979862000 0.6693420000 0.0000000000
0.4863890000 0.7151308000 0.0000000000
0.6471740000 0.7532288000 0.0000000000
0.7627622000 0.7751588000 0.0000000000
0.8327454000 0.7835574000 0.0000000000
0.8781618000 0.7870852000 0.0000000000
0.9050534000 0.7889160000 0.0000000000
0.9189700000 0.7892336000 0.0000000000
0.9251344000 0.7892460000 0.0000000000
0.0000490000 0.0001954000 0.0029234000
0.0027406000 0.0002322000 0.0049746000
0.0052982000 0.0003114000 0.0068972000
0.0125180000 0.0009644000 0.0071348000
0.0346924000 0.0019166000 0.0083618000
0.0778568000 0.0023802000 0.0087462000
0.1410580000 0.0005124000 0.0088132000
0.2161500000 0.0000000000 0.0070860000
0.3002380000 0.0000000000 0.0035830000
0.3744262000 0.0000000000 0.0000000000
0.4454282000 0.0000000000 0.0000000000
0.5083556000 0.0000000000 0.0000000000
0.5642212000 0.0000000000 0.0005492000
0.6007262000 0.0000000000 0.0037964000
0.6216800000 0.0000000000 0.0087826000
0.6284178000 0.0000000000 0.0127196000
0.0000000000 0.0029480000 0.0042174000
0.0053650000 0.0055116000 0.0070982000
0.0079164000 0.0055606000 0.0090208000
0.0151488000 0.0061952000 0.0093750000
0.0403628000 0.0083616000 0.0106812000
0.0854186000 0.0098756000 0.0109804000
0.1514036000 0.0095822000 0.0107850000
0.2289916000 0.0055542000 0.0083494000
0.3153684000 0.0000000000 0.0021850000
0.3906802000 0.0000000000 0.0000000000
0.4629274000 0.0000000000 0.0000000000
0.5262450000 0.0000000000 0.0000000000
0.5822572000 0.0000000000 0.0000000000
0.6122072000 0.0000000000 0.0019836000
0.6262206000 0.0000000000 0.0074710000
0.6327210000 0.0000000000 0.0114500000
0.0000000000 0.0055846000 0.0054258000
0.0041074000 0.0081850000 0.0083434000
0.0103270000 0.0106450000 0.0110778000
0.0177490000 0.0113770000 0.0115784000
0.0460388000 0.0144838000 0.0126098000
0.0929260000 0.0166196000 0.0120970000
0.1614748000 0.0177004000 0.0108276000
0.2413636000 0.0144408000 0.0067626000
0.3296082000 0.0053712000 0.0002440000
0.4067936000 0.0000000000 0.0000000000
0.4803892000 0.0000000000 0.0000000000
0.5437806000 0.0000000000 0.0000000000
0.5924624000 0.0000000000 0.0000000000
0.6164002000 0.0000000000 0.0013792000
0.6304138000 0.0000000000 0.0062930000
0.6369932000 0.0000000000 0.0102722000
0.0000000000 0.0120850000 0.0062988000
0.0024844000 0.0146362000 0.0091616000
0.0086668000 0.0170290000 0.0118346000
0.0283326000 0.0241270000 0.0121032000
0.0640626000 0.0299014000 0.0126526000
0.1192506000 0.0369936000 0.0103456000
0.1947448000 0.0432376000 0.0070984000
0.2832704000 0.0444882000 0.0009032000
0.3747252000 0.0385134000 0.0000000000
0.4539492000 0.0263976000 0.0000000000
0.5217162000 0.0118590000 0.0000000000
0.5682130000 0.0053466000 0.0000000000
0.6067446000 0.0019958000 0.0000000000
0.6308474000 0.0001342000 0.0000000000
0.6447814000 0.0000000000 0.0023928000
0.6513364000 0.0000000000 0.0060730000
0.0000000000 0.0322812000 0.0087280000
0.0000000000 0.0366760000 0.0115538000
0.0032654000 0.0408386000 0.0142154000
0.0274234000 0.0529848000 0.0162720000
0.0766294000 0.0656308000 0.0160094000
0.1397218000 0.0770018000 0.0111326000
0.2223022000 0.0875426000 0.0031616000
0.3157348000 0.0953128000 0.0000000000
0.4104616000 0.0969238000 0.0000000000
0.4903690000 0.0926758000 0.0000000000
0.5579100000 0.0856936000 0.0000000000
0.6037778000 0.0816648000 0.0000000000
0.6414978000 0.0796448000 0.0000000000
0.6649964000 0.0788390000 0.0000000000
0.6785704000 0.0781738000 0.0000000000
0.6849302000 0.0774354000 0.0000000000
0.0000000000 0.0736450000 0.0130128000
0.0000000000 0.0789366000 0.0155578000
0.0000000000 0.0838686000 0.0179382000
0.0123658000 0.1013856000 0.0246826000
0.0754882000 0.1213316000 0.0238708000
0.1541688000 0.1371152000 0.0159610000
0.2484680000 0.1513306000 0.0000000000
0.3488158000 0.1643372000 0.0000000000
0.4493774000 0.1728452000 0.0000000000
0.5339170000 0.1760682000 0.0000000000
0.6041566000 0.1760316000 0.0000000000
0.6491696000 0.1760802000 0.0000000000
0.6858644000 0.1772094000 0.0000000000
0.7083252000 0.1782836000 0.0000000000
0.7216006000 0.1791384000 0.0000000000
0.7278440000 0.1794434000 0.0000000000
0.0000000000 0.1320192000 0.0200438000
0.0000000000 0.1390260000 0.0224734000
0.0000000000 0.1456604000 0.0241762000
0.0000000000 0.1688110000 0.0295656000
