LUTs/SPK Cube Block1 S16/TheBrim_SPK_Type-L_Block 1_S16.cube
TITLE "TheBrim® Industrial Imaging Burau"
# © Copyright 2022 - TheBrim® d.o.o. Croatia
LUT_3D_SIZE 6
0.0073548486 0.0089417868 0.0091554131
0.0635019455 0.0220035096 0.0155642023
0.2815838865 0.0000000000 0.0003173877
0.5032852674 0.0000000000 0.0000000000
0.6231082628 0.0000000000 0.0000000000
0.6421149004 0.0000000000 0.0000000000
0.0000000000 0.0836377508 0.0594613565
0.0630685893 0.0852002747 0.0403936828
0.2857038224 0.0844434272 0.0067078660
0.5177355612 0.0029846647 0.0000000000
0.6529854276 0.0000000000 0.0000000000
0.6752941176 0.0000000000 0.0000000000
0.0000000000 0.2475745785 0.1930571450
0.0000000000 0.2299778744 0.1534813458
0.2455359731 0.2470679789 0.0796337835
0.5737178607 0.2503456168 0.0000000000
0.7535240711 0.2118135348 0.0000000000
0.7726222629 0.1735255970 0.0000000000
0.0000000000 0.4538460365 0.3546074617
0.0000000000 0.4458075837 0.3267505913
0.0000000000 0.5020889601 0.2550942245
0.6153383688 0.5493827726 0.1105058366
0.8598977646 0.5313038834 0.0000000000
0.9077744717 0.4936964981 0.0000000000
0.0000000000 0.5138353552 0.3732478828
0.0000000000 0.5360769055 0.3670588235
0.0000000000 0.6228030823 0.3543511101
0.5697871366 0.7409079118 0.2841107805
0.9072373541 0.7732936599 0.0000000000
0.9923460746 0.7575524529 0.0000000000
0.0000000000 0.6074464027 0.3590447852
0.0000000000 0.6313298238 0.3517692836
0.3384756237 0.6946486610 0.3271839475
0.6803784237 0.7646509499 0.2501808194
0.9063889525 0.8011932555 0.0521919585
0.9999389639 0.8076447700 0.0000000000
0.0026001373 0.0231815061 0.0830701152
0.0558602274 0.0207583734 0.0678904402
0.2800274662 0.0000000000 0.0436469062
0.5118669413 0.0000000000 0.0161867704
0.6292607004 0.0000000000 0.0000000000
0.6462531472 0.0000000000 0.0000000000
0.0000000000 0.0971938659 0.1301533532
0.0473212787 0.0862439918 0.0944228275
0.2873334859 0.0792553597 0.0562569619
0.5251941711 0.0000000000 0.0131288624
0.6505439841 0.0000000000 0.0000000000
0.6794262608 0.0000000000 0.0000000000
0.0000000000 0.2450537881 0.2067231250
0.0000000000 0.2303135729 0.1620325017
0.2479713130 0.2468970779 0.1029068437
0.5799252308 0.2437354086 0.0071534295
0.7514244297 0.1974700542 0.0000000000
0.7725795377 0.1648828870 0.0000000000
0.0000000000 0.4523262379 0.3586419471
0.0000000000 0.4451728084 0.3267261769
0.0000000000 0.5015823606 0.2532997635
0.6207217517 0.5444998856 0.1040360113
0.8594705119 0.5210925460 0.0000000000
0.9045700771 0.4849683375 0.0000000000
0.0000000000 0.5168139162 0.3721736477
0.0000000000 0.5401541161 0.3666803998
0.0000000000 0.6259342336 0.3533562219
0.5784603647 0.7424643320 0.2816571298
0.9106736858 0.7731593805 0.0000000000
0.9922789349 0.7596643015 0.0000000000
0.0000000000 0.6154055085 0.3565178912
0.0000000000 0.6387640192 0.3488700694
0.3668085756 0.7002761883 0.3239368276
0.6985854887 0.7680201419 0.2428015564
0.9114061189 0.8018951705 0.0394964523
0.9974547951 0.8242954147 0.0000000000
0.0000000000 0.0364995804 0.2124788281
0.0351995117 0.0364446479 0.2204928664
0.2630655375 0.0275028611 0.2147493706
0.5397573816 0.0000000000 0.1884611276
0.6456183719 0.0000000000 0.1478294041
0.6596322576 0.0000000000 0.1265827420
0.0000000000 0.0953566796 0.2590371557
0.0000000000 0.0830151827 0.2510292210
0.2759319448 0.0815381094 0.2286045624
0.5540825513 0.0000000000 0.1925871672
0.6690318151 0.0000000000 0.1509788663
0.6923048753 0.0000000000 0.1318440528
0.0000000000 0.2606240940 0.3342397192
0.0000000000 0.2520363165 0.3137621118
0.2295017929 0.2706279088 0.2793011368
0.5898130770 0.2621072709 0.2285679408
0.7613244831 0.2079499504 0.1824979019
0.7825955596 0.1719874876 0.1516014343
0.0000000000 0.4667734798 0.4483527886
0.0000000000 0.4609445335 0.4207644770
0.0000000000 0.5215197986 0.3856992447
0.6136476692 0.5642755779 0.3070054170
0.8593484398 0.5432242313 0.2146211948
0.9065354391 0.5025894560 0.1615503166
0.0000000000 0.5307423514 0.4400579843
0.0000000000 0.5537102312 0.4374517433
0.0000000000 0.6386419471 0.4395147631
0.5531059739 0.7612817578 0.4105104143
0.9029098955 0.7997161822 0.2970077058
0.9865537499 0.7902006561 0.1793118181
0.0000000000 0.6283024338 0.3546562905
0.0000000000 0.6492256046 0.3485709926
0.4038269627 0.7096452277 0.3260059510
0.6904066529 0.7789639124 0.3180285344
0.9050278477 0.8296238651 0.3111131456
0.9899168383 0.8573281453 0.3205676356
0.0000000000 0.0814465553 0.3606561379
0.0496772717 0.0794140536 0.3738216220
0.3031906615 0.0599069200 0.3666376745
0.5427420462 0.0000000000 0.3256824598
0.6597726406 0.0000000000 0.2788189517
0.6802624552 0.0000000000 0.2532875563
0.0000000000 0.1343587396 0.4066956588
0.0000000000 0.1183733883 0.4054261082
0.3145738918 0.1007278553 0.3987060349
0.5790951400 0.0000000000 0.3596307317
0.6861951629 0.0000000000 0.3088914321
0.7082047761 0.0000000000 0.2904158083
0.0000000000 0.2927901122 0.4773022049
0.0000000000 0.2887312123 0.4836499580
0.2464759289 0.3071763180 0.4953658350
0.6126100557 0.2903791867 0.4597543297
0.7710719463 0.2244663157 0.3979064622
0.7883756771 0.1806057832 0.3514641032
0.0000000000 0.4820325017 0.5452079042
0.0000000000 0.4881177996 0.5411245899
0.0000000000 0.5547722591 0.5539482719
0.6106202792 0.5931029221 0.5222827497
0.8582925154 0.5698237583 0.4631174182
0.9019821469 0.5214435035 0.4143495842
0.0000000000 0.5564995804 0.5557793545
0.0000000000 0.5762569619 0.5602838178
0.0000000000 0.6682261387 0.5867612726
0.5356099794 0.7911039902 0.5981811246
0.8882490272 0.8290440223 0.5328175784
0.9741451133 0.8239414054 0.4654734112
0.0000000000 0.6646860456 0.5424429694
0.0000000000 0.6876234073 0.5453299763
0.3475333791 0.7508690013 0.5500846876
0.6785534447 0.8182223239 0.5445059892
0.9009811551 0.8649454490 0.5392446784
0.9783688106 0.8879987793 0.5435965515
0.0000000000 0.1614709697 0.4371465629
0.0422369726 0.1620813306 0.4422125582
0.2779583429 0.1575280385 0.4444464790
0.5019546807 0.1217853056 0.4151613642
0.6481025406 0.0294010834 0.3752986954
0.7191424430 0.0000000000 0.3427542535
0.0000000000 0.1918913558 0.4584969863
0.0000000000 0.1937163348 0.4636362249
0.2716289006 0.1943694209 0.4683665217
0.5145006485 0.1676600290 0.4474860761
0.6687449454 0.1051773861 0.4021850919
0.7394308385 0.0550789654 0.3653315023
0.0000000000 0.3017624170 0.5305104143
0.0000000000 0.3023300526 0.5329945830
0.2523476005 0.3166674296 0.5429922942
0.5680720226 0.3150988022 0.5318226902
0.7452475776 0.2898908980 0.4949935149
0.8083344778 0.2635782406 0.4464728771
0.0000000000 0.4967116808 0.6160769055
0.0000000000 0.5143480583 0.6328191043
0.0000000000 0.5848325322 0.6731761654
0.6254154269 0.6174807355 0.6702342260
0.8570595865 0.5917112993 0.6228274968
0.9025558862 0.5522270542 0.5757747768
0.0000000000 0.5786923018 0.6390386816
0.0000000000 0.6037293050 0.6512886244
0.0000000000 0.6968520638 0.6953871977
0.5635492485 0.8138887617 0.7238849470
0.8869489586 0.8515236133 0.6998916609
0.9612176699 0.8461341268 0.6633371481
0.0000000000 0.6975356680 0.6560189212
0.0000000000 0.7243549248 0.6651560235
0.3566277562 0.7818936446 0.6801403830
0.6840466926 0.8452796216 0.6896742199
0.9047409781 0.8917708095 0.7022293431
0.9686518654 0.9111192493 0.7152971695
0.0000000000 0.2145113298 0.4753490501
0.0000000000 0.2150911727 0.4786449989
0.2257053483 0.2165072099 0.4826733806
0.4322819867 0.2035309377 0.4719310292
0.6038025483 0.1620691234 0.4379827573
0.7085221637 0.1170366979 0.4000610361
0.0000000000 0.2362951095 0.4905165179
0.0000000000 0.2389562829 0.4938612955
0.2206271458 0.2407202258 0.4972854200
0.4340154116 0.2295994507 0.4859876402
0.6092164492 0.1995757992 0.4595468070
0.7324361028 0.1799404898 0.4302861067
0.0000000000 0.3107774472 0.5384084840
0.0000000000 0.3127489128 0.5409231708
0.2040314336 0.3181322957 0.5448233768
0.4550118257 0.3303212024 0.5432669566
0.6808422980 0.3484611276 0.5399710079
0.8040680552 0.3556206607 0.5178088045
0.0000000000 0.5040726329 0.6404242008
0.0000000000 0.5199145495 0.6502265965
0.2553688869 0.5610284581 0.6682566567
0.6058655680 0.5949095903 0.6649790188
0.7997711147 0.6160097658 0.6488715953
0.8911299306 0.6196841382 0.6224551766
0.0000000000 0.6248050660 0.7044205386
0.0000000000 0.6607797360 0.7235736629
0.0000000000 0.7509056229 0.7614709697
0.6488899062 0.8278416114 0.7704615854
0.8939131762 0.8557228962 0.7530357824
0.9499809262 0.8599160754 0.7334798199
0.0000000000 0.7318684672 0.7321126116
0.0000000000 0.7534203098 0.7403952087
0.4047669184 0.8079865721 0.7588097963
0.7204364080 0.8681925689 0.7780300603
0.9122117952 0.9081895171 0.7934843977
0.9633783474 0.9213855192 0.8003509575
