LUTs/SPK Cube Block1 S16/TheBrim_SPK_Type-K_Block1_S16.cube
TITLE "TheBrim® SPK Block 1"
# TheBrim® d.o.o. Croatia
# Copyright: (C) Copyright 2020 TheBrim® d.o.o. Croatia
LUT_3D_SIZE 6
0.0022280000 0.0019840000 0.0018310000
0.0135440000 0.0075804000 0.0073850000
0.1682190000 0.0256958000 0.0359496000
0.4820742000 0.0380374000 0.0894346000
0.6887756000 0.0000000000 0.1342166000
0.7167360000 0.0000000000 0.1548160000
0.0074218000 0.0239868000 0.0092836000
0.0272094000 0.0326658000 0.0073062000
0.1901976000 0.0578248000 0.0259398000
0.4821536000 0.0464786000 0.0625852000
0.6905888000 0.0025146000 0.0956484000
0.7281006000 0.0130002000 0.1091370000
0.0000000000 0.1181518000 0.0101438000
0.0000000000 0.1466554000 0.0187870000
0.2202636000 0.2096866000 0.0000000000
0.5862244000 0.2791500000 0.0000000000
0.8138242000 0.3164122000 0.0000000000
0.8465450000 0.3154848000 0.0020264000
0.0000000000 0.3188534000 0.0078978000
0.0000000000 0.3585630000 0.0000000000
0.2526676000 0.5173276000 0.0000000000
0.7025696000 0.5976742000 0.0000000000
0.9071898000 0.6261534000 0.0000000000
0.9382022000 0.6206234000 0.0000000000
0.0000000000 0.4884464000 0.0000000000
0.0000000000 0.5526002000 0.0000000000
0.3644226000 0.6541502000 0.0000000000
0.7566102000 0.7444704000 0.0000000000
0.9207336000 0.7413576000 0.0000000000
0.9458066000 0.7310176000 0.0000000000
0.2916560000 0.6366580000 0.0000000000
0.4011044000 0.6632080000 0.0000000000
0.6048036000 0.7120488000 0.0000000000
0.8360718000 0.7604062000 0.0000000000
0.9183716000 0.7480834000 0.0000000000
0.9483030000 0.7495420000 0.0000000000
0.0075014000 0.0085206000 0.0161072000
0.0134886000 0.0065124000 0.0199584000
0.1602048000 0.0215454000 0.0554502000
0.4865174000 0.0342406000 0.1113648000
0.6909360000 0.0000000000 0.1579774000
0.7164430000 0.0000000000 0.1944456000
0.0000000000 0.0222470000 0.0179808000
0.0192140000 0.0332276000 0.0293764000
0.1976620000 0.0562196000 0.0566348000
0.5010742000 0.0603884000 0.1006286000
0.7045412000 0.0213074000 0.1441284000
0.7440124000 0.0432616000 0.1789370000
0.0000000000 0.1129272000 0.0103700000
0.0000000000 0.1355166000 0.0160584000
0.2259890000 0.2123720000 0.0106566000
0.5930968000 0.2750002000 0.0112794000
0.8154724000 0.3098266000 0.0211854000
0.8505312000 0.3181760000 0.0994566000
0.0000000000 0.3145078000 0.0091060000
0.0000000000 0.3576414000 0.0000000000
0.2572630000 0.5169678000 0.0000000000
0.6961362000 0.5868042000 0.0000000000
0.9094484000 0.6252378000 0.0000000000
0.9531310000 0.6384950000 0.0000000000
0.0000000000 0.4957884000 0.0000000000
0.0000000000 0.5604064000 0.0000000000
0.3778382000 0.6574400000 0.0000000000
0.7624940000 0.7455868000 0.0000000000
0.9320188000 0.7518858000 0.0000000000
0.9811464000 0.7692380000 0.0000000000
0.3316042000 0.6460936000 0.0000000000
0.4281740000 0.6699890000 0.0000000000
0.6275268000 0.7172726000 0.0000000000
0.8499818000 0.7629514000 0.0000000000
0.9229004000 0.7510010000 0.0000000000
0.9827090000 0.7878788000 0.0000000000
0.0102540000 0.0292418000 0.1276364000
0.0161988000 0.0263306000 0.1435056000
0.1359316000 0.0037540000 0.1733156000
0.4915286000 0.0000000000 0.2996768000
0.6808536000 0.0000000000 0.3607602000
0.7061338000 0.0000000000 0.3767758000
0.0000000000 0.0522826000 0.1581784000
0.0102660000 0.0533388000 0.1840208000
0.1786804000 0.0395266000 0.2110904000
0.5260252000 0.0230654000 0.3069092000
0.7078674000 0.0000000000 0.3650516000
0.7468200000 0.0000000000 0.3972658000
0.0000000000 0.1483822000 0.1371884000
0.0000000000 0.1707032000 0.1673584000
0.2138730000 0.2460574000 0.2537354000
0.6221194000 0.3146546000 0.3307370000
0.8344668000 0.3496644000 0.3972044000
0.8683902000 0.3553586000 0.4366518000
0.0000000000 0.3451540000 0.1441652000
0.0000000000 0.3886718000 0.1677612000
0.1344910000 0.5505558000 0.2396972000
0.6997374000 0.6398440000 0.2753358000
0.9199706000 0.6829772000 0.3185060000
0.9575072000 0.6881590000 0.3743530000
0.0000000000 0.5402832000 0.1660462000
0.0000000000 0.5853578000 0.1786012000
0.3091550000 0.7042300000 0.2291322000
0.7486758000 0.8003234000 0.2002198000
0.9444820000 0.8238890000 0.2218810000
0.9851866000 0.8368346000 0.2884216000
0.3817930000 0.6742186000 0.0000000000
0.4559692000 0.6940368000 0.0000000000
0.6470400000 0.7468262000 0.0000000000
0.8545286000 0.8043212000 0.0000000000
0.9484988000 0.8285094000 0.1098022000
0.9843566000 0.8588382000 0.3165952000
0.0021182000 0.0655152000 0.3547306000
0.0273742000 0.0582456000 0.3870298000
0.2217346000 0.0090942000 0.4238222000
0.4330262000 0.0000000000 0.3892758000
0.6516724000 0.0000000000 0.4861572000
0.6944456000 0.0000000000 0.5118038000
0.0000000000 0.1068664000 0.4108522000
0.0023012000 0.0908568000 0.4305056000
0.2453370000 0.0421264000 0.4634766000
0.5346436000 0.0000000000 0.4921936000
0.6977536000 0.0000000000 0.5357850000
0.7394958000 0.0000000000 0.5623352000
0.0000000000 0.2558840000 0.4480224000
0.0000000000 0.2723390000 0.4832216000
0.2597412000 0.3179322000 0.5657838000
0.6495114000 0.3236020000 0.6089170000
0.8289428000 0.3337280000 0.6493774000
0.8562930000 0.3266604000 0.6546632000
0.0000000000 0.3958376000 0.3618104000
0.0000000000 0.4440616000 0.4151246000
0.0014038000 0.6044068000 0.5676452000
0.6949466000 0.6894772000 0.6338436000
0.9149352000 0.7263000000 0.6726808000
0.9501468000 0.7210874000 0.6927064000
0.0000000000 0.5911926000 0.4508604000
0.0000000000 0.6336792000 0.4804750000
0.0309754000 0.7443176000 0.5541136000
0.7077636000 0.8479672000 0.6222230000
0.9283812000 0.8768616000 0.6503052000
0.9706542000 0.8851380000 0.6723146000
0.1837400000 0.7348568000 0.4429260000
0.3256712000 0.7551816000 0.4587100000
0.5934690000 0.8122618000 0.5087160000
0.8224976000 0.8633670000 0.5546878000
0.9351504000 0.8887450000 0.6225098000
0.9710448000 0.9046078000 0.6721494000
0.0000000000 0.1373350000 0.4693846000
0.0243592000 0.1400268000 0.4858094000
0.2241028000 0.1183474000 0.5094234000
0.4507938000 0.0699828000 0.5191100000
0.6505798000 0.0028320000 0.5551210000
0.7522950000 0.0155944000 0.5905826000
0.0000000000 0.1693296000 0.4939634000
0.0000000000 0.1740052000 0.5117310000
0.2305358000 0.1645754000 0.5423766000
0.4811828000 0.1383608000 0.5555176000
0.6841674000 0.1124270000 0.5911376000
0.7833558000 0.1379820000 0.6233524000
0.0000000000 0.2928894000 0.5672852000
0.0000000000 0.2994266000 0.5850830000
0.2612852000 0.3309936000 0.6469912000
0.5828308000 0.3351746000 0.6650574000
0.7957152000 0.3707094000 0.7045532000
0.8699588000 0.4000672000 0.7257748000
0.0000000000 0.4554384000 0.5253968000
0.0000000000 0.5117494000 0.5987062000
0.0000000000 0.6443176000 0.7420474000
0.7065614000 0.7163268000 0.7986386000
0.9084534000 0.7393554000 0.8162414000
0.9469544000 0.7427670000 0.8183534000
0.0000000000 0.5850954000 0.5692384000
0.0000000000 0.6497742000 0.6320744000
0.0000000000 0.7617494000 0.7230836000
0.6913578000 0.8647098000 0.7924622000
0.9239076000 0.8988100000 0.8216064000
0.9643918000 0.9042418000 0.8339966000
0.0000000000 0.7712460000 0.6758486000
0.2537600000 0.7915408000 0.6921570000
0.5651370000 0.8414980000 0.7283874000
0.8127810000 0.8903198000 0.7664614000
0.9327272000 0.9139284000 0.8033936000
0.9658754000 0.9252014000 0.8313476000
0.0000000000 0.1945190000 0.5155030000
0.0000000000 0.1981564000 0.5316040000
0.1892764000 0.1916688000 0.5572512000
0.4040772000 0.1831972000 0.5732546000
0.5971006000 0.1434696000 0.5848330000
0.7381900000 0.1567690000 0.6161190000
0.0000000000 0.2183654000 0.5360168000
0.0000000000 0.2236452000 0.5512998000
0.1990296000 0.2279844000 0.5820190000
0.4164306000 0.2153260000 0.5939514000
0.6137816000 0.1911864000 0.6071348000
0.7727538000 0.2360964000 0.6498350000
0.0000000000 0.3080626000 0.5870608000
0.0000000000 0.3143552000 0.6044620000
0.2076108000 0.3321104000 0.6422914000
0.4695860000 0.3474182000 0.6694460000
0.7239928000 0.4013126000 0.7079592000
0.8592224000 0.4760496000 0.7471370000
0.0000000000 0.5339234000 0.6753846000
0.0000000000 0.5645144000 0.7057070000
0.3091128000 0.6310916000 0.7614562000
0.6840022000 0.6946780000 0.7954714000
0.8619078000 0.7400512000 0.8130984000
0.9358028000 0.7777282000 0.8278622000
0.0000000000 0.5820738000 0.6001342000
0.0000000000 0.6674988000 0.6872800000
0.0109192000 0.7889834000 0.7851562000
0.7407470000 0.8735778000 0.8366576000
0.9250364000 0.9012208000 0.8534972000
0.9590150000 0.9083680000 0.8585326000
0.0000000000 0.7855830000 0.7623600000
0.1687864000 0.8027586000 0.7750668000
0.5624758000 0.8542418000 0.8094234000
0.8130736000 0.9008852000 0.8386782000
0.9332336000 0.9223388000 0.8607174000
0.9653020000 0.9309390000 0.8728640000
