LUTs/SPK Cube Block1 S16/TheBrim_SPK_Type-Y_Block1_S16.cube
TITLE "TheBrim® Industrial Imaging Burau"
# © Copyright 2022 - TheBrim® d.o.o. Croatia
LUT_3D_SIZE 6
DOMAIN_MIN 0.000000 0.000000 0.000000
DOMAIN_MAX 1.000000 1.000000 1.000000
0.000000 0.000031 0.000031
0.073712 0.000031 0.000031
0.331208 0.000031 0.000031
0.678009 0.000031 0.000031
0.989373 0.000031 0.000031
0.999969 0.000031 0.000031
0.000000 0.107398 0.000031
0.073712 0.107398 0.000031
0.331208 0.107398 0.000031
0.678009 0.107398 0.000031
0.989373 0.107398 0.000031
0.999969 0.107398 0.000031
0.000000 0.343293 0.000031
0.073712 0.343293 0.000031
0.331208 0.343293 0.000031
0.678009 0.343293 0.000031
0.989373 0.343293 0.000031
0.999969 0.343293 0.000031
0.000000 0.680621 0.000031
0.073712 0.680621 0.000031
0.331208 0.680621 0.000031
0.678009 0.680621 0.000031
0.989373 0.680621 0.000031
0.999969 0.680621 0.000031
0.000000 0.956879 0.000031
0.073712 0.956879 0.000031
0.331208 0.956879 0.000031
0.678009 0.956879 0.000031
0.989373 0.956879 0.000031
0.999969 0.956879 0.000031
0.000000 0.986603 0.000031
0.073712 0.986603 0.000031
0.331208 0.986603 0.000031
0.678009 0.986603 0.000031
0.989373 0.986603 0.000031
0.999969 0.986603 0.000031
0.000000 0.000031 0.102301
0.073712 0.000031 0.102301
0.331208 0.000031 0.102301
0.678009 0.000031 0.102301
0.989373 0.000031 0.102301
0.999969 0.000031 0.102301
0.000000 0.107398 0.102301
0.073712 0.107398 0.102301
0.331208 0.107398 0.102301
0.678009 0.107398 0.102301
0.989373 0.107398 0.102301
0.999969 0.107398 0.102301
0.000000 0.343293 0.102301
0.073712 0.343293 0.102301
0.331208 0.343293 0.102301
0.678009 0.343293 0.102301
0.989373 0.343293 0.102301
0.999963 0.343293 0.102301
0.000000 0.680621 0.102301
0.073712 0.680621 0.102301
0.331208 0.680621 0.102301
0.678009 0.680621 0.102301
0.989373 0.680621 0.102301
0.999969 0.680621 0.102301
0.000000 0.956879 0.102301
0.073712 0.956879 0.102301
0.331208 0.956879 0.102301
0.678009 0.956879 0.102301
0.989373 0.956879 0.102301
0.999963 0.956879 0.102301
0.000000 0.986603 0.102301
0.073712 0.986603 0.102301
0.331208 0.986603 0.102301
0.678009 0.986603 0.102301
0.989373 0.986603 0.102301
0.999969 0.986603 0.102301
0.000000 0.000031 0.338928
0.073712 0.000031 0.338928
0.331208 0.000031 0.338928
0.678009 0.000031 0.338928
0.989373 0.000031 0.338928
0.999969 0.000031 0.338928
0.000000 0.107398 0.338928
0.073712 0.107398 0.338928
0.331208 0.107398 0.338928
0.678009 0.107398 0.338928
0.989373 0.107398 0.338928
0.999963 0.107398 0.338928
0.000000 0.343293 0.338928
0.073712 0.343293 0.338928
0.331208 0.343293 0.338928
0.678009 0.343293 0.338928
0.989373 0.343293 0.338928
0.999969 0.343293 0.338928
0.000000 0.680621 0.338928
0.073712 0.680621 0.338928
0.331208 0.680621 0.338928
0.678009 0.680621 0.338928
0.989373 0.680621 0.338928
0.999969 0.680621 0.338928
0.000000 0.956879 0.338928
0.073712 0.956879 0.338928
0.331208 0.956879 0.338928
0.678009 0.956879 0.338928
0.989373 0.956879 0.338928
0.999969 0.956879 0.338928
0.000000 0.986603 0.338928
0.073712 0.986603 0.338928
0.331208 0.986603 0.338928
0.678009 0.986603 0.338928
0.989373 0.986603 0.338928
0.999969 0.986603 0.338928
0.000000 0.000031 0.610291
0.073712 0.000031 0.610291
0.331208 0.000031 0.610291
0.678009 0.000031 0.610291
0.989373 0.000031 0.610291
0.999969 0.000031 0.610291
0.000000 0.107398 0.610291
0.073712 0.107398 0.610291
0.331208 0.107398 0.610291
0.678009 0.107398 0.610291
0.989373 0.107398 0.610291
0.999969 0.107398 0.610291
0.000000 0.343293 0.610291
0.073712 0.343293 0.610291
0.331208 0.343293 0.610291
0.678009 0.343293 0.610291
0.989373 0.343293 0.610291
0.999969 0.343293 0.610291
0.000000 0.680621 0.610291
0.073712 0.680621 0.610291
0.331208 0.680621 0.610291
0.678009 0.680621 0.610291
0.989373 0.680621 0.610291
0.999969 0.680621 0.610291
0.000000 0.956879 0.610291
0.073712 0.956879 0.610291
0.331208 0.956879 0.610291
0.678009 0.956879 0.610291
0.989373 0.956879 0.610291
0.999963 0.956879 0.610291
0.000000 0.986603 0.610291
0.073712 0.986603 0.610291
0.331208 0.986603 0.610291
0.678009 0.986603 0.610291
0.989373 0.986603 0.610291
0.999969 0.986603 0.610291
0.000000 0.000031 0.906262
0.073712 0.000031 0.906262
0.331208 0.000031 0.906262
0.678009 0.000031 0.906262
0.989373 0.000031 0.906262
0.999969 0.000031 0.906262
0.000000 0.107398 0.906262
0.073712 0.107398 0.906262
0.331208 0.107398 0.906262
0.678009 0.107398 0.906262
0.989373 0.107398 0.906262
0.999963 0.107398 0.906262
0.000000 0.343293 0.906262
0.073712 0.343293 0.906262
0.331208 0.343293 0.906262
0.678009 0.343293 0.906262
0.989373 0.343293 0.906262
0.999969 0.343293 0.906262
0.000000 0.680621 0.906262
0.073712 0.680621 0.906262
0.331208 0.680621 0.906262
0.678009 0.680621 0.906262
0.989373 0.680621 0.906262
0.999963 0.680621 0.906262
0.000000 0.956879 0.906262
0.073712 0.956879 0.906262
0.331208 0.956879 0.906262
0.678009 0.956879 0.906262
0.989373 0.956879 0.906262
0.999969 0.956879 0.906262
0.000000 0.986603 0.906262
0.073712 0.986603 0.906262
0.331208 0.986603 0.906262
0.678009 0.986603 0.906262
0.989373 0.986603 0.906262
0.999969 0.986603 0.906262
0.000000 0.000031 0.958984
0.073712 0.000031 0.958984
0.331208 0.000031 0.958984
0.678009 0.000031 0.958984
0.989373 0.000031 0.958984
0.999969 0.000031 0.958984
0.000000 0.107398 0.958984
0.073712 0.107398 0.958984
0.331208 0.107398 0.958984
0.678009 0.107398 0.958984
0.989373 0.107398 0.958984
0.999969 0.107398 0.958984
0.000000 0.343293 0.958984
0.073712 0.343293 0.958984
0.331208 0.343293 0.958984
0.678009 0.343293 0.958984
0.989373 0.343293 0.958984
0.999969 0.343293 0.958984
0.000000 0.680621 0.958984
0.073712 0.680621 0.958984
0.331208 0.680621 0.958984
0.678009 0.680621 0.958984
0.989373 0.680621 0.958984
0.999969 0.680621 0.958984
0.000000 0.956879 0.958984
0.073712 0.956879 0.958984
0.331208 0.956879 0.958984
0.678009 0.956879 0.958984
0.989373 0.956879 0.958984
0.999969 0.956879 0.958984
0.000000 0.986603 0.958984
0.073712 0.986603 0.958984
0.331208 0.986603 0.958984
0.678009 0.986603 0.958984
0.989373 0.986603 0.958984
0.999969 0.986603 0.958984
