LUTs/SPK Cube Block1 S16/TheBrim_SPK_Type-R_Block1_S16.cube
TITLE "TheBrim® SPK Block 1"
# © Copyright 2021 - TheBrim® d.o.o. Croatia
LUT_3D_SIZE 16
DOMAIN_MIN 0.000000 0.000000 0.000000
DOMAIN_MAX 1.000000 1.000000 1.000000
0.001068 0.004303 0.006806
0.003558 0.006238 0.011469
0.009424 0.008118 0.013935
0.016028 0.010034 0.017182
0.033063 0.012848 0.021668
0.140291 0.020478 0.029114
0.360778 0.000000 0.006891
0.468037 0.000000 0.002777
0.542937 0.000000 0.012665
0.601251 0.000000 0.019153
0.626001 0.000000 0.027619
0.641199 0.000000 0.032685
0.646003 0.000000 0.036207
0.654444 0.000000 0.039246
0.663252 0.000000 0.050886
0.664179 0.000000 0.051606
0.000525 0.006915 0.010993
0.004297 0.006787 0.010791
0.009888 0.008215 0.013849
0.018634 0.010401 0.016150
0.046387 0.014234 0.020478
0.159237 0.021125 0.025464
0.364410 0.000000 0.006275
0.469355 0.000000 0.003046
0.543053 0.000000 0.013098
0.600928 0.000000 0.019269
0.625892 0.000000 0.028083
0.640937 0.000000 0.032715
0.646088 0.000000 0.036207
0.654377 0.000000 0.039246
0.663099 0.000000 0.050697
0.664179 0.000000 0.051606
0.000000 0.016242 0.016083
0.000269 0.014899 0.013861
0.011218 0.013153 0.012226
0.031366 0.013098 0.014417
0.061988 0.015686 0.019422
0.164852 0.021442 0.024872
0.363842 0.000000 0.006299
0.471894 0.000000 0.003430
0.544146 0.000000 0.013465
0.599963 0.000000 0.019275
0.626075 0.000000 0.028345
0.640705 0.000000 0.032850
0.646033 0.000000 0.036182
0.654334 0.000000 0.039387
0.663032 0.000000 0.050599
0.664179 0.000000 0.051606
0.000000 0.048060 0.028815
0.000000 0.047590 0.027710
0.000000 0.041553 0.022882
0.029255 0.039881 0.021204
0.101643 0.038398 0.020270
0.214597 0.030536 0.015680
0.366577 0.000000 0.007160
0.471608 0.000000 0.004858
0.542632 0.000000 0.014661
0.599658 0.000000 0.019434
0.625617 0.000000 0.029090
0.640327 0.000000 0.033002
0.645808 0.000000 0.035914
0.653834 0.000000 0.039289
0.662977 0.000000 0.050526
0.664179 0.000000 0.051606
0.000000 0.134884 0.051887
0.000000 0.129335 0.051215
0.000000 0.122451 0.050233
0.000000 0.105513 0.041566
0.074611 0.102766 0.034949
0.200320 0.098701 0.032239
0.345715 0.074543 0.021888
0.473890 0.008240 0.012573
0.545507 0.000000 0.015747
0.599127 0.000000 0.020423
0.625727 0.000000 0.030011
0.640131 0.000000 0.033222
0.645826 0.000000 0.035810
0.653059 0.000000 0.039197
0.662422 0.000000 0.050440
0.664179 0.000000 0.051606
0.000000 0.254429 0.097017
0.000000 0.250455 0.095900
0.000000 0.242478 0.093928
0.000000 0.229538 0.091347
0.000000 0.193588 0.071962
0.131472 0.195041 0.059419
0.318511 0.193491 0.046033
0.479133 0.164205 0.024652
0.579754 0.101070 0.016693
0.625592 0.021173 0.021118
0.636316 0.000000 0.029328
0.643879 0.000000 0.032416
0.646046 0.000000 0.035676
0.652625 0.000000 0.039258
0.661530 0.000000 0.049506
0.664179 0.000000 0.051606
0.000000 0.361944 0.146755
0.000000 0.361328 0.146053
0.000000 0.359155 0.144411
0.000000 0.350994 0.139528
0.000000 0.335161 0.131527
0.000000 0.304515 0.108815
0.211240 0.335680 0.090132
0.441205 0.336950 0.051002
0.609442 0.302593 0.006531
0.690382 0.241874 0.007031
0.724648 0.172378 0.014026
0.713466 0.103352 0.019147
0.691505 0.039124 0.031360
0.677211 0.005756 0.036286
0.671888 0.000000 0.048658
0.672084 0.000000 0.051423
0.000000 0.443696 0.187204
0.000000 0.443342 0.186941
0.000000 0.442499 0.186276
0.000000 0.438740 0.183664
0.000000 0.431031 0.178018
0.000000 0.422681 0.166360
0.000000 0.446772 0.145534
0.327825 0.498933 0.111031
0.583813 0.516689 0.036915
0.744747 0.493367 0.000000
0.814212 0.441852 0.000000
0.831955 0.366314 0.000000
0.799655 0.275468 0.000000
0.769534 0.205649 0.008954
0.749508 0.160946 0.026227
0.737868 0.136220 0.034540
0.000000 0.495747 0.219644
0.000000 0.495558 0.219528
0.000000 0.495125 0.219205
0.000000 0.494801 0.218210
0.000000 0.491371 0.214359
0.000000 0.487739 0.207913
0.000000 0.497935 0.190622
0.116274 0.586676 0.160592
0.517052 0.652107 0.102156
0.731374 0.681013 0.000000
0.857505 0.678419 0.000000
0.911034 0.651844 0.000000
0.917156 0.587982 0.000000
0.888511 0.491984 0.000000
0.860972 0.410938 0.000000
0.845988 0.372522 0.000000
0.000000 0.511394 0.230332
0.000000 0.511827 0.230344
0.000000 0.512609 0.230387
0.000000 0.513927 0.230558
0.000000 0.512987 0.228379
0.000000 0.518480 0.219876
0.000000 0.526421 0.209427
0.042322 0.645606 0.205093
0.497740 0.729042 0.156704
0.726131 0.771499 0.071534
0.869963 0.794479 0.000000
0.940020 0.798294 0.000000
0.969403 0.790286 0.000000
0.964880 0.758614 0.000000
0.953893 0.711928 0.000000
0.941881 0.664533 0.000000
0.000000 0.517571 0.235233
0.000000 0.517522 0.235288
0.000000 0.516442 0.234971
0.000000 0.516356 0.233732
0.000000 0.519615 0.228684
0.000000 0.527428 0.218173
0.000000 0.564129 0.215384
0.168893 0.685682 0.215915
0.518889 0.751925 0.185721
0.745467 0.805057 0.138759
0.877287 0.828428 0.017517
0.949297 0.839951 0.000000
0.981378 0.837137 0.000000
0.982623 0.830271 0.000000
0.979754 0.819431 0.000000
0.975982 0.804654 0.000000
0.000000 0.516539 0.234922
0.000000 0.517424 0.234092
0.000000 0.518535 0.232493
0.000000 0.521343 0.228934
0.000000 0.526860 0.222385
0.000000 0.533745 0.215744
0.000000 0.619281 0.218625
0.299040 0.707253 0.212259
0.575317 0.766250 0.185037
0.766323 0.809708 0.136977
0.877684 0.833213 0.045039
0.949853 0.847752 0.000000
0.982525 0.846311 0.000000
0.984894 0.843076 0.000000
0.984656 0.840934 0.000000
0.984417 0.838779 0.000000
0.000000 0.523253 0.226304
0.000000 0.524602 0.225107
0.000000 0.526775 0.222525
0.000000 0.529473 0.219657
0.000000 0.542272 0.215238
0.000000 0.598865 0.218009
0.110152 0.681477 0.220847
0.411011 0.730080 0.207358
0.622986 0.777664 0.176577
0.775998 0.811942 0.134896
0.876335 0.832938 0.045173
0.947826 0.847965 0.000000
0.980792 0.848209 0.000000
0.985382 0.847330 0.000000
0.985064 0.844620 0.000000
0.985620 0.853581 0.000000
0.000000 0.529986 0.219620
0.000000 0.530224 0.218235
0.000000 0.532982 0.215818
0.000000 0.555908 0.215512
0.000000 0.600653 0.217856
0.000000 0.667170 0.224088
0.337444 0.714437 0.210343
0.521758 0.754269 0.196646
0.679872 0.792593 0.167251
0.796475 0.816251 0.127889
0.887913 0.835843 0.050990
0.948248 0.848051 0.000000
0.980005 0.848368 0.000000
0.985406 0.847758 0.000000
0.985016 0.844169 0.000000
0.985626 0.854252 0.000000
0.000000 0.563702 0.217209
0.000000 0.572955 0.218253
0.000000 0.593884 0.217618
0.000000 0.635962 0.220999
0.064112 0.671913 0.222574
0.298930 0.706514 0.211618
0.450953 0.738173 0.203641
0.613025 0.774960 0.177255
0.743874 0.805545 0.146175
0.823465 0.821378 0.102449
0.900139 0.838889 0.058094
0.950628 0.847959 0.000000
0.978222 0.847794 0.000000
0.985278 0.846311 0.000000
0.985010 0.844211 0.000000
0.985681 0.855460 0.000000
0.000000 0.654383 0.223087
0.000000 0.662141 0.224082
0.064271 0.675465 0.222843
0.231534 0.695644 0.216165
0.343218 0.715706 0.210098
0.447181 0.737362 0.203952
0.565637 0.764248 0.187875
0.692311 0.795743 0.165280
0.782223 0.813230 0.132723
0.853404 0.827854 0.062269
0.912596 0.841337 0.053651
0.953826 0.847495 0.000000
0.979113 0.847990 0.000000
0.985241 0.845975 0.000000
0.984985 0.843937 0.000000
0.985443 0.848508 0.000000
0.000372 0.005817 0.013672
0.001947 0.006256 0.014447
0.006732 0.007971 0.016748
0.011963 0.009491 0.018933
0.030304 0.012543 0.023920
0.144051 0.020270 0.035663
0.373071 0.000000 0.017401
0.475685 0.000000 0.004553
0.546087 0.000000 0.013147
0.602441 0.000000 0.019495
0.626331 0.000000 0.027967
0.641517 0.000000 0.032734
0.646253 0.000000 0.036432
0.654762 0.000000 0.039374
0.663325 0.000000 0.051020
0.664192 0.000000 0.052351
0.000336 0.005792 0.013452
0.001324 0.005969 0.013519
0.008020 0.008014 0.015613
0.016437 0.010260 0.018634
0.048426 0.014563 0.024060
0.169357 0.021137 0.031781
0.377649 0.000000 0.011865
0.475898 0.000000 0.004108
0.547222 0.000000 0.013489
0.602527 0.000000 0.019696
0.626337 0.000000 0.028400
0.641364 0.000000 0.032825
0.646339 0.000000 0.036542
0.654682 0.000000 0.039411
0.663191 0.000000 0.050843
0.664198 0.000000 0.052351
0.000000 0.014667 0.016407
0.000000 0.013147 0.014643
0.010181 0.010358 0.011847
0.027765 0.012036 0.016199
0.060560 0.015619 0.023346
0.181949 0.021344 0.028492
0.375396 0.000000 0.009009
0.476527 0.000000 0.004376
0.547259 0.000000 0.014032
0.601837 0.000000 0.019843
0.626532 0.000000 0.028534
0.641224 0.000000 0.032898
0.646308 0.000000 0.036530
0.654597 0.000000 0.039533
0.663093 0.000000 0.050660
0.664192 0.000000 0.052363
0.000000 0.050910 0.030311
0.000000 0.048389 0.029218
0.000000 0.042139 0.023828
0.029590 0.038233 0.020978
0.111275 0.034943 0.020081
0.227073 0.024195 0.016284
0.376641 0.000000 0.008331
0.476698 0.000000 0.005286
0.545104 0.000000 0.014972
0.601160 0.000000 0.019837
0.626142 0.000000 0.029316
0.640845 0.000000 0.033069
0.646131 0.000000 0.036280
0.654133 0.000000 0.039435
0.663062 0.000000 0.050617
0.664186 0.000000 0.052125
0.000000 0.139223 0.053571
0.000000 0.134578 0.051893
0.000000 0.124459 0.050898
0.000000 0.106502 0.042762
0.075880 0.100319 0.034363
0.207773 0.094240 0.031147
0.353753 0.067036 0.019525
0.477021 0.003516 0.011878
0.546691 0.000000 0.016083
0.600336 0.000000 0.021180
0.626191 0.000000 0.029963
0.640552 0.000000 0.033216
0.646009 0.000000 0.036152
0.653376 0.000000 0.039277
0.662806 0.000000 0.050764
0.664192 0.000000 0.052204
0.000000 0.257536 0.098207
0.000000 0.252909 0.096541
0.000000 0.244529 0.094228
0.000000 0.230210 0.091426
0.000000 0.195163 0.072572
0.133126 0.192917 0.058601
0.322155 0.190201 0.044318
0.482527 0.160140 0.023670
0.579596 0.094984 0.016352
0.624067 0.011847 0.021057
0.635187 0.000000 0.029718
0.642963 0.000000 0.032892
0.646125 0.000000 0.035901
0.652900 0.000000 0.039380
0.661872 0.000000 0.049915
0.664186 0.000000 0.051984
0.000000 0.361846 0.146767
0.000000 0.361352 0.146322
0.000000 0.359484 0.144521
0.000000 0.350622 0.139284
0.000000 0.334813 0.131490
0.000000 0.303282 0.108394
0.214359 0.334765 0.089754
0.444453 0.335045 0.048731
0.610309 0.298650 0.006946
0.690639 0.236844 0.007532
0.722652 0.165029 0.015503
0.710805 0.097133 0.020111
0.688557 0.031464 0.032117
0.675428 0.004395 0.036573
0.671095 0.000000 0.048804
0.671437 0.000000 0.051569
0.000000 0.443268 0.186941
0.000000 0.442884 0.186679
0.000000 0.441913 0.185916
0.000000 0.438123 0.183279
0.000000 0.430097 0.177371
0.000000 0.421729 0.165615
0.000000 0.447279 0.144912
0.332171 0.498610 0.109932
0.587536 0.514498 0.034571
0.745949 0.489351 0.000000
0.813712 0.436121 0.000000
0.829422 0.358898 0.000000
0.796182 0.267649 0.000000
0.765969 0.198251 0.010773
0.747561 0.156875 0.027411
0.736947 0.134273 0.035297
0.000000 0.495448 0.219461
0.000000 0.495314 0.219351
0.000000 0.494850 0.219016
0.000000 0.494594 0.218076
0.000000 0.490974 0.214066
0.000000 0.487355 0.207663
0.000000 0.497832 0.190121
0.123757 0.586871 0.159786
0.519396 0.651801 0.101064
0.733571 0.679799 0.000000
0.858146 0.675575 0.000000
0.910838 0.647779 0.000000
0.914971 0.580676 0.000000
0.886491 0.485637 0.000000
0.858311 0.404053 0.000000
0.844633 0.369000 0.000000
0.000000 0.511467 0.230399
0.000000 0.511901 0.230436
0.000000 0.512688 0.230448
0.000000 0.513970 0.230631
0.000000 0.513017 0.228379
0.000000 0.518584 0.219718
0.000000 0.526604 0.209366
0.044251 0.645759 0.204910
0.500340 0.729152 0.155526
0.726894 0.771127 0.069429
0.870256 0.793832 0.000000
0.940423 0.797244 0.000000
0.969079 0.788766 0.000000
0.964471 0.756893 0.000000
0.953069 0.708577 0.000000
0.941430 0.662757 0.000000
0.000000 0.517601 0.235294
0.000000 0.517498 0.235300
0.000000 0.516405 0.234989
0.000000 0.516368 0.233732
0.000000 0.519695 0.228598
0.000000 0.527514 0.218167
0.000000 0.564392 0.215372
0.171035 0.686012 0.215714
0.520507 0.752218 0.185245
0.746212 0.805154 0.138186
0.878221 0.828525 0.016364
0.949737 0.839780 0.000000
0.981622 0.836863 0.000000
0.982550 0.829856 0.000000
0.979687 0.819217 0.000000
0.975921 0.804367 0.000000
0.000000 0.516539 0.234910
0.000000 0.517363 0.233988
0.000000 0.518621 0.232389
0.000000 0.521428 0.228910
0.000000 0.526952 0.222306
0.000000 0.533953 0.215744
0.000000 0.620667 0.218875
0.300853 0.707564 0.212082
0.577221 0.766744 0.184799
0.767764 0.810031 0.136562
0.878434 0.833420 0.045258
0.950298 0.847727 0.000000
0.982873 0.846262 0.000000
0.984881 0.842979 0.000000
0.984637 0.840873 0.000000
0.984387 0.838694 0.000000
0.000000 0.523479 0.226017
0.000000 0.524791 0.224839
0.000000 0.526976 0.222263
0.000000 0.529558 0.219443
0.000000 0.544164 0.215140
0.000000 0.602106 0.218247
0.122036 0.682448 0.220438
0.414984 0.730837 0.207053
0.625043 0.778170 0.176309
0.776718 0.812094 0.134682
0.877153 0.833146 0.045454
0.948388 0.848045 0.000000
0.980993 0.848081 0.000000
0.985370 0.846952 0.000000
0.985058 0.844620 0.000000
0.985620 0.853690 0.000000
0.000000 0.530016 0.219266
0.000000 0.530278 0.217972
0.000000 0.534588 0.215476
0.000000 0.557324 0.215769
0.000000 0.604431 0.218387
0.016376 0.668965 0.223917
0.341326 0.715261 0.210208
0.524181 0.754824 0.196378
0.681849 0.793014 0.166397
0.797891 0.816532 0.126998
0.889171 0.836167 0.051844
0.948754 0.848069 0.000000
0.980267 0.848374 0.000000
0.985406 0.847849 0.000000
0.984997 0.844169 0.000000
0.985626 0.854429 0.000000
0.000000 0.565466 0.217606
0.000000 0.575750 0.218119
0.000000 0.598016 0.217600
0.000000 0.638636 0.221250
0.080055 0.674171 0.222080
0.305467 0.707808 0.211197
0.455384 0.739120 0.203275
0.616785 0.775918 0.176889
0.746432 0.806033 0.145327
0.825785 0.821872 0.099910
0.901421 0.839213 0.058863
0.951171 0.847910 0.000000
0.978528 0.847892 0.000000
0.985437 0.848832 0.000000
0.985156 0.845524 0.000000
0.985785 0.859031 0.001868
0.000000 0.657807 0.223465
0.000000 0.665290 0.224216
0.098939 0.678651 0.221805
0.247929 0.698048 0.215006
0.351061 0.717525 0.210159
0.454450 0.738784 0.203079
0.571832 0.765487 0.185995
0.696321 0.796670 0.163980
0.784579 0.813773 0.132180
0.856016 0.828421 0.058473
0.913970 0.841605 0.052332
0.954345 0.847379 0.000000
0.979516 0.848167 0.000000
0.985254 0.846079 0.000000
0.984985 0.843937 0.000000
0.985547 0.851225 0.000000
0.000000 0.006836 0.020734
0.000000 0.007141 0.022187
0.001135 0.007703 0.023920
0.006732 0.009400 0.024268
0.028669 0.012451 0.032422
0.153384 0.019568 0.052625
0.376849 0.000000 0.048005
0.486860 0.000000 0.048957
0.549065 0.000000 0.043696
0.604498 0.000000 0.040540
0.627362 0.000000 0.032825
0.641901 0.000000 0.035096
0.646516 0.000000 0.038544
0.655201 0.000000 0.041285
0.663673 0.000000 0.056373
0.664656 0.000000 0.074830
0.000000 0.006885 0.021344
0.000000 0.007160 0.022583
0.001880 0.007880 0.023743
0.009076 0.009747 0.023200
0.045972 0.014020 0.033747
0.179623 0.019654 0.049122
0.384253 0.000000 0.042371
0.487343 0.000000 0.042084
0.549425 0.000000 0.037568
0.605231 0.000000 0.036176
0.627210 0.000000 0.030872
0.641871 0.000000 0.033912
0.646595 0.000000 0.037806
0.655134 0.000000 0.040522
0.663508 0.000000 0.054878
0.664656 0.000000 0.074965
0.000000 0.009381 0.023749
0.000000 0.008356 0.022522
0.004089 0.008276 0.020679
0.015460 0.010736 0.023371
0.057307 0.014948 0.031073
0.192801 0.019440 0.043287
0.386407 0.000000 0.035792
0.487068 0.000000 0.034723
0.549737 0.000000 0.029090
0.604614 0.000000 0.029780
0.627478 0.000000 0.030097
0.641944 0.000000 0.033509
0.646577 0.000000 0.037147
0.655061 0.000000 0.040015
0.663392 0.000000 0.053889
0.664668 0.000000 0.075697
0.000000 0.052253 0.036927
0.000000 0.046918 0.035492
0.000000 0.037415 0.030414
0.031727 0.033619 0.027771
0.119472 0.029895 0.028687
0.234012 0.018451 0.032514
0.388550 0.000000 0.029206
0.485463 0.000000 0.027649
0.548522 0.000000 0.025605
0.603510 0.000000 0.026014
0.627045 0.000000 0.030304
0.641669 0.000000 0.033454
0.646400 0.000000 0.036756
0.654780 0.000000 0.040027
0.663307 0.000000 0.053101
0.664698 0.000000 0.073152
0.000000 0.149532 0.059956
0.000000 0.143703 0.058753
0.000000 0.128969 0.058466
0.000000 0.107643 0.050385
0.075593 0.096486 0.045728
0.209567 0.088179 0.040302
0.359588 0.056477 0.030433
0.480208 0.000000 0.021588
0.548504 0.000000 0.020301
0.602234 0.000000 0.025812
0.626874 0.000000 0.030640
0.641407 0.000000 0.033405
0.646357 0.000000 0.036609
0.654023 0.000000 0.039844
0.663276 0.000000 0.052277
0.664668 0.000000 0.071009
0.000000 0.259062 0.099513
0.000000 0.256297 0.097835
0.000000 0.246470 0.094600
0.000000 0.231028 0.091426
0.000000 0.195499 0.072724
0.136312 0.190622 0.058466
0.326390 0.185104 0.045319
0.486384 0.153140 0.026569
0.579071 0.082875 0.019788
0.621906 0.002954 0.022742
0.633729 0.000000 0.030671
0.642121 0.000000 0.033356
0.646290 0.000000 0.036457
0.653309 0.000000 0.039619
0.662556 0.000000 0.052552
0.664710 0.000000 0.068855
0.000000 0.361602 0.146676
0.000000 0.361285 0.146401
0.000000 0.358923 0.144173
0.000000 0.349621 0.138607
0.000000 0.333648 0.131276
0.000000 0.300475 0.107308
0.222074 0.332708 0.088307
0.450709 0.330205 0.045509
0.612128 0.291740 0.007031
0.689967 0.226481 0.008600
0.719155 0.153707 0.017151
0.706355 0.086635 0.021814
0.684901 0.022040 0.032898
0.672779 0.002692 0.036872
0.669581 0.000000 0.050739
0.671107 0.000000 0.064308
0.000000 0.442329 0.186288
0.000000 0.441779 0.185983
0.000000 0.440699 0.185122
0.000000 0.437537 0.182931
0.000000 0.428968 0.176645
0.000000 0.420258 0.164559
0.000000 0.447718 0.143838
0.343389 0.498213 0.107301
0.593500 0.510811 0.030756
0.748177 0.482570 0.000000
0.812638 0.425678 0.000000
0.825199 0.346813 0.000000
0.790420 0.254838 0.000000
0.760488 0.186844 0.013336
0.744424 0.150210 0.029596
0.735756 0.130196 0.045740
0.000000 0.495033 0.219223
0.000000 0.494826 0.219046
0.000000 0.494478 0.218808
0.000000 0.494234 0.217838
0.000000 0.490346 0.213632
0.000000 0.486635 0.207181
0.000000 0.498015 0.189517
0.135427 0.587109 0.158492
0.523735 0.650977 0.099013
0.738112 0.677583 0.000000
0.859641 0.672053 0.000000
0.910307 0.640577 0.000000
0.911333 0.568554 0.000000
0.882780 0.474568 0.000000
0.854929 0.395422 0.000000
0.842319 0.360705 0.013611
0.000000 0.511595 0.230558
0.000000 0.512004 0.230558
0.000000 0.512810 0.230576
0.000000 0.514116 0.230832
0.000000 0.513103 0.228489
0.000000 0.518712 0.219614
0.000000 0.526909 0.209335
0.048292 0.646497 0.204385
0.503929 0.729445 0.154061
0.729073 0.770785 0.065675
0.871019 0.792758 0.000000
0.941143 0.795389 0.000000
0.968542 0.786160 0.000000
0.963806 0.754061 0.000000
0.951757 0.703236 0.000000
0.941161 0.659498 0.000000
0.000000 0.517613 0.235319
0.000000 0.517473 0.235349
0.000000 0.516423 0.235099
0.000000 0.516417 0.233780
0.000000 0.519719 0.228623
0.000000 0.527385 0.218186
0.000000 0.563732 0.215311
0.174832 0.686598 0.215329
0.524999 0.753133 0.184268
0.747927 0.805429 0.137221
0.879350 0.828574 0.014331
0.950628 0.839548 0.000000
0.981982 0.836350 0.000000
0.982397 0.829392 0.000000
0.979516 0.818979 0.000000
0.976715 0.808414 0.000000
0.000000 0.516503 0.234690
0.000000 0.517522 0.233982
0.000000 0.518853 0.232255
0.000000 0.521575 0.228611
0.000000 0.527160 0.222043
0.000000 0.534130 0.215561
0.000000 0.623688 0.219486
0.303026 0.707955 0.211991
0.578576 0.767062 0.184524
0.769082 0.810324 0.136190
0.879759 0.833768 0.046076
0.951147 0.847654 0.000000
0.983447 0.846183 0.000000
0.984881 0.842881 0.000000
0.984631 0.840769 0.000000
0.984430 0.838981 0.000000
0.000000 0.523870 0.225827
0.000000 0.525115 0.224485
0.000000 0.527184 0.222019
0.000000 0.529686 0.219229
0.000000 0.547021 0.215061
0.000000 0.608191 0.218784
0.140652 0.684230 0.219724
0.422309 0.732284 0.206509
0.628516 0.779025 0.175650
0.778103 0.812393 0.134279
0.878691 0.833512 0.045808
0.949316 0.848051 0.000000
0.981347 0.847837 0.000000
0.985400 0.847794 0.000000
0.985345 0.847758 0.000000
0.985687 0.859440 0.022510
0.000000 0.530187 0.218759
0.000000 0.530340 0.217484
0.000000 0.538695 0.215207
0.000000 0.560003 0.216324
0.000000 0.611670 0.219254
0.048084 0.672578 0.223246
0.348766 0.716878 0.210043
0.528319 0.755776 0.195688
0.685530 0.793808 0.165127
0.800589 0.817050 0.125014
0.891362 0.836692 0.053010
0.949554 0.848386 0.000000
0.980731 0.848637 0.000000
0.985467 0.849076 0.000000
0.985278 0.846226 0.000000
0.985736 0.859904 0.015918
0.000000 0.571014 0.218112
0.000000 0.581360 0.217795
0.000000 0.606110 0.218344
0.000000 0.643671 0.221884
0.105995 0.678053 0.221152
0.318395 0.710420 0.210666
0.464958 0.741097 0.202457
0.623432 0.777658 0.176358
0.750491 0.806766 0.143832
0.829740 0.822739 0.095198
0.903825 0.839762 0.059565
0.952136 0.848167 0.000000
0.979211 0.850236 0.000000
0.985650 0.854984 0.000000
0.985528 0.862101 0.054957
0.985394 0.864878 0.090358
0.000000 0.663423 0.224082
0.007929 0.670594 0.224167
0.142367 0.684083 0.220121
0.273747 0.702040 0.213272
0.364489 0.720613 0.210410
0.467475 0.741292 0.201559
0.583178 0.767868 0.183218
0.703511 0.798312 0.161733
0.789328 0.814804 0.130965
0.860703 0.829447 0.052448
0.916423 0.842142 0.049458
0.955297 0.847202 0.000000
0.980212 0.848374 0.000000
0.985278 0.846268 0.000000
0.984997 0.844096 0.000000
0.985425 0.863890 0.079237
0.000000 0.008624 0.048603
0.000000 0.008631 0.053883
0.000000 0.008985 0.058326
0.003674 0.010028 0.049250
0.035944 0.012232 0.065107
0.158468 0.016211 0.088716
0.355834 0.000000 0.102663
0.485133 0.000000 0.108736
0.553729 0.000000 0.107149
0.605597 0.000000 0.106703
0.633533 0.000000 0.094960
0.642890 0.000000 0.089845
0.647364 0.000000 0.082759
0.656440 0.000000 0.092470
0.663392 0.000000 0.096699
0.663514 0.000000 0.114156
0.000000 0.008905 0.051832
0.000000 0.008875 0.060969
0.000000 0.009064 0.059876
0.004816 0.010260 0.049995
0.049226 0.012946 0.067005
0.180862 0.015778 0.086085
0.366778 0.000000 0.096815
0.489119 0.000000 0.102736
0.554009 0.000000 0.101485
0.606024 0.000000 0.100661
0.633277 0.000000 0.089589
0.642567 0.000000 0.084724
0.647364 0.000000 0.078541
0.656159 0.000000 0.088960
0.663386 0.000000 0.094923
0.663508 0.000000 0.112856
0.000000 0.008661 0.047089
0.000000 0.008551 0.048133
0.000000 0.008783 0.045325
0.008099 0.010639 0.044074
0.059126 0.013574 0.059065
0.198697 0.015113 0.077272
0.376434 0.000000 0.086848
0.490364 0.000000 0.093111
0.554418 0.000000 0.094691
0.605499 0.000000 0.092171
0.633057 0.000000 0.083095
0.642164 0.000000 0.078383
0.647346 0.000000 0.073121
0.656110 0.000000 0.082545
0.663484 0.000000 0.093202
0.663496 0.000000 0.110915
0.000000 0.030866 0.063941
0.000000 0.027857 0.063496
0.000000 0.022754 0.057227
0.022315 0.020905 0.051087
0.102168 0.021790 0.059052
0.227811 0.014466 0.067207
0.385235 0.000000 0.074549
0.492592 0.000000 0.082087
0.552911 0.000000 0.085164
0.605042 0.000000 0.083491
0.631983 0.000000 0.075123
0.641517 0.000000 0.072609
0.647120 0.000000 0.069056
0.655396 0.000000 0.073970
0.663606 0.000000 0.090980
0.663648 0.000000 0.105776
0.000000 0.140932 0.099123
0.000000 0.133986 0.098067
0.000000 0.120070 0.096229
0.000000 0.096187 0.078291
0.073884 0.086458 0.077192
0.203494 0.078865 0.075367
0.352599 0.048432 0.072767
0.488338 0.000000 0.071962
0.553484 0.000000 0.074305
0.603699 0.000000 0.075514
0.631202 0.000000 0.068836
0.641205 0.000000 0.065797
0.646979 0.000000 0.064253
0.654298 0.000000 0.071724
0.663728 0.000000 0.085591
0.663716 0.000000 0.102077
0.000000 0.257035 0.115889
0.000000 0.255070 0.115944
0.000000 0.244205 0.116799
0.000000 0.226230 0.115169
0.000000 0.192978 0.102425
0.140139 0.185403 0.098390
0.324797 0.178769 0.094917
0.480146 0.141311 0.081605
0.575183 0.068446 0.071217
0.619049 0.000000 0.066194
0.634076 0.000000 0.061207
0.640961 0.000000 0.061604
0.646912 0.000000 0.059406
0.653364 0.000000 0.069752
0.663154 0.000000 0.080256
0.663764 0.000000 0.099471
0.000000 0.360314 0.146151
0.000000 0.359429 0.145534
0.000000 0.357293 0.143453
0.000000 0.348656 0.139321
0.000000 0.332036 0.132607
0.000000 0.297948 0.114137
0.230539 0.330297 0.105763
0.460600 0.325115 0.089650
0.618006 0.281682 0.073085
0.688405 0.211112 0.062928
0.714980 0.138570 0.057307
0.704079 0.073610 0.051411
0.679219 0.006885 0.059956
0.668226 0.000000 0.060407
0.668043 0.000000 0.076649
0.670143 0.000000 0.097389
0.000000 0.441205 0.185641
0.000000 0.440815 0.185324
