LUTs/SPK Cube Block1 S16/TheBrim_SPK_Type-Y_Block1_S16.cube
TITLE "TheBrim® Industrial Imaging Burau"
# © Copyright 2022 - TheBrim® d.o.o. Croatia
LUT_3D_SIZE 16
DOMAIN_MIN 0.000000 0.000000 0.000000
DOMAIN_MAX 1.000000 1.000000 1.000000
0.000000 0.000031 0.000031
0.007867 0.000031 0.000031
0.030316 0.000031 0.000031
0.073712 0.000031 0.000031
0.132623 0.000031 0.000031
0.219818 0.000031 0.000031
0.331208 0.000031 0.000031
0.443494 0.000031 0.000031
0.565533 0.000031 0.000031
0.678009 0.000031 0.000031
0.805206 0.000031 0.000031
0.928113 0.000031 0.000031
0.989373 0.000031 0.000031
0.998126 0.000031 0.000031
0.999963 0.000031 0.000031
0.999969 0.000031 0.000031
0.000000 0.008514 0.000031
0.007867 0.008514 0.000031
0.030316 0.008514 0.000031
0.073712 0.008514 0.000031
0.132623 0.008514 0.000031
0.219818 0.008514 0.000031
0.331208 0.008514 0.000031
0.443494 0.008514 0.000031
0.565533 0.008514 0.000031
0.678009 0.008514 0.000031
0.805206 0.008514 0.000031
0.928113 0.008514 0.000031
0.989373 0.008514 0.000031
0.998126 0.008514 0.000031
0.999963 0.008514 0.000031
0.999969 0.008514 0.000031
0.000000 0.057642 0.000031
0.007867 0.057642 0.000031
0.030316 0.057642 0.000031
0.073712 0.057642 0.000031
0.132623 0.057642 0.000031
0.219818 0.057642 0.000031
0.331208 0.057642 0.000031
0.443494 0.057642 0.000031
0.565533 0.057642 0.000031
0.678009 0.057642 0.000031
0.805206 0.057642 0.000031
0.928113 0.057642 0.000031
0.989373 0.057642 0.000031
0.998126 0.057642 0.000031
0.999963 0.057642 0.000031
0.999969 0.057642 0.000031
0.000000 0.107398 0.000031
0.007867 0.107398 0.000031
0.030316 0.107398 0.000031
0.073712 0.107398 0.000031
0.132623 0.107398 0.000031
0.219818 0.107398 0.000031
0.331208 0.107398 0.000031
0.443494 0.107398 0.000031
0.565533 0.107398 0.000031
0.678009 0.107398 0.000031
0.805206 0.107398 0.000031
0.928113 0.107398 0.000031
0.989373 0.107398 0.000031
0.998126 0.107398 0.000031
0.999963 0.107398 0.000031
0.999969 0.107398 0.000031
0.000000 0.169006 0.000031
0.007867 0.169006 0.000031
0.030316 0.169006 0.000031
0.073712 0.169006 0.000031
0.132623 0.169006 0.000031
0.219818 0.169006 0.000031
0.331208 0.169006 0.000031
0.443494 0.169006 0.000031
0.565533 0.169006 0.000031
0.678009 0.169006 0.000031
0.805206 0.169006 0.000031
0.928113 0.169006 0.000031
0.989373 0.169006 0.000031
0.998126 0.169006 0.000031
0.999963 0.169006 0.000031
0.999969 0.169006 0.000031
0.000000 0.252136 0.000031
0.007867 0.252136 0.000031
0.030316 0.252136 0.000031
0.073712 0.252136 0.000031
0.132623 0.252136 0.000031
0.219818 0.252136 0.000031
0.331208 0.252136 0.000031
0.443494 0.252136 0.000031
0.565533 0.252136 0.000031
0.678009 0.252136 0.000031
0.805206 0.252136 0.000031
0.928113 0.252136 0.000031
0.989373 0.252136 0.000031
0.998126 0.252136 0.000031
0.999963 0.252136 0.000031
0.999969 0.252136 0.000031
0.000000 0.343293 0.000031
0.007867 0.343293 0.000031
0.030316 0.343293 0.000031
0.073712 0.343293 0.000031
0.132623 0.343293 0.000031
0.219818 0.343293 0.000031
0.331208 0.343293 0.000031
0.443494 0.343293 0.000031
0.565533 0.343293 0.000031
0.678009 0.343293 0.000031
0.805206 0.343293 0.000031
0.928113 0.343293 0.000031
0.989373 0.343293 0.000031
0.998126 0.343293 0.000031
0.999963 0.343293 0.000031
0.999969 0.343293 0.000031
0.000000 0.450904 0.000031
0.007867 0.450904 0.000031
0.030316 0.450904 0.000031
0.073712 0.450904 0.000031
0.132623 0.450904 0.000031
0.219818 0.450904 0.000031
0.331208 0.450904 0.000031
0.443494 0.450904 0.000031
0.565533 0.450904 0.000031
0.678009 0.450904 0.000031
0.805206 0.450904 0.000031
0.928113 0.450904 0.000031
0.989373 0.450904 0.000031
0.998126 0.450904 0.000031
0.999963 0.450904 0.000031
0.999969 0.450904 0.000031
0.000000 0.557971 0.000031
0.007867 0.557971 0.000031
0.030316 0.557971 0.000031
0.073712 0.557971 0.000031
0.132623 0.557971 0.000031
0.219818 0.557971 0.000031
0.331208 0.557971 0.000031
0.443494 0.557971 0.000031
0.565533 0.557971 0.000031
0.678009 0.557971 0.000031
0.805206 0.557971 0.000031
0.928113 0.557971 0.000031
0.989373 0.557971 0.000031
0.998126 0.557971 0.000031
0.999963 0.557971 0.000031
0.999969 0.557971 0.000031
0.000000 0.680621 0.000031
0.007867 0.680621 0.000031
0.030316 0.680621 0.000031
0.073712 0.680621 0.000031
0.132623 0.680621 0.000031
0.219818 0.680621 0.000031
0.331208 0.680621 0.000031
0.443494 0.680621 0.000031
0.565533 0.680621 0.000031
0.678009 0.680621 0.000031
0.805206 0.680621 0.000031
0.928113 0.680621 0.000031
0.989373 0.680621 0.000031
0.998126 0.680621 0.000031
0.999963 0.680621 0.000031
0.999969 0.680621 0.000031
0.000000 0.795044 0.000031
0.007867 0.795044 0.000031
0.030316 0.795044 0.000031
0.073712 0.795044 0.000031
0.132623 0.795044 0.000031
0.219818 0.795044 0.000031
0.331208 0.795044 0.000031
0.443494 0.795044 0.000031
0.565533 0.795044 0.000031
0.678009 0.795044 0.000031
0.805206 0.795044 0.000031
0.928113 0.795044 0.000031
0.989373 0.795044 0.000031
0.998126 0.795044 0.000031
0.999963 0.795044 0.000031
0.999969 0.795044 0.000031
0.000000 0.905139 0.000031
0.007867 0.905139 0.000031
0.030316 0.905139 0.000031
0.073712 0.905139 0.000031
0.132623 0.905139 0.000031
0.219818 0.905139 0.000031
0.331208 0.905139 0.000031
0.443494 0.905139 0.000031
0.565533 0.905139 0.000031
0.678009 0.905139 0.000031
0.805206 0.905139 0.000031
0.928113 0.905139 0.000031
0.989373 0.905139 0.000031
0.998126 0.905139 0.000031
0.999963 0.905139 0.000031
0.999969 0.905139 0.000031
0.000000 0.956879 0.000031
0.007867 0.956879 0.000031
0.030316 0.956879 0.000031
0.073712 0.956879 0.000031
0.132623 0.956879 0.000031
0.219818 0.956879 0.000031
0.331208 0.956879 0.000031
0.443494 0.956879 0.000031
0.565533 0.956879 0.000031
0.678009 0.956879 0.000031
0.805206 0.956879 0.000031
0.928113 0.956879 0.000031
0.989373 0.956879 0.000031
0.998126 0.956879 0.000031
0.999963 0.956879 0.000031
0.999969 0.956879 0.000031
0.000000 0.979510 0.000031
0.007867 0.979510 0.000031
0.030316 0.979510 0.000031
0.073712 0.979510 0.000031
0.132623 0.979510 0.000031
0.219818 0.979510 0.000031
0.331208 0.979510 0.000031
0.443494 0.979510 0.000031
0.565533 0.979510 0.000031
0.678009 0.979510 0.000031
0.805206 0.979510 0.000031
0.928113 0.979510 0.000031
0.989373 0.979510 0.000031
0.998126 0.979510 0.000031
0.999963 0.979510 0.000031
0.999969 0.979510 0.000031
0.000000 0.986585 0.000031
0.007867 0.986585 0.000031
0.030316 0.986585 0.000031
0.073712 0.986585 0.000031
0.132623 0.986585 0.000031
0.219818 0.986585 0.000031
0.331208 0.986585 0.000031
0.443494 0.986585 0.000031
0.565533 0.986585 0.000031
0.678009 0.986585 0.000031
0.805206 0.986585 0.000031
0.928113 0.986585 0.000031
0.989373 0.986585 0.000031
0.998126 0.986585 0.000031
0.999963 0.986585 0.000031
0.999969 0.986585 0.000031
0.000000 0.986603 0.000031
0.007867 0.986603 0.000031
0.030316 0.986603 0.000031
0.073712 0.986603 0.000031
0.132623 0.986603 0.000031
0.219818 0.986603 0.000031
0.331208 0.986603 0.000031
0.443494 0.986603 0.000031
0.565533 0.986603 0.000031
0.678009 0.986603 0.000031
0.805206 0.986603 0.000031
0.928113 0.986603 0.000031
0.989373 0.986603 0.000031
0.998126 0.986603 0.000031
0.999963 0.986603 0.000031
0.999969 0.986603 0.000031
0.000000 0.000031 0.006915
0.007867 0.000031 0.006915
0.030316 0.000031 0.006915
0.073712 0.000031 0.006915
0.132623 0.000031 0.006915
0.219818 0.000031 0.006915
0.331208 0.000031 0.006915
0.443494 0.000031 0.006915
0.565533 0.000031 0.006915
0.678009 0.000031 0.006915
0.805206 0.000031 0.006915
0.928113 0.000031 0.006915
0.989373 0.000031 0.006915
0.998126 0.000031 0.006915
0.999963 0.000031 0.006915
0.999969 0.000031 0.006915
0.000000 0.008514 0.006915
0.007867 0.008514 0.006915
0.030316 0.008514 0.006915
0.073712 0.008514 0.006915
0.132623 0.008514 0.006915
0.219818 0.008514 0.006915
0.331208 0.008514 0.006915
0.443494 0.008514 0.006915
0.565533 0.008514 0.006915
0.678009 0.008514 0.006915
0.805206 0.008514 0.006915
0.928113 0.008514 0.006915
0.989373 0.008514 0.006915
0.998126 0.008514 0.006915
0.999963 0.008514 0.006915
0.999969 0.008514 0.006915
0.000000 0.057642 0.006915
0.007867 0.057642 0.006915
0.030316 0.057642 0.006915
0.073712 0.057642 0.006915
0.132623 0.057642 0.006915
0.219818 0.057642 0.006915
0.331208 0.057642 0.006915
0.443494 0.057642 0.006915
0.565533 0.057642 0.006915
0.678009 0.057642 0.006915
0.805206 0.057642 0.006915
0.928113 0.057642 0.006915
0.989373 0.057642 0.006915
0.998126 0.057642 0.006915
0.999963 0.057642 0.006915
0.999969 0.057642 0.006915
0.000000 0.107398 0.006915
0.007867 0.107398 0.006915
0.030316 0.107398 0.006915
0.073712 0.107398 0.006915
0.132623 0.107398 0.006915
0.219818 0.107398 0.006915
0.331208 0.107398 0.006915
0.443494 0.107398 0.006915
0.565533 0.107398 0.006915
0.678009 0.107398 0.006915
0.805206 0.107398 0.006915
0.928113 0.107398 0.006915
0.989373 0.107398 0.006915
0.998126 0.107398 0.006915
0.999963 0.107398 0.006915
0.999969 0.107398 0.006915
0.000000 0.169006 0.006915
0.007867 0.169006 0.006915
0.030316 0.169006 0.006915
0.073712 0.169006 0.006915
0.132623 0.169006 0.006915
0.219818 0.169006 0.006915
0.331208 0.169006 0.006915
0.443494 0.169006 0.006915
0.565533 0.169006 0.006915
0.678009 0.169006 0.006915
0.805206 0.169006 0.006915
0.928113 0.169006 0.006915
0.989373 0.169006 0.006915
0.998126 0.169006 0.006915
0.999963 0.169006 0.006915
0.999969 0.169006 0.006915
0.000000 0.252136 0.006915
0.007867 0.252136 0.006915
0.030316 0.252136 0.006915
0.073712 0.252136 0.006915
0.132623 0.252136 0.006915
0.219818 0.252136 0.006915
0.331208 0.252136 0.006915
0.443494 0.252136 0.006915
0.565533 0.252136 0.006915
0.678009 0.252136 0.006915
0.805206 0.252136 0.006915
0.928113 0.252136 0.006915
0.989373 0.252136 0.006915
0.998126 0.252136 0.006915
0.999963 0.252136 0.006915
0.999969 0.252136 0.006915
0.000000 0.343293 0.006915
0.007867 0.343293 0.006915
0.030316 0.343293 0.006915
0.073712 0.343293 0.006915
0.132623 0.343293 0.006915
0.219818 0.343293 0.006915
0.331208 0.343293 0.006915
0.443494 0.343293 0.006915
0.565533 0.343293 0.006915
0.678009 0.343293 0.006915
0.805206 0.343293 0.006915
0.928113 0.343293 0.006915
0.989373 0.343293 0.006915
0.998126 0.343293 0.006915
0.999963 0.343293 0.006915
0.999963 0.343293 0.006915
0.000000 0.450904 0.006915
0.007867 0.450904 0.006915
0.030316 0.450904 0.006915
0.073712 0.450904 0.006915
0.132623 0.450904 0.006915
0.219818 0.450904 0.006915
0.331208 0.450904 0.006915
0.443494 0.450904 0.006915
0.565533 0.450904 0.006915
0.678009 0.450904 0.006915
0.805206 0.450904 0.006915
0.928113 0.450904 0.006915
0.989373 0.450904 0.006915
0.998126 0.450904 0.006915
0.999963 0.450904 0.006915
0.999969 0.450904 0.006915
0.000000 0.557971 0.006915
0.007867 0.557971 0.006915
0.030316 0.557971 0.006915
0.073712 0.557971 0.006915
0.132623 0.557971 0.006915
0.219818 0.557971 0.006915
0.331208 0.557971 0.006915
0.443494 0.557971 0.006915
0.565533 0.557971 0.006915
0.678009 0.557971 0.006915
0.805206 0.557971 0.006915
0.928113 0.557971 0.006915
0.989373 0.557971 0.006915
0.998126 0.557971 0.006915
0.999963 0.557971 0.006915
0.999963 0.557971 0.006915
0.000000 0.680621 0.006915
0.007867 0.680621 0.006915
0.030316 0.680621 0.006915
0.073712 0.680621 0.006915
0.132623 0.680621 0.006915
0.219818 0.680621 0.006915
0.331208 0.680621 0.006915
0.443494 0.680621 0.006915
0.565533 0.680621 0.006915
0.678009 0.680621 0.006915
0.805206 0.680621 0.006915
0.928113 0.680621 0.006915
0.989373 0.680621 0.006915
0.998126 0.680621 0.006915
0.999963 0.680621 0.006915
0.999969 0.680621 0.006915
0.000000 0.795044 0.006915
0.007867 0.795044 0.006915
0.030316 0.795044 0.006915
0.073712 0.795044 0.006915
0.132623 0.795044 0.006915
0.219818 0.795044 0.006915
0.331208 0.795044 0.006915
0.443494 0.795044 0.006915
0.565533 0.795044 0.006915
0.678009 0.795044 0.006915
0.805206 0.795044 0.006915
0.928113 0.795044 0.006915
0.989373 0.795044 0.006915
0.998126 0.795044 0.006915
0.999963 0.795044 0.006915
0.999963 0.795044 0.006915
0.000000 0.905139 0.006915
0.007867 0.905139 0.006915
0.030316 0.905139 0.006915
0.073712 0.905139 0.006915
0.132623 0.905139 0.006915
0.219818 0.905139 0.006915
0.331208 0.905139 0.006915
0.443494 0.905139 0.006915
0.565533 0.905139 0.006915
0.678009 0.905139 0.006915
0.805206 0.905139 0.006915
0.928113 0.905139 0.006915
0.989373 0.905139 0.006915
0.998126 0.905139 0.006915
0.999963 0.905139 0.006915
0.999969 0.905139 0.006915
0.000000 0.956879 0.006915
0.007867 0.956879 0.006915
0.030316 0.956879 0.006915
0.073712 0.956879 0.006915
0.132623 0.956879 0.006915
0.219818 0.956879 0.006915
0.331208 0.956879 0.006915
0.443494 0.956879 0.006915
0.565533 0.956879 0.006915
0.678009 0.956879 0.006915
0.805206 0.956879 0.006915
0.928113 0.956879 0.006915
0.989373 0.956879 0.006915
0.998126 0.956879 0.006915
0.999963 0.956879 0.006915
0.999969 0.956879 0.006915
0.000000 0.979510 0.006915
0.007867 0.979510 0.006915
0.030316 0.979510 0.006915
0.073712 0.979510 0.006915
0.132623 0.979510 0.006915
0.219818 0.979510 0.006915
0.331208 0.979510 0.006915
0.443494 0.979510 0.006915
0.565533 0.979510 0.006915
0.678009 0.979510 0.006915
0.805206 0.979510 0.006915
0.928113 0.979510 0.006915
0.989373 0.979510 0.006915
0.998126 0.979510 0.006915
0.999963 0.979510 0.006915
0.999969 0.979510 0.006915
0.000000 0.986585 0.006915
0.007867 0.986585 0.006915
0.030316 0.986585 0.006915
0.073712 0.986585 0.006915
0.132623 0.986585 0.006915
0.219818 0.986585 0.006915
0.331208 0.986585 0.006915
0.443494 0.986585 0.006915
0.565533 0.986585 0.006915
0.678009 0.986585 0.006915
0.805206 0.986585 0.006915
0.928113 0.986585 0.006915
0.989373 0.986585 0.006915
0.998126 0.986585 0.006915
0.999963 0.986585 0.006915
0.999969 0.986585 0.006915
0.000000 0.986603 0.006915
0.007867 0.986603 0.006915
0.030316 0.986603 0.006915
0.073712 0.986603 0.006915
0.132623 0.986603 0.006915
0.219818 0.986603 0.006915
0.331208 0.986603 0.006915
0.443494 0.986603 0.006915
0.565533 0.986603 0.006915
0.678009 0.986603 0.006915
0.805206 0.986603 0.006915
0.928113 0.986603 0.006915
0.989373 0.986603 0.006915
0.998126 0.986603 0.006915
0.999963 0.986603 0.006915
0.999969 0.986603 0.006915
0.000000 0.000031 0.049713
0.007867 0.000031 0.049713
0.030316 0.000031 0.049713
0.073712 0.000031 0.049713
0.132623 0.000031 0.049713
0.219818 0.000031 0.049713
0.331208 0.000031 0.049713
0.443494 0.000031 0.049713
0.565533 0.000031 0.049713
0.678009 0.000031 0.049713
0.805206 0.000031 0.049713
0.928113 0.000031 0.049713
0.989373 0.000031 0.049713
0.998126 0.000031 0.049713
0.999963 0.000031 0.049713
0.999969 0.000031 0.049713
0.000000 0.008514 0.049713
0.007867 0.008514 0.049713
0.030316 0.008514 0.049713
0.073712 0.008514 0.049713
0.132623 0.008514 0.049713
0.219818 0.008514 0.049713
0.331208 0.008514 0.049713
0.443494 0.008514 0.049713
0.565533 0.008514 0.049713
0.678009 0.008514 0.049713
0.805206 0.008514 0.049713
0.928113 0.008514 0.049713
0.989373 0.008514 0.049713
0.998126 0.008514 0.049713
0.999963 0.008514 0.049713
0.999969 0.008514 0.049713
0.000000 0.057642 0.049713
0.007867 0.057642 0.049713
0.030316 0.057642 0.049713
0.073712 0.057642 0.049713
0.132623 0.057642 0.049713
0.219818 0.057642 0.049713
0.331208 0.057642 0.049713
0.443494 0.057642 0.049713
0.565533 0.057642 0.049713
0.678009 0.057642 0.049713
0.805206 0.057642 0.049713
0.928113 0.057642 0.049713
0.989373 0.057642 0.049713
0.998126 0.057642 0.049713
0.999963 0.057642 0.049713
0.999969 0.057642 0.049713
0.000000 0.107398 0.049713
0.007867 0.107398 0.049713
0.030316 0.107398 0.049713
0.073712 0.107398 0.049713
0.132623 0.107398 0.049713
0.219818 0.107398 0.049713
0.331208 0.107398 0.049713
0.443494 0.107398 0.049713
0.565533 0.107398 0.049713
0.678009 0.107398 0.049713
0.805206 0.107398 0.049713
0.928113 0.107398 0.049713
0.989373 0.107398 0.049713
0.998126 0.107398 0.049713
0.999963 0.107398 0.049713
0.999969 0.107398 0.049713
0.000000 0.169006 0.049713
0.007867 0.169006 0.049713
0.030316 0.169006 0.049713
0.073712 0.169006 0.049713
0.132623 0.169006 0.049713
0.219818 0.169006 0.049713
0.331208 0.169006 0.049713
0.443494 0.169006 0.049713
0.565533 0.169006 0.049713
0.678009 0.169006 0.049713
0.805206 0.169006 0.049713
0.928113 0.169006 0.049713
0.989373 0.169006 0.049713
0.998126 0.169006 0.049713
0.999963 0.169006 0.049713
0.999969 0.169006 0.049713
0.000000 0.252136 0.049713
0.007867 0.252136 0.049713
0.030316 0.252136 0.049713
0.073712 0.252136 0.049713
0.132623 0.252136 0.049713
0.219818 0.252136 0.049713
0.331208 0.252136 0.049713
0.443494 0.252136 0.049713
0.565533 0.252136 0.049713
0.678009 0.252136 0.049713
0.805206 0.252136 0.049713
0.928113 0.252136 0.049713
0.989373 0.252136 0.049713
0.998126 0.252136 0.049713
0.999963 0.252136 0.049713
0.999969 0.252136 0.049713
0.000000 0.343293 0.049713
0.007867 0.343293 0.049713
0.030316 0.343293 0.049713
0.073712 0.343293 0.049713
0.132623 0.343293 0.049713
0.219818 0.343293 0.049713
0.331208 0.343293 0.049713
0.443494 0.343293 0.049713
0.565533 0.343293 0.049713
0.678009 0.343293 0.049713
0.805206 0.343293 0.049713
0.928113 0.343293 0.049713
0.989373 0.343293 0.049713
0.998126 0.343293 0.049713
0.999963 0.343293 0.049713
0.999969 0.343293 0.049713
0.000000 0.450904 0.049713
0.007867 0.450904 0.049713
0.030316 0.450904 0.049713
0.073712 0.450904 0.049713
0.132623 0.450904 0.049713
0.219818 0.450904 0.049713
0.331208 0.450904 0.049713
0.443494 0.450904 0.049713
0.565533 0.450904 0.049713
0.678009 0.450904 0.049713
0.805206 0.450904 0.049713
0.928113 0.450904 0.049713
0.989373 0.450904 0.049713
0.998126 0.450904 0.049713
0.999963 0.450904 0.049713
0.999969 0.450904 0.049713
0.000000 0.557971 0.049713
0.007867 0.557971 0.049713
0.030316 0.557971 0.049713
0.073712 0.557971 0.049713
0.132623 0.557971 0.049713
0.219818 0.557971 0.049713
0.331208 0.557971 0.049713
0.443494 0.557971 0.049713
0.565533 0.557971 0.049713
0.678009 0.557971 0.049713
0.805206 0.557971 0.049713
0.928113 0.557971 0.049713
0.989373 0.557971 0.049713
0.998126 0.557971 0.049713
0.999963 0.557971 0.049713
0.999969 0.557971 0.049713
0.000000 0.680621 0.049713
0.007867 0.680621 0.049713
0.030316 0.680621 0.049713
0.073712 0.680621 0.049713
0.132623 0.680621 0.049713
0.219818 0.680621 0.049713
0.331208 0.680621 0.049713
0.443494 0.680621 0.049713
0.565533 0.680621 0.049713
0.678009 0.680621 0.049713
0.805206 0.680621 0.049713
0.928113 0.680621 0.049713
0.989373 0.680621 0.049713
0.998126 0.680621 0.049713
0.999963 0.680621 0.049713
0.999969 0.680621 0.049713
0.000000 0.795044 0.049713
0.007867 0.795044 0.049713
0.030316 0.795044 0.049713
0.073712 0.795044 0.049713
0.132623 0.795044 0.049713
0.219818 0.795044 0.049713
0.331208 0.795044 0.049713
0.443494 0.795044 0.049713
0.565533 0.795044 0.049713
0.678009 0.795044 0.049713
0.805206 0.795044 0.049713
0.928113 0.795044 0.049713
0.989373 0.795044 0.049713
0.998126 0.795044 0.049713
0.999963 0.795044 0.049713
0.999969 0.795044 0.049713
0.000000 0.905139 0.049713
0.007867 0.905139 0.049713
0.030316 0.905139 0.049713
0.073712 0.905139 0.049713
0.132623 0.905139 0.049713
0.219818 0.905139 0.049713
0.331208 0.905139 0.049713
0.443494 0.905139 0.049713
0.565533 0.905139 0.049713
0.678009 0.905139 0.049713
0.805206 0.905139 0.049713
0.928113 0.905139 0.049713
0.989373 0.905139 0.049713
0.998126 0.905139 0.049713
0.999963 0.905139 0.049713
0.999969 0.905139 0.049713
0.000000 0.956879 0.049713
0.007867 0.956879 0.049713
0.030316 0.956879 0.049713
0.073712 0.956879 0.049713
0.132623 0.956879 0.049713
0.219818 0.956879 0.049713
0.331208 0.956879 0.049713
0.443494 0.956879 0.049713
0.565533 0.956879 0.049713
0.678009 0.956879 0.049713
0.805206 0.956879 0.049713
0.928113 0.956879 0.049713
0.989373 0.956879 0.049713
0.998126 0.956879 0.049713
0.999963 0.956879 0.049713
0.999969 0.956879 0.049713
0.000000 0.979510 0.049713
0.007867 0.979510 0.049713
0.030316 0.979510 0.049713
0.073712 0.979510 0.049713
0.132623 0.979510 0.049713
0.219818 0.979510 0.049713
0.331208 0.979510 0.049713
0.443494 0.979510 0.049713
0.565533 0.979510 0.049713
0.678009 0.979510 0.049713
0.805206 0.979510 0.049713
0.928113 0.979510 0.049713
0.989373 0.979510 0.049713
0.998126 0.979510 0.049713
0.999963 0.979510 0.049713
0.999969 0.979510 0.049713
0.000000 0.986585 0.049713
0.007867 0.986585 0.049713
0.030316 0.986585 0.049713
0.073712 0.986585 0.049713
0.132623 0.986585 0.049713
0.219818 0.986585 0.049713
0.331208 0.986585 0.049713
0.443494 0.986585 0.049713
0.565533 0.986585 0.049713
0.678009 0.986585 0.049713
0.805206 0.986585 0.049713
0.928113 0.986585 0.049713
0.989373 0.986585 0.049713
0.998126 0.986585 0.049713
0.999963 0.986585 0.049713
0.999969 0.986585 0.049713
0.000000 0.986603 0.049713
0.007867 0.986603 0.049713
0.030316 0.986603 0.049713
0.073712 0.986603 0.049713
0.132623 0.986603 0.049713
0.219818 0.986603 0.049713
0.331208 0.986603 0.049713
0.443494 0.986603 0.049713
0.565533 0.986603 0.049713
0.678009 0.986603 0.049713
0.805206 0.986603 0.049713
0.928113 0.986603 0.049713
0.989373 0.986603 0.049713
0.998126 0.986603 0.049713
0.999963 0.986603 0.049713
0.999969 0.986603 0.049713
0.000000 0.000031 0.102301
0.007867 0.000031 0.102301
0.030316 0.000031 0.102301
0.073712 0.000031 0.102301
0.132623 0.000031 0.102301
0.219818 0.000031 0.102301
0.331208 0.000031 0.102301
0.443494 0.000031 0.102301
0.565533 0.000031 0.102301
0.678009 0.000031 0.102301
0.805206 0.000031 0.102301
0.928113 0.000031 0.102301
0.989373 0.000031 0.102301
0.998126 0.000031 0.102301
0.999963 0.000031 0.102301
0.999969 0.000031 0.102301
0.000000 0.008514 0.102301
0.007867 0.008514 0.102301
0.030316 0.008514 0.102301
0.073712 0.008514 0.102301
0.132623 0.008514 0.102301
0.219818 0.008514 0.102301
0.331208 0.008514 0.102301
0.443494 0.008514 0.102301
0.565533 0.008514 0.102301
0.678009 0.008514 0.102301
0.805206 0.008514 0.102301
0.928113 0.008514 0.102301
0.989373 0.008514 0.102301
0.998126 0.008514 0.102301
0.999963 0.008514 0.102301
0.999969 0.008514 0.102301
0.000000 0.057642 0.102301
0.007867 0.057642 0.102301
0.030316 0.057642 0.102301
0.073712 0.057642 0.102301
0.132623 0.057642 0.102301
0.219818 0.057642 0.102301
0.331208 0.057642 0.102301
0.443494 0.057642 0.102301
0.565533 0.057642 0.102301
0.678009 0.057642 0.102301
0.805206 0.057642 0.102301
0.928113 0.057642 0.102301
0.989373 0.057642 0.102301
0.998126 0.057642 0.102301
0.999963 0.057642 0.102301
0.999969 0.057642 0.102301
0.000000 0.107398 0.102301
0.007867 0.107398 0.102301
0.030316 0.107398 0.102301
0.073712 0.107398 0.102301
0.132623 0.107398 0.102301
0.219818 0.107398 0.102301
0.331208 0.107398 0.102301
0.443494 0.107398 0.102301
0.565533 0.107398 0.102301
0.678009 0.107398 0.102301
0.805206 0.107398 0.102301
0.928113 0.107398 0.102301
0.989373 0.107398 0.102301
0.998126 0.107398 0.102301
0.999963 0.107398 0.102301
0.999969 0.107398 0.102301
0.000000 0.169006 0.102301
0.007867 0.169006 0.102301
0.030316 0.169006 0.102301
0.073712 0.169006 0.102301
0.132623 0.169006 0.102301
0.219818 0.169006 0.102301
0.331208 0.169006 0.102301
0.443494 0.169006 0.102301
0.565533 0.169006 0.102301
0.678009 0.169006 0.102301
0.805206 0.169006 0.102301
0.928113 0.169006 0.102301
0.989373 0.169006 0.102301
0.998126 0.169006 0.102301
0.999963 0.169006 0.102301
0.999969 0.169006 0.102301
0.000000 0.252136 0.102301
0.007867 0.252136 0.102301
0.030316 0.252136 0.102301
0.073712 0.252136 0.102301
0.132623 0.252136 0.102301
0.219818 0.252136 0.102301
0.331208 0.252136 0.102301
0.443494 0.252136 0.102301
0.565533 0.252136 0.102301
0.678009 0.252136 0.102301
0.805206 0.252136 0.102301
0.928113 0.252136 0.102301
0.989373 0.252136 0.102301
0.998126 0.252136 0.102301
0.999963 0.252136 0.102301
0.999969 0.252136 0.102301
0.000000 0.343293 0.102301
0.007867 0.343293 0.102301
0.030316 0.343293 0.102301
0.073712 0.343293 0.102301
0.132623 0.343293 0.102301
0.219818 0.343293 0.102301
0.331208 0.343293 0.102301
0.443494 0.343293 0.102301
0.565533 0.343293 0.102301
0.678009 0.343293 0.102301
0.805206 0.343293 0.102301
0.928113 0.343293 0.102301
0.989373 0.343293 0.102301
0.998126 0.343293 0.102301
0.999963 0.343293 0.102301
0.999963 0.343293 0.102301
0.000000 0.450904 0.102301
0.007867 0.450904 0.102301
