LUTs/SPK Cube Block1 S16/TheBrim_SPK_Type-S_Block1_S16.cube
TITLE "TheBrim® Industrial Imaging Burau"
# © Copyright 2022 - TheBrim® d.o.o. Croatia
LUT_3D_SIZE 16
DOMAIN_MIN 0.000000 0.000000 0.000000
DOMAIN_MAX 1.000000 1.000000 1.000000
0.000061 0.000061 0.000031
0.003992 0.000061 0.000031
0.025708 0.000061 0.000031
0.068036 0.000061 0.000031
0.129126 0.000061 0.000031
0.217590 0.000061 0.000031
0.327948 0.000061 0.000031
0.439771 0.000061 0.000031
0.565674 0.000061 0.000031
0.683631 0.000061 0.000031
0.797211 0.000061 0.000031
0.909137 0.000061 0.000031
0.969476 0.000061 0.000031
0.994214 0.000061 0.000031
0.999866 0.000061 0.000031
0.999878 0.000061 0.000031
0.000061 0.009045 0.000031
0.003992 0.009045 0.000031
0.025708 0.009045 0.000031
0.068036 0.009045 0.000031
0.129126 0.009045 0.000031
0.217590 0.009045 0.000031
0.327948 0.009045 0.000031
0.439771 0.009045 0.000031
0.565674 0.009045 0.000031
0.683631 0.009045 0.000031
0.797211 0.009045 0.000031
0.909137 0.009045 0.000031
0.969476 0.009045 0.000031
0.994214 0.009045 0.000031
0.999866 0.009045 0.000031
0.999878 0.009045 0.000031
0.000061 0.052002 0.000031
0.003992 0.052002 0.000031
0.025708 0.052002 0.000031
0.068036 0.052002 0.000031
0.129126 0.052002 0.000031
0.217590 0.052002 0.000031
0.327948 0.052002 0.000031
0.439771 0.052002 0.000031
0.565674 0.052002 0.000031
0.683631 0.052002 0.000031
0.797211 0.052002 0.000031
0.909137 0.052002 0.000031
0.969476 0.052002 0.000031
0.994214 0.052002 0.000031
0.999866 0.052002 0.000031
0.999878 0.052002 0.000031
0.000061 0.101727 0.000031
0.003992 0.101727 0.000031
0.025708 0.101727 0.000031
0.068036 0.101727 0.000031
0.129126 0.101727 0.000031
0.217590 0.101727 0.000031
0.327948 0.101727 0.000031
0.439771 0.101727 0.000031
0.565674 0.101727 0.000031
0.683631 0.101727 0.000031
0.797211 0.101727 0.000031
0.909137 0.101727 0.000031
0.969476 0.101727 0.000031
0.994214 0.101727 0.000031
0.999866 0.101727 0.000031
0.999878 0.101727 0.000031
0.000061 0.161603 0.000031
0.003992 0.161603 0.000031
0.025708 0.161603 0.000031
0.068036 0.161603 0.000031
0.129126 0.161603 0.000031
0.217590 0.161603 0.000031
0.327948 0.161603 0.000031
0.439771 0.161603 0.000031
0.565674 0.161603 0.000031
0.683631 0.161603 0.000031
0.797211 0.161603 0.000031
0.909137 0.161603 0.000031
0.969476 0.161603 0.000031
0.994214 0.161603 0.000031
0.999866 0.161603 0.000031
0.999878 0.161603 0.000031
0.000061 0.241425 0.000031
0.003992 0.241425 0.000031
0.025708 0.241425 0.000031
0.068036 0.241425 0.000031
0.129126 0.241425 0.000031
0.217590 0.241425 0.000031
0.327948 0.241425 0.000031
0.439771 0.241425 0.000031
0.565674 0.241425 0.000031
0.683631 0.241425 0.000031
0.797211 0.241425 0.000031
0.909137 0.241425 0.000031
0.969476 0.241425 0.000031
0.994214 0.241425 0.000031
0.999866 0.241425 0.000031
0.999878 0.241425 0.000031
0.000061 0.336255 0.000031
0.003992 0.336255 0.000031
0.025708 0.336255 0.000031
0.068036 0.336255 0.000031
0.129126 0.336255 0.000031
0.217590 0.336255 0.000031
0.327948 0.336255 0.000031
0.439771 0.336255 0.000031
0.565674 0.336255 0.000031
0.683631 0.336255 0.000031
0.797211 0.336255 0.000031
0.909137 0.336255 0.000031
0.969476 0.336255 0.000031
0.994214 0.336255 0.000031
0.999866 0.336255 0.000031
0.999878 0.336255 0.000031
0.000061 0.439008 0.000031
0.003992 0.439008 0.000031
0.025708 0.439008 0.000031
0.068036 0.439008 0.000031
0.129126 0.439008 0.000031
0.217590 0.439008 0.000031
0.327948 0.439008 0.000031
0.439771 0.439008 0.000031
0.565674 0.439008 0.000031
0.683631 0.439008 0.000031
0.797211 0.439008 0.000031
0.909137 0.439008 0.000031
0.969476 0.439008 0.000031
0.994214 0.439008 0.000031
0.999866 0.439008 0.000031
0.999878 0.439008 0.000031
0.000061 0.546869 0.000031
0.003992 0.546869 0.000031
0.025708 0.546869 0.000031
0.068036 0.546869 0.000031
0.129126 0.546869 0.000031
0.217590 0.546869 0.000031
0.327948 0.546869 0.000031
0.439771 0.546869 0.000031
0.565674 0.546869 0.000031
0.683631 0.546869 0.000031
0.797211 0.546869 0.000031
0.909137 0.546869 0.000031
0.969476 0.546869 0.000031
0.994214 0.546869 0.000031
0.999866 0.546869 0.000031
0.999878 0.546869 0.000031
0.000061 0.661279 0.000031
0.003992 0.661279 0.000031
0.025708 0.661279 0.000031
0.068036 0.661279 0.000031
0.129126 0.661279 0.000031
0.217590 0.661279 0.000031
0.327948 0.661279 0.000031
0.439771 0.661279 0.000031
0.565674 0.661279 0.000031
0.683631 0.661279 0.000031
0.797211 0.661279 0.000031
0.909137 0.661279 0.000031
0.969476 0.661279 0.000031
0.994214 0.661279 0.000031
0.999866 0.661279 0.000031
0.999878 0.661279 0.000031
0.000061 0.783600 0.000031
0.003992 0.783600 0.000031
0.025708 0.783600 0.000031
0.068036 0.783600 0.000031
0.129126 0.783600 0.000031
0.217590 0.783600 0.000031
0.327948 0.783600 0.000031
0.439771 0.783600 0.000031
0.565674 0.783600 0.000031
0.683631 0.783600 0.000031
0.797211 0.783600 0.000031
0.909137 0.783600 0.000031
0.969476 0.783600 0.000031
0.994214 0.783600 0.000031
0.999866 0.783600 0.000031
0.999878 0.783600 0.000031
0.000061 0.902008 0.000031
0.003992 0.902008 0.000031
0.025708 0.902008 0.000031
0.068036 0.902008 0.000031
0.129126 0.902008 0.000031
0.217590 0.902008 0.000031
0.327948 0.902008 0.000031
0.439771 0.902008 0.000031
0.565674 0.902008 0.000031
0.683631 0.902008 0.000031
0.797211 0.902008 0.000031
0.909137 0.902008 0.000031
0.969476 0.902008 0.000031
0.994214 0.902008 0.000031
0.999866 0.902008 0.000031
0.999878 0.902008 0.000031
0.000061 0.958722 0.000031
0.003992 0.958722 0.000031
0.025708 0.958722 0.000031
0.068036 0.958722 0.000031
0.129126 0.958722 0.000031
0.217590 0.958722 0.000031
0.327948 0.958722 0.000031
0.439771 0.958722 0.000031
0.565674 0.958722 0.000031
0.683631 0.958722 0.000031
0.797211 0.958722 0.000031
0.909137 0.958722 0.000031
0.969476 0.958722 0.000031
0.994214 0.958722 0.000031
0.999866 0.958722 0.000031
0.999878 0.958722 0.000031
0.000061 0.988269 0.000031
0.003992 0.988269 0.000031
0.025708 0.988269 0.000031
0.068036 0.988269 0.000031
0.129126 0.988269 0.000031
0.217590 0.988269 0.000031
0.327948 0.988269 0.000031
0.439771 0.988269 0.000031
0.565674 0.988269 0.000031
0.683631 0.988269 0.000031
0.797211 0.988269 0.000031
0.909137 0.988269 0.000031
0.969476 0.988269 0.000031
0.994214 0.988269 0.000031
0.999866 0.988269 0.000031
0.999878 0.988269 0.000031
0.000061 0.997480 0.000031
0.003992 0.997480 0.000031
0.025708 0.997480 0.000031
0.068036 0.997480 0.000031
0.129126 0.997480 0.000031
0.217590 0.997480 0.000031
0.327948 0.997480 0.000031
0.439771 0.997480 0.000031
0.565674 0.997480 0.000031
0.683631 0.997480 0.000031
0.797211 0.997480 0.000031
0.909137 0.997480 0.000031
0.969476 0.997480 0.000031
0.994214 0.997480 0.000031
0.999866 0.997480 0.000031
0.999878 0.997480 0.000031
0.000061 0.997498 0.000031
0.003992 0.997498 0.000031
0.025708 0.997498 0.000031
0.068036 0.997498 0.000031
0.129126 0.997498 0.000031
0.217590 0.997498 0.000031
0.327948 0.997498 0.000031
0.439771 0.997498 0.000031
0.565674 0.997498 0.000031
0.683631 0.997498 0.000031
0.797211 0.997498 0.000031
0.909137 0.997498 0.000031
0.969476 0.997498 0.000031
0.994214 0.997498 0.000031
0.999866 0.997498 0.000031
0.999878 0.997498 0.000031
0.000061 0.000061 0.010339
0.003992 0.000061 0.010339
0.025708 0.000061 0.010339
0.068036 0.000061 0.010339
0.129126 0.000061 0.010339
0.217590 0.000061 0.010339
0.327948 0.000061 0.010339
0.439771 0.000061 0.010339
0.565674 0.000061 0.010339
0.683631 0.000061 0.010339
0.797211 0.000061 0.010339
0.909137 0.000061 0.010339
0.969476 0.000061 0.010339
0.994214 0.000061 0.010339
0.999866 0.000061 0.010339
0.999878 0.000061 0.010339
0.000061 0.009045 0.010339
0.003992 0.009045 0.010339
0.025708 0.009045 0.010339
0.068036 0.009045 0.010339
0.129126 0.009045 0.010339
0.217590 0.009045 0.010339
0.327948 0.009045 0.010339
0.439771 0.009045 0.010339
0.565674 0.009045 0.010339
0.683631 0.009045 0.010339
0.797211 0.009045 0.010339
0.909137 0.009045 0.010339
0.969476 0.009045 0.010339
0.994214 0.009045 0.010339
0.999866 0.009045 0.010339
0.999878 0.009045 0.010339
0.000061 0.052002 0.010339
0.003992 0.052002 0.010339
0.025708 0.052002 0.010339
0.068036 0.052002 0.010339
0.129126 0.052002 0.010339
0.217590 0.052002 0.010339
0.327948 0.052002 0.010339
0.439771 0.052002 0.010339
0.565674 0.052002 0.010339
0.683631 0.052002 0.010339
0.797211 0.052002 0.010339
0.909137 0.052002 0.010339
0.969476 0.052002 0.010339
0.994214 0.052002 0.010339
0.999866 0.052002 0.010339
0.999878 0.052002 0.010339
0.000061 0.101727 0.010339
0.003992 0.101727 0.010339
0.025708 0.101727 0.010339
0.068036 0.101727 0.010339
0.129126 0.101727 0.010339
0.217590 0.101727 0.010339
0.327948 0.101727 0.010339
0.439771 0.101727 0.010339
0.565674 0.101727 0.010339
0.683631 0.101727 0.010339
0.797211 0.101727 0.010339
0.909137 0.101727 0.010339
0.969476 0.101727 0.010339
0.994214 0.101727 0.010339
0.999866 0.101727 0.010339
0.999878 0.101727 0.010339
0.000061 0.161603 0.010339
0.003992 0.161603 0.010339
0.025708 0.161603 0.010339
0.068036 0.161603 0.010339
0.129126 0.161603 0.010339
0.217590 0.161603 0.010339
0.327948 0.161603 0.010339
0.439771 0.161603 0.010339
0.565674 0.161603 0.010339
0.683631 0.161603 0.010339
0.797211 0.161603 0.010339
0.909137 0.161603 0.010339
0.969476 0.161603 0.010339
0.994214 0.161603 0.010339
0.999866 0.161603 0.010339
0.999878 0.161603 0.010339
0.000061 0.241425 0.010339
0.003992 0.241425 0.010339
0.025708 0.241425 0.010339
0.068036 0.241425 0.010339
0.129126 0.241425 0.010339
0.217590 0.241425 0.010339
0.327948 0.241425 0.010339
0.439771 0.241425 0.010339
0.565674 0.241425 0.010339
0.683631 0.241425 0.010339
0.797211 0.241425 0.010339
0.909137 0.241425 0.010339
0.969476 0.241425 0.010339
0.994214 0.241425 0.010339
0.999866 0.241425 0.010339
0.999878 0.241425 0.010339
0.000061 0.336255 0.010339
0.003992 0.336255 0.010339
0.025708 0.336255 0.010339
0.068036 0.336255 0.010339
0.129126 0.336255 0.010339
0.217590 0.336255 0.010339
0.327948 0.336255 0.010339
0.439771 0.336255 0.010339
0.565674 0.336255 0.010339
0.683631 0.336255 0.010339
0.797211 0.336255 0.010339
0.909137 0.336255 0.010339
0.969476 0.336255 0.010339
0.994214 0.336255 0.010339
0.999866 0.336255 0.010339
0.999878 0.336255 0.010339
0.000061 0.439008 0.010339
0.003992 0.439008 0.010339
0.025708 0.439008 0.010339
0.068036 0.439008 0.010339
0.129126 0.439008 0.010339
0.217590 0.439008 0.010339
0.327948 0.439008 0.010339
0.439771 0.439008 0.010339
0.565674 0.439008 0.010339
0.683631 0.439008 0.010339
0.797211 0.439008 0.010339
0.909137 0.439008 0.010339
0.969476 0.439008 0.010339
0.994214 0.439008 0.010339
0.999866 0.439008 0.010339
0.999878 0.439008 0.010339
0.000061 0.546869 0.010339
0.003992 0.546869 0.010339
0.025708 0.546869 0.010339
0.068036 0.546869 0.010339
0.129126 0.546869 0.010339
0.217590 0.546869 0.010339
0.327948 0.546869 0.010339
0.439771 0.546869 0.010339
0.565674 0.546869 0.010339
0.683631 0.546869 0.010339
0.797211 0.546869 0.010339
0.909137 0.546869 0.010339
0.969476 0.546869 0.010339
0.994214 0.546869 0.010339
0.999866 0.546869 0.010339
0.999878 0.546869 0.010339
0.000061 0.661279 0.010339
0.003992 0.661279 0.010339
0.025708 0.661279 0.010339
0.068036 0.661279 0.010339
0.129126 0.661279 0.010339
0.217590 0.661279 0.010339
0.327948 0.661279 0.010339
0.439771 0.661279 0.010339
0.565674 0.661279 0.010339
0.683631 0.661279 0.010339
0.797211 0.661279 0.010339
0.909137 0.661279 0.010339
0.969476 0.661279 0.010339
0.994214 0.661279 0.010339
0.999866 0.661279 0.010339
0.999878 0.661279 0.010339
0.000061 0.783600 0.010339
0.003992 0.783600 0.010339
0.025708 0.783600 0.010339
0.068036 0.783600 0.010339
0.129126 0.783600 0.010339
0.217590 0.783600 0.010339
0.327948 0.783600 0.010339
0.439771 0.783600 0.010339
0.565674 0.783600 0.010339
0.683631 0.783600 0.010339
0.797211 0.783600 0.010339
0.909137 0.783600 0.010339
0.969476 0.783600 0.010339
0.994214 0.783600 0.010339
0.999866 0.783600 0.010339
0.999878 0.783600 0.010339
0.000061 0.902008 0.010339
0.003992 0.902008 0.010339
0.025708 0.902008 0.010339
0.068036 0.902008 0.010339
0.129126 0.902008 0.010339
0.217590 0.902008 0.010339
0.327948 0.902008 0.010339
0.439771 0.902008 0.010339
0.565674 0.902008 0.010339
0.683631 0.902008 0.010339
0.797211 0.902008 0.010339
0.909137 0.902008 0.010339
0.969476 0.902008 0.010339
0.994214 0.902008 0.010339
0.999866 0.902008 0.010339
0.999878 0.902008 0.010339
0.000061 0.958722 0.010339
0.003992 0.958722 0.010339
0.025708 0.958722 0.010339
0.068036 0.958722 0.010339
0.129126 0.958722 0.010339
0.217590 0.958722 0.010339
0.327948 0.958722 0.010339
0.439771 0.958722 0.010339
0.565674 0.958722 0.010339
0.683631 0.958722 0.010339
0.797211 0.958722 0.010339
0.909137 0.958722 0.010339
0.969476 0.958722 0.010339
0.994214 0.958722 0.010339
0.999866 0.958722 0.010339
0.999878 0.958722 0.010339
0.000061 0.988269 0.010339
0.003992 0.988269 0.010339
0.025708 0.988269 0.010339
0.068036 0.988269 0.010339
0.129126 0.988269 0.010339
0.217590 0.988269 0.010339
0.327948 0.988269 0.010339
0.439771 0.988269 0.010339
0.565674 0.988269 0.010339
0.683631 0.988269 0.010339
0.797211 0.988269 0.010339
0.909137 0.988269 0.010339
0.969476 0.988269 0.010339
0.994214 0.988269 0.010339
0.999866 0.988269 0.010339
0.999878 0.988269 0.010339
0.000061 0.997480 0.010339
0.003992 0.997480 0.010339
0.025708 0.997480 0.010339
0.068036 0.997480 0.010339
0.129126 0.997480 0.010339
0.217590 0.997480 0.010339
0.327948 0.997480 0.010339
0.439771 0.997480 0.010339
0.565674 0.997480 0.010339
0.683631 0.997480 0.010339
0.797211 0.997480 0.010339
0.909137 0.997480 0.010339
0.969476 0.997480 0.010339
0.994214 0.997480 0.010339
0.999866 0.997480 0.010339
0.999878 0.997480 0.010339
0.000061 0.997498 0.010339
0.003992 0.997498 0.010339
0.025708 0.997498 0.010339
0.068036 0.997498 0.010339
0.129126 0.997498 0.010339
0.217590 0.997498 0.010339
0.327948 0.997498 0.010339
0.439771 0.997498 0.010339
0.565674 0.997498 0.010339
0.683631 0.997498 0.010339
0.797211 0.997498 0.010339
0.909137 0.997498 0.010339
0.969476 0.997498 0.010339
0.994214 0.997498 0.010339
0.999866 0.997498 0.010339
0.999878 0.997498 0.010339
0.000061 0.000061 0.060077
0.003992 0.000061 0.060077
0.025708 0.000061 0.060077
0.068036 0.000061 0.060077
0.129126 0.000061 0.060077
0.217590 0.000061 0.060077
0.327948 0.000061 0.060077
0.439771 0.000061 0.060077
0.565674 0.000061 0.060077
0.683631 0.000061 0.060077
0.797211 0.000061 0.060077
0.909137 0.000061 0.060077
0.969476 0.000061 0.060077
0.994214 0.000061 0.060077
0.999866 0.000061 0.060077
0.999878 0.000061 0.060077
0.000061 0.009045 0.060077
0.003992 0.009045 0.060077
0.025708 0.009045 0.060077
0.068036 0.009045 0.060077
0.129126 0.009045 0.060077
0.217590 0.009045 0.060077
0.327948 0.009045 0.060077
0.439771 0.009045 0.060077
0.565674 0.009045 0.060077
0.683631 0.009045 0.060077
0.797211 0.009045 0.060077
0.909137 0.009045 0.060077
0.969476 0.009045 0.060077
0.994214 0.009045 0.060077
0.999866 0.009045 0.060077
0.999878 0.009045 0.060077
0.000061 0.052002 0.060077
0.003992 0.052002 0.060077
0.025708 0.052002 0.060077
0.068036 0.052002 0.060077
0.129126 0.052002 0.060077
0.217590 0.052002 0.060077
0.327948 0.052002 0.060077
0.439771 0.052002 0.060077
0.565674 0.052002 0.060077
0.683631 0.052002 0.060077
0.797211 0.052002 0.060077
0.909137 0.052002 0.060077
0.969476 0.052002 0.060077
0.994214 0.052002 0.060077
0.999866 0.052002 0.060077
0.999878 0.052002 0.060077
0.000061 0.101727 0.060077
0.003992 0.101727 0.060077
0.025708 0.101727 0.060077
0.068036 0.101727 0.060077
0.129126 0.101727 0.060077
0.217590 0.101727 0.060077
0.327948 0.101727 0.060077
0.439771 0.101727 0.060077
0.565674 0.101727 0.060077
0.683631 0.101727 0.060077
0.797211 0.101727 0.060077
0.909137 0.101727 0.060077
0.969476 0.101727 0.060077
0.994214 0.101727 0.060077
0.999866 0.101727 0.060077
0.999878 0.101727 0.060077
0.000061 0.161603 0.060077
0.003992 0.161603 0.060077
0.025708 0.161603 0.060077
0.068036 0.161603 0.060077
0.129126 0.161603 0.060077
0.217590 0.161603 0.060077
0.327948 0.161603 0.060077
0.439771 0.161603 0.060077
0.565674 0.161603 0.060077
0.683631 0.161603 0.060077
0.797211 0.161603 0.060077
0.909137 0.161603 0.060077
0.969476 0.161603 0.060077
0.994214 0.161603 0.060077
0.999866 0.161603 0.060077
0.999878 0.161603 0.060077
0.000061 0.241425 0.060077
0.003992 0.241425 0.060077
0.025708 0.241425 0.060077
0.068036 0.241425 0.060077
0.129126 0.241425 0.060077
0.217590 0.241425 0.060077
0.327948 0.241425 0.060077
0.439771 0.241425 0.060077
0.565674 0.241425 0.060077
0.683631 0.241425 0.060077
0.797211 0.241425 0.060077
0.909137 0.241425 0.060077
0.969476 0.241425 0.060077
0.994214 0.241425 0.060077
0.999866 0.241425 0.060077
0.999878 0.241425 0.060077
0.000061 0.336255 0.060077
0.003992 0.336255 0.060077
0.025708 0.336255 0.060077
0.068036 0.336255 0.060077
0.129126 0.336255 0.060077
0.217590 0.336255 0.060077
0.327948 0.336255 0.060077
0.439771 0.336255 0.060077
0.565674 0.336255 0.060077
0.683631 0.336255 0.060077
0.797211 0.336255 0.060077
0.909137 0.336255 0.060077
0.969476 0.336255 0.060077
0.994214 0.336255 0.060077
0.999866 0.336255 0.060077
0.999878 0.336255 0.060077
0.000061 0.439008 0.060077
0.003992 0.439008 0.060077
0.025708 0.439008 0.060077
0.068036 0.439008 0.060077
0.129126 0.439008 0.060077
0.217590 0.439008 0.060077
0.327948 0.439008 0.060077
0.439771 0.439008 0.060077
0.565674 0.439008 0.060077
0.683631 0.439008 0.060077
0.797211 0.439008 0.060077
0.909137 0.439008 0.060077
0.969476 0.439008 0.060077
0.994214 0.439008 0.060077
0.999866 0.439008 0.060077
0.999878 0.439008 0.060077
0.000061 0.546869 0.060077
0.003992 0.546869 0.060077
0.025708 0.546869 0.060077
0.068036 0.546869 0.060077
0.129126 0.546869 0.060077
0.217590 0.546869 0.060077
0.327948 0.546869 0.060077
0.439771 0.546869 0.060077
0.565674 0.546869 0.060077
0.683631 0.546869 0.060077
0.797211 0.546869 0.060077
0.909137 0.546869 0.060077
0.969476 0.546869 0.060077
0.994214 0.546869 0.060077
0.999866 0.546869 0.060077
0.999878 0.546869 0.060077
0.000061 0.661279 0.060077
0.003992 0.661279 0.060077
0.025708 0.661279 0.060077
0.068036 0.661279 0.060077
0.129126 0.661279 0.060077
0.217590 0.661279 0.060077
0.327948 0.661279 0.060077
0.439771 0.661279 0.060077
0.565674 0.661279 0.060077
0.683631 0.661279 0.060077
0.797211 0.661279 0.060077
0.909137 0.661279 0.060077
0.969476 0.661279 0.060077
0.994214 0.661279 0.060077
0.999866 0.661279 0.060077
0.999878 0.661279 0.060077
0.000061 0.783600 0.060077
0.003992 0.783600 0.060077
0.025708 0.783600 0.060077
0.068036 0.783600 0.060077
0.129126 0.783600 0.060077
0.217590 0.783600 0.060077
0.327948 0.783600 0.060077
0.439771 0.783600 0.060077
0.565674 0.783600 0.060077
0.683631 0.783600 0.060077
0.797211 0.783600 0.060077
0.909137 0.783600 0.060077
0.969476 0.783600 0.060077
0.994214 0.783600 0.060077
0.999866 0.783600 0.060077
0.999878 0.783600 0.060077
0.000061 0.902008 0.060077
0.003992 0.902008 0.060077
0.025708 0.902008 0.060077
0.068036 0.902008 0.060077
0.129126 0.902008 0.060077
0.217590 0.902008 0.060077
0.327948 0.902008 0.060077
0.439771 0.902008 0.060077
0.565674 0.902008 0.060077
0.683631 0.902008 0.060077
0.797211 0.902008 0.060077
0.909137 0.902008 0.060077
0.969476 0.902008 0.060077
0.994214 0.902008 0.060077
0.999866 0.902008 0.060077
0.999878 0.902008 0.060077
0.000061 0.958722 0.060077
0.003992 0.958722 0.060077
0.025708 0.958722 0.060077
0.068036 0.958722 0.060077
0.129126 0.958722 0.060077
0.217590 0.958722 0.060077
0.327948 0.958722 0.060077
0.439771 0.958722 0.060077
0.565674 0.958722 0.060077
0.683631 0.958722 0.060077
0.797211 0.958722 0.060077
0.909137 0.958722 0.060077
0.969476 0.958722 0.060077
0.994214 0.958722 0.060077
0.999866 0.958722 0.060077
0.999878 0.958722 0.060077
0.000061 0.988269 0.060077
0.003992 0.988269 0.060077
0.025708 0.988269 0.060077
0.068036 0.988269 0.060077
0.129126 0.988269 0.060077
0.217590 0.988269 0.060077
0.327948 0.988269 0.060077
0.439771 0.988269 0.060077
0.565674 0.988269 0.060077
0.683631 0.988269 0.060077
0.797211 0.988269 0.060077
0.909137 0.988269 0.060077
0.969476 0.988269 0.060077
0.994214 0.988269 0.060077
0.999866 0.988269 0.060077
0.999878 0.988269 0.060077
0.000061 0.997480 0.060077
0.003992 0.997480 0.060077
0.025708 0.997480 0.060077
0.068036 0.997480 0.060077
0.129126 0.997480 0.060077
0.217590 0.997480 0.060077
0.327948 0.997480 0.060077
0.439771 0.997480 0.060077
0.565674 0.997480 0.060077
0.683631 0.997480 0.060077
0.797211 0.997480 0.060077
0.909137 0.997480 0.060077
0.969476 0.997480 0.060077
0.994214 0.997480 0.060077
0.999866 0.997480 0.060077
0.999878 0.997480 0.060077
0.000061 0.997498 0.060077
0.003992 0.997498 0.060077
0.025708 0.997498 0.060077
0.068036 0.997498 0.060077
0.129126 0.997498 0.060077
0.217590 0.997498 0.060077
0.327948 0.997498 0.060077
0.439771 0.997498 0.060077
0.565674 0.997498 0.060077
0.683631 0.997498 0.060077
0.797211 0.997498 0.060077
0.909137 0.997498 0.060077
0.969476 0.997498 0.060077
0.994214 0.997498 0.060077
0.999866 0.997498 0.060077
0.999878 0.997498 0.060077
0.000061 0.000061 0.113855
0.003992 0.000061 0.113855
0.025708 0.000061 0.113855
0.068036 0.000061 0.113855
0.129126 0.000061 0.113855
0.217590 0.000061 0.113855
0.327948 0.000061 0.113855
0.439771 0.000061 0.113855
0.565674 0.000061 0.113855
0.683631 0.000061 0.113855
0.797211 0.000061 0.113855
0.909137 0.000061 0.113855
0.969476 0.000061 0.113855
0.994214 0.000061 0.113855
0.999866 0.000061 0.113855
0.999878 0.000061 0.113855
0.000061 0.009045 0.113855
0.003992 0.009045 0.113855
0.025708 0.009045 0.113855
0.068036 0.009045 0.113855
0.129126 0.009045 0.113855
0.217590 0.009045 0.113855
0.327948 0.009045 0.113855
0.439771 0.009045 0.113855
0.565674 0.009045 0.113855
0.683631 0.009045 0.113855
0.797211 0.009045 0.113855
0.909137 0.009045 0.113855
0.969476 0.009045 0.113855
0.994214 0.009045 0.113855
0.999866 0.009045 0.113855
0.999878 0.009045 0.113855
0.000061 0.052002 0.113855
0.003992 0.052002 0.113855
0.025708 0.052002 0.113855
0.068036 0.052002 0.113855
0.129126 0.052002 0.113855
0.217590 0.052002 0.113855
0.327948 0.052002 0.113855
0.439771 0.052002 0.113855
0.565674 0.052002 0.113855
0.683631 0.052002 0.113855
0.797211 0.052002 0.113855
0.909137 0.052002 0.113855
0.969476 0.052002 0.113855
0.994214 0.052002 0.113855
0.999866 0.052002 0.113855
0.999878 0.052002 0.113855
0.000061 0.101727 0.113855
0.003992 0.101727 0.113855
0.025708 0.101727 0.113855
0.068036 0.101727 0.113855
0.129126 0.101727 0.113855
0.217590 0.101727 0.113855
0.327948 0.101727 0.113855
0.439771 0.101727 0.113855
0.565674 0.101727 0.113855
0.683631 0.101727 0.113855
0.797211 0.101727 0.113855
0.909137 0.101727 0.113855
0.969476 0.101727 0.113855
0.994214 0.101727 0.113855
0.999866 0.101727 0.113855
0.999878 0.101727 0.113855
0.000061 0.161603 0.113855
0.003992 0.161603 0.113855
0.025708 0.161603 0.113855
0.068036 0.161603 0.113855
0.129126 0.161603 0.113855
0.217590 0.161603 0.113855
0.327948 0.161603 0.113855
0.439771 0.161603 0.113855
0.565674 0.161603 0.113855
0.683631 0.161603 0.113855
0.797211 0.161603 0.113855
0.909137 0.161603 0.113855
0.969476 0.161603 0.113855
0.994214 0.161603 0.113855
0.999866 0.161603 0.113855
0.999878 0.161603 0.113855
0.000061 0.241425 0.113855
0.003992 0.241425 0.113855
0.025708 0.241425 0.113855
0.068036 0.241425 0.113855
0.129126 0.241425 0.113855
0.217590 0.241425 0.113855
0.327948 0.241425 0.113855
0.439771 0.241425 0.113855
0.565674 0.241425 0.113855
0.683631 0.241425 0.113855
0.797211 0.241425 0.113855
0.909137 0.241425 0.113855
0.969476 0.241425 0.113855
0.994214 0.241425 0.113855
0.999866 0.241425 0.113855
0.999878 0.241425 0.113855
0.000061 0.336255 0.113855
0.003992 0.336255 0.113855
0.025708 0.336255 0.113855
0.068036 0.336255 0.113855
0.129126 0.336255 0.113855
0.217590 0.336255 0.113855
0.327948 0.336255 0.113855
0.439771 0.336255 0.113855
0.565674 0.336255 0.113855
0.683631 0.336255 0.113855
0.797211 0.336255 0.113855
0.909137 0.336255 0.113855
0.969476 0.336255 0.113855
0.994214 0.336255 0.113855
0.999866 0.336255 0.113855
0.999878 0.336255 0.113855
0.000061 0.439008 0.113855
0.003992 0.439008 0.113855
