LUTs/SPK Cube Block1 S16/TheBrim_SPK_Type-U_Block 1_S16.cube
TITLE "TheBrim® Industrial Imaging Burau"
# © Copyright 2022 - TheBrim® d.o.o. Croatia
LUT_3D_SIZE 6
0.0127260243 0.0152590219 0.0176394293
0.0962050813 0.0380315862 0.0358220798
0.3426565957 0.0265934234 0.0186221103
0.5333485924 0.0000000000 0.0250247959
0.6530708782 0.0000000000 0.0409857328
0.6711680781 0.0000000000 0.0336003662
0.0324406806 0.0964675364 0.0514717327
0.1043839170 0.1018142977 0.0474189364
0.3078355077 0.1137956817 0.0351201648
0.5342458228 0.0931227588 0.0321416037
0.6935805295 0.0885145342 0.0386541543
0.7317524987 0.1146501869 0.0244449531
0.0000000000 0.2851972229 0.1151873045
0.0446234836 0.2468726635 0.0962294957
0.2916853590 0.2785809110 0.0750072480
0.5710139620 0.2989364462 0.0315129320
0.7763149462 0.3141283284 0.0128480964
0.8345189593 0.3260059510 0.0000000000
0.0000000000 0.4932753491 0.2248386358
0.0000000000 0.5118974594 0.1914091707
0.3026108186 0.5450614176 0.1520958267
0.6247379263 0.5749385824 0.0529121843
0.8544777600 0.6033997101 0.0000000000
0.9355153735 0.6195010300 0.0000000000
0.0000000000 0.6317998016 0.2425696193
0.0278202487 0.6555855650 0.2327000839
0.3955565728 0.7118486305 0.2090302892
0.6819592584 0.7838040742 0.1735927367
0.8950301366 0.8134493019 0.0000000000
0.9780636301 0.8217380026 0.0000000000
0.3512321660 0.7016556039 0.2114900435
0.4199282826 0.7174639506 0.2066803998
0.5609796292 0.7545006485 0.1907011521
0.7483848325 0.8030670634 0.1651392386
0.9034653239 0.8464637217 0.1595117113
0.9801327535 0.8776531624 0.2379797055
0.0137453269 0.0293217365 0.0919081407
0.0894361791 0.0351079576 0.0961989776
0.3404654002 0.0235477226 0.1082902266
0.5423331044 0.0000000000 0.0968947890
0.6569954986 0.0000000000 0.0896986343
0.6733165484 0.0000000000 0.1003067063
0.0000000000 0.0985427634 0.1110734722
0.0891371023 0.0953017472 0.0986404211
0.2930098421 0.1037979706 0.0957900359
0.5295704585 0.0861219196 0.0848889906
0.6898878462 0.0677378500 0.0816479744
0.7341084916 0.1123918517 0.1045792325
0.0000000000 0.2750041962 0.1277668421
0.0336003662 0.2441321431 0.1019729915
0.2908064393 0.2718913558 0.0973098344
0.5695429923 0.2910872053 0.0812817578
0.7757106889 0.3058518349 0.0787975891
0.8349156939 0.3241199359 0.1093705653
0.0000000000 0.4884534981 0.2298619059
0.0000000000 0.5110612650 0.1923857481
0.3054917220 0.5439688716 0.1514793622
0.6276981765 0.5707576104 0.0516853590
0.8529030289 0.5970580606 0.0000000000
0.9350942245 0.6185671778 0.0353582055
0.0000000000 0.6354497597 0.2420263981
0.0493659876 0.6587594415 0.2312718395
0.4044678416 0.7139116503 0.2083772030
0.6866712444 0.7847562371 0.1725734340
0.8958846418 0.8162020294 0.0639536126
0.9778011749 0.8380407416 0.1852994583
0.3744563973 0.7069657435 0.2105745022
0.4407965209 0.7227679866 0.2046845197
0.5743770504 0.7580651560 0.1900114443
0.7603356985 0.8063263905 0.1628686961
0.9066392004 0.8489967193 0.1762172885
0.9758663310 0.8950118257 0.3949217975
0.0154116121 0.0382330053 0.2377599756
0.0652231632 0.0421149004 0.2618020905
0.2683512627 0.0529427024 0.2951277943
0.5392202640 0.0005859464 0.3280933852
0.6672678721 0.0000000000 0.3098313878
0.6812390326 0.0000000000 0.2842633707
0.0000000000 0.0901808194 0.2608743420
0.0484748608 0.0848340581 0.2612954910
0.2734660868 0.1015640497 0.2842206455
0.5422842756 0.0896986343 0.3081834134
0.7014297704 0.0705333028 0.3054428931
0.7431418326 0.1088212406 0.3038681621
0.0000000000 0.2757488365 0.3063157092
0.0000000000 0.2583413443 0.2808575570
0.2749919890 0.2819378958 0.2995468070
0.5691340505 0.3022812238 0.3179674983
0.7786099031 0.3171862364 0.3382497902
0.8392736706 0.3346730755 0.3380666819
0.0000000000 0.5000808728 0.3664362554
0.0000000000 0.5139726864 0.3371572442
0.2684611276 0.5579766537 0.3433096818
0.6167055772 0.5894346532 0.3502189670
0.8448645762 0.6135744259 0.3673579004
0.9302357519 0.6304814221 0.3798031586
0.0000000000 0.6542549783 0.3714045930
0.0003295949 0.6780529488 0.3795773251
0.3647882811 0.7354695964 0.3995788510
0.6675852598 0.8097383078 0.4221072709
0.8823224231 0.8400366217 0.4301823453
0.9695124743 0.8585244526 0.4512886244
0.4042175937 0.7216693370 0.2627786679
0.4609201190 0.7363790341 0.2683695735
0.5826108186 0.7744838636 0.2996993973
0.7528709850 0.8283665217 0.3674860761
0.8966842145 0.8804119936 0.4680918593
0.9694209201 0.9187914855 0.5896421759
0.0167055772 0.0715953307 0.3879697871
0.0832776379 0.0657114519 0.4231998169
0.2741069657 0.0609933623 0.4672800793
0.5145311666 0.0021362631 0.4916212711
0.6802746624 0.0000000000 0.4904310674
0.7174578470 0.0000000000 0.4780590524
0.0000000000 0.1177508202 0.4283695735
0.0451911192 0.0979262989 0.4502998398
0.2870527199 0.1029739834 0.4943038071
0.5489677272 0.0898451209 0.5183093004
0.7135088121 0.0681528954 0.5163073167
0.7618493935 0.1133989471 0.5206897078
0.0000000000 0.2913435569 0.4849195087
0.0000000000 0.2880476081 0.5010147250
0.2803753719 0.3089524681 0.5366384375
0.5875791562 0.3262623026 0.5642389563
0.7860990311 0.3307179370 0.5778316930
0.8436682689 0.3440665293 0.5721309224
0.0000000000 0.5134630350 0.5383352407
0.0000000000 0.5355703059 0.5525383383
0.2249729152 0.5772091249 0.5782711528
0.6067627985 0.6081239033 0.5971557183
0.8406286717 0.6318120089 0.6194583047
0.9243152514 0.6448493172 0.6285465782
0.0000000000 0.6823865110 0.5793148699
0.0000000000 0.7041763943 0.5895323110
0.2960677501 0.7628015564 0.6220035096
0.6464667735 0.8308812085 0.6542549783
0.8682780194 0.8572915236 0.6677012284
0.9591607538 0.8771587701 0.6831555657
0.3402639811 0.7552635996 0.5388052186
0.4097413596 0.7700831617 0.5479118029
0.5552971695 0.8074860761 0.5748958572
0.7385641260 0.8584512093 0.6230106050
0.8913069352 0.9070481422 0.6924879835
0.9634210727 0.9379018845 0.7606836042
0.0064820325 0.1460227359 0.4790295262
0.1003860533 0.1496360723 0.4920607309
0.2594460975 0.1556359197 0.5163134203
0.4593636988 0.1565209430 0.5358083467
0.6305241474 0.1469626917 0.5419180591
0.7551659419 0.1664576181 0.5540276188
0.0000000000 0.1778347448 0.4983840696
0.0856153201 0.1828519112 0.5127000839
0.2621072709 0.1922026398 0.5358083467
0.4697642481 0.1956145571 0.5535271229
0.6525825895 0.1925749599 0.5645929656
0.7770107576 0.2183627070 0.5771297780
0.0000000000 0.2990768292 0.5700190738
0.0000000000 0.3028244450 0.5826474403
0.2690043488 0.3162096590 0.6058655680
0.5259021897 0.3376577401 0.6270023651
0.7323811704 0.3652277409 0.6424261845
0.8471229114 0.4004699779 0.6520515755
0.0000000000 0.5104142824 0.6423346304
0.0000000000 0.5441214618 0.6887525750
0.1742336156 0.5898313878 0.7304524300
0.6009338521 0.6252079042 0.7571252003
0.8345738918 0.6485481041 0.7659327077
0.9234790570 0.6688181888 0.7646875715
0.0000000000 0.6955642023 0.7137102312
0.0000000000 0.7206988632 0.7295368887
0.2146334020 0.7814785992 0.7664148928
0.6375188830 0.8383459220 0.7963958190
0.8647135119 0.8699992370 0.8171114672
0.9520622568 0.8866803998 0.8301121538
0.3135912108 0.7819058518 0.7115190356
0.3942259861 0.7970305943 0.7208880751
0.5515434501 0.8329869535 0.7433920806
0.7433920806 0.8808026246 0.7776699474
0.8953047990 0.9244800488 0.8272861830
0.9604364080 0.9499076829 0.8698344396
0.0000000000 0.2032196536 0.5174486915
0.0863660639 0.2068513008 0.5278187228
0.2318760967 0.2145296407 0.5454276341
0.3968871595 0.2184664683 0.5602655070
0.5660395209 0.2131441215 0.5679133288
0.7091020066 0.2195468070 0.5783932250
0.0000000000 0.2272861830 0.5346486610
0.0798779278 0.2310826276 0.5432669566
0.2317906462 0.2377294575 0.5592950332
0.4024475471 0.2443152514 0.5741756313
0.5735896849 0.2456031128 0.5833859770
0.7324422065 0.2723857481 0.6010376135
0.0000000000 0.3125169757 0.5878233005
0.0160097658 0.3125291829 0.5922667277
0.2386877241 0.3192858778 0.6061158160
0.4317998016 0.3424917983 0.6266666667
0.6425421530 0.3926634623 0.6550850690
0.7992828260 0.4437445640 0.6782421607
0.0000000000 0.5149309529 0.6987197681
0.0000000000 0.5284107729 0.7093705653
0.3180224308 0.5611749447 0.7310261692
0.5798458839 0.6042725261 0.7515342947
0.7693446250 0.6507576104 0.7693690394
0.8820294499 0.6917555505 0.7819790951
0.0000000000 0.7128923476 0.7834256504
0.0000000000 0.7421225299 0.8035309377
0.3070847639 0.7962737469 0.8350072480
0.6635202564 0.8415930419 0.8522682536
0.8671000229 0.8721416037 0.8611734188
0.9375234607 0.8907026780 0.8657328145
0.3065537499 0.8025177386 0.8111848631
0.3767330434 0.8153047990 0.8175631342
0.5555901427 0.8519813840 0.8366124971
0.7600000000 0.8983810178 0.8641824979
0.9021164263 0.9358449683 0.8911360342
0.9591363394 0.9541008621 0.9047531853
