LUTs/SPK Cube Block1 S16/TheBrim_SPK_Type-J_Block 1_S16.cube
TITLE "TheBrim® Industrial Imaging Burau"
# © Copyright 2022 - TheBrim® d.o.o. Croatia
LUT_3D_SIZE 6
0.0000000000 0.0000000000 0.0000000000
0.1985503929 0.0000000000 0.0000000000
0.4763744564 0.0000000000 0.0000305180
0.7541283284 0.0000000000 0.0000305180
1.0000000000 0.0000000000 0.0000915541
1.0000000000 0.0000000000 0.0000915541
0.0000000000 0.1989166094 0.0217105364
0.1949492638 0.1988677806 0.0145021744
0.4759838254 0.1984405280 0.0068543526
0.7540184634 0.1984588388 0.0015808347
1.0000000000 0.1984710460 0.0000915541
1.0000000000 0.1984710460 0.0000915541
0.0000000000 0.4771374075 0.0497383078
0.1835599298 0.4772106508 0.0427496757
0.4686778058 0.4768871595 0.0334294652
0.7520347906 0.4764049744 0.0250125887
0.9992004273 0.4762767987 0.0193789578
0.9992004273 0.4762767987 0.0193789578
0.0000000000 0.7553429465 0.0706187533
0.1826626993 0.7553734646 0.0657358663
0.4422674907 0.7551171130 0.0635568780
0.7423239490 0.7547997253 0.0536873426
0.9949217975 0.7544213016 0.0452948806
0.9949217975 0.7544213016 0.0452948806
0.0000000000 1.0000000000 0.0706187533
0.1825894560 1.0000000000 0.0657053483
0.4420965896 1.0000000000 0.0657053483
0.7037491417 1.0000000000 0.0657053483
0.9846494240 1.0000000000 0.0657053483
0.9846494240 1.0000000000 0.0657053483
0.0000000000 1.0000000000 0.0706187533
0.1825894560 1.0000000000 0.0657053483
0.4420965896 1.0000000000 0.0657053483
0.7037491417 1.0000000000 0.0657053483
0.9846494240 1.0000000000 0.0657053483
0.9846494240 1.0000000000 0.0657053483
0.0062439918 0.0000000000 0.1554528115
0.1693018997 0.0000000000 0.1553856718
0.4279667353 0.0000000000 0.1615014878
0.7027603571 0.0000000000 0.1683497368
0.9908567941 0.0000000000 0.1754360266
1.0000000000 0.0000000000 0.1825040055
0.0000000000 0.1672693980 0.1711879149
0.1671778439 0.1671778439 0.1671778439
0.4416327153 0.1581567102 0.1512413214
0.7188372625 0.1562951095 0.1446799420
0.9956542306 0.1601464866 0.1479575799
1.0000000000 0.1693018997 0.1564415961
0.0000000000 0.4288761730 0.2058258946
0.1403952087 0.4374273289 0.1850125887
0.4263370718 0.4327641718 0.1687220569
0.7080766003 0.4300480659 0.1596765087
0.9898374914 0.4338872358 0.1570214389
0.9996581979 0.4430548562 0.1660303655
0.0000000000 0.7057633326 0.2396215763
0.1395712215 0.7151445792 0.2128145266
0.3979369802 0.7105302510 0.1982513161
0.6989822232 0.7101884489 0.1883146410
0.9861814298 0.7132341497 0.1838529030
0.9959899290 0.7225177386 0.1929228656
0.0000000000 0.9932005798 0.2468909743
0.1475547417 0.9956847486 0.2209933623
0.4050904097 0.9930235752 0.2117647059
0.6659678035 0.9929198138 0.2117830167
0.9804135195 0.9954100862 0.2160555428
0.9851010910 0.9999694820 0.2244724193
0.0000000000 1.0000000000 0.2540627146
0.1640405890 1.0000000000 0.2375280385
0.4218142977 1.0000000000 0.2283421073
0.6828747997 1.0000000000 0.2283543145
0.9851316091 1.0000000000 0.2326024262
0.9851804379 1.0000000000 0.2410559243
0.0155886168 0.0000000000 0.3459037156
0.1447348745 0.0000000000 0.3273121233
0.3762691691 0.0000000000 0.3458976120
0.6424505989 0.0000000000 0.3718013275
0.9429983978 0.0000000000 0.4004577707
1.0000000000 0.0000000000 0.4302861067
0.0123903258 0.1327168688 0.3293324178
0.1306111238 0.1182391089 0.3787167163
0.3975951781 0.1081010147 0.3653803311
0.6730540932 0.1076371405 0.3638910506
0.9602655070 0.1173723964 0.3729915312
1.0000000000 0.1376302739 0.3919432364
0.0000000000 0.3723994812 0.3799313344
0.0921034562 0.3833310445 0.3901304646
0.3721858549 0.3721858549 0.3721858549
0.6521065080 0.3684443427 0.3607843137
0.9394888228 0.3741695277 0.3603875792
1.0000000000 0.3943846799 0.3796627756
0.0000000000 0.6451300832 0.4378789960
0.0917250324 0.6615304799 0.4197268635
0.3362600137 0.6524177920 0.3976684215
0.6450690471 0.6524422065 0.3857053483
0.9365163653 0.6580758373 0.3877500572
0.9982909895 0.6782299535 0.4067627985
0.0000000000 0.9521416037 0.4755565728
0.1099992370 0.9601251240 0.4441107805
0.3522575723 0.9498588540 0.4260868238
0.6183779660 0.9496513313 0.4224429694
0.9466727703 0.9597161822 0.4320317388
0.9885313191 0.9798947127 0.4510566873
0.0000000000 1.0000000000 0.5065537499
0.1465659571 1.0000000000 0.4815991455
0.3894712749 1.0000000000 0.4632944228
0.6545662623 1.0000000000 0.4599191272
0.9814938582 1.0000000000 0.4696849012
0.9877622644 1.0000000000 0.4890852216
0.0251651789 0.0000000000 0.5408743420
0.1288349737 0.0000000000 0.4645944915
0.3333669032 0.0000000000 0.4891737240
0.5881345846 0.0000000000 0.5409475853
0.8970931563 0.0000000000 0.6035767147
1.0000000000 0.0000000000 0.6719432364
0.0183352407 0.1011123827 0.4387273976
0.0966140230 0.0673044938 0.5884275578
0.3489066911 0.0517097734 0.5724116884
0.6222659648 0.0516914626 0.5723018235
0.9150621805 0.0672556649 0.5879636835
1.0000000000 0.1000747692 0.6197024491
0.0155153735 0.3161058976 0.5017898833
0.0590829328 0.3200122072 0.5784298466
0.3059372854 0.2947432670 0.5593621729
0.5890562295 0.2951155871 0.5532951858
0.8811017014 0.3109300374 0.5616021973
1.0000000000 0.3444205386 0.5930663005
0.0000000000 0.5823056382 0.5935057603
0.0370428016 0.5995544366 0.6109071489
0.2860517281 0.5836179141 0.5913023575
0.5819760433 0.5819760433 0.5819760433
0.8789349203 0.5965941863 0.5886594949
1.0000000000 0.6295658808 0.6193057145
0.0000000000 0.9041245136 0.6816174563
0.0670725566 0.9118883040 0.6587350271
0.3023849851 0.8949629969 0.6404730297
0.5784908827 0.8953780423 0.6355168994
0.9043747616 0.9122056916 0.6474799725
0.9941344320 0.9445670253 0.6790234226
0.0000000000 1.0000000000 0.7553673610
0.1276508736 1.0000000000 0.7212909133
0.3638178073 1.0000000000 0.7021805142
0.6403326467 1.0000000000 0.6974441138
0.9694087129 1.0000000000 0.7135759518
0.9928770886 1.0000000000 0.7467307546
0.0380987259 0.0000000000 0.8046662089
0.1288044556 0.0000000000 0.6166262303
0.3117784390 0.0000000000 0.6260929274
0.5564995804 0.0000000000 0.7006607156
0.8743999390 0.0000000000 0.8047455558
1.0000000000 0.0000000000 0.9210986496
0.0228458076 0.0793347066 0.5390615702
0.0663706416 0.0272037842 0.8044403754
0.3062668803 0.0063904784 0.7812588693
0.5757442588 0.0065613794 0.7812893874
0.8743633173 0.0272404059 0.8045441367
1.0000000000 0.0712169070 0.8506691081
0.0232181277 0.2705180438 0.5944151980
0.0320317388 0.2577187762 0.7678309300
0.2487708858 0.2234348058 0.7422323949
0.5245471885 0.2234531167 0.7391744869
0.8252658885 0.2481544213 0.7593408103
1.0000000000 0.2971847105 0.8041596094
0.0175295644 0.5292103456 0.7230792706
0.0240665293 0.5381216144 0.8000030518
0.2407690547 0.5108659495 0.7734462501
0.5146074617 0.5040299077 0.7693629358
0.8246555276 0.5296559091 0.7867582208
1.0000000000 0.5794979782 0.8306065461
0.0000000000 0.8662943465 0.8752971695
0.0273624781 0.8662088960 0.8752239261
0.2543434806 0.8415442130 0.8524513619
0.5475089647 0.8421423667 0.8502174411
0.8658243687 0.8658243687 0.8658243687
1.0000000000 0.9154650187 0.9129930571
0.0000000000 1.0000000000 1.0000000000
0.1143572137 1.0000000000 0.9661860075
0.3431265736 1.0000000000 0.9425101091
0.6385809110 1.0000000000 0.9417715724
0.9619378958 1.0000000000 0.9660639353
1.0000000000 1.0000000000 1.0000000000
0.0441901274 0.0000000000 0.9294117647
0.1529503319 0.0000000000 0.8535317006
0.3244556344 0.0000000000 0.8133455406
0.5643976501 0.0000000000 0.8967574578
0.8881574731 0.0000000000 0.9294117647
1.0000000000 0.0000000000 0.9294117647
0.0292851148 0.0758983749 0.6838941024
0.0468635080 0.0026367590 0.9294117647
0.2750835431 0.0000000000 0.9294117647
0.5420950637 0.0000000000 0.9294117647
0.8457495995 0.0039307240 0.9294117647
1.0000000000 0.0581918059 0.9293812467
0.0290043488 0.2464515145 0.6987930114
0.0403692683 0.2055268177 0.9295643549
0.2065583276 0.1622888533 0.9295094224
0.4767040513 0.1622522316 0.9295094224
0.7815213245 0.1969573510 0.9295399405
1.0000000000 0.2644388495 0.9290333410
0.0306706340 0.4988113222 0.8577981231
0.0372198062 0.4890272374 0.9595025559
0.2010955978 0.4526741436 0.9550774395
0.4650400549 0.4425482567 0.9523857481
0.7781094072 0.4762767987 0.9509391928
1.0000000000 0.5443778134 0.9520805676
0.0010254063 0.8519264515 0.9997802701
0.0096864271 0.8342992294 0.9990234226
0.2424170291 0.7997772183 0.9947142748
0.5167376211 0.7968902113 0.9900267033
0.8360265507 0.8303501946 0.9860410468
1.0000000000 0.8991927977 0.9886533913
0.0000000000 1.0000000000 1.0000000000
0.1158342870 1.0000000000 1.0000000000
0.3369314107 1.0000000000 1.0000000000
0.6358770123 1.0000000000 1.0000000000
0.9645502403 1.0000000000 1.0000000000
1.0000000000 1.0000000000 1.0000000000
