LUTs/SPK Cube Block1 S16/TheBrim_SPK_Type-T_Block1_S16.cube
TITLE "TheBrim® SPK Block 1"
# TheBrim® d.o.o. Croatia
# Copyright: (C) Copyright 2020 TheBrim® d.o.o. Croatia
LUT_3D_SIZE 6
0.0000000000 0.0000000000 0.0000000000
0.0422548000 0.0102480000 0.0054386000
0.2155576000 0.0244324000 0.0101620000
0.5065732000 0.0308658000 0.0238710000
0.6983032000 0.0158878000 0.0277770000
0.7700200000 0.0167850000 0.0353390000
0.0189940000 0.0459904000 0.0158574000
0.0441344000 0.0420714000 0.0126404000
0.2126096000 0.0481570000 0.0107178000
0.5048338000 0.0490050000 0.0250796000
0.6999878000 0.0315182000 0.0299194000
0.7738528000 0.0327760000 0.0382510000
0.0563962000 0.2006286000 0.0586546000
0.0790652000 0.2086916000 0.0611086000
0.2086428000 0.1779292000 0.0267640000
0.4950436000 0.1719302000 0.0247744000
0.6861690000 0.1652036000 0.0352538000
0.7596986000 0.1646488000 0.0375242000
0.0621030000 0.4399718000 0.1114992000
0.0839662000 0.4550474000 0.1154788000
0.2402100000 0.4364870000 0.0814576000
0.4928220000 0.3835880000 0.0348506000
0.6712344000 0.3850036000 0.0408876000
0.7416324000 0.3876160000 0.0420536000
0.1046694000 0.5895078000 0.1580196000
0.1343020000 0.6028750000 0.1639586000
0.2823304000 0.5925412000 0.1306944000
0.5129944000 0.5323428000 0.0486572000
0.6689578000 0.5085818000 0.0391542000
0.7358946000 0.5094238000 0.0415408000
0.1380920000 0.6480410000 0.1815800000
0.1762450000 0.6619934000 0.1895260000
0.3039670000 0.6500122000 0.1564394000
0.5228392000 0.5894352000 0.0575742000
0.6734374000 0.5574460000 0.0443730000
0.7355040000 0.5552670000 0.0421450000
0.0118166000 0.0076664000 0.0542788000
0.0304990000 0.0104734000 0.0355528000
0.1996824000 0.0252136000 0.0225528000
0.4825380000 0.0315246000 0.0332032000
0.6707398000 0.0192016000 0.0364076000
0.7465762000 0.0173036000 0.0422300000
0.0197146000 0.0394956000 0.0410826000
0.0613040000 0.0664062000 0.0627076000
0.2236386000 0.0672364000 0.0401488000
0.5167418000 0.0554198000 0.0422120000
0.7084842000 0.0424864000 0.0487428000
0.7798276000 0.0381530000 0.0544010000
0.0557556000 0.1910646000 0.0815978000
0.0905094000 0.2151304000 0.1021056000
0.2270694000 0.2074828000 0.0747622000
0.5121890000 0.1953922000 0.0484010000
0.7015078000 0.1916992000 0.0524112000
0.7744934000 0.1937866000 0.0510926000
0.0587100000 0.4235656000 0.1341614000
0.0888060000 0.4559140000 0.1552124000
0.2673464000 0.4729128000 0.1518128000
0.5128662000 0.4153140000 0.0746278000
0.6883240000 0.4143674000 0.0613162000
0.7571840000 0.4153076000 0.0549442000
0.0974730000 0.5764164000 0.1807192000
0.1425964000 0.6067264000 0.2048948000
0.3115846000 0.6272704000 0.2140258000
0.5354248000 0.5673096000 0.1039488000
0.6874326000 0.5400206000 0.0729674000
0.7532410000 0.5400756000 0.0658754000
0.1238586000 0.6368468000 0.2041624000
0.1793034000 0.6635738000 0.2284548000
0.3329530000 0.6828186000 0.2388000000
0.5458558000 0.6244626000 0.1251038000
0.6925354000 0.5898378000 0.0784120000
0.7532346000 0.5861634000 0.0694092000
0.0229436000 0.0099674000 0.2335386000
0.0336550000 0.0091370000 0.2156126000
0.1347470000 0.0178222000 0.1397522000
0.3938232000 0.0424500000 0.1119692000
0.5799316000 0.0225280000 0.1021300000
0.6542176000 0.0213438000 0.1001708000
0.0265868000 0.0423952000 0.2238894000
0.0408142000 0.0624330000 0.2429380000
0.1696106000 0.0792602000 0.1731692000
0.4320434000 0.0768982000 0.1384644000
0.6201904000 0.0546204000 0.1258670000
0.6954100000 0.0477170000 0.1235354000
0.0540526000 0.1660464000 0.1753540000
0.0921324000 0.1893006000 0.1956602000
0.2928958000 0.3011230000 0.2963138000
0.5891844000 0.3017212000 0.2564942000
0.7686948000 0.3001040000 0.2326354000
0.8365298000 0.3012570000 0.2235350000
0.0569338000 0.3884094000 0.2224794000
0.0938476000 0.4175112000 0.2458438000
0.3325622000 0.5430602000 0.3651858000
0.5890198000 0.5316470000 0.3134584000
0.7569152000 0.5265318000 0.2787658000
0.8223022000 0.5255858000 0.2668518000
0.0810974000 0.5386538000 0.2662294000
0.1197632000 0.5695252000 0.2917174000
0.3685732000 0.6821290000 0.4114504000
0.6098878000 0.6792176000 0.3721862000
0.7548402000 0.6495726000 0.3152708000
0.8176328000 0.6481564000 0.3024536000
0.0898928000 0.5931822000 0.2829226000
0.1439880000 0.6253476000 0.3105410000
0.3858828000 0.7329342000 0.4294986000
0.6195310000 0.7324460000 0.3955382000
0.7592104000 0.6985716000 0.3338438000
0.8170898000 0.6925658000 0.3166440000
0.0017700000 0.0097472000 0.4852108000
0.0103514000 0.0104124000 0.4677064000
0.0710204000 0.0129332000 0.3666140000
0.3099364000 0.0323670000 0.2344968000
0.4853334000 0.0364378000 0.2190368000
0.5558656000 0.0296206000 0.2124266000
0.0045652000 0.0355528000 0.4625670000
0.0075318000 0.0484740000 0.4840210000
0.0715270000 0.0699220000 0.4200804000
0.3514342000 0.0873228000 0.2733156000
0.5274840000 0.0719726000 0.2490842000
0.6014950000 0.0609374000 0.2426574000
0.0171998000 0.1579286000 0.3914246000
0.0230348000 0.1791016000 0.4161928000
0.1945250000 0.2882932000 0.5410646000
0.5092222000 0.3214660000 0.4315554000
0.6878968000 0.3223450000 0.4033080000
0.7573426000 0.3233520000 0.3937012000
0.0570068000 0.3418764000 0.3468018000
0.0873414000 0.3707274000 0.3730102000
0.3333254000 0.5063232000 0.4945132000
0.6681640000 0.6590518000 0.6270020000
0.8301328000 0.6510440000 0.5918456000
0.8923280000 0.6490840000 0.5790038000
0.0579100000 0.4892824000 0.3867310000
0.0998534000 0.5201232000 0.4139102000
0.3622742000 0.6475646000 0.5323852000
0.6901978000 0.7957030000 0.6751712000
0.8252502000 0.7702452000 0.6236574000
0.8850280000 0.7680666000 0.6102964000
0.0600100000 0.5430118000 0.4006222000
0.1156980000 0.5778994000 0.4316832000
0.3773804000 0.6985962000 0.5476134000
0.6994996000 0.8438840000 0.6912354000
0.8290894000 0.8182248000 0.6406798000
0.8837768000 0.8104006000 0.6224730000
0.0000000000 0.0041994000 0.6555238000
0.0069702000 0.0086550000 0.6440064000
0.0347964000 0.0159544000 0.5525756000
0.2700074000 0.0294370000 0.3701538000
0.4220946000 0.0358158000 0.3065860000
0.4928592000 0.0307068000 0.2969118000
0.0000490000 0.0236020000 0.6351256000
0.0069702000 0.0354922000 0.6562196000
0.0362120000 0.0626098000 0.6065124000
0.3065674000 0.0819642000 0.4205444000
0.4668396000 0.0776548000 0.3490238000
0.5382690000 0.0682492000 0.3369140000
0.0008302000 0.1502378000 0.5598632000
0.0075194000 0.1694336000 0.5824036000
0.0953004000 0.2759156000 0.6919066000
0.4624756000 0.3197144000 0.5922364000
0.6310362000 0.3276488000 0.5170470000
0.7011228000 0.3296694000 0.5049500000
0.0218994000 0.3325990000 0.4748720000
0.0489566000 0.3604310000 0.5011598000
0.2967286000 0.4982604000 0.6257262000
0.6557982000 0.6780272000 0.7843872000
0.8160278000 0.6880858000 0.7285520000
0.8783566000 0.6878966000 0.7186462000
0.0556088000 0.4529114000 0.4704164000
0.0935728000 0.4862978000 0.5001770000
0.3636538000 0.6204958000 0.6182558000
0.7056150000 0.7942872000 0.7710326000
0.8711182000 0.8472478000 0.8088260000
0.9288570000 0.8445008000 0.7967956000
0.0633848000 0.5138058000 0.4895874000
0.1092838000 0.5447878000 0.5170286000
0.3741332000 0.6731502000 0.6309024000
0.7137390000 0.8410708000 0.7820190000
0.8752750000 0.8941714000 0.8236756000
0.9272156000 0.8858338000 0.8064516000
0.0000000000 0.0024110000 0.7378230000
0.0069702000 0.0036986000 0.7211670000
0.0338810000 0.0100586000 0.6385440000
0.2374332000 0.0227050000 0.4581908000
0.3894102000 0.0335262000 0.3622802000
0.4599000000 0.0313420000 0.3485110000
0.0000000000 0.0194150000 0.7181276000
0.0069702000 0.0341552000 0.7379088000
0.0345032000 0.0523194000 0.6910832000
0.2727114000 0.0714908000 0.5095884000
0.4353028000 0.0800900000 0.4109194000
0.5043210000 0.0722292000 0.3918518000
0.0001102000 0.1458314000 0.6454954000
0.0072024000 0.1647768000 0.6664610000
0.0700440000 0.2713380000 0.7660584000
0.4362242000 0.3160644000 0.6804444000
0.5994874000 0.3296756000 0.5812804000
0.6702206000 0.3307188000 0.5633426000
0.0126526000 0.3315672000 0.5560360000
0.0244326000 0.3599792000 0.5819638000
0.2679994000 0.4960694000 0.7019834000
0.6357362000 0.6756838000 0.8543520000
0.7906554000 0.6909668000 0.7839724000
0.8531374000 0.6919558000 0.7693728000
0.0465636000 0.4468196000 0.5236936000
0.0934570000 0.4811950000 0.5541014000
0.3584962000 0.6128904000 0.6682186000
0.7029174000 0.7867862000 0.8159362000
0.8863278000 0.8762026000 0.8850890000
0.9443178000 0.8760620000 0.8748600000
0.0553590000 0.4944760000 0.5299680000
0.1115842000 0.5310970000 0.5619260000
0.3775760000 0.6589292000 0.6727904000
0.7154600000 0.8302734000 0.8194212000
0.8972718000 0.9236204000 0.8990234000
0.9500430000 0.9226070000 0.8904110000
