LUTs/SPK Cube Block1 S16/TheBrim_SPK_Type-A_Block1_S16.cube
TITLE "TheBrim® Industrial Imaging Burau"
# © Copyright 2022 - TheBrim® d.o.o. Croatia
LUT_3D_SIZE 16
DOMAIN_MIN 0.000000 0.000000 0.000000
DOMAIN_MAX 1.000000 1.000000 1.000000
0.004913 0.003448 0.003296
0.006659 0.005572 0.005615
0.010144 0.006421 0.006018
0.021137 0.008270 0.006573
0.064325 0.011603 0.007575
0.131561 0.007782 0.004486
0.208618 0.002912 0.001153
0.311133 0.000000 0.000000
0.426227 0.000000 0.000000
0.519458 0.000000 0.000000
0.583527 0.000000 0.000000
0.621057 0.000000 0.000000
0.643469 0.000000 0.000000
0.664978 0.000000 0.000000
0.674896 0.000000 0.000000
0.681183 0.000000 0.006104
0.006171 0.008496 0.007489
0.006878 0.008307 0.007123
0.010437 0.008917 0.007116
0.022687 0.010834 0.007593
0.070276 0.015998 0.008161
0.137592 0.018573 0.006293
0.220855 0.014490 0.002594
0.312341 0.000000 0.000000
0.425891 0.000000 0.000000
0.520368 0.000000 0.000000
0.594659 0.000000 0.000000
0.638135 0.000000 0.000000
0.665625 0.000000 0.000000
0.686401 0.000000 0.000000
0.696185 0.000000 0.000000
0.702527 0.000000 0.002050
0.005713 0.015063 0.011896
0.006403 0.015527 0.011871
0.009637 0.016675 0.011713
0.021057 0.020135 0.011914
0.066473 0.028614 0.012250
0.139715 0.037335 0.009826
0.229223 0.039575 0.005646
0.329914 0.030035 0.000604
0.446441 0.010401 0.000000
0.542749 0.000000 0.000000
0.624023 0.000000 0.000000
0.672333 0.000000 0.000000
0.697675 0.000000 0.000000
0.711432 0.002332 0.000000
0.720471 0.019141 0.000000
0.728436 0.046979 0.000000
0.002869 0.029486 0.020533
0.003455 0.030554 0.020642
0.006659 0.033130 0.020813
0.017688 0.037164 0.019666
0.055811 0.047254 0.018116
0.129578 0.062799 0.015765
0.226001 0.073187 0.011408
0.338458 0.077447 0.003113
0.462164 0.077246 0.000000
0.569220 0.073383 0.000000
0.651752 0.072693 0.000000
0.705310 0.083917 0.000000
0.730725 0.094208 0.000000
0.745795 0.108746 0.000000
0.756116 0.135852 0.000000
0.764172 0.154541 0.000000
0.000000 0.057397 0.034558
0.000000 0.057690 0.034235
0.000000 0.060473 0.035120
0.009277 0.066864 0.035437
0.038837 0.072986 0.032196
0.111615 0.088410 0.029248
0.216504 0.109765 0.023089
0.344391 0.128912 0.013678
0.478192 0.141315 0.000000
0.586121 0.150512 0.000000
0.681128 0.163397 0.000000
0.737311 0.175415 0.000000
0.765125 0.187896 0.000000
0.782050 0.200885 0.000000
0.789386 0.216644 0.000000
0.795776 0.230548 0.000000
0.000000 0.096863 0.066833
0.000000 0.097296 0.066424
0.000000 0.098236 0.065814
0.000000 0.103778 0.065344
0.015509 0.112848 0.063885
0.085480 0.122162 0.055206
0.193072 0.149146 0.049762
0.345966 0.180529 0.032386
0.485266 0.206604 0.014478
0.609815 0.225897 0.000000
0.712738 0.250122 0.000000
0.772888 0.264050 0.000000
0.801483 0.277368 0.000000
0.818988 0.288153 0.000000
0.826666 0.302038 0.000000
0.832428 0.314789 0.000000
0.000000 0.149902 0.112451
0.000000 0.150403 0.112176
0.000000 0.151349 0.111218
0.000000 0.153931 0.111109
0.000000 0.166669 0.110413
0.044598 0.190002 0.109314
0.170270 0.204016 0.090680
0.334064 0.243304 0.072143
0.498431 0.279468 0.041376
0.632818 0.310925 0.012903
0.740649 0.334027 0.000000
0.802301 0.350695 0.000000
0.836597 0.365082 0.000000
0.855810 0.378699 0.000000
0.860932 0.383643 0.000000
0.865313 0.394000 0.000000
0.000000 0.222547 0.173059
0.000000 0.222882 0.172302
0.000000 0.224194 0.171241
0.000000 0.224774 0.168225
0.000000 0.236889 0.168725
0.000000 0.262726 0.168708
0.150153 0.296118 0.160059
0.312396 0.319928 0.135187
0.500366 0.362945 0.100824
0.655340 0.398316 0.053198
0.770881 0.431738 0.011933
0.835846 0.451001 0.000000
0.871814 0.462897 0.000000
0.891553 0.474426 0.000000
0.899689 0.482098 0.000000
0.905090 0.496179 0.000000
0.000000 0.307965 0.239300
0.000000 0.307965 0.237469
0.000000 0.309662 0.237177
0.000000 0.309461 0.232129
0.000000 0.312415 0.227765
0.000000 0.347876 0.234173
0.056634 0.399207 0.229931
0.325165 0.433502 0.201178
0.492755 0.457098 0.165295
0.669025 0.496234 0.111517
0.796771 0.525147 0.037494
0.860834 0.545886 0.000000
0.903339 0.562713 0.000000
0.926355 0.575531 0.000000
0.934668 0.583472 0.000000
0.938147 0.591358 0.000000
0.000000 0.389533 0.297882
0.000000 0.389569 0.297260
0.000000 0.391046 0.298834
0.000000 0.392511 0.298114
0.000000 0.394452 0.294019
0.000000 0.425555 0.295386
0.000000 0.486896 0.293683
0.303229 0.549945 0.282159
0.507477 0.576660 0.233636
0.673602 0.590399 0.170093
0.811689 0.626581 0.104840
0.883673 0.639099 0.003540
0.931433 0.661792 0.000000
0.953418 0.668127 0.000000
0.960065 0.668262 0.000000
0.962311 0.669019 0.000000
0.000000 0.445496 0.344574
0.000000 0.445178 0.343445
0.000000 0.446204 0.343213
0.000000 0.449273 0.341937
0.000000 0.453510 0.337561
0.000000 0.476471 0.338470
0.000000 0.553339 0.352546
0.244586 0.624695 0.346496
0.518444 0.667169 0.301544
0.698187 0.690369 0.237702
0.818176 0.698303 0.160614
0.904589 0.719611 0.055566
0.947699 0.727850 0.000000
0.966974 0.727051 0.000000
0.975189 0.726166 0.000000
0.978424 0.724365 0.000000
0.000000 0.468531 0.359393
0.000000 0.470392 0.359449
0.000000 0.474035 0.359644
0.000000 0.479566 0.359686
0.000000 0.489465 0.360516
0.000000 0.521460 0.365106
0.000000 0.606476 0.387958
0.232068 0.684259 0.392774
0.539520 0.735522 0.358423
0.720941 0.762836 0.309235
0.849274 0.771997 0.216077
0.908972 0.770294 0.133264
0.954517 0.776056 0.024152
0.975476 0.771350 0.000000
0.985791 0.769879 0.000000
0.991803 0.774646 0.000000
0.000000 0.483221 0.359992
0.000000 0.485358 0.360315
0.000000 0.489312 0.360425
0.000000 0.497992 0.360785
0.000000 0.537042 0.371558
0.000000 0.599225 0.390930
0.029358 0.662164 0.401593
0.368811 0.717926 0.402350
0.573273 0.760810 0.380029
0.727143 0.789795 0.340790
0.848761 0.804712 0.270593
0.913715 0.805243 0.185437
0.954138 0.800409 0.055896
0.979925 0.800989 0.000000
0.992517 0.801318 0.000000
0.997174 0.796857 0.000000
0.000000 0.499463 0.360852
0.000000 0.506342 0.362512
0.000000 0.522943 0.367004
0.000000 0.554859 0.377423
0.000000 0.600324 0.391064
0.000000 0.647259 0.400213
0.278785 0.700916 0.403778
0.474970 0.738556 0.392163
0.631201 0.774768 0.373248
0.752991 0.794635 0.334131
0.857178 0.812873 0.281549
0.917480 0.819141 0.217523
0.958752 0.825006 0.160834
0.982977 0.821051 0.000000
0.995239 0.815100 0.000000
1.000000 0.812201 0.000000
0.000000 0.568554 0.382135
0.000000 0.578223 0.384882
0.000000 0.596106 0.389966
0.000000 0.620551 0.395917
0.000000 0.652008 0.400873
0.216596 0.690832 0.403284
0.410065 0.725586 0.399994
0.563226 0.758093 0.380725
0.695917 0.786096 0.355469
0.785242 0.799811 0.318439
0.866602 0.814337 0.277405
0.921179 0.819684 0.211591
0.956970 0.825806 0.177350
0.978601 0.827191 0.096204
0.992865 0.829712 0.046435
0.999036 0.833331 0.074756
0.000000 0.634583 0.398376
0.000000 0.642109 0.399359
0.000000 0.655524 0.401379
0.112561 0.677246 0.402289
0.293714 0.703082 0.403625
0.406891 0.724976 0.400421
0.515631 0.747394 0.387005
0.643878 0.777698 0.371497
0.734662 0.791736 0.340936
0.820575 0.806586 0.301635
0.877502 0.815338 0.269287
0.926745 0.820477 0.202155
0.957794 0.825916 0.175354
0.977905 0.827282 0.101154
0.991241 0.826123 0.003894
0.997650 0.829315 0.006134
0.005829 0.006091 0.007087
0.006372 0.005982 0.006989
0.008380 0.006317 0.006994
0.016492 0.008111 0.008343
0.052899 0.010730 0.009162
0.121100 0.006763 0.006268
0.197320 0.004169 0.004834
0.297406 0.000000 0.001667
0.417011 0.000000 0.000000
0.512732 0.000000 0.000000
0.578723 0.000000 0.000000
0.618835 0.000000 0.000000
0.639783 0.000000 0.000000
0.663111 0.000000 0.006677
0.673334 0.000000 0.022699
0.681323 0.000000 0.035559
0.005811 0.007446 0.007642
0.006177 0.006726 0.006836
0.009344 0.007483 0.007050
0.022778 0.010034 0.008453
0.070032 0.014374 0.009460
0.139087 0.015552 0.008539
0.219989 0.010266 0.005097
0.311316 0.000000 0.000946
0.427667 0.000000 0.000000
0.518793 0.000000 0.000000
0.591760 0.000000 0.000000
0.632837 0.000000 0.000000
0.663208 0.000000 0.000165
0.690509 0.000000 0.018445
0.700403 0.000000 0.034161
0.706653 0.000000 0.045429
0.005426 0.013770 0.011407
0.005896 0.014075 0.011517
0.008758 0.014966 0.011334
0.022070 0.018701 0.012018
0.072589 0.027698 0.013165
0.147223 0.035986 0.011932
0.233203 0.035290 0.007556
0.330176 0.026496 0.001361
0.448322 0.005908 0.000000
0.544324 0.000000 0.000000
0.624005 0.000000 0.000000
0.668897 0.000000 0.000000
0.695618 0.000000 0.000372
0.713477 0.001166 0.008228
0.724103 0.020569 0.029559
0.733410 0.051953 0.047290
0.002368 0.029218 0.020807
0.002832 0.029907 0.020868
0.005133 0.032159 0.020953
0.017608 0.036304 0.019660
0.060431 0.047040 0.018933
0.136175 0.061737 0.016766
0.230799 0.070721 0.011536
0.340460 0.074347 0.003498
0.464197 0.072858 0.000000
0.571484 0.067254 0.000000
0.652185 0.064355 0.000000
0.703833 0.076245 0.000000
0.729089 0.085767 0.000000
0.747235 0.108472 0.001825
0.760516 0.140308 0.027997
0.770703 0.163055 0.056787
0.000000 0.057208 0.035071
0.000000 0.057379 0.034564
0.000000 0.059155 0.034748
0.007635 0.065271 0.035248
0.038922 0.071942 0.031623
0.115119 0.087201 0.028015
0.220215 0.108154 0.021850
0.347418 0.126532 0.012756
0.479223 0.137683 0.000000
0.588885 0.147363 0.000000
0.681763 0.159680 0.000000
0.737116 0.170905 0.000000
0.764557 0.185138 0.000000
0.782837 0.199671 0.000983
0.792706 0.219727 0.018067
0.800647 0.237433 0.039691
0.000000 0.096222 0.066535
0.000000 0.096723 0.066626
0.000000 0.097357 0.065924
0.000000 0.102301 0.065210
0.012982 0.111749 0.063550
0.085767 0.121015 0.054321
0.195649 0.148407 0.048529
0.347803 0.179217 0.030694
0.487305 0.204676 0.013568
0.610883 0.222754 0.000000
0.713056 0.246900 0.000000
0.772351 0.260193 0.000000
0.800757 0.273883 0.000000
0.818957 0.286426 0.000000
0.828925 0.305145 0.002600
0.836188 0.321728 0.035419
0.000000 0.149682 0.112549
0.000000 0.150287 0.112262
0.000000 0.151111 0.111230
0.000000 0.153174 0.110736
0.000000 0.165997 0.110230
0.045270 0.189136 0.108527
0.171131 0.203028 0.089508
0.335480 0.242358 0.071161
0.499811 0.277881 0.039655
0.634387 0.309417 0.011853
0.740357 0.330762 0.000000
0.802374 0.348450 0.000000
0.835889 0.361695 0.000000
0.855023 0.375921 0.000000
0.862134 0.385681 0.000000
0.868731 0.402039 0.000000
0.000000 0.222345 0.172974
0.000000 0.222589 0.172156
0.000000 0.223712 0.170832
0.000000 0.224194 0.167792
0.000000 0.236176 0.168274
0.000000 0.261993 0.167981
0.153198 0.295105 0.158533
0.314081 0.319000 0.134058
0.501825 0.361340 0.099420
0.655719 0.396210 0.051343
0.770984 0.429443 0.009735
0.835730 0.447815 0.000000
0.871124 0.459753 0.000000
0.890717 0.471600 0.000000
0.899371 0.481580 0.000000
0.907422 0.503955 0.000000
0.000000 0.307758 0.239239
0.000000 0.307745 0.237408
0.000000 0.309338 0.237060
0.000000 0.309192 0.231952
0.000000 0.312354 0.227625
0.000000 0.347467 0.233679
0.060028 0.398139 0.228869
0.327368 0.432361 0.199914
0.493378 0.455927 0.164063
0.669635 0.494562 0.109656
0.796936 0.523425 0.037012
0.860876 0.543921 0.000000
0.903259 0.561102 0.000000
0.925904 0.573358 0.000000
0.935010 0.584381 0.000000
0.939868 0.599384 0.000000
0.000000 0.389398 0.297833
0.000000 0.389367 0.297143
0.000000 0.390717 0.298682
0.000000 0.392188 0.297900
0.000000 0.394171 0.293860
0.000000 0.426093 0.295355
0.000000 0.487225 0.293494
0.304596 0.549390 0.281623
0.509247 0.575531 0.232001
0.673358 0.588910 0.169440
0.811865 0.625214 0.103534
0.883935 0.637909 0.002838
0.931567 0.660877 0.000000
0.953394 0.667133 0.000000
0.960193 0.668347 0.000000
0.962677 0.673804 0.000000
0.000000 0.445721 0.344733
0.000000 0.445337 0.343591
0.000000 0.446405 0.343414
0.000000 0.449249 0.341961
0.000000 0.453406 0.337348
0.000000 0.476813 0.338446
0.000000 0.553589 0.352374
0.247547 0.624780 0.345990
0.519910 0.666773 0.300843
0.698663 0.689465 0.236688
0.818854 0.697766 0.159454
0.905151 0.718732 0.052112
0.947894 0.727026 0.000000
0.967035 0.726568 0.000000
0.975159 0.725861 0.000000
0.978467 0.727716 0.000000
0.000000 0.468738 0.359448
0.000000 0.470563 0.359473
0.000000 0.474213 0.359638
0.000000 0.479681 0.359668
0.000000 0.489655 0.360492
0.000000 0.521960 0.365228
0.000000 0.607312 0.388098
0.235101 0.684717 0.392767
0.541498 0.735858 0.358112
0.722821 0.763001 0.308233
0.849823 0.771759 0.215045
0.909656 0.770246 0.132465
0.954834 0.775909 0.023437
0.975653 0.771100 0.000000
0.985876 0.771094 0.000000
0.991674 0.780859 0.000000
0.000000 0.483624 0.360028
0.000000 0.485736 0.360357
0.000000 0.489734 0.360419
0.000000 0.498968 0.360998
0.000000 0.539508 0.372375
0.000000 0.601178 0.391418
0.033807 0.663177 0.401709
0.372791 0.718665 0.402112
0.575348 0.761316 0.379864
0.728040 0.789911 0.340436
0.849469 0.804748 0.269836
0.914361 0.805267 0.184308
0.954456 0.800385 0.054328
0.980206 0.801032 0.000000
0.992407 0.803656 0.000000
0.997009 0.801825 0.000000
0.000000 0.500781 0.361114
0.000000 0.508032 0.362946
0.000000 0.524896 0.367505
0.000000 0.557379 0.378290
0.000000 0.602460 0.391651
0.000000 0.649066 0.400409
0.285065 0.702020 0.403809
0.477142 0.739038 0.391913
0.633264 0.775244 0.372797
0.754682 0.794891 0.333283
0.858215 0.813012 0.281073
0.918170 0.819251 0.216565
0.959143 0.825037 0.159875
0.983215 0.821002 0.000000
0.995154 0.815961 0.000000
0.999890 0.814569 0.000000
0.000000 0.571192 0.383008
0.000000 0.581085 0.385718
0.000000 0.598742 0.390637
0.000000 0.622772 0.396374
0.000000 0.654083 0.401166
0.227856 0.692535 0.403332
0.413989 0.726337 0.399512
0.567279 0.759094 0.380390
0.698242 0.786408 0.354584
0.787903 0.800336 0.317389
0.867707 0.814520 0.277026
0.922113 0.819824 0.210138
0.957263 0.825897 0.177008
0.978491 0.829443 0.138293
0.992474 0.832336 0.102271
0.998449 0.836261 0.104242
0.000000 0.637823 0.398797
0.000000 0.645355 0.399872
0.000000 0.658600 0.401819
0.136877 0.680176 0.402405
0.303827 0.705060 0.403754
0.413269 0.726190 0.399549
0.521582 0.748639 0.386090
0.648206 0.778528 0.370569
0.737768 0.792273 0.339905
0.823456 0.807159 0.300006
0.878839 0.815503 0.268219
0.927588 0.820599 0.200855
0.958197 0.825952 0.174176
0.978149 0.827234 0.099011
0.991351 0.826147 0.003931
0.997204 0.832593 0.081073
0.005548 0.007031 0.010589
0.005987 0.006836 0.010583
0.007001 0.006812 0.010162
0.012445 0.007892 0.010962
0.038830 0.009350 0.012299
0.104279 0.007678 0.010535
0.182007 0.005139 0.009680
0.285138 0.000000 0.009290
0.404486 0.000000 0.005530
0.506689 0.000000 0.006506
0.578174 0.000000 0.009472
0.620740 0.000000 0.010138
0.640118 0.000000 0.019775
0.659173 0.000000 0.035693
0.671472 0.000000 0.054254
0.681232 0.000000 0.070325
0.005310 0.008386 0.012018
0.005633 0.007898 0.011804
0.007269 0.007483 0.010693
0.016126 0.009399 0.011957
0.052075 0.012341 0.013263
0.121460 0.013843 0.012933
0.200672 0.011340 0.011688
0.295545 0.000000 0.009326
0.410516 0.000000 0.004742
0.510620 0.000000 0.004767
0.583295 0.000000 0.007819
0.627985 0.000000 0.010132
0.656818 0.000000 0.026343
0.687079 0.000000 0.052832
0.698157 0.000000 0.071289
0.706744 0.000000 0.086157
0.004730 0.013898 0.014996
0.005103 0.013580 0.014624
0.007135 0.014221 0.014874
0.020330 0.018524 0.016937
0.067017 0.027185 0.019312
0.143097 0.036444 0.020691
0.233038 0.036389 0.018671
0.330896 0.026532 0.015698
0.451617 0.002734 0.011627
0.551135 0.000000 0.012348
0.626947 0.000000 0.022480
0.669977 0.000000 0.026947
0.698187 0.000000 0.042975
0.718390 0.002136 0.068531
0.728150 0.024036 0.085834
0.736609 0.055249 0.100433
0.001166 0.029547 0.024200
0.001568 0.029993 0.024274
0.003210 0.031757 0.024811
0.016162 0.037146 0.025641
0.061835 0.049561 0.027917
0.135852 0.064026 0.028448
0.239471 0.073230 0.026886
0.351385 0.078833 0.022443
0.472381 0.074475 0.018787
0.579712 0.064886 0.015363
0.658179 0.063660 0.021570
0.706494 0.070965 0.032184
0.733179 0.083997 0.049780
0.755280 0.118970 0.078271
0.766375 0.148053 0.100867
0.775458 0.169861 0.119361
0.000000 0.058496 0.039240
0.000000 0.058655 0.038989
0.000000 0.059100 0.039111
0.004211 0.064966 0.040149
0.037591 0.073633 0.038458
0.118573 0.089526 0.036163
0.226178 0.110541 0.035333
0.355292 0.128638 0.028430
0.485535 0.138769 0.016229
0.593524 0.146533 0.012128
0.687604 0.158978 0.015228
0.740765 0.172199 0.020868
0.770789 0.190088 0.051605
0.789722 0.209808 0.070203
0.798645 0.229266 0.100745
0.806335 0.246930 0.124695
0.000000 0.095318 0.066132
0.000000 0.095789 0.066205
0.000000 0.096381 0.065613
0.000000 0.100531 0.064954
0.010266 0.110394 0.063183
0.086798 0.120178 0.053912
0.199115 0.148267 0.050232
0.351477 0.178876 0.034759
0.494403 0.203192 0.021076
0.614245 0.220471 0.006872
0.715466 0.245807 0.003564
0.774549 0.259607 0.009711
0.806439 0.280682 0.026349
0.823206 0.293085 0.049347
0.833801 0.314575 0.095678
0.840375 0.330609 0.123901
0.000000 0.149866 0.113501
0.000000 0.150342 0.112793
0.000000 0.150696 0.111237
0.000000 0.152326 0.110181
0.000000 0.164667 0.109686
0.047095 0.187433 0.106885
0.173419 0.201032 0.087024
0.337616 0.240271 0.069433
0.502069 0.275147 0.037604
0.636597 0.307001 0.013782
0.740949 0.327838 0.000000
0.805762 0.349762 0.003802
0.838288 0.364905 0.002033
0.858862 0.383319 0.042828
0.867889 0.400055 0.083936
0.873969 0.416321 0.111298
0.000000 0.222082 0.172943
0.000000 0.222204 0.171997
0.000000 0.223206 0.170526
0.000000 0.223962 0.167761
0.000000 0.235511 0.167932
0.000000 0.260815 0.166925
0.158405 0.293170 0.155731
0.318561 0.317597 0.131573
0.504437 0.358978 0.097119
0.656207 0.392596 0.047943
0.771411 0.426080 0.009021
0.836554 0.446069 0.000000
0.872046 0.460669 0.000000
0.892731 0.476618 0.000000
0.903754 0.496094 0.038562
0.910785 0.517957 0.102276
0.000000 0.307562 0.239221
0.000000 0.307379 0.237396
0.000000 0.309088 0.237018
0.000000 0.308881 0.231683
0.000000 0.312164 0.227380
0.000000 0.347119 0.233063
0.065387 0.397418 0.227850
0.330902 0.430463 0.197839
0.494220 0.453430 0.161651
0.671692 0.492078 0.105963
0.797583 0.521301 0.036096
0.861249 0.541022 0.000000
0.903949 0.561413 0.000000
0.926380 0.575781 0.000000
0.937909 0.598157 0.015351
0.942371 0.614447 0.092243
0.000000 0.389325 0.298004
0.000000 0.389111 0.297070
0.000000 0.390308 0.298511
0.000000 0.391638 0.297620
0.000000 0.393707 0.293640
0.000000 0.426654 0.295300
0.000000 0.487732 0.293140
0.308112 0.548791 0.280615
0.511627 0.574225 0.229858
0.673828 0.587012 0.168103
0.812488 0.622925 0.100598
0.884247 0.635498 0.001404
0.932056 0.660694 0.000000
0.954095 0.671588 0.000000
0.961548 0.678852 0.000000
0.963837 0.686853 0.034100
0.000000 0.446051 0.344946
0.000000 0.445636 0.343701
0.000000 0.446668 0.343603
0.000000 0.449182 0.341949
0.000000 0.452966 0.336859
0.000000 0.475928 0.338165
0.000000 0.552734 0.351819
0.252777 0.624762 0.344915
0.523767 0.666199 0.299280
0.700018 0.688043 0.234796
0.818988 0.696094 0.157098
0.906427 0.717840 0.047339
0.948328 0.726068 0.000000
0.967468 0.729114 0.000000
0.975574 0.732898 0.000000
0.978845 0.739850 0.001196
0.000000 0.469135 0.359412
0.000000 0.470990 0.359583
0.000000 0.474530 0.359607
0.000000 0.479962 0.359699
0.000000 0.490033 0.360492
0.000000 0.523645 0.365637
0.000000 0.608679 0.388257
0.238385 0.685230 0.392780
0.543134 0.736035 0.357745
0.724841 0.762988 0.306903
0.850726 0.771308 0.213208
0.911011 0.770135 0.130481
0.955426 0.775513 0.019354
0.975952 0.771741 0.000000
0.985718 0.776618 0.000000
0.990722 0.790344 0.045312
0.000000 0.484131 0.360120
0.000000 0.486286 0.360406
0.000000 0.490210 0.360418
0.000000 0.500207 0.361206
0.000000 0.543188 0.373584
0.000000 0.604803 0.392383
0.043311 0.665033 0.401849
0.380066 0.720001 0.401575
0.578863 0.762140 0.379462
0.729828 0.790131 0.339661
0.850757 0.804871 0.268506
0.915576 0.805310 0.182056
0.955048 0.800366 0.051422
0.980444 0.802649 0.000000
0.991650 0.812030 0.035852
0.995929 0.813770 0.060516
0.000000 0.503625 0.361774
0.000000 0.511389 0.363629
0.000000 0.528986 0.368768
0.000000 0.561743 0.379804
0.000000 0.606152 0.392706
0.000000 0.652649 0.400970
0.296381 0.704010 0.403827
0.480963 0.739856 0.391479
0.637256 0.776001 0.371826
0.757892 0.795374 0.331646
0.859900 0.813263 0.280304
0.919354 0.819934 0.219140
0.959662 0.826068 0.173151
0.983222 0.823816 0.049432
0.994104 0.823614 0.016937
0.998596 0.823871 0.020740
0.000000 0.576148 0.384277
0.000000 0.586261 0.387317
0.000000 0.603357 0.391876
0.000000 0.626807 0.397003
0.000000 0.658002 0.401581
0.249280 0.695966 0.403473
0.422693 0.727972 0.398413
0.573792 0.760736 0.379730
0.701941 0.786859 0.353021
0.792584 0.801239 0.315436
0.869727 0.814783 0.276202
0.923688 0.820532 0.211981
0.957379 0.828253 0.201880
0.977606 0.835956 0.203180
0.990973 0.839740 0.185071
0.997387 0.841614 0.171222
0.000000 0.643445 0.399555
0.000000 0.650738 0.400726
0.000000 0.664130 0.402210
0.174280 0.685107 0.402680
0.320886 0.708539 0.404151
0.424713 0.728204 0.397766
0.532800 0.751050 0.384528
0.655817 0.779926 0.368598
0.743994 0.793243 0.337927
0.828912 0.808215 0.296972
0.881122 0.815832 0.266358
0.929156 0.820856 0.198498
0.958868 0.825958 0.171637
0.978540 0.827209 0.096423
0.991077 0.829425 0.057416
0.995545 0.840698 0.174133
0.004755 0.007990 0.020007
0.005243 0.007434 0.020074
0.006378 0.007092 0.017847
0.010846 0.008026 0.017316
0.024994 0.007037 0.017005
0.075232 0.008026 0.018237
0.159906 0.008148 0.020539
0.276257 0.000000 0.023157
0.397327 0.000000 0.025647
0.501263 0.000000 0.033930
0.577991 0.000000 0.042487
0.622278 0.000000 0.047809
0.641248 0.000000 0.057178
0.661414 0.000000 0.071472
0.671930 0.000000 0.088794
0.680029 0.000000 0.103058
0.004401 0.009082 0.021064
0.004791 0.008197 0.021466
0.006030 0.007959 0.019952
0.011304 0.008997 0.019104
0.029791 0.009790 0.020331
0.089661 0.011737 0.020892
0.172552 0.011780 0.022949
0.283942 0.000000 0.022803
0.401465 0.000000 0.023614
0.505445 0.000000 0.030414
0.579370 0.000000 0.039703
0.626660 0.000000 0.047174
0.656927 0.000000 0.065362
0.686090 0.000000 0.090002
0.697650 0.000000 0.107867
0.706574 0.000000 0.122345
0.003241 0.014904 0.025922
0.003595 0.014514 0.026721
0.005017 0.015118 0.027735
0.012921 0.016223 0.026849
0.040644 0.020917 0.028863
0.111658 0.029864 0.033136
0.203375 0.032929 0.033978
0.313635 0.025580 0.034710
0.438464 0.001965 0.038599
0.540558 0.000000 0.046582
0.621783 0.000000 0.064612
0.667645 0.000000 0.073724
0.697149 0.000000 0.089184
0.716577 0.000000 0.110083
0.726721 0.011658 0.125104
0.735400 0.042346 0.138001
0.000000 0.031281 0.040021
0.000073 0.031799 0.040253
0.000635 0.033057 0.040112
0.010724 0.036939 0.040411
0.048547 0.048114 0.046326
0.125519 0.064911 0.050793
0.230994 0.075751 0.052899
0.349603 0.080054 0.055151
0.477216 0.077948 0.059626
0.586505 0.070813 0.070086
0.668524 0.070965 0.089471
0.713067 0.079565 0.099829
0.737567 0.088055 0.114648
0.758203 0.122101 0.131415
0.769220 0.152020 0.150128
0.777911 0.173621 0.164709
0.000000 0.062042 0.059155
0.000000 0.062305 0.059320
0.000000 0.062884 0.059460
0.000000 0.068103 0.060456
0.031805 0.077600 0.061725
0.116150 0.095501 0.065222
0.226929 0.118158 0.069892
0.361237 0.135711 0.069385
0.500171 0.149799 0.072949
0.614795 0.160443 0.083557
0.699744 0.171020 0.099695
0.750537 0.183026 0.114783
0.778046 0.201202 0.128455
0.797900 0.225336 0.145215
0.804907 0.241895 0.162085
0.811529 0.257996 0.176550
0.000000 0.098620 0.080451
0.000000 0.099054 0.081005
0.000000 0.099530 0.081818
0.000000 0.103754 0.083197
0.002191 0.114423 0.086438
0.083832 0.128790 0.083874
0.204028 0.158441 0.085419
0.358624 0.189410 0.086230
0.512787 0.216931 0.086175
0.627496 0.233294 0.090766
0.726453 0.258514 0.102899
0.783380 0.273590 0.118030
0.813684 0.292737 0.131769
0.829285 0.306226 0.147986
0.837305 0.323041 0.164477
0.844104 0.340149 0.181250
0.000000 0.149909 0.115210
0.000000 0.149988 0.114203
0.000000 0.150543 0.113318
0.000000 0.152820 0.113428
0.000000 0.164948 0.114697
0.040735 0.188465 0.117242
0.174756 0.206079 0.107672
0.345209 0.248853 0.106006
0.517932 0.287030 0.099347
0.648871 0.318475 0.099103
0.751599 0.343970 0.103638
0.815100 0.365290 0.112897
0.847852 0.386352 0.134778
0.864258 0.397888 0.140381
0.871820 0.412231 0.158081
0.877557 0.428376 0.180585
0.000000 0.222308 0.173877
0.000000 0.222046 0.172296
