LUTs/SPK Cube Block1 S16/TheBrim_SPK_Type-T_Block1_S16.cube
TITLE "TheBrim® SPK Block 1"
# TheBrim® d.o.o. Croatia
# Copyright: (C) Copyright 2020 TheBrim® d.o.o. Croatia
LUT_3D_SIZE 16
0.0000000000 0.0000000000 0.0000000000
0.0170590000 0.0049014000 0.0025448000
0.0304930000 0.0082700000 0.0041622000
0.0422548000 0.0102480000 0.0054386000
0.0739074000 0.0108702000 0.0074216000
0.1375730000 0.0133360000 0.0102540000
0.2155576000 0.0244324000 0.0101620000
0.3045716000 0.0296022000 0.0117312000
0.4101928000 0.0339114000 0.0176030000
0.5065732000 0.0308658000 0.0238710000
0.5932920000 0.0198970000 0.0282290000
0.6518492000 0.0196290000 0.0265684000
0.6983032000 0.0158878000 0.0277770000
0.7306396000 0.0169554000 0.0308042000
0.7518066000 0.0180662000 0.0327816000
0.7700200000 0.0167850000 0.0353390000
0.0088502000 0.0138430000 0.0070798000
0.0157108000 0.0128178000 0.0057192000
0.0294068000 0.0159542000 0.0070742000
0.0419310000 0.0166136000 0.0072572000
0.0731018000 0.0165282000 0.0086000000
0.1366762000 0.0192990000 0.0102600000
0.2146360000 0.0294736000 0.0101132000
0.3036864000 0.0351132000 0.0114932000
0.4096376000 0.0388428000 0.0178836000
0.5063108000 0.0352904000 0.0241882000
0.5950258000 0.0253964000 0.0281736000
0.6558226000 0.0237302000 0.0276242000
0.7004454000 0.0207214000 0.0290770000
0.7325436000 0.0215268000 0.0320312000
0.7549802000 0.0228824000 0.0345518000
0.7737242000 0.0211120000 0.0370668000
0.0161806000 0.0277586000 0.0127016000
0.0226624000 0.0265626000 0.0117006000
0.0288146000 0.0252442000 0.0103272000
0.0414488000 0.0250792000 0.0097044000
0.0723576000 0.0239992000 0.0099118000
0.1359130000 0.0270444000 0.0103942000
0.2139280000 0.0360230000 0.0103088000
0.3036192000 0.0418822000 0.0122252000
0.4095518000 0.0446900000 0.0183040000
0.5061156000 0.0407592000 0.0246580000
0.5948122000 0.0310548000 0.0275758000
0.6558594000 0.0275694000 0.0273864000
0.7001162000 0.0238890000 0.0290896000
0.7322206000 0.0266542000 0.0322144000
0.7547060000 0.0267576000 0.0349852000
0.7737486000 0.0244872000 0.0375368000
0.0189940000 0.0459904000 0.0158574000
0.0262146000 0.0457214000 0.0156126000
0.0328188000 0.0442136000 0.0143676000
0.0441344000 0.0420714000 0.0126404000
0.0719358000 0.0404050000 0.0107668000
0.1339170000 0.0430480000 0.0104184000
0.2126096000 0.0481570000 0.0107178000
0.3021240000 0.0531980000 0.0121640000
0.4081114000 0.0538206000 0.0186832000
0.5048338000 0.0490050000 0.0250796000
0.5942324000 0.0395384000 0.0268738000
0.6557680000 0.0348996000 0.0271666000
0.6999878000 0.0315182000 0.0299194000
0.7321410000 0.0340208000 0.0332884000
0.7548584000 0.0340148000 0.0361758000
0.7738528000 0.0327760000 0.0382510000
0.0255490000 0.0838748000 0.0237976000
0.0353086000 0.0862796000 0.0253846000
0.0423462000 0.0846622000 0.0236632000
0.0520814000 0.0824344000 0.0211058000
0.0756162000 0.0758974000 0.0152462000
0.1302792000 0.0715762000 0.0110718000
0.2099362000 0.0740360000 0.0109436000
0.2997804000 0.0792238000 0.0129822000
0.4052916000 0.0765014000 0.0196166000
0.5018130000 0.0687258000 0.0255494000
0.5909970000 0.0589602000 0.0257508000
0.6527160000 0.0528202000 0.0271060000
0.6966006000 0.0487062000 0.0303162000
0.7284974000 0.0531002000 0.0336916000
0.7513124000 0.0497982000 0.0367372000
0.7706666000 0.0504758000 0.0379824000
0.0364380000 0.1390990000 0.0396420000
0.0450742000 0.1434146000 0.0422178000
0.0523318000 0.1430846000 0.0409546000
0.0612306000 0.1416134000 0.0381772000
0.0820372000 0.1359924000 0.0298948000
0.1329040000 0.1242070000 0.0182190000
0.2070374000 0.1199894000 0.0129396000
0.2971866000 0.1220944000 0.0172976000
0.4019408000 0.1182068000 0.0226682000
0.4980228000 0.1107052000 0.0256532000
0.5870360000 0.1020510000 0.0248110000
0.6482180000 0.0972412000 0.0282778000
0.6917604000 0.0912050000 0.0322938000
0.7236268000 0.0932618000 0.0353088000
0.7463380000 0.0903926000 0.0368284000
0.7657170000 0.0912170000 0.0377810000
0.0563962000 0.2006286000 0.0586546000
0.0631832000 0.2054628000 0.0609500000
0.0699950000 0.2093322000 0.0629456000
0.0790652000 0.2086916000 0.0611086000
0.1000426000 0.2046694000 0.0548644000
0.1422672000 0.1930724000 0.0390806000
0.2086428000 0.1779292000 0.0267640000
0.2956846000 0.1744566000 0.0243166000
0.3998414000 0.1739628000 0.0250612000
0.4950436000 0.1719302000 0.0247744000
0.5824832000 0.1687376000 0.0283998000
0.6426878000 0.1658450000 0.0323122000
0.6861690000 0.1652036000 0.0352538000
0.7178832000 0.1643008000 0.0369322000
0.7404786000 0.1653260000 0.0370724000
0.7596986000 0.1646488000 0.0375242000
0.0576602000 0.2729556000 0.0749330000
0.0669126000 0.2785462000 0.0778018000
0.0748350000 0.2834594000 0.0802672000
0.0855776000 0.2877992000 0.0819518000
0.1073670000 0.2859008000 0.0782654000
0.1495118000 0.2729552000 0.0617252000
0.2174868000 0.2562562000 0.0420836000
0.2991882000 0.2401980000 0.0306946000
0.3996030000 0.2381836000 0.0271482000
0.4924866000 0.2381960000 0.0301516000
0.5780762000 0.2377564000 0.0346374000
0.6374326000 0.2376464000 0.0368044000
0.6803710000 0.2385682000 0.0361142000
0.7117924000 0.2393432000 0.0352296000
0.7342466000 0.2399720000 0.0346376000
0.7533446000 0.2408144000 0.0335754000
0.0571838000 0.3558592000 0.0925598000
0.0634336000 0.3608948000 0.0935118000
0.0697386000 0.3653566000 0.0947266000
0.0801572000 0.3711612000 0.0966122000
0.1037288000 0.3769470000 0.0979920000
0.1568540000 0.3644166000 0.0857484000
0.2269714000 0.3464536000 0.0641784000
0.3101076000 0.3273196000 0.0483520000
0.4018552000 0.3117246000 0.0404722000
0.4911800000 0.3105040000 0.0386782000
0.5750308000 0.3115782000 0.0358096000
0.6332090000 0.3126038000 0.0338320000
0.6751892000 0.3134458000 0.0333924000
0.7059752000 0.3143496000 0.0339292000
0.7279788000 0.3150574000 0.0346682000
0.7467100000 0.3157902000 0.0358336000
0.0621030000 0.4399718000 0.1114992000
0.0683350000 0.4448668000 0.1126462000
0.0751648000 0.4491942000 0.1138308000
0.0839662000 0.4550474000 0.1154788000
0.1117674000 0.4650756000 0.1186216000
0.1688718000 0.4558108000 0.1079892000
0.2402100000 0.4364870000 0.0814576000
0.3225034000 0.4163940000 0.0565306000
0.4126466000 0.3964600000 0.0410340000
0.4928220000 0.3835880000 0.0348506000
0.5735104000 0.3832522000 0.0360598000
0.6299928000 0.3836794000 0.0384522000
0.6712344000 0.3850036000 0.0408876000
0.7015072000 0.3860534000 0.0420286000
0.7231816000 0.3868834000 0.0423824000
0.7416324000 0.3876160000 0.0420536000
0.0753780000 0.5098570000 0.1309810000
0.0838012000 0.5151366000 0.1327516000
0.0915104000 0.5198548000 0.1345642000
0.1056276000 0.5262452000 0.1368838000
0.1340518000 0.5366334000 0.1415164000
0.1928410000 0.5298460000 0.1296080000
0.2567874000 0.5096744000 0.1003660000
0.3352296000 0.4889284000 0.0699646000
0.4232058000 0.4681578000 0.0534488000
0.5012876000 0.4512146000 0.0471496000
0.5743100000 0.4419860000 0.0453800000
0.6292424000 0.4421996000 0.0430848000
0.6692506000 0.4425904000 0.0406312000
0.6987120000 0.4429872000 0.0375362000
0.7198610000 0.4433530000 0.0357604000
0.7379460000 0.4438480000 0.0346980000
0.0936766000 0.5572998000 0.1468686000
0.1044552000 0.5627136000 0.1491882000
0.1141788000 0.5671938000 0.1513796000
0.1303286000 0.5737000000 0.1541750000
0.1613462000 0.5844054000 0.1594300000
0.2086364000 0.5787234000 0.1489378000
0.2718382000 0.5583618000 0.1163700000
0.3463500000 0.5373106000 0.0816588000
0.4312318000 0.5160524000 0.0533020000
0.5078490000 0.4985594000 0.0453920000
0.5790890000 0.4844602000 0.0418822000
0.6296876000 0.4810546000 0.0390018000
0.6688414000 0.4813662000 0.0369322000
0.6979430000 0.4818116000 0.0365662000
0.7187498000 0.4821408000 0.0365418000
0.7366392000 0.4825138000 0.0363160000
0.1046694000 0.5895078000 0.1580196000
0.1135864000 0.5933720000 0.1594908000
0.1213196000 0.5970766000 0.1610840000
0.1343020000 0.6028750000 0.1639586000
0.1714600000 0.6162474000 0.1719972000
0.2248228000 0.6130066000 0.1638608000
0.2823304000 0.5925412000 0.1306944000
0.3546630000 0.5714846000 0.0938596000
0.4377136000 0.5502074000 0.0633056000
0.5129944000 0.5323428000 0.0486572000
0.5830992000 0.5176028000 0.0418272000
0.6322328000 0.5097654000 0.0393314000
0.6689578000 0.5085818000 0.0391542000
0.6975828000 0.5088866000 0.0397098000
0.7182432000 0.5091556000 0.0402952000
0.7358946000 0.5094238000 0.0415408000
0.1154908000 0.6148498000 0.1680482000
0.1272522000 0.6192138000 0.1701110000
0.1363220000 0.6231078000 0.1718872000
0.1520876000 0.6286744000 0.1751402000
0.1858702000 0.6397216000 0.1824398000
0.2346072000 0.6367978000 0.1744264000
0.2907410000 0.6164916000 0.1413024000
0.3610354000 0.5954284000 0.1019102000
0.4425352000 0.5740480000 0.0705996000
0.5170594000 0.5560978000 0.0553708000
0.5861142000 0.5408996000 0.0480226000
0.6346616000 0.5312496000 0.0440918000
0.6701112000 0.5280516000 0.0440614000
0.6975342000 0.5278136000 0.0437926000
0.7180606000 0.5281066000 0.0429750000
0.7355894000 0.5284056000 0.0435366000
0.1281496000 0.6337406000 0.1758976000
0.1393980000 0.6381650000 0.1779910000
0.1497316000 0.6419314000 0.1798038000
0.1661986000 0.6470948000 0.1829956000
0.1984680000 0.6569460000 0.1901676000
0.2417538000 0.6549864000 0.1834226000
0.2976622000 0.6346744000 0.1496402000
0.3665098000 0.6135802000 0.1085936000
0.4465822000 0.5922298000 0.0731384000
0.5200988000 0.5741274000 0.0562134000
0.5885742000 0.5586854000 0.0492978000
0.6367064000 0.5490536000 0.0460146000
0.6719360000 0.5439212000 0.0458924000
0.6979250000 0.5426634000 0.0453798000
0.7181156000 0.5427918000 0.0449582000
0.7355960000 0.5431028000 0.0445560000
0.1380920000 0.6480410000 0.1815800000
0.1513668000 0.6526792000 0.1840756000
0.1623292000 0.6568058000 0.1864076000
0.1762450000 0.6619934000 0.1895260000
0.2082704000 0.6717042000 0.1970278000
0.2489320000 0.6699520000 0.1905520000
0.3039670000 0.6500122000 0.1564394000
0.3712526000 0.6288940000 0.1159602000
0.4502136000 0.6075442000 0.0767948000
0.5228392000 0.5894352000 0.0575742000
0.5907590000 0.5737300000 0.0497440000
0.6385136000 0.5639468000 0.0459960000
0.6734374000 0.5574460000 0.0443730000
0.6993348000 0.5556030000 0.0426698000
0.7182250000 0.5550718000 0.0423584000
0.7355040000 0.5552670000 0.0421450000
0.0074040000 0.0031374000 0.0151552000
0.0136840000 0.0049376000 0.0115232000
0.0275206000 0.0087278000 0.0129762000
0.0382932000 0.0108154000 0.0120726000
0.0679990000 0.0113772000 0.0117434000
0.1320010000 0.0126162000 0.0132572000
0.2134402000 0.0260010000 0.0138608000
0.3027772000 0.0319030000 0.0152892000
0.4072326000 0.0357666000 0.0201170000
0.5018312000 0.0314700000 0.0260684000
0.5861752000 0.0198116000 0.0306030000
0.6451474000 0.0203976000 0.0293274000
0.6908512000 0.0169126000 0.0296446000
0.7239318000 0.0170226000 0.0324156000
0.7453430000 0.0175538000 0.0343020000
0.7633118000 0.0173890000 0.0363832000
0.0087584000 0.0126892000 0.0130126000
0.0196168000 0.0188108000 0.0179200000
0.0330444000 0.0214176000 0.0185548000
0.0458742000 0.0215942000 0.0171996000
0.0768680000 0.0216246000 0.0164310000
0.1392394000 0.0241088000 0.0152468000
0.2168148000 0.0322328000 0.0140930000
0.3062074000 0.0375610000 0.0153258000
0.4125424000 0.0401976000 0.0211244000
0.5091856000 0.0360716000 0.0275754000
0.5956970000 0.0263240000 0.0319944000
0.6541690000 0.0240476000 0.0304868000
0.7005190000 0.0223330000 0.0322268000
0.7326108000 0.0219666000 0.0350096000
0.7539124000 0.0221314000 0.0369020000
0.7721988000 0.0213686000 0.0390500000
0.0162840000 0.0265812000 0.0190064000
0.0263978000 0.0327026000 0.0236390000
0.0331058000 0.0316102000 0.0222166000
0.0460144000 0.0309264000 0.0200806000
0.0764892000 0.0295532000 0.0181884000
0.1387574000 0.0321048000 0.0156984000
0.2163394000 0.0393556000 0.0145022000
0.3063418000 0.0448240000 0.0161744000
0.4125730000 0.0461548000 0.0215698000
0.5091064000 0.0415036000 0.0280336000
0.5972840000 0.0330200000 0.0321896000
0.6582706000 0.0285400000 0.0319640000
0.7025514000 0.0261046000 0.0333370000
0.7345582000 0.0275266000 0.0361936000
0.7570008000 0.0273558000 0.0387022000
0.7760252000 0.0259276000 0.0408324000
0.0192992000 0.0438660000 0.0216064000
0.0308534000 0.0523196000 0.0268068000
0.0384276000 0.0520202000 0.0261168000
0.0504150000 0.0512390000 0.0243350000
0.0777890000 0.0488160000 0.0208432000
0.1378662000 0.0494018000 0.0170350000
0.2156982000 0.0527040000 0.0154542000
0.3058474000 0.0576294000 0.0169738000
0.4122804000 0.0565306000 0.0223816000
0.5090698000 0.0511050000 0.0287962000
0.5973878000 0.0426880000 0.0315920000
0.6583006000 0.0357058000 0.0317930000
0.7026676000 0.0342102000 0.0343264000
0.7349060000 0.0351196000 0.0374758000
0.7572878000 0.0349182000 0.0398196000
0.7763002000 0.0341002000 0.0415892000
0.0260922000 0.0813600000 0.0297910000
0.0382632000 0.0891662000 0.0357544000
0.0466188000 0.0918700000 0.0369872000
0.0568236000 0.0908874000 0.0341248000
0.0808838000 0.0856814000 0.0264828000
0.1352540000 0.0803774000 0.0198730000
0.2131774000 0.0801694000 0.0160098000
0.3035522000 0.0846618000 0.0179080000
0.4094850000 0.0805544000 0.0232726000
0.5062562000 0.0724428000 0.0292052000
0.5954588000 0.0641420000 0.0308962000
0.6570374000 0.0555784000 0.0325502000
0.7008362000 0.0540770000 0.0355530000
0.7327208000 0.0565856000 0.0385192000
0.7554996000 0.0520324000 0.0411376000
0.7748230000 0.0536318000 0.0419980000
0.0359496000 0.1361146000 0.0461484000
0.0463868000 0.1434392000 0.0523252000
0.0560244000 0.1474364000 0.0548402000
0.0663882000 0.1475646000 0.0534544000
0.0882140000 0.1441590000 0.0465024000
0.1379030000 0.1328066000 0.0294186000
0.2112856000 0.1283140000 0.0209840000
0.3011290000 0.1277462000 0.0220090000
0.4063172000 0.1238708000 0.0262938000
0.5025944000 0.1164674000 0.0291626000
0.5914676000 0.1086854000 0.0301942000
0.6524844000 0.1041628000 0.0332212000
0.6960632000 0.0993284000 0.0366696000
0.7279358000 0.1002872000 0.0391600000
0.7505860000 0.0973024000 0.0400636000
0.7699094000 0.0987486000 0.0408264000
0.0563110000 0.1976562000 0.0648258000
0.0657650000 0.2055238000 0.0708802000
0.0723328000 0.2098512000 0.0730896000
0.0823306000 0.2142760000 0.0752872000
0.1043336000 0.2129640000 0.0708066000
0.1471982000 0.2014708000 0.0537780000
0.2135678000 0.1859434000 0.0373900000
0.3010560000 0.1821352000 0.0309142000
0.4044376000 0.1799134000 0.0288940000
0.4995546000 0.1781922000 0.0300840000
0.5868470000 0.1752926000 0.0331362000
0.6470218000 0.1730838000 0.0363406000
0.6903686000 0.1725034000 0.0385560000
0.7220090000 0.1719300000 0.0396970000
0.7445924000 0.1732238000 0.0395814000
0.7638122000 0.1730284000 0.0395204000
0.0570008000 0.2693362000 0.0810670000
0.0670410000 0.2774716000 0.0867368000
0.0755614000 0.2823550000 0.0895140000
0.0863950000 0.2889834000 0.0927552000
0.1097350000 0.2936828000 0.0937076000
0.1541564000 0.2819396000 0.0782714000
0.2224120000 0.2652342000 0.0546018000
0.3043704000 0.2483338000 0.0400146000
0.4049072000 0.2461180000 0.0349488000
0.4971130000 0.2449646000 0.0353882000
0.5824710000 0.2444030000 0.0383914000
0.6417970000 0.2447934000 0.0397156000
0.6847048000 0.2457884000 0.0382386000
0.7160156000 0.2467162000 0.0368042000
0.7383362000 0.2472778000 0.0359008000
0.7573974000 0.2479736000 0.0347900000
0.0572330000 0.3522706000 0.0989684000
0.0650820000 0.3612794000 0.1037174000
0.0722046000 0.3659972000 0.1051270000
0.0828674000 0.3722656000 0.1075868000
0.1088926000 0.3823974000 0.1118408000
0.1623110000 0.3739684000 0.1015750000
0.2327272000 0.3558286000 0.0775514000
0.3155884000 0.3363098000 0.0586974000
0.4071962000 0.3201412000 0.0478212000
0.4965272000 0.3190184000 0.0424132000
0.5797608000 0.3192808000 0.0372130000
0.6375668000 0.3197388000 0.0351626000
0.6794372000 0.3205200000 0.0356078000
0.7101198000 0.3213744000 0.0367494000
0.7320620000 0.3222170000 0.0380374000
0.7507812000 0.3229492000 0.0394412000
0.0606020000 0.4356444000 0.1179688000
0.0695250000 0.4451658000 0.1238588000
0.0770632000 0.4497682000 0.1253416000
0.0870118000 0.4561524000 0.1274048000
0.1168824000 0.4682130000 0.1320680000
0.1762942000 0.4661254000 0.1271298000
0.2471616000 0.4463748000 0.0987118000
0.3283994000 0.4258728000 0.0707032000
0.4182192000 0.4052920000 0.0530582000
0.4981382000 0.3920652000 0.0441470000
0.5786196000 0.3916994000 0.0430482000
0.6348880000 0.3920596000 0.0441774000
0.6757324000 0.3927610000 0.0454898000
0.7057130000 0.3933534000 0.0454528000
0.7272032000 0.3938476000 0.0451662000
0.7455688000 0.3944886000 0.0443052000
0.0755184000 0.5061644000 0.1384154000
0.0857664000 0.5148190000 0.1443850000
0.0936160000 0.5194580000 0.1462218000
0.1068664000 0.5256594000 0.1486146000
0.1367068000 0.5381286000 0.1548338000
0.2002990000 0.5402894000 0.1521550000
0.2646728000 0.5199404000 0.1210758000
0.3420468000 0.4989138000 0.0874820000
0.4290650000 0.4774476000 0.0632448000
0.5068418000 0.4602662000 0.0548644000
0.5794372000 0.4505068000 0.0493710000
0.6341312000 0.4505312000 0.0462466000
0.6740172000 0.4508974000 0.0433468000
0.7034360000 0.4513978000 0.0413208000
0.7244688000 0.4517758000 0.0399350000
0.7424748000 0.4521788000 0.0390688000
0.0922180000 0.5542360000 0.1540282000
0.1032656000 0.5620848000 0.1598328000
0.1138796000 0.5666016000 0.1619992000
0.1292970000 0.5730532000 0.1652588000
0.1628604000 0.5855774000 0.1726260000
0.2184448000 0.5892514000 0.1720456000
0.2798156000 0.5684390000 0.1396120000
0.3532896000 0.5474300000 0.1011232000
0.4376220000 0.5257814000 0.0690920000
0.5136108000 0.5078066000 0.0533934000
0.5843080000 0.4930724000 0.0458128000
0.6345516000 0.4892520000 0.0432740000
0.6735232000 0.4894656000 0.0427250000
0.7025636000 0.4899232000 0.0422302000
0.7233154000 0.4902102000 0.0420230000
0.7411196000 0.4905576000 0.0418032000
0.1023442000 0.5857178000 0.1645078000
0.1173526000 0.5955138000 0.1720522000
0.1247316000 0.5992312000 0.1736326000
0.1372498000 0.6050352000 0.1765500000
0.1705262000 0.6164980000 0.1838440000
0.2338438000 0.6230468000 0.1866210000
0.2904422000 0.6027714000 0.1542234000
0.3618528000 0.5816040000 0.1147462000
0.4442198000 0.5599180000 0.0796756000
0.5189760000 0.5417116000 0.0613040000
0.5885378000 0.5265688000 0.0513184000
0.6372802000 0.5182804000 0.0462340000
0.6737730000 0.5167906000 0.0454956000
0.7022278000 0.5169858000 0.0456666000
0.7228028000 0.5172122000 0.0459472000
0.7404480000 0.5174926000 0.0464844000
0.1127866000 0.6110352000 0.1744936000
0.1271974000 0.6198856000 0.1815430000
0.1369142000 0.6239076000 0.1834840000
0.1528384000 0.6294738000 0.1869018000
0.1860292000 0.6400452000 0.1942934000
0.2436828000 0.6465148000 0.1971130000
0.2988952000 0.6266298000 0.1643980000
0.3685730000 0.6054808000 0.1251282000
0.4491270000 0.5839176000 0.0858460000
0.5230832000 0.5655702000 0.0673340000
0.5916198000 0.5499204000 0.0578126000
0.6398312000 0.5400574000 0.0521542000
0.6750792000 0.5365660000 0.0510866000
0.7023560000 0.5361940000 0.0501526000
0.7227296000 0.5363706000 0.0485718000
0.7402102000 0.5366332000 0.0477294000
0.1245606000 0.6304872000 0.1823730000
0.1387088000 0.6384034000 0.1888060000
0.1496762000 0.6425292000 0.1910888000
0.1669860000 0.6482362000 0.1950440000
0.2007204000 0.6580996000 0.2028872000
0.2512756000 0.6643740000 0.2055542000
0.3061710000 0.6444210000 0.1726992000
0.3741272000 0.6236758000 0.1328308000
0.4532408000 0.6020386000 0.0898196000
0.5263126000 0.5837464000 0.0675660000
0.5942446000 0.5678710000 0.0580508000
0.6419676000 0.5578248000 0.0528256000
0.6768860000 0.5523314000 0.0513978000
0.7027162000 0.5508792000 0.0503786000
0.7227964000 0.5509830000 0.0492920000
0.7401796000 0.5511842000 0.0476012000
0.1346130000 0.6450926000 0.1879210000
0.1502078000 0.6530396000 0.1946290000
0.1617064000 0.6570374000 0.1971072000
0.1768554000 0.6624876000 0.2008058000
0.2101684000 0.6726744000 0.2094912000
0.2581540000 0.6794006000 0.2129028000
0.3121152000 0.6594302000 0.1799136000
0.3789366000 0.6389036000 0.1398136000
0.4569522000 0.6173524000 0.0967954000
0.5290774000 0.5990294000 0.0691344000
0.5964596000 0.5830204000 0.0588682000
0.6438656000 0.5729004000 0.0532290000
0.6784486000 0.5660282000 0.0502810000
0.7042052000 0.5639406000 0.0481810000
0.7229430000 0.5632814000 0.0470642000
0.7401548000 0.5634336000 0.0459348000
0.0124634000 0.0056640000 0.0309326000
0.0183840000 0.0071656000 0.0264954000
0.0236758000 0.0085572000 0.0224426000
0.0343998000 0.0106142000 0.0204834000
0.0613406000 0.0118042000 0.0172058000
0.1256472000 0.0119750000 0.0165468000
0.2078550000 0.0256350000 0.0163818000
0.2973328000 0.0329772000 0.0178712000
0.4001956000 0.0367736000 0.0234068000
0.4942384000 0.0316346000 0.0288878000
0.5785216000 0.0193422000 0.0331602000
0.6381896000 0.0214722000 0.0322386000
0.6826784000 0.0182250000 0.0316954000
0.7163454000 0.0175966000 0.0341064000
0.7384156000 0.0171022000 0.0360414000
0.7562990000 0.0165588000 0.0381408000
0.0142514000 0.0151858000 0.0288394000
0.0231630000 0.0209898000 0.0332462000
0.0298036000 0.0221434000 0.0288696000
0.0427918000 0.0223940000 0.0263488000
0.0715456000 0.0230104000 0.0229126000
0.1355712000 0.0257996000 0.0202268000
0.2151612000 0.0341916000 0.0183530000
0.3043456000 0.0395142000 0.0194094000
0.4090636000 0.0421022000 0.0262086000
0.5041076000 0.0373412000 0.0314330000
0.5883300000 0.0259828000 0.0346132000
0.6473080000 0.0249876000 0.0335510000
0.6926454000 0.0235106000 0.0343198000
0.7253786000 0.0227112000 0.0367858000
0.7470946000 0.0216430000 0.0386904000
0.7653016000 0.0208980000 0.0408876000
0.0163084000 0.0252076000 0.0258240000
0.0268004000 0.0318238000 0.0311952000
0.0375118000 0.0382262000 0.0363284000
0.0506716000 0.0372558000 0.0329712000
0.0808532000 0.0361144000 0.0284912000
0.1420778000 0.0385192000 0.0227538000
0.2188784000 0.0429568000 0.0193666000
0.3090512000 0.0481262000 0.0209104000
0.4152342000 0.0484498000 0.0279298000
0.5117368000 0.0426878000 0.0332702000
0.5984008000 0.0342104000 0.0363284000
0.6567200000 0.0288392000 0.0351258000
0.7031430000 0.0285336000 0.0370730000
0.7349912000 0.0284484000 0.0396792000
0.7562988000 0.0267576000 0.0416258000
0.7748110000 0.0256960000 0.0438534000
0.0196168000 0.0420286000 0.0290774000
0.0314330000 0.0507020000 0.0348756000
0.0430602000 0.0582396000 0.0408386000
0.0554746000 0.0585568000 0.0390872000
0.0833920000 0.0572934000 0.0335204000
0.1423952000 0.0567810000 0.0255552000
0.2192322000 0.0581422000 0.0211426000
0.3098204000 0.0625062000 0.0227480000
0.4161924000 0.0600160000 0.0290954000
0.5124694000 0.0527040000 0.0341428000
0.6002748000 0.0454224000 0.0363954000
0.6610048000 0.0366086000 0.0366636000
0.7055418000 0.0376160000 0.0390992000
0.7376100000 0.0365176000 0.0419186000
0.7598390000 0.0361998000 0.0439212000
0.7787962000 0.0355102000 0.0461180000
0.0271424000 0.0788512000 0.0371520000
0.0396240000 0.0868594000 0.0433166000
0.0491946000 0.0939696000 0.0494262000
0.0600280000 0.0970762000 0.0507386000
0.0855226000 0.0951110000 0.0447510000
0.1406068000 0.0894654000 0.0332520000
0.2170652000 0.0874024000 0.0229856000
0.3076356000 0.0903622000 0.0244144000
0.4140566000 0.0855224000 0.0300048000
0.5109680000 0.0765808000 0.0345216000
0.6001650000 0.0693356000 0.0363282000
0.6615662000 0.0581972000 0.0383058000
0.7053040000 0.0597352000 0.0410708000
0.7371520000 0.0603272000 0.0437440000
0.7598570000 0.0547914000 0.0459104000
0.7791932000 0.0571776000 0.0471678000
0.0357970000 0.1331178000 0.0527956000
0.0463380000 0.1407776000 0.0596374000
0.0587094000 0.1480712000 0.0659058000
0.0718322000 0.1532898000 0.0692684000
0.0945374000 0.1526976000 0.0650880000
0.1433472000 0.1416382000 0.0472354000
0.2160340000 0.1362976000 0.0347350000
0.3058776000 0.1340576000 0.0302614000
0.4110230000 0.1294800000 0.0319888000
0.5073486000 0.1226504000 0.0342040000
0.5961912000 0.1157898000 0.0357788000
0.6570438000 0.1106140000 0.0386232000
0.7005980000 0.1074950000 0.0412538000
0.7323792000 0.1079344000 0.0432554000
0.7550234000 0.1042416000 0.0440796000
0.7742800000 0.1066710000 0.0447936000
0.0563232000 0.1948300000 0.0713566000
0.0666136000 0.2028866000 0.0779664000
0.0759644000 0.2099550000 0.0837216000
0.0860230000 0.2158750000 0.0872132000
