LUTs/SPK Cube Block1 S16/TheBrim_SPK_Type-O_Block1_S16.cube
TITLE "TheBrim® SPK Block 1"
# © Copyright 2021 - TheBrim® d.o.o. Croatia
LUT_3D_SIZE 6
DOMAIN_MIN 0.000000 0.000000 0.000000
DOMAIN_MAX 1.000000 1.000000 1.000000
0.001770 0.000977 0.001221
0.013233 0.005072 0.004681
0.165988 0.003345 0.000800
0.468000 0.000000 0.000000
0.608960 0.000000 0.000000
0.625818 0.000000 0.000000
0.004285 0.029053 0.017072
0.021192 0.031324 0.013587
0.201590 0.049482 0.004346
0.502882 0.000000 0.000000
0.643470 0.000000 0.000000
0.668299 0.000000 0.000000
0.000000 0.222379 0.161025
0.000000 0.215702 0.133010
0.264384 0.258701 0.076246
0.623542 0.276616 0.000000
0.777139 0.242570 0.000000
0.787369 0.204398 0.000000
0.000000 0.463752 0.355181
0.000000 0.464839 0.331810
0.077388 0.560778 0.272758
0.713521 0.632770 0.092061
0.918071 0.616828 0.000000
0.938457 0.567633 0.000000
0.000000 0.540276 0.383557
0.000000 0.578466 0.381671
0.115224 0.687312 0.362603
0.714199 0.785800 0.257981
0.960027 0.801834 0.000000
1.000000 0.774820 0.000000
0.000000 0.668086 0.368322
0.215634 0.698384 0.358770
0.518291 0.751369 0.319744
0.803238 0.801041 0.213443
0.960363 0.818399 0.000000
1.000000 0.817655 0.000000
0.004834 0.006061 0.018647
0.013904 0.005927 0.015857
0.180502 0.002802 0.014978
0.477937 0.000000 0.001685
0.616272 0.000000 0.000000
0.633381 0.000000 0.000000
0.000000 0.039490 0.053175
0.016876 0.034284 0.035785
0.214737 0.049201 0.029578
0.512459 0.000000 0.003699
0.642011 0.000000 0.000000
0.675514 0.000000 0.000000
0.000000 0.225644 0.169442
0.000000 0.216373 0.143960
0.267930 0.260294 0.105739
0.630683 0.274809 0.019495
0.778732 0.236088 0.000000
0.795285 0.210251 0.000000
0.000000 0.463435 0.356402
0.000000 0.463886 0.332763
0.091902 0.560485 0.271177
0.718343 0.629358 0.082948
0.917668 0.616419 0.000000
0.943139 0.586322 0.000000
0.000000 0.544805 0.382940
0.000000 0.584356 0.381506
0.163284 0.691255 0.361199
0.720070 0.786667 0.255265
0.960821 0.807285 0.000000
1.000000 0.800400 0.000000
0.002930 0.678047 0.365606
0.284269 0.707747 0.355413
0.544390 0.756435 0.314128
0.820414 0.803555 0.203153
0.962786 0.820609 0.000000
1.000000 0.837314 0.027808
0.000000 0.014636 0.137026
0.012641 0.014728 0.148989
0.190738 0.015528 0.163436
0.500264 0.000000 0.158138
0.632770 0.000000 0.127150
0.648823 0.000000 0.102339
0.000000 0.057142 0.202322
0.000000 0.049238 0.196481
0.223374 0.058027 0.191598
0.533678 0.000000 0.173471
0.663233 0.000000 0.143038
0.690480 0.000000 0.129885
0.000000 0.254752 0.327733
0.000000 0.246598 0.309172
0.258451 0.290929 0.297630
0.641932 0.299156 0.260404
0.791159 0.257609 0.217966
0.806345 0.225949 0.186917
0.000000 0.484382 0.459986
0.000000 0.486244 0.444013
0.022370 0.594672 0.435309
0.717305 0.670655 0.381061
0.918230 0.658357 0.300426
0.942406 0.612946 0.238657
0.000000 0.571283 0.489082
0.000000 0.613385 0.499077
0.045698 0.721852 0.512834
0.706831 0.822245 0.480903
0.950488 0.847904 0.391736
0.995093 0.835813 0.296837
0.151717 0.705025 0.409497
0.328960 0.729317 0.409345
0.569366 0.781875 0.412811
0.817374 0.834739 0.412970
0.952111 0.863468 0.403436
0.993677 0.872203 0.392193
0.000000 0.037391 0.292430
0.010407 0.029957 0.307646
0.224845 0.018250 0.321477
0.499068 0.000000 0.300383
0.646326 0.000000 0.265568
0.671363 0.000000 0.241666
0.000000 0.085145 0.354888
0.000000 0.060639 0.351604
0.249479 0.058686 0.362957
0.551916 0.000000 0.343493
0.682893 0.000000 0.307176
0.708925 0.000000 0.293382
0.000000 0.273033 0.471247
0.000000 0.271739 0.470698
0.259373 0.316271 0.502650
0.652992 0.324443 0.487044
0.800467 0.279960 0.435041
0.812576 0.240806 0.390521
0.000000 0.503072 0.566760
0.000000 0.516808 0.565173
0.020142 0.631501 0.601971
0.713405 0.699452 0.593127
0.912364 0.690907 0.544146
0.936327 0.641926 0.491286
0.000000 0.596606 0.595459
0.000000 0.636768 0.611456
0.035230 0.749551 0.648084
0.704585 0.849363 0.652717
0.938201 0.876518 0.611292
0.980963 0.869731 0.558776
0.031556 0.746322 0.601025
0.291734 0.768301 0.605444
0.570019 0.819413 0.613306
0.816178 0.867173 0.613892
0.943798 0.893132 0.613867
0.981158 0.900877 0.607092
0.000000 0.114186 0.397607
0.000153 0.117568 0.405707
0.228727 0.124947 0.417395
0.478260 0.103792 0.405194
0.646223 0.019190 0.373339
0.726668 0.000000 0.351312
0.000000 0.149221 0.424976
0.000000 0.155001 0.434827
0.237546 0.169479 0.451838
0.505147 0.159158 0.442487
0.676905 0.113960 0.409314
0.753591 0.091371 0.382220
0.000000 0.282713 0.518712
0.000000 0.292253 0.527861
0.271751 0.324511 0.548534
0.603033 0.345135 0.548540
0.787320 0.347887 0.529125
0.838914 0.335235 0.491411
0.000000 0.514879 0.632020
0.000000 0.548455 0.653730
0.115016 0.661854 0.710298
0.737136 0.720626 0.716976
0.909892 0.711513 0.677205
0.934234 0.669026 0.629621
0.000000 0.616126 0.670729
0.000000 0.659736 0.693739
0.032972 0.771774 0.743911
0.723281 0.867295 0.763705
0.933233 0.893449 0.748830
0.969653 0.888286 0.720546
0.150051 0.776028 0.713124
0.322325 0.796591 0.719472
0.590265 0.844559 0.733559
0.821030 0.888280 0.742861
0.940661 0.911339 0.747665
0.972088 0.918535 0.749209
0.000000 0.177798 0.447303
0.000000 0.182235 0.454664
0.193710 0.194858 0.468055
0.417676 0.196085 0.468257
0.607764 0.167001 0.442896
0.724483 0.139986 0.416083
0.000000 0.204794 0.467744
0.000000 0.210776 0.474940
0.198807 0.223337 0.487019
0.431128 0.227524 0.488045
0.624994 0.209519 0.468745
0.756728 0.211948 0.451801
0.000000 0.301921 0.534154
0.000000 0.307573 0.539098
0.222983 0.325676 0.549877
0.492796 0.356365 0.559973
0.733541 0.401190 0.567224
0.843980 0.433515 0.559930
0.000000 0.556365 0.667268
0.000000 0.586059 0.681910
0.389770 0.646467 0.705086
0.713722 0.698695 0.710744
0.874931 0.729946 0.701338
0.934105 0.739773 0.678425
0.000000 0.661396 0.728450
0.000000 0.709749 0.753231
0.354327 0.812235 0.793771
0.793301 0.880381 0.803098
0.935888 0.896104 0.783035
0.963696 0.895836 0.765194
0.239780 0.799771 0.776425
0.364062 0.816104 0.782321
0.626600 0.862712 0.797964
0.836655 0.901421 0.811154
0.941582 0.920977 0.817606
0.967559 0.927031 0.819974
