LUTs/SPK Cube Block1 S16/TheBrim_SPK_Type-I_Block1_S16.cube
TITLE "TheBrim® SPK Block 1"
# © Copyright 2021 - TheBrim® d.o.o. Croatia
LUT_3D_SIZE 6
DOMAIN_MIN 0.000000 0.000000 0.000000
DOMAIN_MAX 1.000000 1.000000 1.000000
0.006195 0.007263 0.008331
0.013941 0.015558 0.017536
0.054389 0.059174 0.063087
0.137624 0.143441 0.151876
0.204465 0.210477 0.223392
0.255009 0.259068 0.276310
0.014899 0.016608 0.018647
0.029438 0.032453 0.035651
0.084163 0.090083 0.094636
0.190060 0.195908 0.207913
0.326403 0.330034 0.345898
0.390356 0.391791 0.403723
0.070387 0.075935 0.079908
0.099226 0.105257 0.110884
0.166421 0.171987 0.182504
0.291771 0.294554 0.313658
0.449189 0.446052 0.455164
0.543456 0.540551 0.536846
0.185525 0.191324 0.203037
0.248124 0.252543 0.269169
0.331511 0.335265 0.350634
0.454206 0.451026 0.459358
0.586114 0.585858 0.576434
0.687153 0.691041 0.661329
0.286418 0.289000 0.308800
0.413220 0.412580 0.423890
0.528771 0.524932 0.523131
0.644092 0.645093 0.625904
0.741427 0.746065 0.705208
0.814328 0.818766 0.765939
0.332555 0.336370 0.351629
0.473683 0.470076 0.475795
0.590014 0.589990 0.580102
0.712496 0.718819 0.681813
0.816727 0.821421 0.768008
0.874662 0.881468 0.825162
0.014063 0.015680 0.017670
0.036335 0.039899 0.043372
0.114290 0.120357 0.127077
0.232047 0.237321 0.252451
0.285093 0.287822 0.307317
0.319023 0.322460 0.339049
0.032496 0.035755 0.039106
0.055073 0.059883 0.063777
0.126998 0.132943 0.140591
0.254789 0.258885 0.276109
0.414807 0.414014 0.425293
0.474073 0.470436 0.476118
0.113338 0.119435 0.126076
0.138882 0.144674 0.153188
0.226658 0.232206 0.246848
0.360888 0.364691 0.377606
0.518486 0.514421 0.513988
0.611743 0.612146 0.598499
0.256883 0.260850 0.278282
0.314171 0.317491 0.334545
0.402246 0.402600 0.414209
0.521340 0.517360 0.516561
0.643897 0.644898 0.625733
0.737636 0.742684 0.702132
0.416773 0.415802 0.427015
0.529387 0.525609 0.523729
0.616663 0.617157 0.602661
0.701375 0.706612 0.672816
0.780856 0.782364 0.737319
0.840629 0.846342 0.791678
0.474434 0.470808 0.476435
0.592883 0.592828 0.582342
0.690602 0.694826 0.664112
0.784958 0.786288 0.740688
0.853745 0.859751 0.805228
0.899797 0.905870 0.849162
0.043891 0.048023 0.051789
0.109358 0.115462 0.121804
0.239713 0.244578 0.260423
0.397302 0.398120 0.409851
0.419397 0.418189 0.429328
0.435871 0.433277 0.443806
0.088783 0.094728 0.099623
0.121572 0.127596 0.134841
0.219034 0.224887 0.238865
0.369659 0.372912 0.385449
0.524053 0.520079 0.518907
0.574145 0.573236 0.565502
0.188309 0.194119 0.206009
0.225876 0.231473 0.246024
0.328753 0.332451 0.348095
0.470320 0.466767 0.472969
0.610126 0.610504 0.597131
0.691963 0.696309 0.665229
0.348888 0.353106 0.366766
0.401709 0.402106 0.413739
0.501234 0.497087 0.499010
0.607245 0.607568 0.594702
0.715706 0.721968 0.684407
0.795157 0.797494 0.749441
0.523967 0.519823 0.518645
0.617975 0.618482 0.603772
0.688435 0.692439 0.662361
0.760311 0.762942 0.720449
0.821158 0.826114 0.772262
0.869120 0.875676 0.819980
0.600189 0.600372 0.588733
0.699269 0.704305 0.671113
0.772708 0.774136 0.730489
0.835178 0.840787 0.786038
0.885435 0.892619 0.835251
0.917339 0.920678 0.865257
0.082350 0.088264 0.092683
0.164327 0.169912 0.180276
0.324956 0.328527 0.344549
0.499281 0.495174 0.497346
0.579016 0.578424 0.570056
0.587744 0.587616 0.578027
0.169711 0.175338 0.186044
0.230295 0.235624 0.250602
0.350628 0.354723 0.368316
0.504964 0.500737 0.502132
0.648286 0.649354 0.629444
0.697005 0.701827 0.669288
0.293120 0.295891 0.314989
0.349975 0.354064 0.367712
0.461445 0.458070 0.465486
0.588421 0.588238 0.578479
0.713112 0.719265 0.682313
0.785562 0.786868 0.741176
0.456440 0.453162 0.461262
0.519911 0.515853 0.515236
0.603986 0.604236 0.591907
0.700508 0.705678 0.672126
0.793545 0.795724 0.748049
0.848380 0.854264 0.799698
0.617798 0.618317 0.603638
0.693696 0.698201 0.666609
0.756295 0.759365 0.717214
0.814597 0.819059 0.766159
0.861540 0.867802 0.812845
0.899327 0.905449 0.848692
0.706526 0.712270 0.676997
0.781674 0.782748 0.737881
0.830118 0.835618 0.780801
0.877195 0.884092 0.827512
0.912261 0.916753 0.860923
0.935674 0.934838 0.880864
0.112892 0.118996 0.125600
0.202017 0.207999 0.220743
0.343706 0.347802 0.361968
0.535558 0.532146 0.529467
0.701241 0.706459 0.672718
0.719698 0.726302 0.687654
0.228043 0.233542 0.248295
0.336913 0.340832 0.355676
0.477150 0.473469 0.478718
0.632654 0.633448 0.616217
0.762374 0.764779 0.722115
0.804410 0.807761 0.757388
0.391882 0.393182 0.405078
0.501613 0.497456 0.499336
0.598914 0.599084 0.587628
0.708565 0.714461 0.678627
0.807596 0.811289 0.760153
0.855125 0.861155 0.806589
0.556847 0.554821 0.549352
0.630964 0.631727 0.614783
0.707930 0.713808 0.678132
0.790036 0.791843 0.745034
0.853733 0.859763 0.805130
0.895573 0.902049 0.845042
0.704720 0.710280 0.675526
0.764431 0.766629 0.723787
0.813486 0.817807 0.765255
0.857444 0.863566 0.808823
0.897252 0.903575 0.846659
0.926964 0.928069 0.873454
0.793326 0.795480 0.747878
0.839310 0.844999 0.790311
0.875389 0.882206 0.825827
0.907689 0.912981 0.856809
0.932634 0.932482 0.878276
0.949566 0.945818 0.894127
0.146151 0.151827 0.160891
0.242826 0.247538 0.263664
0.377050 0.379706 0.392016
0.548638 0.546093 0.541692
0.702058 0.707381 0.673378
0.765957 0.768002 0.725032
0.276646 0.279588 0.298833
0.394867 0.395892 0.407703
0.525591 0.521593 0.520201
0.663142 0.664900 0.641810
0.789645 0.791403 0.744710
0.842655 0.848417 0.793777
0.440906 0.437952 0.448188
0.554070 0.551861 0.546758
0.656196 0.657563 0.636060
0.760702 0.763290 0.720766
0.843180 0.848954 0.794302
0.889006 0.896147 0.838663
0.604504 0.604767 0.592377
0.694466 0.699062 0.667256
0.770199 0.771774 0.728444
0.834867 0.840470 0.785727
0.889110 0.896184 0.838761
0.922338 0.924523 0.869493
0.755386 0.758535 0.716463
0.811997 0.816178 0.763937
0.852921 0.858909 0.804349
0.891350 0.898253 0.840940
0.922966 0.925005 0.870048
0.945293 0.942388 0.889653
0.829740 0.835233 0.780392
0.870494 0.877098 0.821268
0.900816 0.906786 0.850144
0.927922 0.928838 0.874272
0.946795 0.943597 0.891215
0.959808 0.954803 0.905638
