LUTs/SPK Cube Block1 S16/TheBrim_SPK_Type-K_Block1_S16.cube
TITLE "TheBrim® SPK Block 1"
# TheBrim® d.o.o. Croatia
# Copyright: (C) Copyright 2020 TheBrim® d.o.o. Croatia
LUT_3D_SIZE 16
0.0022280000 0.0019840000 0.0018310000
0.0063114000 0.0051880000 0.0049618000
0.0089354000 0.0061708000 0.0059268000
0.0135440000 0.0075804000 0.0073850000
0.0321286000 0.0104130000 0.0109132000
0.0870060000 0.0177310000 0.0208740000
0.1682190000 0.0256958000 0.0359496000
0.2642942000 0.0367124000 0.0543942000
0.3726744000 0.0439636000 0.0736324000
0.4820742000 0.0380374000 0.0894346000
0.5747680000 0.0239560000 0.1032100000
0.6435916000 0.0064268000 0.1186948000
0.6887756000 0.0000000000 0.1342166000
0.7099670000 0.0000000000 0.1500304000
0.7155700000 0.0000000000 0.1547306000
0.7167360000 0.0000000000 0.1548160000
0.0070134000 0.0076784000 0.0057310000
0.0085812000 0.0079590000 0.0051328000
0.0108822000 0.0081298000 0.0053772000
0.0157650000 0.0087950000 0.0064514000
0.0398866000 0.0123660000 0.0107664000
0.0912596000 0.0174134000 0.0183048000
0.1698122000 0.0264156000 0.0332396000
0.2654482000 0.0372070000 0.0527772000
0.3725644000 0.0440430000 0.0735044000
0.4812806000 0.0381410000 0.0893984000
0.5739872000 0.0241334000 0.1031490000
0.6428836000 0.0068298000 0.1185788000
0.6887636000 0.0000000000 0.1342284000
0.7100036000 0.0000000000 0.1499082000
0.7157286000 0.0000000000 0.1546630000
0.7173216000 0.0000000000 0.1499332000
0.0073306000 0.0122130000 0.0074218000
0.0085084000 0.0126586000 0.0071594000
0.0139710000 0.0144712000 0.0065856000
0.0218814000 0.0160766000 0.0063538000
0.0483462000 0.0202148000 0.0102358000
0.1001646000 0.0266176000 0.0177552000
0.1685058000 0.0311886000 0.0290042000
0.2680850000 0.0384094000 0.0470274000
0.3755434000 0.0447388000 0.0676028000
0.4801634000 0.0389466000 0.0836362000
0.5761108000 0.0247500000 0.0985290000
0.6434568000 0.0096862000 0.1130614000
0.6903684000 0.0000000000 0.1290042000
0.7120056000 0.0000000000 0.1443176000
0.7170534000 0.0000000000 0.1471740000
0.7164976000 0.0000000000 0.1317142000
0.0074218000 0.0239868000 0.0092836000
0.0093200000 0.0251342000 0.0090454000
0.0148682000 0.0279236000 0.0084534000
0.0272094000 0.0326658000 0.0073062000
0.0621824000 0.0405394000 0.0080380000
0.1176392000 0.0502382000 0.0147158000
0.1901976000 0.0578248000 0.0259398000
0.2854310000 0.0609620000 0.0427554000
0.3776122000 0.0549076000 0.0543640000
0.4821536000 0.0464786000 0.0625852000
0.5756224000 0.0327516000 0.0727112000
0.6443972000 0.0176878000 0.0833008000
0.6905888000 0.0025146000 0.0956484000
0.7129946000 0.0000000000 0.1103944000
0.7181884000 0.0000000000 0.1132262000
0.7281006000 0.0130002000 0.1091370000
0.0040954000 0.0457276000 0.0107668000
0.0068606000 0.0471984000 0.0103392000
0.0135558000 0.0510558000 0.0095458000
0.0288452000 0.0595702000 0.0079590000
0.0670960000 0.0713682000 0.0063480000
0.1182250000 0.0804198000 0.0088196000
0.1948728000 0.0940798000 0.0191710000
0.3012330000 0.1066286000 0.0358154000
0.4055844000 0.1104252000 0.0475282000
0.5145084000 0.1141358000 0.0520384000
0.6119750000 0.1126406000 0.0592650000
0.6797790000 0.1097472000 0.0688962000
0.7281312000 0.1107422000 0.0811644000
0.7502078000 0.1044070000 0.0972292000
0.7566350000 0.1002078000 0.1015198000
0.7629822000 0.1175046000 0.0985720000
0.0000000000 0.0736690000 0.0086670000
0.0000000000 0.0771482000 0.0107486000
0.0024108000 0.0871338000 0.0155150000
0.0185670000 0.0962464000 0.0129092000
0.0630432000 0.1110352000 0.0099304000
0.1233520000 0.1246640000 0.0051880000
0.2015140000 0.1400692000 0.0072084000
0.3185058000 0.1628966000 0.0197082000
0.4318422000 0.1781068000 0.0297302000
0.5501102000 0.1910768000 0.0295842000
0.6508180000 0.1989140000 0.0317690000
0.7223146000 0.2055666000 0.0371342000
0.7691346000 0.2089782000 0.0487674000
0.7935670000 0.2094784000 0.0666258000
0.8024350000 0.2107300000 0.0695492000
0.8028560000 0.2112730000 0.0684200000
0.0000000000 0.1181518000 0.0101438000
0.0000000000 0.1197878000 0.0101072000
0.0000000000 0.1225100000 0.0099306000
0.0000000000 0.1466554000 0.0187870000
0.0366940000 0.1701296000 0.0160038000
0.1254270000 0.1896420000 0.0072204000
0.2202636000 0.2096866000 0.0000000000
0.3380616000 0.2331358000 0.0000000000
0.4642582000 0.2581906000 0.0000000000
0.5862244000 0.2791500000 0.0000000000
0.6922184000 0.2955932000 0.0000000000
0.7642700000 0.3069522000 0.0000000000
0.8138242000 0.3164122000 0.0000000000
0.8371458000 0.3169556000 0.0007568000
0.8477480000 0.3191160000 0.0018616000
0.8465450000 0.3154848000 0.0020264000
0.0000000000 0.1818848000 0.0154786000
0.0000000000 0.1865050000 0.0152648000
0.0000000000 0.1888180000 0.0133118000
0.0000000000 0.2018250000 0.0112120000
0.0000000000 0.2549866000 0.0212706000
0.1079166000 0.2812380000 0.0073300000
0.2407106000 0.3068728000 0.0000000000
0.3764280000 0.3328310000 0.0000000000
0.4980100000 0.3545166000 0.0000000000
0.6228820000 0.3776122000 0.0000000000
0.7303284000 0.3992000000 0.0000000000
0.8022458000 0.4141172000 0.0000000000
0.8506532000 0.4226074000 0.0000000000
0.8760562000 0.4259830000 0.0000000000
0.8880554000 0.4288332000 0.0000000000
0.8861634000 0.4205260000 0.0000000000
0.0000000000 0.2527406000 0.0154908000
0.0000000000 0.2574036000 0.0146424000
0.0000000000 0.2612122000 0.0131162000
0.0000000000 0.2798710000 0.0113404000
0.0000000000 0.3445924000 0.0087406000
0.0562316000 0.3813172000 0.0000000000
0.2563296000 0.4157410000 0.0000000000
0.4142396000 0.4477660000 0.0000000000
0.5474490000 0.4705750000 0.0000000000
0.6576234000 0.4856630000 0.0000000000
0.7670592000 0.5056154000 0.0000000000
0.8353696000 0.5214780000 0.0000000000
0.8831968000 0.5308410000 0.0000000000
0.9083984000 0.5347046000 0.0000000000
0.9201842000 0.5351138000 0.0000000000
0.9224918000 0.5323058000 0.0000000000
0.0000000000 0.3188534000 0.0078978000
0.0000000000 0.3243776000 0.0069580000
0.0000000000 0.3301450000 0.0051086000
0.0000000000 0.3585630000 0.0000000000
0.0000000000 0.4220156000 0.0000000000
0.0000000000 0.4777222000 0.0000000000
0.2526676000 0.5173276000 0.0000000000
0.4409792000 0.5572878000 0.0000000000
0.5886292000 0.5849976000 0.0000000000
0.7025696000 0.5976742000 0.0000000000
0.7962096000 0.6066164000 0.0000000000
0.8611820000 0.6172238000 0.0000000000
0.9071898000 0.6261534000 0.0000000000
0.9293460000 0.6282896000 0.0000000000
0.9371582000 0.6267398000 0.0000000000
0.9382022000 0.6206234000 0.0000000000
0.0000000000 0.3602290000 0.0000000000
0.0000000000 0.3680416000 0.0000000000
0.0000000000 0.3777650000 0.0000000000
0.0000000000 0.4095278000 0.0000000000
0.0000000000 0.4752260000 0.0000000000
0.0000000000 0.5436100000 0.0000000000
0.2454654000 0.5883548000 0.0000000000
0.4489746000 0.6303164000 0.0000000000
0.6137632000 0.6633304000 0.0000000000
0.7365112000 0.6841186000 0.0000000000
0.8161010000 0.6786190000 0.0000000000
0.8799258000 0.6883298000 0.0000000000
0.9183594000 0.6919252000 0.0000000000
0.9367800000 0.6906862000 0.0000000000
0.9433286000 0.6869938000 0.0000000000
0.9454650000 0.6821590000 0.0000000000
0.0000000000 0.3916748000 0.0000000000
0.0000000000 0.3990296000 0.0000000000
0.0000000000 0.4178468000 0.0000000000
0.0000000000 0.4625732000 0.0000000000
0.0000000000 0.5167482000 0.0000000000
0.0000000000 0.5753050000 0.0000000000
0.2493466000 0.6226680000 0.0000000000
0.4488892000 0.6674864000 0.0000000000
0.6277952000 0.7052792000 0.0000000000
0.7529540000 0.7271118000 0.0000000000
0.8563724000 0.7418702000 0.0000000000
0.8884764000 0.7258790000 0.0000000000
0.9215396000 0.7245852000 0.0000000000
0.9385988000 0.7209532000 0.0000000000
0.9446654000 0.7168212000 0.0000000000
0.9469418000 0.7127504000 0.0000000000
0.0000000000 0.4884464000 0.0000000000
0.0000000000 0.4974612000 0.0000000000
0.0000000000 0.5184996000 0.0000000000
0.0000000000 0.5526002000 0.0000000000
0.0000000000 0.5822146000 0.0000000000
0.1782412000 0.6146730000 0.0000000000
0.3644226000 0.6541502000 0.0000000000
0.4984372000 0.6869450000 0.0000000000
0.6427794000 0.7207950000 0.0000000000
0.7566102000 0.7444704000 0.0000000000
0.8576230000 0.7614380000 0.0000000000
0.9119388000 0.7609866000 0.0000000000
0.9207336000 0.7413576000 0.0000000000
0.9380674000 0.7387392000 0.0000000000
0.9449644000 0.7356386000 0.0000000000
0.9458066000 0.7310176000 0.0000000000
0.0000000000 0.5588314000 0.0000000000
0.0000000000 0.5644528000 0.0000000000
0.0000000000 0.5747072000 0.0000000000
0.0172854000 0.5909120000 0.0000000000
0.1806150000 0.6152406000 0.0000000000
0.3268924000 0.6450076000 0.0000000000
0.4536742000 0.6762208000 0.0000000000
0.5710326000 0.7042300000 0.0000000000
0.6787112000 0.7289670000 0.0000000000
0.7790954000 0.7495792000 0.0000000000
0.8656736000 0.7658388000 0.0000000000
0.9177184000 0.7703186000 0.0000000000
0.9189880000 0.7477232000 0.0000000000
0.9371886000 0.7463442000 0.0000000000
0.9432738000 0.7433288000 0.0000000000
0.9442504000 0.7388246000 0.0000000000
0.0534424000 0.5976382000 0.0000000000
0.0909118000 0.6026244000 0.0000000000
0.1648988000 0.6128784000 0.0000000000
0.2493958000 0.6274720000 0.0000000000
0.3389468000 0.6479184000 0.0000000000
0.4306578000 0.6705930000 0.0000000000
0.5217960000 0.6925656000 0.0000000000
0.6370728000 0.7194704000 0.0000000000
0.7253600000 0.7388426000 0.0000000000
0.8072570000 0.7550416000 0.0000000000
0.8753482000 0.7676760000 0.0000000000
0.9198424000 0.7697512000 0.0000000000
0.9178100000 0.7481020000 0.0000000000
0.9340214000 0.7475460000 0.0000000000
0.9459108000 0.7504704000 0.0000000000
0.9492130000 0.7488768000 0.0000000000
0.2916560000 0.6366580000 0.0000000000
0.3133670000 0.6417476000 0.0000000000
0.3485050000 0.6501888000 0.0000000000
0.4011044000 0.6632080000 0.0000000000
0.4574406000 0.6771848000 0.0000000000
0.5193180000 0.6919560000 0.0000000000
0.6048036000 0.7120488000 0.0000000000
0.6867312000 0.7307560000 0.0000000000
0.7621156000 0.7462282000 0.0000000000
0.8360718000 0.7604062000 0.0000000000
0.8865660000 0.7697450000 0.0000000000
0.9204286000 0.7670962000 0.0000000000
0.9183716000 0.7480834000 0.0000000000
0.9335448000 0.7475710000 0.0000000000
0.9410278000 0.7466186000 0.0000000000
0.9483030000 0.7495420000 0.0000000000
0.0060300000 0.0056212000 0.0065184000
0.0066954000 0.0056578000 0.0069092000
0.0090088000 0.0064210000 0.0077696000
0.0133116000 0.0077700000 0.0090516000
0.0331846000 0.0112064000 0.0134458000
0.0898684000 0.0182250000 0.0240420000
0.1724118000 0.0245668000 0.0391536000
0.2712156000 0.0375426000 0.0563480000
0.3782104000 0.0439940000 0.0745542000
0.4846378000 0.0378238000 0.0898254000
0.5771668000 0.0237186000 0.1038816000
0.6450564000 0.0060302000 0.1191284000
0.6897824000 0.0000000000 0.1348572000
0.7104920000 0.0000000000 0.1504640000
0.7156070000 0.0000000000 0.1547546000
0.7164244000 0.0000000000 0.1551272000
0.0054320000 0.0069398000 0.0066042000
0.0073856000 0.0071168000 0.0066104000
0.0096678000 0.0075376000 0.0071286000
0.0155518000 0.0088502000 0.0086608000
0.0438172000 0.0128788000 0.0137818000
0.0982846000 0.0196654000 0.0238346000
0.1803896000 0.0284240000 0.0392704000
0.2711366000 0.0376648000 0.0556334000
0.3799196000 0.0440428000 0.0747804000
0.4848936000 0.0378970000 0.0899660000
0.5770388000 0.0239686000 0.1041870000
0.6446842000 0.0062742000 0.1190306000
0.6899352000 0.0000000000 0.1349974000
0.7104308000 0.0000000000 0.1505982000
0.7156802000 0.0000000000 0.1547610000
0.7175292000 0.0000000000 0.1514040000
0.0051268000 0.0105714000 0.0069216000
0.0076112000 0.0116028000 0.0076844000
0.0130494000 0.0133608000 0.0072142000
0.0211184000 0.0145444000 0.0072448000
0.0523010000 0.0197936000 0.0126770000
0.1029174000 0.0246524000 0.0210636000
0.1737490000 0.0293886000 0.0313660000
0.2724124000 0.0386476000 0.0499390000
0.3806760000 0.0447020000 0.0699402000
0.4841184000 0.0386412000 0.0857056000
0.5794494000 0.0243100000 0.1008666000
0.6455934000 0.0091860000 0.1151364000
0.6917112000 0.0000000000 0.1318542000
0.7125368000 0.0000000000 0.1465390000
0.7171570000 0.0000000000 0.1488220000
0.7167604000 0.0000000000 0.1336000000
0.0052430000 0.0228760000 0.0086978000
0.0075498000 0.0243714000 0.0095462000
0.0131410000 0.0270570000 0.0088808000
0.0268310000 0.0319214000 0.0076662000
0.0653868000 0.0398192000 0.0097104000
0.1222292000 0.0489196000 0.0168150000
0.1950258000 0.0554446000 0.0277100000
0.2876464000 0.0568602000 0.0441894000
0.3802186000 0.0524294000 0.0548338000
0.4844970000 0.0441406000 0.0638794000
0.5785092000 0.0300108000 0.0749268000
0.6454896000 0.0149780000 0.0847410000
0.6905698000 0.0000000000 0.0979678000
0.7122008000 0.0000000000 0.1121096000
0.7165954000 0.0000000000 0.1149600000
0.7270938000 0.0111082000 0.1096498000
0.0013736000 0.0434878000 0.0094852000
0.0041016000 0.0457212000 0.0107728000
0.0107300000 0.0494324000 0.0099180000
0.0259460000 0.0574950000 0.0083372000
0.0668516000 0.0703860000 0.0062868000
0.1205568000 0.0793884000 0.0094606000
0.1996334000 0.0928160000 0.0205812000
0.3042848000 0.1043088000 0.0368956000
0.4074462000 0.1078432000 0.0482544000
0.5158022000 0.1115786000 0.0529112000
0.6136598000 0.1090946000 0.0605530000
0.6801150000 0.1057680000 0.0701296000
0.7274292000 0.1055422000 0.0827270000
0.7489806000 0.0992004000 0.0983460000
0.7542600000 0.0929990000 0.1022400000
0.7625000000 0.1161986000 0.0993106000
0.0000000000 0.0725828000 0.0084596000
0.0000000000 0.0736752000 0.0087280000
0.0002136000 0.0836426000 0.0148438000
0.0155276000 0.0939698000 0.0133300000
0.0597902000 0.1098452000 0.0101382000
0.1232174000 0.1236936000 0.0050900000
0.2032044000 0.1393066000 0.0074704000
0.3208680000 0.1620360000 0.0204286000
0.4336550000 0.1768006000 0.0302798000
0.5514162000 0.1888182000 0.0305360000
0.6524534000 0.1971256000 0.0328122000
0.7232968000 0.2032962000 0.0387814000
0.7693482000 0.2068908000 0.0506470000
0.7929016000 0.2068422000 0.0685608000
0.8009826000 0.2074038000 0.0711916000
0.8026792000 0.2108094000 0.0691284000
0.0000000000 0.1165648000 0.0098942000
0.0000000000 0.1194888000 0.0101504000
0.0000000000 0.1218814000 0.0098450000
0.0000000000 0.1452574000 0.0185182000
0.0349548000 0.1693360000 0.0161192000
0.1253294000 0.1887512000 0.0071472000
0.2206178000 0.2087524000 0.0000000000
0.3389466000 0.2321592000 0.0000000000
0.4650024000 0.2567138000 0.0000000000
0.5877382000 0.2778684000 0.0000000000
0.6936220000 0.2934390000 0.0000000000
0.7648618000 0.3049986000 0.0000000000
0.8138366000 0.3142026000 0.0000000000
0.8367124000 0.3146178000 0.0015504000
0.8467710000 0.3165526000 0.0031434000
0.8459288000 0.3138672000 0.0029784000
0.0000000000 0.1815858000 0.0156190000
0.0000000000 0.1862978000 0.0154054000
0.0000000000 0.1884886000 0.0133912000
0.0000000000 0.2012208000 0.0112670000
0.0000000000 0.2541078000 0.0213258000
0.1099608000 0.2801392000 0.0070804000
0.2422792000 0.3058592000 0.0000000000
0.3771728000 0.3317136000 0.0000000000
0.4990660000 0.3530520000 0.0000000000
0.6236450000 0.3759644000 0.0000000000
0.7312560000 0.3977480000 0.0000000000
0.8026672000 0.4122438000 0.0000000000
0.8506958000 0.4207028000 0.0000000000
0.8755982000 0.4235838000 0.0000000000
0.8875854000 0.4268980000 0.0000000000
0.8857298000 0.4192320000 0.0000000000
0.0000000000 0.2526856000 0.0156492000
0.0000000000 0.2572144000 0.0147948000
0.0000000000 0.2608948000 0.0132996000
0.0000000000 0.2797912000 0.0114930000
0.0000000000 0.3453186000 0.0093810000
0.0573916000 0.3806460000 0.0000000000
0.2565552000 0.4144286000 0.0000000000
0.4151366000 0.4465392000 0.0000000000
0.5463564000 0.4682922000 0.0000000000
0.6580202000 0.4841004000 0.0000000000
0.7675778000 0.5039488000 0.0000000000
0.8358152000 0.5199460000 0.0000000000
0.8832398000 0.5292238000 0.0000000000
0.9082888000 0.5332092000 0.0000000000
0.9197634000 0.5331544000 0.0000000000
0.9222042000 0.5312620000 0.0000000000
0.0000000000 0.3180296000 0.0081178000
0.0000000000 0.3241762000 0.0071044000
0.0000000000 0.3300046000 0.0052672000
0.0000000000 0.3585144000 0.0000000000
0.0000000000 0.4220518000 0.0000000000
0.0000000000 0.4779968000 0.0000000000
0.2542910000 0.5174496000 0.0000000000
0.4414610000 0.5567200000 0.0000000000
0.5897032000 0.5841980000 0.0000000000
0.7007748000 0.5953128000 0.0000000000
0.7964418000 0.6057558000 0.0000000000
0.8616822000 0.6162716000 0.0000000000
0.9072202000 0.6252500000 0.0000000000
0.9296938000 0.6279966000 0.0000000000
0.9371036000 0.6260618000 0.0000000000
0.9384096000 0.6204042000 0.0000000000
0.0000000000 0.3605106000 0.0000000000
0.0000000000 0.3682492000 0.0000000000
0.0000000000 0.3782408000 0.0000000000
0.0000000000 0.4093566000 0.0000000000
0.0000000000 0.4757816000 0.0000000000
0.0000000000 0.5438292000 0.0000000000
0.2472900000 0.5883974000 0.0000000000
0.4499880000 0.6302672000 0.0000000000
0.6146972000 0.6630798000 0.0000000000
0.7369444000 0.6835080000 0.0000000000
0.8165894000 0.6783816000 0.0000000000
0.8802614000 0.6876282000 0.0000000000
0.9185732000 0.6914248000 0.0000000000
0.9370242000 0.6904174000 0.0000000000
0.9433716000 0.6867246000 0.0000000000
0.9459230000 0.6823848000 0.0000000000
0.0000000000 0.3925540000 0.0000000000
0.0000000000 0.3998902000 0.0000000000
0.0000000000 0.4188048000 0.0000000000
0.0000000000 0.4636898000 0.0000000000
0.0000000000 0.5176938000 0.0000000000
0.0000000000 0.5755190000 0.0000000000
0.2521974000 0.6231810000 0.0000000000
0.4499942000 0.6677306000 0.0000000000
0.6290650000 0.7054992000 0.0000000000
0.7545594000 0.7273440000 0.0000000000
0.8569154000 0.7417664000 0.0000000000
0.8890990000 0.7257998000 0.0000000000
0.9218446000 0.7244874000 0.0000000000
0.9387818000 0.7207948000 0.0000000000
0.9447388000 0.7166442000 0.0000000000
0.9481868000 0.7138612000 0.0000000000
0.0000000000 0.4897338000 0.0000000000
0.0000000000 0.4990600000 0.0000000000
0.0000000000 0.5206360000 0.0000000000
0.0000000000 0.5542114000 0.0000000000
0.0000000000 0.5835020000 0.0000000000
0.1859498000 0.6158630000 0.0000000000
0.3667968000 0.6547486000 0.0000000000
0.5007812000 0.6875180000 0.0000000000
0.6442076000 0.7211304000 0.0000000000
0.7575500000 0.7446348000 0.0000000000
0.8581726000 0.7614866000 0.0000000000
0.9117674000 0.7604554000 0.0000000000
0.9209352000 0.7413086000 0.0000000000
0.9383058000 0.7387148000 0.0000000000
0.9454044000 0.7359254000 0.0000000000
0.9498598000 0.7352904000 0.0000000000
0.0000000000 0.5600648000 0.0000000000
0.0000000000 0.5656922000 0.0000000000
0.0000000000 0.5759584000 0.0000000000
0.0242860000 0.5921388000 0.0000000000
0.1892212000 0.6165894000 0.0000000000
0.3316774000 0.6461364000 0.0000000000
0.4560912000 0.6768006000 0.0000000000
0.5728030000 0.7046506000 0.0000000000
0.6800048000 0.7292846000 0.0000000000
0.7806396000 0.7498902000 0.0000000000
0.8667478000 0.7660524000 0.0000000000
0.9180662000 0.7701846000 0.0000000000
0.9192504000 0.7477234000 0.0000000000
0.9374024000 0.7463198000 0.0000000000
0.9439698000 0.7439148000 0.0000000000
0.9464174000 0.7410402000 0.0000000000
0.0653622000 0.5990844000 0.0000000000
0.1035706000 0.6042420000 0.0000000000
0.1745360000 0.6143554000 0.0000000000
0.2559876000 0.6288636000 0.0000000000
0.3445494000 0.6492796000 0.0000000000
0.4347166000 0.6715822000 0.0000000000
0.5245174000 0.6932066000 0.0000000000
0.6395020000 0.7200256000 0.0000000000
0.7273986000 0.7392456000 0.0000000000
0.8094606000 0.7554320000 0.0000000000
0.8764040000 0.7678834000 0.0000000000
0.9202822000 0.7695194000 0.0000000000
0.9180482000 0.7481382000 0.0000000000
0.9371886000 0.7506348000 0.0000000000
0.9486332000 0.7531856000 0.0000000000
0.9523496000 0.7521364000 0.0000000000
0.3013126000 0.6389218000 0.0000000000
0.3223026000 0.6438296000 0.0000000000
0.3564392000 0.6521180000 0.0000000000
0.4072086000 0.6647644000 0.0000000000
0.4623534000 0.6783508000 0.0000000000
0.5237118000 0.6930114000 0.0000000000
0.6092228000 0.7130798000 0.0000000000
0.6893312000 0.7313292000 0.0000000000
0.7652770000 0.7468628000 0.0000000000
0.8385012000 0.7608458000 0.0000000000
0.8878846000 0.7700074000 0.0000000000
0.9203066000 0.7665464000 0.0000000000
0.9186160000 0.7480222000 0.0000000000
0.9336972000 0.7475462000 0.0000000000
0.9411192000 0.7466494000 0.0000000000
0.9516662000 0.7530582000 0.0000000000
0.0067318000 0.0066896000 0.0086428000
0.0071780000 0.0065000000 0.0090698000
0.0088682000 0.0063294000 0.0105042000
0.0128356000 0.0070680000 0.0119994000
0.0336672000 0.0098572000 0.0171204000
0.0903748000 0.0163878000 0.0284976000
0.1699764000 0.0233462000 0.0433532000
0.2696840000 0.0363644000 0.0615300000
0.3781312000 0.0436766000 0.0793886000
0.4866636000 0.0374636000 0.0935122000
0.5810062000 0.0232728000 0.1068726000
0.6474550000 0.0049684000 0.1207214000
0.6909304000 0.0000000000 0.1362734000
0.7110654000 0.0000000000 0.1518680000
0.7155396000 0.0000000000 0.1564940000
0.7161070000 0.0000000000 0.1632690000
0.0059388000 0.0079956000 0.0094786000
0.0079040000 0.0083128000 0.0101442000
0.0095824000 0.0074278000 0.0110966000
0.0151428000 0.0086548000 0.0128110000
0.0446226000 0.0130798000 0.0190306000
0.1008668000 0.0195008000 0.0299436000
0.1795228000 0.0278320000 0.0444704000
0.2715882000 0.0373288000 0.0607362000
0.3797850000 0.0439086000 0.0787110000
0.4886716000 0.0374084000 0.0929504000
0.5816224000 0.0234682000 0.1064332000
0.6473450000 0.0052122000 0.1205018000
0.6911074000 0.0000000000 0.1361878000
0.7110778000 0.0000000000 0.1516054000
0.7156310000 0.0000000000 0.1559632000
0.7196596000 0.0000000000 0.1638732000
0.0019958000 0.0105102000 0.0090696000
0.0055112000 0.0116152000 0.0104490000
0.0112546000 0.0138000000 0.0130064000
0.0202636000 0.0158628000 0.0145934000
0.0527830000 0.0202454000 0.0199282000
0.1075074000 0.0259520000 0.0289304000
0.1856808000 0.0339476000 0.0433778000
0.2787598000 0.0426818000 0.0593872000
0.3842164000 0.0462036000 0.0762086000
0.4893312000 0.0389158000 0.0897034000
0.5849062000 0.0241640000 0.1057432000
0.6489930000 0.0085574000 0.1193602000
0.6925358000 0.0000000000 0.1355532000
0.7134644000 0.0000000000 0.1505370000
0.7180298000 0.0000000000 0.1519166000
0.7239198000 0.0000000000 0.1560484000
0.0000000000 0.0201780000 0.0077452000
0.0036256000 0.0234988000 0.0104002000
0.0099552000 0.0267700000 0.0133546000
0.0253480000 0.0324950000 0.0136656000
0.0676636000 0.0407838000 0.0165770000
0.1246708000 0.0488528000 0.0243958000
0.1984496000 0.0544494000 0.0356692000
0.2886290000 0.0549562000 0.0484372000
0.3836120000 0.0504702000 0.0576292000
0.4881106000 0.0421998000 0.0662172000
0.5836608000 0.0279172000 0.0799378000
0.6487304000 0.0131346000 0.0894346000
0.6917358000 0.0000000000 0.1038452000
0.7125426000 0.0000000000 0.1172488000
0.7164548000 0.0000000000 0.1173460000
0.7262270000 0.0079652000 0.1209594000
0.0000000000 0.0380616000 0.0059388000
0.0000000000 0.0421022000 0.0085020000
0.0060302000 0.0482296000 0.0132324000
0.0227294000 0.0571290000 0.0123900000
0.0662474000 0.0710510000 0.0110168000
0.1231080000 0.0799376000 0.0145628000
0.2039062000 0.0927004000 0.0264040000
0.3083618000 0.1029726000 0.0416018000
0.4095702000 0.1053526000 0.0503844000
0.5174072000 0.1074220000 0.0552244000
0.6156918000 0.1041080000 0.0628598000
0.6809388000 0.0993532000 0.0723998000
0.7258180000 0.0972412000 0.0849058000
0.7469788000 0.0899964000 0.1006836000
0.7519774000 0.0859374000 0.1037172000
0.7626768000 0.1148006000 0.1112060000
0.0000000000 0.0675782000 0.0063724000
0.0000000000 0.0721864000 0.0084592000
0.0000000000 0.0776856000 0.0115908000
0.0121276000 0.0914552000 0.0138122000
0.0565918000 0.1083740000 0.0105226000
0.1238034000 0.1230592000 0.0053588000
0.2054200000 0.1386290000 0.0096802000
0.3239382000 0.1607788000 0.0226498000
0.4368832000 0.1742430000 0.0324278000
0.5530274000 0.1854734000 0.0325560000
0.6552798000 0.1939268000 0.0349856000
0.7245974000 0.1998110000 0.0410948000
0.7694826000 0.2028808000 0.0547976000
0.7921692000 0.2033632000 0.0714416000
0.7991636000 0.2028686000 0.0761048000
0.8036558000 0.2110778000 0.0876588000
0.0000000000 0.1140808000 0.0095640000
0.0000000000 0.1194092000 0.0104490000
0.0000000000 0.1212038000 0.0099304000
0.0000000000 0.1428164000 0.0179624000
