LUTs/SPK Cube Block1 S16/TheBrim_SPK_Type-G_Block1_S16.cube
TITLE "TheBrim® SPK Block 1"
# © Copyright 2021 - TheBrim® d.o.o. Croatia
LUT_3D_SIZE 16
DOMAIN_MIN 0.000000 0.000000 0.000000
DOMAIN_MAX 1.000000 1.000000 1.000000
0.067048 0.020356 0.045258
0.069960 0.024591 0.048969
0.082417 0.025721 0.046735
0.106313 0.029499 0.045686
0.162661 0.033228 0.040430
0.264866 0.033631 0.029175
0.424762 0.012250 0.017407
0.552136 0.015534 0.016284
0.671315 0.019001 0.015662
0.741158 0.021039 0.015302
0.803922 0.022889 0.015534
0.843009 0.024048 0.015912
0.856785 0.024457 0.016065
0.864311 0.024695 0.016144
0.872551 0.024921 0.016229
0.878721 0.025116 0.016297
0.067933 0.035694 0.055036
0.071443 0.033222 0.050794
0.081709 0.032239 0.047272
0.114284 0.034894 0.044001
0.176815 0.040015 0.037562
0.281022 0.041865 0.025702
0.415790 0.024494 0.017859
0.548693 0.015430 0.016297
0.670875 0.018994 0.015662
0.740652 0.021033 0.015302
0.803275 0.022858 0.015534
0.842789 0.024048 0.015912
0.857041 0.024469 0.016065
0.864555 0.024701 0.016150
0.873234 0.024945 0.016236
0.892821 0.025513 0.016461
0.068788 0.059675 0.065968
0.072425 0.059016 0.061738
0.082881 0.057227 0.055012
0.112746 0.058375 0.047327
0.171072 0.064240 0.040815
0.271971 0.070570 0.027948
0.388293 0.065364 0.019446
0.528045 0.038770 0.016358
0.665663 0.018836 0.015686
0.748165 0.021247 0.015259
0.810806 0.023090 0.015589
0.856620 0.024457 0.016065
0.873484 0.024964 0.016254
0.887230 0.025354 0.016394
0.896025 0.025617 0.016480
0.916222 0.026600 0.017047
0.070802 0.094655 0.081855
0.073664 0.092952 0.076551
0.087355 0.093312 0.067665
0.116298 0.095045 0.056287
0.172769 0.102699 0.047285
0.264750 0.110610 0.032831
0.379919 0.115096 0.020447
0.490639 0.109755 0.016687
0.627869 0.089363 0.015735
0.741720 0.063771 0.015253
0.830143 0.037104 0.015894
0.890599 0.028968 0.016461
0.917479 0.026691 0.017102
0.925896 0.027265 0.017475
0.930901 0.027594 0.017694
0.935534 0.035212 0.018451
0.076973 0.158297 0.109621
0.076417 0.151894 0.103163
0.091115 0.147005 0.090932
0.127645 0.151272 0.075843
0.171420 0.156191 0.059907
0.264598 0.165090 0.040394
0.370251 0.170443 0.023597
0.477955 0.176516 0.017993
0.584057 0.170004 0.015778
0.708687 0.157455 0.015625
0.792654 0.146914 0.016400
0.859245 0.129781 0.018421
0.893132 0.120192 0.020630
0.905364 0.117415 0.021491
0.912761 0.104854 0.021399
0.910674 0.117000 0.021906
0.086213 0.255406 0.174289
0.084291 0.236039 0.158517
0.082625 0.217325 0.140816
0.120674 0.215946 0.117348
0.181808 0.225064 0.095937
0.257420 0.232273 0.067323
0.369799 0.243204 0.039124
0.476930 0.252012 0.019184
0.567077 0.252934 0.016217
0.687349 0.248942 0.016138
0.773465 0.237644 0.017395
0.837333 0.230234 0.022132
0.871373 0.217130 0.024207
0.890343 0.211618 0.025446
0.895372 0.208096 0.025678
0.896300 0.207370 0.025696
0.103139 0.349383 0.245682
0.102919 0.348241 0.242893
0.100459 0.334850 0.219547
0.093086 0.295995 0.183151
0.176962 0.301897 0.145394
0.270823 0.320262 0.114156
0.367388 0.327294 0.076899
0.473622 0.339281 0.033271
0.569305 0.341967 0.021192
0.662696 0.343792 0.020514
0.750912 0.336840 0.024414
0.816721 0.325512 0.028455
0.854868 0.315050 0.030347
0.878611 0.303996 0.030964
0.885539 0.295055 0.030463
0.886577 0.292259 0.030298
0.119191 0.418524 0.295012
0.119216 0.418592 0.293205
0.119033 0.417414 0.282402
0.115480 0.401782 0.241135
0.139730 0.387793 0.209567
0.276097 0.408069 0.166024
0.373230 0.421552 0.127785
0.478328 0.436225 0.074220
0.583307 0.446015 0.034815
0.674067 0.446888 0.034437
0.744094 0.443397 0.037519
0.810220 0.434870 0.041767
0.847294 0.421357 0.042988
0.869261 0.408051 0.042994
0.874827 0.396991 0.041968
0.874913 0.382898 0.040192
0.134316 0.477833 0.339312
0.134163 0.477473 0.336443
0.133706 0.476106 0.331237
0.134078 0.478511 0.294237
0.136605 0.487672 0.264891
0.273075 0.498381 0.217392
0.393817 0.518053 0.176376
0.495528 0.535430 0.124025
0.598206 0.548449 0.068739
0.694405 0.555309 0.053364
0.763503 0.548730 0.055103
0.819321 0.543108 0.057075
0.859397 0.528869 0.058430
0.884324 0.513951 0.058466
0.892161 0.499895 0.057221
0.891466 0.489137 0.055708
0.145248 0.518553 0.375427
0.145180 0.518413 0.374115
0.145083 0.518224 0.371679
0.147951 0.532146 0.347796
0.152615 0.553332 0.309117
0.263767 0.571795 0.266477
0.403381 0.592169 0.219998
0.516551 0.618756 0.173074
0.610834 0.640473 0.121529
0.708174 0.652149 0.069587
0.785721 0.656306 0.073396
0.840385 0.649476 0.074733
0.869364 0.635486 0.073829
0.894524 0.626947 0.074305
0.907012 0.618872 0.074226
0.906322 0.600067 0.071705
0.154543 0.553857 0.402686
0.154415 0.553448 0.400415
0.154214 0.552782 0.395691
0.157479 0.567755 0.377362
0.165365 0.603058 0.340600
0.290257 0.640436 0.306126
0.426453 0.679432 0.270719
0.546300 0.717549 0.220755
0.639307 0.746560 0.166598
0.731276 0.768356 0.089204
0.805905 0.763943 0.088228
0.864695 0.763131 0.090614
0.902586 0.755148 0.091066
0.919994 0.738228 0.089406
0.925286 0.718495 0.086970
0.919432 0.687831 0.082826
0.158273 0.568634 0.410718
0.158846 0.571020 0.410010
0.161642 0.582434 0.405591
0.169949 0.616431 0.390552
0.192233 0.658973 0.369299
0.359570 0.694990 0.336620
0.470939 0.740298 0.311485
0.577337 0.781564 0.276170
0.667414 0.811942 0.233323
0.754794 0.837504 0.175113
0.827347 0.856327 0.096986
0.883244 0.850578 0.098897
0.919390 0.840433 0.099141
0.939788 0.823825 0.098366
0.945678 0.801956 0.096840
0.942650 0.774838 0.094411
0.173861 0.633112 0.376800
0.176101 0.642115 0.373034
0.196384 0.657984 0.368237
0.280961 0.676649 0.352325
0.381805 0.705080 0.335216
0.457569 0.739846 0.322045
0.541332 0.776950 0.306059
0.618616 0.808634 0.283024
0.690974 0.841685 0.262071
0.770248 0.873423 0.231376
0.833426 0.892100 0.164407
0.893120 0.905925 0.103407
0.927562 0.896507 0.103621
0.951061 0.879698 0.102882
0.958727 0.863273 0.101820
0.959002 0.844462 0.100386
0.298955 0.680116 0.349133
0.322521 0.685640 0.345519
0.360174 0.696718 0.338927
0.404541 0.714900 0.331652
0.459034 0.740468 0.321648
0.522344 0.768649 0.309752
0.592383 0.797269 0.292290
0.654139 0.824710 0.272136
0.715511 0.854032 0.257115
0.786410 0.879197 0.225858
0.842850 0.901323 0.166390
0.896562 0.927971 0.105202
0.933696 0.928087 0.106160
0.958569 0.914269 0.105696
0.966332 0.899504 0.104762
0.968493 0.884367 0.103639
0.420887 0.722365 0.329436
0.432721 0.728133 0.327227
0.453852 0.738064 0.322716
0.485878 0.752871 0.316497
0.528740 0.771542 0.308269
0.578662 0.791934 0.298003
0.631098 0.814670 0.280534
0.686793 0.839518 0.262718
0.748641 0.867173 0.246134
0.802097 0.884898 0.218033
0.851066 0.907073 0.149825
0.900029 0.928435 0.105360
0.932055 0.929473 0.106227
0.955138 0.923522 0.106337
0.966424 0.923040 0.106557
0.971014 0.922728 0.106642
0.505791 0.761379 0.313146
0.515923 0.765805 0.311174
0.533245 0.773550 0.307335
0.561639 0.785544 0.302324
0.594635 0.798007 0.290849
0.629999 0.814115 0.280705
0.669154 0.830948 0.265574
0.721297 0.856931 0.255766
0.775180 0.875785 0.232389
0.819449 0.890929 0.198703
0.861051 0.913878 0.130526
0.903593 0.929430 0.105550
0.932952 0.929290 0.106227
0.954437 0.923687 0.106331
0.965063 0.914940 0.105904
0.970642 0.916655 0.106172
0.066828 0.026758 0.061543
0.069123 0.025727 0.057765
0.077955 0.025953 0.053370
0.099220 0.029371 0.051637
0.160018 0.033240 0.045972
0.267308 0.033307 0.035035
0.447767 0.012592 0.016968
0.563720 0.015869 0.016229
0.675453 0.019123 0.015644
0.742794 0.021094 0.015302
0.805405 0.022925 0.015534
0.843815 0.024079 0.015912
0.857237 0.024488 0.016065
0.864750 0.024695 0.016162
0.872630 0.024952 0.016229
0.877165 0.025080 0.016297
0.066297 0.031635 0.061048
0.068293 0.028040 0.053938
0.080153 0.027631 0.048591
0.113252 0.031696 0.046558
0.185586 0.035315 0.038666
0.285368 0.036347 0.028296
0.436384 0.012409 0.017176
0.560797 0.015796 0.016236
0.676832 0.019165 0.015631
0.743038 0.021100 0.015296
0.805167 0.022925 0.015534
0.843784 0.024079 0.015912
0.857560 0.024494 0.016065
0.864695 0.024695 0.016162
0.873021 0.024958 0.016236
0.891307 0.025483 0.016431
0.067317 0.059706 0.071778
0.069374 0.055500 0.064607
0.080323 0.052100 0.055280
0.117012 0.052918 0.046876
0.182229 0.060273 0.040955
0.287279 0.063508 0.027564
0.403369 0.055219 0.018744
0.540612 0.029651 0.016309
0.671589 0.019013 0.015662
0.748940 0.021283 0.015259
0.810684 0.023090 0.015589
0.854923 0.024421 0.016040
0.870317 0.024866 0.016217
0.884263 0.025287 0.016358
0.893498 0.025531 0.016461
0.915105 0.026538 0.016999
0.071522 0.103517 0.093330
0.070765 0.094447 0.082350
0.082234 0.093062 0.070900
0.115383 0.093300 0.056367
0.178067 0.099898 0.047462
0.274748 0.106667 0.032905
0.388989 0.109474 0.020026
0.500252 0.102815 0.016492
0.635102 0.083326 0.015705
0.747207 0.056941 0.015265
0.833024 0.033002 0.015894
0.891319 0.026429 0.016449
0.915239 0.026532 0.017011
0.924089 0.027124 0.017383
0.928692 0.027436 0.017597
0.935662 0.033912 0.018347
0.078102 0.170877 0.120778
0.076973 0.158151 0.109438
0.082564 0.147262 0.095540
0.122652 0.149117 0.077491
0.170663 0.154287 0.058784
0.268595 0.162661 0.038453
0.375915 0.167520 0.022364
0.482441 0.172909 0.017798
0.588836 0.166983 0.015753
0.711763 0.154250 0.015625
0.796738 0.142116 0.016407
0.861479 0.125295 0.018360
0.895128 0.115090 0.020526
0.906493 0.112880 0.021332
0.914263 0.098915 0.021198
0.911034 0.115706 0.021851
0.087190 0.263774 0.186294
0.085951 0.253043 0.170944
0.082905 0.220810 0.146786
0.113326 0.213462 0.119600
0.178317 0.224100 0.096980
0.257133 0.230753 0.066499
0.371447 0.241392 0.038068
0.479133 0.250382 0.019086
0.568707 0.250968 0.016132
0.691304 0.245780 0.016144
0.775595 0.234940 0.017401
0.838956 0.226950 0.022071
0.872654 0.214463 0.024152
0.890782 0.208872 0.025336
0.895933 0.204257 0.025501
0.896428 0.206918 0.025702
0.103108 0.349261 0.245914
0.103157 0.349480 0.244279
0.100819 0.336742 0.222611
0.093104 0.296172 0.183713
0.175070 0.300896 0.145516
0.270384 0.319329 0.113790
0.367572 0.326098 0.075947
0.474061 0.337969 0.032026
0.570080 0.340240 0.021021
0.665614 0.342248 0.020417
0.753164 0.334026 0.024274
0.818149 0.323381 0.028333
0.856028 0.312645 0.030146
0.879149 0.301592 0.030726
0.885863 0.292815 0.030292
0.886784 0.290874 0.030201
0.119124 0.418274 0.294926
0.119149 0.418280 0.293095
0.118904 0.416913 0.281779
0.115346 0.401202 0.241013
0.140224 0.386737 0.208835
0.277195 0.407123 0.165121
0.374005 0.420587 0.126613
0.478956 0.435303 0.072578
0.583929 0.444495 0.034553
0.674910 0.445209 0.034180
0.745144 0.441578 0.037360
0.810867 0.432471 0.041505
0.847495 0.418726 0.042652
0.869023 0.405298 0.042615
0.874607 0.394788 0.041657
0.874949 0.381726 0.040046
0.134255 0.477626 0.339263
0.134096 0.477259 0.336388
0.133632 0.475789 0.331023
0.133999 0.478175 0.293901
0.136605 0.487636 0.264530
0.274046 0.497887 0.216837
0.393945 0.517064 0.175564
0.496254 0.534386 0.123287
0.598419 0.547503 0.068074
0.694911 0.553686 0.053107
0.763778 0.546819 0.054786
0.819980 0.541125 0.056873
0.859770 0.526842 0.058192
0.884343 0.512114 0.058210
0.891862 0.497649 0.056892
0.891301 0.487752 0.055512
0.145217 0.518450 0.375384
0.145150 0.518322 0.374066
0.145022 0.518029 0.371594
0.147927 0.532024 0.347417
0.152554 0.553118 0.308867
0.266349 0.571508 0.265495
0.404187 0.592206 0.219608
0.516741 0.618140 0.172677
0.611426 0.639576 0.120034
0.707851 0.650855 0.069398
0.785727 0.654969 0.073207
0.840732 0.647919 0.074525
0.869102 0.633722 0.073555
0.894914 0.626276 0.074244
0.906981 0.617530 0.074055
0.906279 0.599451 0.071620
0.154574 0.553967 0.402832
0.154446 0.553539 0.400513
0.154214 0.552789 0.395679
0.157430 0.567541 0.377496
0.165438 0.603369 0.340142
0.291539 0.640589 0.305522
0.427039 0.679322 0.270280
0.546789 0.717244 0.220090
0.639411 0.745724 0.165982
0.731417 0.767147 0.088948
0.806143 0.762850 0.088124
0.864945 0.761721 0.090443
0.902611 0.753909 0.090913
0.919951 0.737173 0.089271
0.925139 0.717751 0.086873
0.919457 0.687880 0.082832
0.158297 0.568762 0.410761
0.158950 0.571447 0.409863
0.161935 0.583587 0.405170
0.170071 0.616968 0.390112
0.193594 0.659669 0.369006
0.360412 0.695265 0.336486
0.472007 0.740725 0.311247
0.577771 0.781704 0.275871
0.668013 0.812076 0.232944
0.756057 0.837772 0.173874
0.827829 0.856101 0.096992
0.883848 0.850376 0.098897
0.919744 0.840000 0.099110
0.939959 0.823380 0.098347
0.945653 0.801517 0.096803
0.942889 0.776083 0.094545
0.174282 0.634760 0.375726
0.176522 0.643738 0.372796
0.203580 0.659138 0.366870
0.286076 0.677705 0.351464
0.385211 0.706502 0.334618
0.459919 0.740957 0.321520
0.542669 0.777511 0.305785
0.619947 0.809299 0.282853
0.691847 0.842106 0.261857
0.770797 0.873576 0.231040
0.834037 0.892418 0.163186
0.893773 0.905992 0.103438
0.927861 0.896379 0.103621
0.951305 0.879313 0.102864
0.958746 0.863407 0.101833
0.959435 0.851688 0.100954
0.304643 0.681440 0.348229
0.327245 0.686885 0.344762
0.364092 0.698012 0.338183
0.407630 0.716286 0.331261
0.461817 0.741769 0.321086
0.524755 0.769735 0.309184
0.593878 0.797873 0.291600
0.654871 0.824991 0.271775
0.716451 0.854472 0.256938
0.787271 0.879484 0.225480
0.843674 0.901903 0.164858
0.897215 0.928038 0.105232
0.934136 0.928032 0.106160
0.958807 0.914067 0.105696
0.966473 0.901921 0.104952
0.968493 0.884282 0.103639
0.424335 0.724007 0.328911
0.435938 0.729665 0.326586
0.457093 0.739522 0.321978
0.488923 0.754141 0.315898
0.531487 0.772763 0.307701
0.581036 0.792813 0.297069
0.632569 0.815360 0.280143
0.688362 0.840311 0.262486
0.750106 0.867680 0.245396
0.803287 0.885386 0.217014
0.852055 0.907774 0.147811
0.900615 0.928576 0.105385
0.932360 0.929406 0.106227
0.955151 0.926958 0.106600
0.966418 0.927819 0.106935
0.970971 0.927819 0.107033
0.510356 0.763314 0.312322
0.520122 0.767672 0.310216
0.537438 0.775412 0.306517
0.565283 0.786905 0.301469
0.597729 0.799277 0.289574
0.632270 0.815219 0.280259
0.671296 0.831986 0.265269
0.723207 0.857877 0.255192
0.777414 0.876500 0.231156
0.821018 0.891417 0.196719
0.862266 0.914598 0.129152
0.904161 0.929485 0.105574
0.933379 0.929210 0.106239
0.954668 0.923662 0.106331
0.965130 0.914879 0.105910
0.970636 0.927190 0.106984
0.066371 0.029889 0.092854
0.068190 0.028235 0.087391
0.073933 0.028321 0.078199
0.094759 0.030695 0.068452
0.162930 0.032850 0.062470
0.271629 0.032660 0.051514
0.465022 0.012714 0.022303
0.581030 0.016370 0.016132
0.685853 0.019422 0.015589
0.749062 0.021289 0.015259
0.810312 0.023078 0.015589
0.845231 0.024115 0.015943
0.858048 0.024500 0.016083
0.865324 0.024726 0.016162
0.873417 0.024964 0.016248
0.879576 0.025141 0.016309
0.066493 0.036341 0.103688
0.066865 0.031653 0.095277
0.074635 0.029877 0.077290
0.107088 0.032898 0.065705
0.182730 0.036500 0.055348
0.288841 0.035084 0.043073
0.450623 0.012415 0.022443
0.578479 0.016303 0.016144
0.685505 0.019428 0.015589
0.749087 0.021283 0.015259
0.809567 0.023053 0.015576
0.845194 0.024121 0.015943
0.858262 0.024506 0.016089
0.865232 0.024726 0.016162
0.873545 0.024970 0.016248
0.893626 0.025556 0.016461
0.067225 0.056660 0.097237
0.066792 0.052601 0.090474
0.074903 0.047828 0.073884
0.113869 0.051490 0.063050
0.182956 0.058100 0.053596
0.284965 0.060883 0.041315
0.406018 0.051148 0.026947
0.541283 0.025556 0.016309
0.669905 0.018970 0.015668
0.751028 0.021338 0.015259
0.812363 0.023151 0.015607
0.851835 0.024317 0.016010
0.863767 0.024677 0.016150
0.877794 0.025092 0.016291
0.893028 0.025525 0.016449
0.917455 0.026691 0.017115
0.071681 0.108315 0.114272
0.071443 0.105269 0.109706
0.074568 0.091774 0.090645
0.110726 0.091768 0.073536
0.178787 0.098573 0.062104
0.272294 0.103902 0.049311
0.387579 0.105037 0.033570
0.498006 0.100917 0.016901
0.637556 0.079573 0.015698
0.753512 0.049567 0.015265
0.837986 0.026514 0.015894
0.890202 0.025452 0.016431
0.910741 0.026276 0.016840
0.920409 0.026880 0.017237
0.927782 0.027381 0.017554
0.940038 0.032227 0.018402
0.078859 0.180703 0.137746
0.078712 0.178927 0.135140
0.076442 0.153603 0.112721
0.113393 0.146072 0.090376
0.167251 0.151089 0.072657
0.269236 0.159060 0.051380
0.378448 0.164376 0.034717
0.485243 0.169839 0.017658
0.592792 0.164254 0.015747
0.716182 0.149075 0.015631
0.802707 0.135097 0.016394
0.865843 0.117726 0.018293
0.898485 0.106838 0.020343
0.908702 0.104909 0.021076
0.916649 0.092116 0.021015
0.914208 0.114778 0.022071
0.087361 0.265562 0.191293
0.087160 0.263688 0.186941
0.083705 0.229825 0.155117
0.104097 0.211264 0.123085
0.174014 0.222287 0.097536
0.257340 0.228995 0.066011
0.372906 0.238462 0.038544
0.481648 0.247892 0.018970
0.572265 0.247013 0.016028
0.696486 0.241160 0.016168
0.779318 0.230320 0.017456
0.841447 0.222055 0.022010
0.875096 0.209433 0.024067
0.891453 0.205185 0.025196
0.897136 0.198892 0.025306
0.898772 0.207816 0.025928
0.103133 0.349480 0.246867
0.103194 0.349706 0.245646
0.101186 0.338842 0.226902
0.093190 0.296635 0.184781
0.172384 0.299168 0.145516
0.269718 0.317003 0.112447
0.368682 0.323601 0.073762
0.475386 0.335491 0.029987
0.571978 0.337340 0.020752
0.669709 0.339025 0.020227
0.756088 0.329680 0.023993
0.820920 0.319152 0.028058
0.857542 0.309355 0.029883
0.880003 0.298088 0.030365
0.886754 0.288743 0.030030
0.889104 0.290037 0.030304
0.119026 0.417859 0.294951
0.119008 0.417743 0.293071
0.118746 0.416211 0.281242
0.115492 0.401794 0.241813
0.140493 0.385632 0.208255
0.278178 0.405524 0.163931
0.375103 0.418878 0.124373
0.480970 0.433796 0.069368
0.585040 0.442182 0.034125
0.676667 0.442634 0.033796
0.746786 0.438227 0.037031
0.812088 0.428626 0.041083
0.847843 0.414398 0.042097
0.868748 0.401032 0.042017
0.874760 0.391302 0.041224
0.876890 0.380951 0.040107
0.134194 0.477363 0.339287
0.134017 0.476899 0.336474
0.133541 0.475435 0.330822
0.133913 0.477772 0.292930
0.136538 0.487385 0.263993
0.275914 0.497075 0.215781
0.394556 0.516313 0.174606
0.497566 0.532610 0.121938
0.598535 0.545525 0.066749
0.696352 0.550945 0.052692
0.764730 0.544463 0.054432
0.821030 0.537707 0.056483
0.860478 0.523662 0.057819
0.884349 0.508672 0.057752
0.891545 0.494792 0.056483
0.892522 0.486812 0.055482
0.145180 0.518273 0.375409
0.145113 0.518132 0.374139
0.144942 0.517736 0.371545
0.147805 0.531542 0.347247
0.152401 0.552532 0.308666
0.269804 0.571081 0.264152
0.405444 0.592267 0.219016
0.517681 0.617493 0.171835
0.612274 0.638520 0.118331
0.708083 0.649134 0.069191
0.785989 0.652833 0.072926
0.841184 0.644862 0.074079
0.868717 0.630738 0.073085
0.895323 0.624884 0.074110
0.906932 0.615509 0.073780
0.906706 0.600220 0.071748
0.154604 0.554113 0.402869
0.154470 0.553625 0.400470
0.154214 0.552825 0.395605
0.157382 0.567321 0.377569
0.165414 0.603333 0.339367
0.290971 0.639564 0.304686
0.426551 0.678206 0.269413
0.547692 0.716780 0.219065
0.640143 0.744497 0.164199
0.731905 0.764981 0.088533
0.806107 0.760421 0.087825
0.865983 0.760433 0.090352
0.902599 0.751455 0.090620
0.919847 0.735415 0.089039
0.925029 0.717421 0.086836
0.921154 0.694508 0.083754
0.158364 0.569024 0.410748
0.159170 0.572381 0.409412
0.162484 0.585870 0.404163
0.170462 0.618628 0.388855
0.195529 0.661073 0.368579
0.363391 0.696114 0.335625
0.473930 0.741573 0.310765
0.578412 0.781979 0.275676
0.668501 0.812088 0.232517
0.757345 0.837797 0.172055
0.828617 0.855540 0.096992
0.885026 0.850040 0.098903
0.920281 0.839280 0.099074
0.940166 0.823062 0.098317
0.945885 0.802524 0.096883
0.944829 0.785708 0.095576
0.174826 0.637012 0.374450
0.177145 0.646180 0.372546
0.207633 0.660603 0.366186
0.293150 0.679170 0.350262
0.389874 0.708461 0.333837
0.464424 0.743056 0.320513
0.545238 0.778598 0.305193
0.622358 0.810465 0.282292
0.693324 0.842838 0.261601
0.772079 0.873954 0.230088
0.835093 0.892967 0.160690
0.894939 0.906053 0.103474
0.928429 0.896123 0.103603
0.951586 0.879423 0.102882
0.959301 0.868473 0.102223
0.961321 0.868986 0.102315
0.314324 0.683699 0.346715
0.335338 0.689235 0.343462
0.370587 0.700526 0.336974
0.413080 0.718776 0.330510
0.466627 0.744009 0.320128
0.529479 0.771884 0.308135
0.596625 0.799014 0.290465
0.656233 0.825583 0.271238
0.718276 0.855320 0.256364
0.788840 0.880046 0.224790
0.845115 0.902892 0.161904
0.898473 0.928417 0.105299
0.934716 0.929223 0.106258
0.959088 0.917534 0.105977
0.966589 0.915428 0.105977
0.968615 0.905888 0.105287
0.430512 0.727034 0.327617
0.441968 0.732558 0.325316
0.463014 0.742263 0.320800
0.494633 0.756594 0.315007
0.536614 0.775070 0.306981
0.585547 0.794553 0.295061
0.635566 0.816721 0.279319
0.691084 0.841691 0.262058
0.752493 0.868455 0.244242
0.805435 0.886217 0.215335
0.853916 0.909044 0.144173
0.901640 0.929003 0.105452
0.932244 0.934618 0.106630
0.954614 0.938268 0.107442
0.965618 0.943127 0.113313
0.970495 0.938262 0.107832
0.517748 0.766622 0.310741
0.526903 0.770687 0.308751
0.544616 0.778647 0.305461
0.571490 0.789224 0.299907
0.603076 0.801407 0.287169
0.636280 0.817105 0.279557
0.675508 0.834006 0.264372
0.726656 0.859373 0.254130
0.781283 0.877690 0.228983
0.823954 0.892399 0.192538
0.864433 0.915782 0.126491
0.905235 0.929711 0.105611
0.934136 0.929100 0.106252
0.955065 0.923571 0.106337
0.965197 0.921733 0.106441
0.969763 0.943865 0.108241
0.068025 0.031922 0.149831
0.068110 0.029651 0.142342
0.073732 0.029767 0.131917
0.097279 0.031904 0.113625
0.175473 0.030262 0.107326
0.286247 0.027607 0.095491
0.455116 0.011487 0.078297
0.595026 0.014624 0.059651
0.704817 0.018647 0.042512
0.764144 0.021045 0.028772
0.823014 0.023426 0.016584
0.856217 0.024457 0.016052
0.866734 0.024756 0.016175
0.872587 0.024933 0.016242
0.878819 0.025122 0.016315
0.887260 0.025367 0.016407
0.068904 0.040015 0.162637
0.068354 0.033075 0.156655
0.072432 0.031702 0.135518
0.100496 0.035151 0.116506
0.185183 0.036323 0.104872
0.295598 0.032636 0.089808
0.450568 0.011548 0.071437
0.593799 0.014960 0.052082
0.702870 0.018946 0.035492
0.763259 0.021253 0.023987
0.822147 0.023432 0.015705
0.855674 0.024433 0.016052
0.866398 0.024756 0.016168
0.872001 0.024921 0.016229
0.879026 0.025129 0.016309
0.901744 0.025800 0.016559
0.070210 0.065467 0.166494
0.069783 0.059992 0.161825
0.070613 0.054517 0.137435
0.099171 0.056104 0.117971
0.171579 0.061073 0.104054
0.275755 0.063185 0.089339
0.397693 0.054560 0.073512
0.547356 0.029847 0.058167
0.689155 0.018421 0.038068
0.763125 0.021302 0.022766
0.824723 0.023517 0.015735
0.860099 0.024567 0.016107
0.869932 0.024854 0.016199
0.878349 0.025098 0.016297
0.898772 0.025696 0.016522
0.925243 0.027210 0.017438
0.072840 0.112459 0.178909
0.072609 0.110384 0.175076
0.070387 0.092335 0.137545
0.100545 0.092897 0.119826
0.163424 0.098476 0.107839
0.259196 0.105336 0.095448
0.376361 0.106807 0.081398
0.500630 0.098433 0.063697
0.630774 0.081630 0.043464
0.757473 0.047474 0.024665
0.842734 0.028486 0.015943
0.895396 0.025611 0.016504
0.912016 0.026374 0.016907
0.921764 0.026972 0.017292
0.933538 0.027765 0.017816
0.947247 0.032807 0.018744
0.078114 0.182943 0.196939
0.078041 0.182101 0.196670
0.076149 0.158334 0.160500
0.101527 0.148568 0.138894
0.159615 0.150747 0.121724
0.258805 0.159127 0.105800
0.366625 0.165170 0.093642
0.489558 0.165493 0.072572
0.592450 0.165866 0.049091
0.716841 0.151278 0.027179
0.807663 0.136397 0.016474
0.870549 0.119210 0.018756
0.906871 0.098921 0.020581
0.916948 0.097365 0.021332
0.924828 0.091298 0.021607
0.920201 0.119350 0.022815
0.086976 0.265147 0.213651
0.086867 0.264298 0.214389
0.084547 0.243803 0.192081
0.087166 0.217478 0.165151
0.167581 0.220615 0.137246
0.249320 0.228421 0.115181
0.367730 0.237668 0.098622
0.486720 0.244083 0.075862
0.577057 0.248222 0.048524
0.696522 0.243314 0.022663
0.780697 0.230704 0.017578
0.846586 0.219333 0.022278
0.879045 0.207590 0.024305
0.896367 0.203525 0.025501
0.901506 0.200650 0.025763
0.902898 0.213608 0.026581
0.103017 0.348888 0.247507
0.102986 0.348742 0.247355
0.101350 0.340044 0.233774
0.093501 0.298674 0.193356
0.168154 0.298204 0.154867
0.266923 0.315868 0.127266
0.365606 0.322179 0.103407
0.483226 0.332085 0.075496
0.578137 0.338012 0.038947
0.672474 0.339818 0.020429
0.756008 0.329662 0.023981
0.822843 0.319286 0.028235
0.860612 0.307134 0.029865
0.883555 0.299205 0.030799
0.890440 0.288719 0.030323
0.892058 0.295354 0.031031
0.118984 0.417676 0.295653
0.118947 0.417475 0.293553
