LUTs/SPK Cube Block1 S16/TheBrim_SPK_Type-G_Block1_S16.cube
TITLE "TheBrim® SPK Block 1"
# © Copyright 2021 - TheBrim® d.o.o. Croatia
LUT_3D_SIZE 6
DOMAIN_MIN 0.000000 0.000000 0.000000
DOMAIN_MAX 1.000000 1.000000 1.000000
0.067048 0.020356 0.045258
0.106313 0.029499 0.045686
0.424762 0.012250 0.017407
0.741158 0.021039 0.015302
0.856785 0.024457 0.016065
0.878721 0.025116 0.016297
0.070802 0.094655 0.081855
0.116298 0.095045 0.056287
0.379919 0.115096 0.020447
0.741720 0.063771 0.015253
0.917479 0.026691 0.017102
0.935534 0.035212 0.018451
0.103139 0.349383 0.245682
0.093086 0.295995 0.183151
0.367388 0.327294 0.076899
0.662696 0.343792 0.020514
0.854868 0.315050 0.030347
0.886577 0.292259 0.030298
0.145248 0.518553 0.375427
0.147951 0.532146 0.347796
0.403381 0.592169 0.219998
0.708174 0.652149 0.069587
0.869364 0.635486 0.073829
0.906322 0.600067 0.071705
0.173861 0.633112 0.376800
0.280961 0.676649 0.352325
0.541332 0.776950 0.306059
0.770248 0.873423 0.231376
0.927562 0.896507 0.103621
0.959002 0.844462 0.100386
0.505791 0.761379 0.313146
0.561639 0.785544 0.302324
0.669154 0.830948 0.265574
0.819449 0.890929 0.198703
0.932952 0.929290 0.106227
0.970642 0.916655 0.106172
0.068025 0.031922 0.149831
0.097279 0.031904 0.113625
0.455116 0.011487 0.078297
0.764144 0.021045 0.028772
0.866734 0.024756 0.016175
0.887260 0.025367 0.016407
0.072840 0.112459 0.178909
0.100545 0.092897 0.119826
0.376361 0.106807 0.081398
0.757473 0.047474 0.024665
0.912016 0.026374 0.016907
0.947247 0.032807 0.018744
0.103017 0.348888 0.247507
0.093501 0.298674 0.193356
0.365606 0.322179 0.103407
0.672474 0.339818 0.020429
0.860612 0.307134 0.029865
0.892058 0.295354 0.031031
0.145132 0.518145 0.375433
0.147720 0.531133 0.348107
0.405560 0.591400 0.218454
0.711128 0.647803 0.069129
0.868791 0.631135 0.073152
0.907243 0.607276 0.072718
0.175692 0.640479 0.373437
0.305003 0.681660 0.348229
0.548663 0.780081 0.304460
0.774374 0.874681 0.228598
0.928850 0.901140 0.103993
0.961370 0.884648 0.103505
0.524620 0.769680 0.309227
0.577429 0.791458 0.298460
0.680879 0.836570 0.263236
0.828507 0.893889 0.186850
0.935222 0.930687 0.106386
0.971209 0.941747 0.230118
0.077070 0.069099 0.336797
0.090871 0.075068 0.357867
0.331743 0.072309 0.321758
0.831339 0.011902 0.292540
0.957488 0.017670 0.212436
0.961627 0.019983 0.182687
0.082594 0.125856 0.389984
0.081117 0.114504 0.372345
0.347411 0.119655 0.314983
0.805783 0.073103 0.278422
0.997095 0.023096 0.214786
1.000000 0.045515 0.206589
0.108901 0.361035 0.484886
0.100929 0.323522 0.425074
0.330767 0.336217 0.347240
0.700606 0.337560 0.304662
0.926555 0.316197 0.255119
0.958593 0.304991 0.227366
0.147048 0.535015 0.515709
0.149166 0.542638 0.508214
0.390417 0.611975 0.417719
0.710439 0.661793 0.367181
0.874583 0.659071 0.317595
0.900706 0.623297 0.280375
0.181607 0.669050 0.494353
0.242161 0.708998 0.494337
0.539117 0.779532 0.460188
0.769369 0.871312 0.446473
0.929241 0.910277 0.394672
0.961651 0.898045 0.361016
0.555962 0.782406 0.340166
0.601465 0.800461 0.334264
0.696584 0.845560 0.354308
0.828836 0.897606 0.386804
0.937420 0.935760 0.423560
0.972070 0.947155 0.466261
0.086751 0.117336 0.509868
0.088521 0.115767 0.532207
0.303532 0.109932 0.519670
0.726387 0.041340 0.481184
1.000000 0.021796 0.428510
1.000000 0.022162 0.399017
0.090724 0.171872 0.559777
0.089992 0.150198 0.567486
0.306694 0.147262 0.550469
0.749899 0.125710 0.506871
1.000000 0.059248 0.462007
1.000000 0.093135 0.452027
0.115938 0.371966 0.662354
0.112691 0.355999 0.646876
0.307189 0.364105 0.614105
0.702870 0.369818 0.566119
0.969744 0.348632 0.531688
1.000000 0.331633 0.497102
0.151040 0.554479 0.708296
0.153487 0.567559 0.708821
0.366326 0.643610 0.667396
0.708217 0.690101 0.612482
0.906261 0.689009 0.581183
0.932775 0.649928 0.553252
0.184225 0.698958 0.710127
0.193063 0.738131 0.726198
0.528960 0.812668 0.696095
0.776492 0.889274 0.665992
0.932262 0.913982 0.635694
0.968200 0.899718 0.605066
0.545830 0.807700 0.605109
0.597937 0.823844 0.603058
0.699599 0.859416 0.606732
0.834360 0.910320 0.621656
0.944744 0.945873 0.645325
0.973620 0.958410 0.663825
0.093440 0.201889 0.604407
0.093574 0.201865 0.608795
0.254746 0.201077 0.587799
0.565747 0.195352 0.547247
0.868693 0.170333 0.520134
1.000000 0.169784 0.494270
0.095753 0.236674 0.628980
0.095943 0.238431 0.632447
0.252683 0.241764 0.618451
0.572448 0.239329 0.572192
0.869029 0.222391 0.542663
1.000000 0.230283 0.517583
0.116414 0.368188 0.698470
0.116426 0.366064 0.709151
0.298332 0.379351 0.707649
0.627826 0.394397 0.662806
0.878831 0.405420 0.625641
0.985925 0.410889 0.596539
0.155550 0.558379 0.806259
0.161086 0.579229 0.827787
0.346783 0.665296 0.856754
0.710195 0.716530 0.777115
0.906291 0.721236 0.739712
0.939440 0.694990 0.713967
0.191202 0.699239 0.861912
0.201736 0.744460 0.885411
0.509657 0.819870 0.859385
0.781936 0.896605 0.798740
0.931987 0.924981 0.786056
0.964416 0.912834 0.771273
0.544738 0.825473 0.804324
0.600470 0.839023 0.802603
0.713301 0.878196 0.781851
0.845872 0.927324 0.769046
0.947362 0.960058 0.783529
0.970629 0.970477 0.798660
0.097780 0.259922 0.645289
0.098122 0.262296 0.650184
0.216880 0.265098 0.641553
0.460981 0.265611 0.602319
0.709920 0.252830 0.567956
0.949340 0.242435 0.544488
0.101741 0.286223 0.662824
0.102358 0.288908 0.669087
0.227878 0.290593 0.654591
0.466706 0.293107 0.616138
0.699251 0.289079 0.582458
0.943468 0.300462 0.568170
0.118239 0.374884 0.714516
0.119045 0.377313 0.723507
0.259464 0.384607 0.716292
0.497676 0.405463 0.691035
0.757485 0.449171 0.662452
0.908025 0.487553 0.651014
0.164279 0.583661 0.853037
0.171060 0.607514 0.871446
0.449818 0.649036 0.832291
0.684755 0.696059 0.782144
0.860691 0.735122 0.753396
0.935845 0.754928 0.745797
0.204703 0.732216 0.932519
0.213156 0.771035 0.953448
0.563104 0.837003 0.909410
0.803964 0.901921 0.840690
0.933654 0.927007 0.823484
0.962371 0.926738 0.814798
0.563317 0.839200 0.894499
0.601282 0.849503 0.894176
0.728402 0.889714 0.864500
0.864042 0.939709 0.832981
0.948748 0.967193 0.841386
0.969696 0.975280 0.844755
