LUTs/SPK Cube Block1 S32/TheBrim_SPK_Type-D_Block1_S32.cube
TITLE "TheBrim® SPK Block 1"
# TheBrim® d.o.o. Croatia
# Copyright: (C) Copyright 2020 TheBrim® d.o.o. Croatia
LUT_3D_SIZE 5
DOMAIN_MIN 0.000000 0.000000 0.000000
DOMAIN_MAX 0.903226 0.903226 0.903226
0.0066220000 0.0100400000 0.0125730000
0.0693107097 0.0213960645 0.0000000000
0.2652943871 0.0493493226 0.0000000000
0.5078164839 0.1073103226 0.0078374194
0.5764218065 0.1181344839 0.0040280000
0.0000000000 0.0496190000 0.0180159355
0.0782065161 0.0600504194 0.0000000000
0.3590294516 0.1149579032 0.0000000000
0.6159990968 0.1895734516 0.0197477097
0.6809650968 0.2130244516 0.0036259355
0.0000000000 0.1791862258 0.0602466774
0.0354750323 0.2063353226 0.0000000000
0.4771600968 0.3272480000 0.0000000000
0.7543522903 0.4231440645 0.0017650645
0.8179784839 0.4706932903 0.0144251935
0.0135921613 0.4327380645 0.1911433226
0.0360610968 0.4904382581 0.0000000000
0.6085836452 0.6799827419 0.0017042581
0.8859923226 0.7296783871 0.0172618710
0.9369171935 0.7465193226 0.0233528710
0.0158878065 0.4974130968 0.2032416452
0.0625839677 0.5674063548 0.0057562258
0.6141917097 0.7358337097 0.0074161290
0.9034337742 0.7982000968 0.0013576452
0.9639056774 0.8060146129 0.0026794516
0.0000000000 0.0207094194 0.0649620645
0.0619286452 0.0112582581 0.0638323548
0.2599514839 0.0000000000 0.0133972903
0.5250509032 0.0000000000 0.0136591290
0.5991545806 0.0000000000 0.0221221935
0.0000000000 0.0599585484 0.0811767419
0.0705654839 0.0643862258 0.0590257097
0.3691042258 0.0949413548 0.0228638710
0.6392772258 0.1123617097 0.0000000000
0.7057133226 0.1092508065 0.0000000000
0.0000000000 0.2216800323 0.1396986774
0.0000000000 0.2703477097 0.0754956774
0.4866848387 0.3727879032 0.0000000000
0.7925215484 0.4518119677 0.0000000000
0.8556220645 0.4663609355 0.0065367097
0.0306054839 0.4708545161 0.2615630968
0.0188649677 0.5434226774 0.2085101935
0.5447527742 0.6829040000 0.0000000000
0.9006425161 0.7589349032 0.0038154839
0.9661903871 0.7663839032 0.0133960323
0.0006132903 0.5510931935 0.3548565484
0.0009093226 0.6124438710 0.3065304194
0.4664946129 0.7269553871 0.1100060000
0.9072037419 0.8282005806 0.0739734194
0.9926020323 0.8402543871 0.1088569677
0.0000000000 0.0957871613 0.2162132258
0.0319764516 0.0000000000 0.1956342258
0.2799491290 0.0000000000 0.2257977742
0.5458480645 0.0000000000 0.2523791613
0.6199949032 0.0000000000 0.2735557097
0.0000000000 0.1684864194 0.2900468065
0.0186720000 0.0981790968 0.2740674516
0.3745187419 0.1070900323 0.3042925806
0.6534256452 0.0603895484 0.3183781290
0.7276769677 0.0373006774 0.3299480968
0.0013378065 0.3450957742 0.4145044839
0.0000000000 0.3894704194 0.4197464194
0.4415468710 0.4436647097 0.3877632903
0.7802427419 0.4787352258 0.3914094194
0.8872642581 0.4958711613 0.4505854839
0.0030674516 0.5673835161 0.5183452258
0.0003375806 0.6430691935 0.5325620645
0.3266791935 0.7209697419 0.4486174194
0.8725775161 0.8151827742 0.4319170000
0.9959363226 0.8468478387 0.5009501613
0.0000000000 0.6423051613 0.6060732258
0.0025929355 0.7023394516 0.6130519677
0.3188851290 0.8016614839 0.5981623871
0.8657797097 0.9010183871 0.5999363226
1.0000000000 0.9245476452 0.6064294839
0.0036010000 0.1909829677 0.3906949032
0.0178400968 0.0355118710 0.3866391613
0.3077341290 0.0000000000 0.4424949677
0.5748093871 0.0000000000 0.4766740968
0.6486936129 0.0000000000 0.4973635484
0.0000000000 0.2735597742 0.4920191613
0.0000000000 0.2586708387 0.5249692581
0.3605917097 0.1245995484 0.5790521935
0.6654435161 0.0460588710 0.6019338065
0.7441128387 0.0371782258 0.6117434839
0.0000000000 0.4451463871 0.6170701290
0.0000000000 0.4912697419 0.6665039355
0.2989001290 0.4769081613 0.7065232581
0.7717267097 0.5191610000 0.7391938710
0.8866903871 0.5354741935 0.7778526129
0.0074295484 0.6273446452 0.7150229677
0.0083503226 0.7058488065 0.7641850000
0.2071022903 0.7856976774 0.7869215484
0.8339019677 0.8823887097 0.8390678710
0.9742400323 0.8884278065 0.8633304516
0.0095468065 0.6826733548 0.7620210645
0.0002203871 0.7508764194 0.8054891290
0.2251280968 0.8539950000 0.8657936452
0.8319426129 0.9520098710 0.9009485484
0.9888544194 0.9760653871 0.9047240323
0.0000000000 0.2417283226 0.4794839355
0.0050421935 0.1839431290 0.4964078387
0.3020226774 0.0000000000 0.5558104839
0.5900008387 0.0000000000 0.5958435806
0.6710267097 0.0000000000 0.6089604516
0.0000000000 0.3212154839 0.5711981935
0.0000000000 0.3121959677 0.6018440968
0.2969832903 0.1224451935 0.6865668710
0.6479797097 0.0474912258 0.7275754194
0.7574384516 0.0424588387 0.7415920000
0.0000000000 0.4891719677 0.6936024516
0.0000000000 0.5077485484 0.7293219355
0.2535960645 0.4918447742 0.8382428710
0.7562246452 0.5313456452 0.8785467419
0.8854389355 0.5446620000 0.8895788387
0.0005069677 0.6427926452 0.7732256129
0.0000000000 0.7028354516 0.8223415806
0.0519941290 0.8018826452 0.9170327419
0.8138162258 0.8861510000 0.9613648710
0.9674171613 0.9005923226 0.9677222581
0.0004666452 0.6944788710 0.8081318710
0.0000000000 0.7575221935 0.8541112903
0.1584136452 0.8652079032 0.9382630645
0.8214684516 0.9652561613 0.9789113226
0.9821713548 0.9860173548 0.9850162581
