LUTs/SPK Cube Block1 S32/TheBrim_SPK_Type-V_Block1_S32.cube
TITLE "TheBrim® SPK Block 1"
# © Copyright 2021 - TheBrim® d.o.o. Croatia
LUT_3D_SIZE 5
DOMAIN_MIN 0.000000 0.000000 0.000000
DOMAIN_MAX 0.903226 0.903226 0.903226
0.007721 0.009491 0.011383
0.114498 0.018714 0.013187
0.432196 0.000000 0.000000
0.573176 0.000000 0.000000
0.601158 0.000000 0.000000
0.000000 0.104138 0.018006
0.109054 0.105445 0.017494
0.411318 0.124073 0.000000
0.653188 0.093489 0.000000
0.715871 0.081457 0.000000
0.000000 0.367258 0.000000
0.028879 0.390018 0.000000
0.473220 0.425058 0.000000
0.776795 0.433117 0.000000
0.872839 0.423714 0.000000
0.000000 0.495522 0.000000
0.000000 0.596059 0.000000
0.526213 0.689248 0.000000
0.839117 0.731957 0.000000
0.955288 0.733922 0.000000
0.000000 0.520828 0.000000
0.017524 0.643737 0.000000
0.544440 0.749206 0.000000
0.848545 0.818844 0.000000
0.972241 0.843159 0.000000
0.000000 0.009096 0.132764
0.104715 0.018826 0.122502
0.443601 0.000000 0.129068
0.589231 0.000000 0.100248
0.616543 0.000000 0.065221
0.000000 0.104497 0.120134
0.091322 0.097704 0.101628
0.382866 0.119768 0.111903
0.649318 0.096221 0.109812
0.729535 0.087218 0.094853
0.000000 0.372822 0.149721
0.008672 0.351443 0.131790
0.444514 0.407354 0.130893
0.759045 0.424317 0.119531
0.876935 0.424683 0.105961
0.000000 0.538474 0.184021
0.000000 0.619347 0.176634
0.488065 0.703881 0.130224
0.822814 0.745797 0.075696
0.953619 0.749658 0.053094
0.000000 0.589626 0.206238
0.000000 0.713327 0.270830
0.525692 0.805964 0.324127
0.838693 0.863491 0.319217
0.965471 0.883649 0.317242
0.000000 0.000000 0.315664
0.087483 0.000000 0.386503
0.416416 0.000000 0.450723
0.609484 0.000000 0.403835
0.636868 0.000000 0.310680
0.000000 0.102043 0.355314
0.062631 0.100691 0.337633
0.374946 0.118780 0.376115
0.657382 0.089295 0.394630
0.746365 0.085454 0.368437
0.000000 0.388693 0.417310
0.000000 0.374213 0.397606
0.423527 0.423476 0.433839
0.753150 0.442393 0.453793
0.881572 0.448085 0.444529
0.000000 0.574519 0.449671
0.000000 0.653477 0.464077
0.443581 0.736386 0.492734
0.804340 0.777092 0.506946
0.944952 0.782049 0.499895
0.000000 0.652241 0.481481
0.000000 0.765617 0.548290
0.511822 0.845702 0.589786
0.826370 0.898117 0.603076
0.954005 0.913617 0.583235
0.003423 0.000000 0.374488
0.070222 0.000000 0.441840
0.319141 0.000000 0.538508
0.598158 0.000000 0.583370
0.655801 0.000000 0.547469
0.000000 0.090688 0.471544
0.035604 0.090209 0.521994
0.357174 0.098064 0.584473
0.657175 0.060551 0.613620
0.763173 0.043628 0.616941
0.000000 0.367249 0.568032
0.000000 0.384867 0.609067
0.403218 0.432879 0.665262
0.747604 0.453984 0.693896
0.883898 0.462930 0.700573
0.000000 0.582917 0.617815
0.000000 0.671060 0.678076
0.409922 0.750028 0.723040
0.789117 0.791583 0.747789
0.937337 0.799937 0.752290
0.000000 0.682209 0.664003
0.000000 0.787756 0.729981
0.495972 0.867444 0.770472
0.814999 0.916911 0.786128
0.943394 0.931370 0.785934
0.013345 0.000000 0.408244
0.078016 0.000000 0.474090
0.272126 0.000000 0.558717
0.558851 0.000000 0.614310
0.659328 0.000000 0.625338
0.000000 0.071205 0.502460
0.050372 0.096867 0.575445
0.336000 0.116669 0.654538
0.649146 0.087549 0.704159
0.772846 0.010287 0.716363
0.000000 0.343033 0.617716
0.000000 0.393822 0.694580
0.370105 0.449552 0.763135
0.738740 0.477307 0.802006
0.884873 0.476073 0.813413
0.000000 0.582964 0.693884
0.000000 0.672256 0.774768
0.371171 0.753613 0.832776
0.775673 0.799672 0.861886
0.932190 0.808630 0.870051
0.000000 0.685294 0.743988
0.000000 0.789694 0.815594
0.470444 0.873641 0.858090
0.804480 0.921286 0.876719
0.939303 0.936384 0.884010
