LUTs/SPK Cube Block1 S32/TheBrim_SPK_Type-M_Block1_S32.cube
TITLE "TheBrim® SPK Block 1"
# © Copyright 2021 - TheBrim® d.o.o. Croatia
LUT_3D_SIZE 8
DOMAIN_MIN 0.000000 0.000000 0.000000
DOMAIN_MAX 0.903226 0.903226 0.903226
0.011200 0.001984 0.018219
0.039430 0.002583 0.018567
0.082450 0.004212 0.018433
0.183159 0.004453 0.016655
0.326264 0.002791 0.015977
0.463339 0.004423 0.016171
0.558442 0.007692 0.017509
0.612603 0.014734 0.023142
0.012706 0.033650 0.020086
0.038229 0.034666 0.022954
0.085267 0.036166 0.021252
0.189284 0.038854 0.018456
0.340819 0.028984 0.017715
0.485209 0.029479 0.017887
0.582382 0.030632 0.018951
0.637353 0.034551 0.024592
0.010973 0.086128 0.022235
0.034935 0.087698 0.028770
0.083968 0.094874 0.030431
0.201214 0.106248 0.021667
0.363443 0.108425 0.021015
0.514757 0.077736 0.021267
0.616077 0.057739 0.021752
0.671410 0.058959 0.024927
0.007446 0.176474 0.020313
0.028818 0.178793 0.027056
0.065607 0.189718 0.035090
0.197912 0.214073 0.031820
0.394825 0.233524 0.025934
0.562971 0.234349 0.024935
0.672338 0.223073 0.025247
0.729530 0.211208 0.025935
0.007446 0.289677 0.020573
0.028379 0.294175 0.025099
0.050651 0.309507 0.033564
0.168776 0.346982 0.040692
0.392786 0.392442 0.038283
0.611700 0.407946 0.030777
0.736466 0.405347 0.029484
0.798203 0.398389 0.029798
0.007446 0.395796 0.023269
0.027388 0.401874 0.026363
0.050746 0.423350 0.034309
0.110490 0.472101 0.043115
0.353130 0.533002 0.049761
0.606990 0.581042 0.044977
0.785783 0.591076 0.036050
0.858940 0.589806 0.034449
0.007446 0.458714 0.027352
0.026213 0.465174 0.029248
0.050789 0.489829 0.035299
0.072501 0.544288 0.044104
0.340818 0.611600 0.052695
0.559090 0.671141 0.058321
0.767050 0.701447 0.051227
0.878476 0.705398 0.041724
0.010096 0.493277 0.034223
0.028692 0.500814 0.036194
0.051942 0.525276 0.038076
0.072585 0.579160 0.045176
0.337120 0.648465 0.053824
0.546864 0.710414 0.062125
0.724983 0.748802 0.065248
0.861087 0.758443 0.055623
0.011005 0.002632 0.049342
0.038754 0.003236 0.048347
0.082749 0.004617 0.047545
0.186197 0.004533 0.045296
0.336401 0.002404 0.039010
0.478168 0.003715 0.038508
0.573635 0.005772 0.038416
0.625318 0.012603 0.040636
0.010988 0.035582 0.053210
0.039522 0.035476 0.051887
0.087970 0.037033 0.050087
0.195174 0.039408 0.046841
0.349920 0.028557 0.040116
0.494023 0.029083 0.040058
0.589284 0.029909 0.040107
0.642320 0.032967 0.042220
0.007446 0.093169 0.059226
0.035055 0.092226 0.059007
0.089593 0.098243 0.059780
0.210875 0.108892 0.051451
0.376287 0.108626 0.042014
0.526851 0.074532 0.042101
0.625187 0.056895 0.042194
0.677590 0.057832 0.043175
0.007446 0.187156 0.062233
0.031038 0.186945 0.062104
0.068043 0.196532 0.068855
0.207939 0.221624 0.062603
0.407675 0.238070 0.045707
0.575462 0.236508 0.045029
0.682147 0.223955 0.045110
0.737170 0.211211 0.045306
0.007446 0.303695 0.049567
0.029951 0.306192 0.048679
0.054058 0.320756 0.052044
0.178025 0.360157 0.056488
0.406554 0.403850 0.054685
0.624261 0.414750 0.049245
0.746659 0.410355 0.048231
0.806611 0.402131 0.048295
0.007446 0.410703 0.042564
0.028267 0.416292 0.044402
0.053967 0.437878 0.048143
0.100016 0.489837 0.055895
0.367363 0.552169 0.062659
0.620463 0.595641 0.060602
0.795816 0.600665 0.053322
0.867123 0.596547 0.051698
0.007446 0.472720 0.044180
0.025844 0.479999 0.046347
0.053743 0.505210 0.048689
0.075260 0.563708 0.056384
0.352943 0.632763 0.064682
0.571410 0.691246 0.070681
0.778318 0.717139 0.066202
0.887608 0.716200 0.058058
0.007446 0.506827 0.048193
0.026357 0.514580 0.050877
0.054021 0.539167 0.050226
0.075303 0.598403 0.056918
0.349596 0.669912 0.065315
0.558651 0.730711 0.073474
0.733461 0.768321 0.077304
0.868934 0.773623 0.069923
0.009887 0.002526 0.113951
0.036415 0.003489 0.111559
0.082098 0.004737 0.108906
0.188603 0.004510 0.105702
0.342516 0.002810 0.094277
0.487887 0.003899 0.073531
0.584850 0.005394 0.061444
0.637029 0.009499 0.061181
0.007446 0.038511 0.127671
0.034731 0.038370 0.121932
0.085787 0.039405 0.117036
0.197546 0.041384 0.112369
0.356610 0.028758 0.100029
0.504534 0.029273 0.077740
0.601586 0.029896 0.063476
0.653617 0.031383 0.063693
0.007446 0.106083 0.144402
0.031697 0.104328 0.138782
0.086727 0.106714 0.133122
0.217266 0.116090 0.126247
0.388031 0.113523 0.109711
0.541441 0.075965 0.081314
0.639704 0.056356 0.064356
0.690591 0.056860 0.064425
0.007446 0.207363 0.160044
0.030881 0.206130 0.155480
0.057549 0.211145 0.149832
0.219510 0.234296 0.153232
0.421374 0.247949 0.121889
0.590986 0.243502 0.075548
0.697092 0.228689 0.066490
0.750926 0.214489 0.066547
0.007446 0.330726 0.168201
0.029525 0.332816 0.165487
0.057110 0.343307 0.155229
0.188215 0.380679 0.167158
0.421025 0.422413 0.152200
0.637204 0.429319 0.069944
0.759730 0.422533 0.069304
0.819374 0.412639 0.069352
0.007446 0.441486 0.165405
0.027337 0.447641 0.166928
0.056609 0.465939 0.144498
0.091607 0.518926 0.150107
0.389476 0.579526 0.166790
0.632609 0.619660 0.082283
0.805172 0.620628 0.073528
0.876839 0.613108 0.072318
0.007446 0.503480 0.161419
0.024043 0.511561 0.170043
0.055866 0.534736 0.133826
0.079474 0.596524 0.125057
0.375678 0.664327 0.150138
0.590599 0.717621 0.159159
0.787629 0.742945 0.083347
0.894933 0.738812 0.077553
0.007446 0.535643 0.165119
0.020810 0.544391 0.183372
0.054938 0.567117 0.134947
0.079364 0.631888 0.112094
0.371325 0.702665 0.136189
0.578357 0.757422 0.178675
0.744396 0.791774 0.170051
0.873619 0.799491 0.086921
0.010198 0.000963 0.205868
0.034509 0.001599 0.208697
0.081871 0.001741 0.206265
0.189397 0.002311 0.207379
0.346281 0.003287 0.202118
0.495645 0.004401 0.188853
0.595337 0.005854 0.171564
0.649658 0.007707 0.154686
0.007446 0.036029 0.233018
0.030232 0.036356 0.226975
0.082017 0.036731 0.221680
0.198329 0.037536 0.220953
0.361265 0.028957 0.214932
0.513265 0.029484 0.201528
0.613171 0.030087 0.185891
0.666045 0.030740 0.172101
0.007446 0.116240 0.261894
0.029926 0.115399 0.256208
0.067021 0.115798 0.249117
0.215209 0.123772 0.247475
0.392327 0.121140 0.239619
0.550602 0.084202 0.224164
0.652038 0.056524 0.207027
0.704293 0.056909 0.192563
0.007446 0.228715 0.290440
0.029168 0.228409 0.286857
0.057807 0.231225 0.277769
0.223169 0.248719 0.276200
0.429975 0.261341 0.264768
0.602424 0.255829 0.245007
0.709637 0.240168 0.225005
0.763640 0.225331 0.208637
0.007446 0.360081 0.311603
0.027615 0.363987 0.312225
0.057311 0.372620 0.299276
0.184796 0.404969 0.299100
0.436477 0.441429 0.304265
0.645631 0.448541 0.270666
0.768835 0.441156 0.241555
0.828918 0.430421 0.221138
0.007446 0.475282 0.321473
0.024974 0.483129 0.328261
0.056575 0.499985 0.309217
0.083041 0.551801 0.304691
0.417195 0.607286 0.322529
0.644011 0.644451 0.317217
0.808369 0.646975 0.250404
0.880855 0.639113 0.206983
0.007446 0.537656 0.323172
0.020973 0.546589 0.338485
0.055609 0.569493 0.312558
0.082726 0.633003 0.301985
0.403439 0.697464 0.320362
0.614349 0.745600 0.354488
0.795239 0.769826 0.322245
0.894736 0.767512 0.228775
0.007446 0.569004 0.323267
0.013551 0.578239 0.350305
0.054310 0.600946 0.315741
0.082295 0.669053 0.301280
0.397509 0.737550 0.316339
0.605941 0.787213 0.361118
0.759083 0.817752 0.384844
0.874642 0.826092 0.327353
0.013300 0.001742 0.290596
0.034923 0.002668 0.304327
0.084250 0.002527 0.306329
0.189295 0.003039 0.315434
0.347197 0.003911 0.318368
0.498690 0.005028 0.312002
0.600841 0.006537 0.300461
0.656579 0.008190 0.286964
0.007446 0.027767 0.332154
0.027277 0.028938 0.331511
0.079617 0.028675 0.330591
0.198492 0.028846 0.337843
0.363450 0.029170 0.339592
0.517895 0.029713 0.332978
0.619599 0.030384 0.322212
0.673708 0.031059 0.311620
0.007446 0.119102 0.372884
0.026924 0.120025 0.373265
0.056804 0.117185 0.370946
0.210364 0.123114 0.378582
0.393307 0.118912 0.379696
0.555224 0.077965 0.371318
0.658930 0.056701 0.358956
0.712397 0.057116 0.347436
0.007446 0.243357 0.413390
0.025815 0.246454 0.416127
0.056608 0.246600 0.412244
0.204413 0.263222 0.420090
0.426864 0.275574 0.420781
0.604622 0.270245 0.411179
0.714899 0.254978 0.397611
0.770450 0.240306 0.385202
0.007446 0.382216 0.445007
0.023810 0.389872 0.451926
0.056124 0.396148 0.445301
0.100836 0.429168 0.452994
0.446142 0.457881 0.453848
0.650209 0.465099 0.441708
0.772431 0.457803 0.425684
0.832271 0.447239 0.412165
0.007446 0.500984 0.462741
0.020655 0.511236 0.474728
0.055341 0.526850 0.464292
0.083371 0.580590 0.470514
0.434249 0.631670 0.473200
0.656330 0.664423 0.479834
0.807422 0.669503 0.456304
0.879063 0.663386 0.437664
0.007446 0.563540 0.467809
0.014884 0.572270 0.485772
0.054278 0.596056 0.470880
0.082856 0.662422 0.475493
0.416279 0.726676 0.477226
0.643509 0.768420 0.496463
0.799459 0.790853 0.496365
0.890190 0.792656 0.463084
0.007446 0.594795 0.468750
0.008399 0.603271 0.494841
0.052938 0.626563 0.473515
0.082265 0.697915 0.477174
0.404922 0.768084 0.477477
0.638752 0.812336 0.499459
0.781607 0.838459 0.524353
0.876347 0.847611 0.506136
0.017428 0.002718 0.359385
0.033865 0.003972 0.380016
0.086766 0.003576 0.386022
0.188617 0.003883 0.403621
0.345818 0.004714 0.415170
0.499278 0.005723 0.416390
0.603308 0.007279 0.410870
0.660183 0.008826 0.401420
0.007446 0.028079 0.410492
0.022092 0.029896 0.415038
0.078968 0.029266 0.416792
0.198288 0.029266 0.432816
0.363828 0.029557 0.442837
0.519891 0.030023 0.443204
0.623358 0.030591 0.437653
0.678209 0.031346 0.429612
0.007446 0.117855 0.459471
0.021665 0.123145 0.465277
0.055074 0.113949 0.466194
0.204496 0.115837 0.483736
0.392662 0.106859 0.494421
0.557535 0.060782 0.493469
0.663047 0.056875 0.486294
0.717369 0.057315 0.477270
0.007446 0.252344 0.507728
0.020084 0.260725 0.515265
0.054871 0.256312 0.516003
0.179208 0.272272 0.535681
0.421561 0.283965 0.547536
0.604598 0.278344 0.546673
0.717563 0.262711 0.538993
0.774207 0.247645 0.529695
0.007446 0.396732 0.546108
0.017077 0.410101 0.556461
0.054337 0.411483 0.556390
0.082745 0.446092 0.577799
0.433621 0.475235 0.590512
0.645940 0.483287 0.589668
0.771126 0.476578 0.581629
0.832620 0.466266 0.572493
0.007446 0.517421 0.568557
0.012140 0.530114 0.581200
0.053511 0.543427 0.580216
0.082405 0.598854 0.602259
0.415307 0.651423 0.615602
0.664773 0.678407 0.615959
0.806701 0.683701 0.608250
0.876202 0.679591 0.598825
0.007446 0.579292 0.575292
0.008112 0.588415 0.591188
0.052375 0.610638 0.587950
0.081859 0.679520 0.610112
0.388866 0.746690 0.623582
0.661280 0.785693 0.626178
0.805149 0.805280 0.632203
0.886410 0.809009 0.621705
0.007446 0.610182 0.576588
0.007446 0.618174 0.598779
0.050982 0.640461 0.590087
0.081242 0.713994 0.612098
0.371223 0.787622 0.625651
0.657065 0.831320 0.628675
0.798301 0.853186 0.641737
0.878716 0.862451 0.642002
0.020880 0.004149 0.409749
0.025660 0.005921 0.431608
0.085289 0.004932 0.439445
0.185718 0.005130 0.463869
0.342331 0.005783 0.482106
0.497128 0.006862 0.488691
0.603663 0.008178 0.486543
0.661879 0.009597 0.480240
0.007446 0.028480 0.462334
0.012644 0.031148 0.471562
0.075008 0.029957 0.474587
0.195261 0.029896 0.497308
0.362000 0.030051 0.513611
0.520192 0.030503 0.518862
0.625175 0.031010 0.516409
0.680887 0.031687 0.511552
0.007446 0.117561 0.516268
0.012104 0.131148 0.526319
0.052881 0.113105 0.529016
0.197260 0.110352 0.553866
0.390331 0.097031 0.571642
0.558125 0.057244 0.576094
0.665499 0.057151 0.572468
0.720704 0.057525 0.566475
0.007446 0.258205 0.568471
0.009675 0.275112 0.579606
0.052666 0.263379 0.583166
0.147054 0.278679 0.611509
0.415720 0.290141 0.631525
0.603652 0.284093 0.636790
0.718988 0.267486 0.633505
0.776779 0.251788 0.627195
0.007446 0.405779 0.610467
0.008234 0.427646 0.622656
0.052080 0.421300 0.626757
0.081465 0.456231 0.657992
0.419757 0.487269 0.680382
0.641224 0.496136 0.686789
0.769830 0.489583 0.684288
0.832732 0.479079 0.677979
0.007446 0.526680 0.635222
0.007502 0.542895 0.646951
0.051214 0.552157 0.652361
0.081115 0.608550 0.685386
0.390991 0.663309 0.709513
0.656843 0.691490 0.717386
0.802064 0.697452 0.716125
0.872382 0.694124 0.710353
0.007446 0.587521 0.643059
0.007446 0.597633 0.655960
0.049972 0.616859 0.660297
0.080589 0.687262 0.694304
0.354991 0.756823 0.719459
0.654888 0.797193 0.727865
0.809542 0.813862 0.728023
0.885163 0.817420 0.723444
0.007446 0.617971 0.644903
0.007446 0.625562 0.660302
0.048536 0.645945 0.661840
0.079953 0.720403 0.695931
0.330557 0.796611 0.721886
0.650721 0.842356 0.730667
0.808170 0.862628 0.731903
0.881983 0.870978 0.734717
0.022801 0.005604 0.445099
0.022396 0.008312 0.466389
0.081251 0.006493 0.473924
0.179162 0.006466 0.501413
0.336279 0.007081 0.523605
0.493145 0.007989 0.532156
0.602091 0.009165 0.531906
0.662064 0.011150 0.528122
0.007446 0.028937 0.496708
0.007478 0.032847 0.509197
0.067804 0.030806 0.511533
0.190247 0.030522 0.537526
0.358128 0.030625 0.557480
0.518703 0.030958 0.564092
0.625555 0.031441 0.563319
0.683066 0.032936 0.561153
0.007446 0.118727 0.553092
0.007446 0.142071 0.565915
0.050187 0.116684 0.568107
0.188637 0.110388 0.596752
0.386259 0.095182 0.618460
0.557260 0.057143 0.624631
0.666564 0.057429 0.622423
0.723318 0.058197 0.618418
0.007446 0.262571 0.607119
0.007446 0.288568 0.619825
0.050026 0.269776 0.623860
0.110189 0.284076 0.656731
0.409156 0.296167 0.681237
0.601896 0.289960 0.688474
0.719657 0.272933 0.686670
0.778579 0.257234 0.681946
0.007446 0.411756 0.650720
0.007446 0.442999 0.663200
0.049477 0.428491 0.668545
0.080055 0.462798 0.704814
0.407567 0.495741 0.732194
0.637056 0.505145 0.741065
0.768836 0.498850 0.740221
0.833013 0.488025 0.735933
0.007446 0.532165 0.676386
0.007446 0.552654 0.685753
0.048472 0.557142 0.694376
0.079732 0.613520 0.733044
0.370354 0.670004 0.762391
0.649556 0.699111 0.773140
0.798590 0.706013 0.773970
0.870224 0.702853 0.770856
0.007446 0.591730 0.684542
0.007446 0.602834 0.692484
0.047187 0.618544 0.701670
0.079198 0.689547 0.742010
0.326762 0.761263 0.772535
0.646607 0.802771 0.784134
0.806166 0.819724 0.785781
0.882747 0.823412 0.783216
0.007446 0.621659 0.686322
0.007446 0.628223 0.693679
0.047025 0.648349 0.703563
0.078702 0.722051 0.743544
0.294985 0.799813 0.774750
0.641749 0.846914 0.786961
0.806324 0.867919 0.789058
0.884195 0.874895 0.787834
