LUTs/SPK Cube Block1 S32/TheBrim_SPK_Type-G_Block1_S32.cube
TITLE "TheBrim® SPK Block 1"
# © Copyright 2021 - TheBrim® d.o.o. Croatia
LUT_3D_SIZE 8
DOMAIN_MIN 0.000000 0.000000 0.000000
DOMAIN_MAX 0.903226 0.903226 0.903226
0.067048 0.020356 0.045258
0.080937 0.025580 0.046892
0.150174 0.033046 0.041985
0.393231 0.014552 0.018539
0.645252 0.018247 0.015791
0.783231 0.022299 0.015296
0.853554 0.024363 0.016039
0.869778 0.024863 0.016202
0.068746 0.058013 0.065190
0.081417 0.055135 0.054607
0.161529 0.061139 0.041758
0.364415 0.064679 0.020331
0.634545 0.018015 0.015852
0.789811 0.022478 0.015365
0.867257 0.024783 0.016183
0.888094 0.025386 0.016400
0.076080 0.149118 0.105734
0.089428 0.139149 0.087343
0.163895 0.147922 0.057343
0.348404 0.161561 0.025484
0.554875 0.162121 0.015958
0.768135 0.140673 0.016103
0.886906 0.107944 0.019443
0.913672 0.097084 0.021037
0.100062 0.333530 0.232588
0.096446 0.313912 0.202775
0.168981 0.285163 0.138529
0.344915 0.307569 0.074302
0.548545 0.323342 0.020559
0.732517 0.320340 0.021005
0.845583 0.300987 0.027917
0.885617 0.277822 0.028974
0.130481 0.463318 0.326613
0.129889 0.461539 0.317849
0.131506 0.466829 0.256767
0.373216 0.492374 0.169004
0.569214 0.518621 0.078421
0.740103 0.522455 0.049715
0.844118 0.505903 0.054100
0.886907 0.479757 0.054083
0.151617 0.542536 0.393821
0.151173 0.541340 0.387196
0.160498 0.584395 0.331598
0.397756 0.648263 0.259185
0.608231 0.707843 0.170714
0.777605 0.726442 0.082330
0.882268 0.719692 0.085735
0.915308 0.693946 0.083479
0.167657 0.606844 0.396938
0.173588 0.631866 0.377841
0.308529 0.682641 0.347880
0.494894 0.756745 0.314901
0.659281 0.825777 0.267184
0.810237 0.874763 0.170901
0.913402 0.882921 0.102234
0.952382 0.847906 0.100508
0.375730 0.702111 0.335892
0.409782 0.717368 0.331099
0.487992 0.753827 0.316145
0.603279 0.801781 0.287731
0.719646 0.856097 0.256115
0.830142 0.894662 0.185982
0.920312 0.929757 0.105971
0.964281 0.916618 0.106032
0.066395 0.029757 0.090092
0.073528 0.028114 0.076082
0.149558 0.032593 0.061850
0.430961 0.012255 0.024921
0.662734 0.018746 0.015711
0.789693 0.022478 0.015365
0.854910 0.024421 0.016046
0.870360 0.024870 0.016206
0.066919 0.053484 0.092870
0.074192 0.045074 0.070949
0.173487 0.054404 0.052124
0.381971 0.051045 0.027620
0.640499 0.018106 0.015825
0.791541 0.022528 0.015396
0.858099 0.024513 0.016088
0.882495 0.025227 0.016336
0.077908 0.170466 0.130271
0.075639 0.145309 0.109008
0.159759 0.142803 0.071359
0.358382 0.155158 0.036516
0.563196 0.156239 0.015913
0.777403 0.130645 0.016111
0.894098 0.093037 0.019224
0.917809 0.084624 0.020705
0.100043 0.333596 0.234666
0.097800 0.321310 0.214049
0.162024 0.281916 0.139301
0.345835 0.304326 0.071418
0.551231 0.318981 0.020155
0.737422 0.314109 0.020650
0.848785 0.293648 0.027423
0.886711 0.270509 0.028543
0.130356 0.462877 0.326994
0.129694 0.460741 0.317467
0.131314 0.466085 0.256221
0.373088 0.490414 0.167630
0.569048 0.515441 0.075890
0.740760 0.518328 0.049051
0.845697 0.500503 0.053496
0.886611 0.474795 0.053384
0.151660 0.542681 0.393752
0.151207 0.541506 0.387358
0.160479 0.584341 0.330673
0.398761 0.647505 0.258103
0.608226 0.704785 0.168980
0.777975 0.723339 0.081932
0.881951 0.715418 0.085172
0.914942 0.691254 0.083113
0.168562 0.610805 0.392983
0.174219 0.634507 0.376505
0.317244 0.684808 0.346367
0.499072 0.758561 0.314126
0.660658 0.826339 0.266585
0.812229 0.875194 0.167445
0.914478 0.882430 0.102234
0.952448 0.846802 0.100423
0.384796 0.705741 0.334188
0.417487 0.720956 0.330053
0.494400 0.756654 0.314983
0.607179 0.803450 0.286390
0.721651 0.857028 0.255510
0.832484 0.895706 0.182830
0.921011 0.933234 0.106255
0.964199 0.930553 0.107094
0.070313 0.032530 0.209126
0.073553 0.027638 0.220703
0.158803 0.032467 0.175371
0.385413 0.023214 0.149093
0.696218 0.014566 0.119860
0.836228 0.020215 0.088686
0.885244 0.023606 0.050348
0.891406 0.024996 0.026355
0.072856 0.068129 0.233542
0.071093 0.056425 0.200762
0.147740 0.060459 0.162266
0.362301 0.060177 0.135096
0.681377 0.014776 0.106964
0.834413 0.020775 0.076443
0.883952 0.024133 0.039101
0.900860 0.025537 0.022094
0.079271 0.176999 0.270403
0.076370 0.152651 0.223555
0.142176 0.145890 0.175974
0.333138 0.156876 0.144657
0.568423 0.152505 0.118002
0.792948 0.129833 0.088255
0.915590 0.096636 0.043626
0.937862 0.073688 0.023942
0.099295 0.332892 0.302594
0.097560 0.324104 0.293328
0.134945 0.289710 0.222143
0.330756 0.304544 0.173284
0.568694 0.316592 0.138766
0.753619 0.314505 0.101539
0.865211 0.298568 0.052564
0.893256 0.282007 0.030143
0.130594 0.463203 0.334531
0.130241 0.462154 0.329010
0.130933 0.464866 0.265143
0.371020 0.488787 0.195619
0.567177 0.511836 0.151511
0.742384 0.523369 0.097771
0.845782 0.511251 0.056523
0.890572 0.484568 0.055017
0.151617 0.542469 0.394710
0.151297 0.541698 0.389229
0.160251 0.583417 0.330617
0.398291 0.644137 0.257032
0.607629 0.700759 0.174350
0.777432 0.726637 0.087501
0.882132 0.730828 0.087207
0.918047 0.710558 0.085725
0.170783 0.620099 0.387338
0.176689 0.644271 0.374126
0.342163 0.691396 0.342633
0.512394 0.764272 0.315304
0.664003 0.829715 0.284660
0.815340 0.877031 0.197432
0.915445 0.896161 0.103285
0.951931 0.877990 0.102778
0.403044 0.714162 0.331851
0.435023 0.729167 0.326851
0.510028 0.763254 0.312245
0.617271 0.808176 0.284495
0.725870 0.860693 0.275887
0.834565 0.901309 0.273516
0.922789 0.932892 0.288080
0.964083 0.942729 0.287190
0.076475 0.065776 0.327662
0.077351 0.068926 0.341948
0.120417 0.070234 0.334987
0.314003 0.068804 0.307808
0.626529 0.023172 0.292833
0.891324 0.013323 0.261215
0.947029 0.017913 0.201434
0.940677 0.019562 0.164422
0.078297 0.089591 0.341622
0.078074 0.077949 0.347889
0.116803 0.077521 0.344925
0.331344 0.071044 0.304514
0.657952 0.017774 0.278531
0.889995 0.014053 0.244169
0.950432 0.018598 0.190388
0.961414 0.021263 0.166938
0.087333 0.186234 0.429707
0.085000 0.170106 0.395918
0.110765 0.161724 0.352130
0.316477 0.167862 0.306148
0.563190 0.163608 0.281767
0.833713 0.138042 0.253252
0.964319 0.106608 0.214532
0.994206 0.092571 0.185644
0.105529 0.344361 0.466100
0.104269 0.337828 0.459018
0.096350 0.304298 0.392430
0.308589 0.315521 0.332156
0.568453 0.321826 0.301845
0.773764 0.314960 0.278706
0.913693 0.299596 0.241951
0.954057 0.288510 0.204564
0.135099 0.483985 0.491072
0.135005 0.483667 0.492125
0.135778 0.479626 0.434828
0.356581 0.503689 0.381153
0.569309 0.521301 0.348433
0.759182 0.525862 0.318814
0.866042 0.513023 0.283462
0.923264 0.494557 0.234067
0.152207 0.553221 0.495045
0.152166 0.553157 0.495362
0.164554 0.598173 0.457599
0.379559 0.663437 0.415838
0.601504 0.705619 0.376792
0.772472 0.730504 0.349593
0.881036 0.740871 0.322491
0.919997 0.732018 0.281616
0.173984 0.639236 0.491944
0.180935 0.665666 0.487827
0.291756 0.711891 0.478757
0.494137 0.763981 0.451622
0.659805 0.824448 0.438098
0.807747 0.872396 0.410091
0.914478 0.892606 0.374538
0.952423 0.888238 0.335201
0.398525 0.722093 0.410084
0.428870 0.734558 0.412155
0.503226 0.760651 0.410939
0.616470 0.805069 0.413197
0.727476 0.855934 0.429712
0.834777 0.898296 0.441801
0.924069 0.930350 0.448263
0.965361 0.945344 0.431882
0.083951 0.100003 0.443810
0.084564 0.101092 0.461840
0.121452 0.102734 0.477551
0.284760 0.097175 0.463167
0.555705 0.068358 0.439438
0.870493 0.017918 0.417603
1.000000 0.014448 0.360457
0.967791 0.014474 0.298047
0.085972 0.124406 0.473301
0.085421 0.109411 0.477237
0.112680 0.108400 0.494792
0.285756 0.102738 0.481372
0.586779 0.064550 0.449819
0.886055 0.017537 0.412643
1.000000 0.015913 0.357200
1.000000 0.018559 0.332907
0.090791 0.193104 0.529778
0.090324 0.181592 0.531366
0.090121 0.180715 0.525934
0.275595 0.181133 0.495282
0.569777 0.178958 0.457290
0.844638 0.154366 0.426796
1.000000 0.128701 0.392971
1.000000 0.114834 0.366304
0.110398 0.351115 0.595534
0.109473 0.346368 0.591096
0.104300 0.321359 0.553246
0.295174 0.332923 0.519004
0.560839 0.339778 0.476723
0.778783 0.331886 0.452682
0.945602 0.317219 0.419930
0.986836 0.306928 0.390667
0.137379 0.494413 0.625701
0.137375 0.494384 0.625640
0.136531 0.494725 0.594494
0.334110 0.522210 0.551124
0.560748 0.533674 0.510019
0.764874 0.538461 0.485562
0.874280 0.525811 0.454693
0.936578 0.505144 0.419647
0.151085 0.564765 0.628879
0.151039 0.564632 0.629082
0.165727 0.623044 0.625102
0.357513 0.686478 0.588914
0.600870 0.722994 0.550730
0.778901 0.745027 0.526799
0.897815 0.756014 0.504543
0.933811 0.739518 0.465912
0.174646 0.659255 0.638714
0.181929 0.687848 0.641950
0.195053 0.735820 0.651709
0.476425 0.787807 0.610972
0.659093 0.841089 0.593100
0.810908 0.880575 0.574171
0.916251 0.889589 0.540368
0.952621 0.878589 0.499639
0.383237 0.752402 0.568329
0.424955 0.763249 0.566377
0.510714 0.789637 0.563325
0.627666 0.827491 0.564783
0.737771 0.870091 0.577208
0.839354 0.908272 0.588484
0.928682 0.933904 0.590391
0.965685 0.942631 0.568320
0.088255 0.133029 0.535925
0.087800 0.120540 0.538886
0.128143 0.119395 0.548101
0.283326 0.119556 0.532462
0.512414 0.104369 0.503107
0.788166 0.068847 0.482580
1.000000 0.031277 0.468131
1.000000 0.027267 0.443851
0.090225 0.158837 0.562652
0.089821 0.148976 0.564259
0.116317 0.138758 0.564452
0.271784 0.144649 0.552630
0.527530 0.135227 0.520807
0.786825 0.115772 0.500003
0.993885 0.085577 0.480223
1.000000 0.067772 0.457513
0.094441 0.218641 0.612569
0.094163 0.212383 0.612321
0.094007 0.208572 0.613301
0.267530 0.205544 0.588348
0.545903 0.205959 0.553832
0.808069 0.190389 0.531318
0.996691 0.169644 0.508718
1.000000 0.175114 0.489874
0.113070 0.353748 0.672597
0.112807 0.352370 0.671867
0.111282 0.341853 0.678644
0.275868 0.355087 0.668408
0.561774 0.363383 0.635499
0.780274 0.354527 0.601589
0.958309 0.340859 0.575033
1.000000 0.333365 0.554860
0.140610 0.495495 0.718818
0.140553 0.495214 0.718754
0.143125 0.507579 0.726339
0.309400 0.538357 0.709758
0.550388 0.553626 0.670930
0.762756 0.557700 0.630458
0.883788 0.546824 0.609513
0.944932 0.527040 0.585334
0.156145 0.575400 0.740929
0.156212 0.575676 0.741364
0.170471 0.637888 0.768662
0.338477 0.697738 0.744784
0.601447 0.735160 0.706211
0.781921 0.764165 0.665742
0.904722 0.771017 0.648459
0.946805 0.756610 0.624526
0.173699 0.652769 0.761375
0.183392 0.691343 0.769502
0.195737 0.746996 0.791240
0.471685 0.799797 0.759340
0.655733 0.846023 0.738318
0.812131 0.889635 0.697898
0.918214 0.900797 0.678497
0.960511 0.896781 0.653038
0.374655 0.767243 0.700447
0.420142 0.779687 0.698730
0.511317 0.808121 0.704098
0.626228 0.840018 0.703802
0.747176 0.884971 0.688801
0.843363 0.919831 0.698625
0.928974 0.946105 0.706432
0.965700 0.953666 0.684866
0.092800 0.192521 0.597678
0.092824 0.191803 0.598901
0.103837 0.190240 0.601094
0.243773 0.189723 0.584621
0.446737 0.189148 0.559513
0.641456 0.179444 0.535663
0.855771 0.161180 0.518155
1.000000 0.147253 0.500761
0.093957 0.208984 0.610675
0.093874 0.207906 0.609558
0.096201 0.210857 0.615521
0.241059 0.208849 0.593203
0.444783 0.209675 0.566666
0.641024 0.200277 0.541032
0.859310 0.181876 0.524329
1.000000 0.176105 0.508275
0.097011 0.252358 0.640135
0.096848 0.251140 0.637895
0.097663 0.257665 0.647723
0.243549 0.259755 0.633224
0.456771 0.261160 0.600229
0.647288 0.259167 0.575013
0.858376 0.247511 0.555394
0.992431 0.249275 0.539433
0.113882 0.355750 0.688528
0.113690 0.353341 0.693929
0.114497 0.355027 0.707669
0.278463 0.363669 0.699872
0.497356 0.370975 0.670829
0.708223 0.375111 0.631731
0.872113 0.377635 0.613074
0.971037 0.383486 0.597403
0.141160 0.487767 0.770256
0.141111 0.487410 0.770487
0.148521 0.519183 0.808818
0.308684 0.559048 0.808401
0.553941 0.572804 0.768301
0.757767 0.573749 0.706337
0.873993 0.572073 0.694532
0.920886 0.559805 0.671841
0.159158 0.578701 0.803361
0.159148 0.578656 0.802912
0.177794 0.645587 0.851226
0.318208 0.706648 0.854569
0.598209 0.746946 0.819449
0.784048 0.780529 0.759662
0.907001 0.788384 0.752222
0.947091 0.771860 0.741041
0.177283 0.651850 0.830434
0.186744 0.684600 0.848747
0.201418 0.745574 0.880086
0.440846 0.798807 0.855921
0.663745 0.850112 0.828696
0.813618 0.892804 0.778601
0.918496 0.908026 0.771661
0.959182 0.906393 0.762036
0.374608 0.779577 0.821457
0.424121 0.792417 0.818456
0.506438 0.816467 0.816156
0.628991 0.847341 0.812512
0.752509 0.893925 0.779104
0.849850 0.929835 0.777752
0.929128 0.954674 0.784819
0.963367 0.959159 0.776576
0.095559 0.233747 0.626298
0.095651 0.234705 0.628222
0.096110 0.239700 0.635782
0.219224 0.239751 0.622688
0.381335 0.237737 0.595188
0.569364 0.234378 0.568907
0.749289 0.220744 0.547634
0.918268 0.206498 0.531790
0.096470 0.247611 0.634935
0.096632 0.248810 0.637178
0.097365 0.254643 0.645589
0.220395 0.254686 0.633010
0.383957 0.251996 0.605414
0.572831 0.251031 0.581045
0.755891 0.238542 0.558176
0.915530 0.226797 0.541561
0.101448 0.284747 0.660981
0.101780 0.286189 0.664356
0.102386 0.288715 0.670951
0.235132 0.290725 0.653485
0.389459 0.292132 0.626490
0.582151 0.295485 0.600847
0.748468 0.289513 0.578911
0.907785 0.294602 0.569498
0.114715 0.358132 0.699658
0.115163 0.359575 0.705073
0.116252 0.363450 0.716230
0.257082 0.369499 0.706795
0.405069 0.376636 0.686317
0.613913 0.390956 0.663891
0.772060 0.412603 0.642467
0.905052 0.426353 0.631695
0.140624 0.482616 0.780878
0.142178 0.489180 0.789944
0.147203 0.510581 0.812398
0.344611 0.533065 0.789420
0.533542 0.556835 0.764647
0.696490 0.575825 0.720710
0.819348 0.589206 0.706124
0.893294 0.602420 0.696976
0.161462 0.581305 0.827715
0.169707 0.609113 0.855481
0.190416 0.674005 0.906380
0.383663 0.713862 0.882626
0.617956 0.750837 0.854101
0.792666 0.785532 0.784011
0.897107 0.793433 0.770044
0.937615 0.792490 0.760561
0.179804 0.646957 0.867140
0.190741 0.681221 0.893802
0.207720 0.748150 0.936850
0.439116 0.804372 0.913656
0.666340 0.853902 0.888254
0.819771 0.899584 0.828052
0.918199 0.912967 0.819844
0.957106 0.912038 0.809424
0.354914 0.787749 0.895728
0.418323 0.798313 0.887853
0.525117 0.826557 0.881221
0.630291 0.854503 0.879538
0.758415 0.899027 0.841283
0.855433 0.935662 0.824921
0.928525 0.958707 0.831157
0.962432 0.961925 0.826201
