LUTs/SPK Cube Block1 S32/TheBrim_SPK_Type-R_Block1_S32.cube
TITLE "TheBrim® SPK Block 1"
# © Copyright 2021 - TheBrim® d.o.o. Croatia
LUT_3D_SIZE 8
DOMAIN_MIN 0.000000 0.000000 0.000000
DOMAIN_MAX 0.903226 0.903226 0.903226
0.001068 0.004303 0.006806
0.009118 0.007994 0.013695
0.028796 0.012269 0.020924
0.332130 0.000000 0.008833
0.526693 0.000000 0.011014
0.621935 0.000000 0.025103
0.645761 0.000000 0.034007
0.659700 0.000000 0.046524
0.000000 0.015307 0.015545
0.010524 0.012120 0.011862
0.051709 0.014694 0.019041
0.339240 0.000000 0.006608
0.527400 0.000000 0.011607
0.622186 0.000000 0.025851
0.645814 0.000000 0.033878
0.659310 0.000000 0.045470
0.000000 0.120478 0.048678
0.000000 0.111155 0.047214
0.069798 0.093207 0.032485
0.319284 0.068713 0.021787
0.528936 0.000000 0.013901
0.621714 0.000000 0.026837
0.646128 0.000000 0.033986
0.658596 0.000000 0.043797
0.000000 0.343058 0.136461
0.000000 0.338852 0.133545
0.000000 0.314906 0.123849
0.194031 0.304241 0.085883
0.577229 0.274349 0.013218
0.701313 0.149729 0.018516
0.683985 0.025132 0.030582
0.663460 0.000000 0.041787
0.000000 0.485494 0.213279
0.000000 0.484323 0.212387
0.000000 0.478689 0.206523
0.000000 0.478774 0.186167
0.460585 0.614065 0.110054
0.824748 0.637021 0.000000
0.901361 0.545261 0.000000
0.842099 0.365494 0.000000
0.000000 0.516689 0.234006
0.000000 0.517072 0.234220
0.000000 0.516932 0.230316
0.000000 0.537935 0.213266
0.426715 0.730874 0.194456
0.836940 0.815512 0.045657
0.971098 0.831709 0.000000
0.976402 0.806276 0.000000
0.000000 0.520449 0.230197
0.000000 0.523323 0.226682
0.000000 0.529976 0.218745
0.000000 0.644091 0.221983
0.538844 0.758129 0.193549
0.842743 0.825451 0.076897
0.970577 0.846253 0.000000
0.984981 0.843937 0.000000
0.000000 0.537365 0.214869
0.000000 0.558315 0.215772
0.000000 0.639442 0.221605
0.365929 0.720655 0.209894
0.688776 0.794752 0.165381
0.869453 0.831412 0.049595
0.968156 0.846146 0.000000
0.984982 0.843913 0.000000
0.000000 0.006753 0.020064
0.001110 0.007570 0.022994
0.022169 0.011831 0.029024
0.359615 0.000000 0.044080
0.533007 0.000000 0.042205
0.623076 0.000000 0.033409
0.645688 0.000000 0.035057
0.660115 0.000000 0.048203
0.000000 0.008918 0.022732
0.003635 0.007962 0.019612
0.045300 0.013898 0.028692
0.366137 0.000000 0.032884
0.533912 0.000000 0.028393
0.623374 0.000000 0.028797
0.645862 0.000000 0.034668
0.659811 0.000000 0.047265
0.000000 0.136202 0.055333
0.000000 0.116524 0.054729
0.069763 0.087977 0.041668
0.334644 0.051913 0.029942
0.532513 0.000000 0.020257
0.622791 0.000000 0.028798
0.646247 0.000000 0.034569
0.659224 0.000000 0.045494
0.000000 0.343148 0.136691
0.000000 0.339129 0.133679
0.000000 0.314199 0.123809
0.203570 0.301617 0.084034
0.580090 0.264018 0.014457
0.697486 0.133342 0.021119
0.676326 0.012869 0.031985
0.662215 0.000000 0.043456
0.000000 0.484471 0.212565
0.000000 0.483201 0.211610
0.000000 0.477814 0.206112
0.000000 0.478208 0.185407
0.466322 0.612279 0.106384
0.827939 0.630310 0.000000
0.896013 0.526377 0.000000
0.836210 0.350734 0.000000
0.000000 0.516901 0.234282
0.000000 0.517034 0.234410
0.000000 0.516944 0.230245
0.000000 0.538114 0.213287
0.431184 0.731621 0.193361
0.839751 0.815519 0.038529
0.971617 0.830986 0.000000
0.976062 0.804828 0.000000
0.000000 0.520850 0.229606
0.000000 0.523622 0.226304
0.000000 0.530059 0.218214
0.000000 0.648235 0.222593
0.542952 0.759038 0.192602
0.846118 0.826212 0.072265
0.971640 0.846507 0.000000
0.984978 0.843971 0.000000
0.000000 0.545735 0.214334
0.000000 0.562121 0.216722
0.000000 0.645155 0.222022
0.376968 0.723104 0.209556
0.692789 0.795672 0.164311
0.872818 0.832207 0.048457
0.969305 0.848295 0.000000
0.985609 0.853123 0.000000
0.000000 0.009357 0.102261
0.000000 0.009458 0.124511
0.012460 0.012460 0.124242
0.259662 0.011755 0.159484
0.532970 0.000000 0.177072
0.632952 0.000000 0.161578
0.647214 0.000000 0.142610
0.664612 0.000000 0.150131
0.000000 0.010042 0.098431
0.000000 0.009679 0.102624
0.029633 0.012646 0.113579
0.293103 0.004115 0.143557
0.539106 0.000000 0.157423
0.632747 0.000000 0.148881
0.647048 0.000000 0.133606
0.664366 0.000000 0.143660
0.000000 0.090302 0.126317
0.000000 0.077154 0.122421
0.056079 0.056691 0.099786
0.317512 0.031122 0.110525
0.540138 0.000000 0.126401
0.630120 0.000000 0.127877
0.646789 0.000000 0.118138
0.663318 0.000000 0.129893
0.000000 0.344643 0.188218
0.000000 0.340329 0.188233
0.000000 0.307712 0.187790
0.213712 0.292485 0.168951
0.580817 0.245226 0.149626
0.692440 0.105132 0.127855
0.671238 0.000000 0.108058
0.662870 0.000000 0.115658
0.000000 0.482682 0.212509
0.000000 0.482049 0.212082
0.000000 0.477091 0.207082
0.000000 0.477110 0.189331
0.477719 0.613814 0.156169
0.835006 0.625894 0.090129
0.891341 0.503505 0.070944
0.833401 0.334874 0.119463
0.000000 0.516990 0.234486
0.000000 0.517354 0.234626
0.000000 0.517073 0.230747
0.000000 0.537641 0.213251
0.440482 0.733694 0.195773
0.845941 0.820210 0.105572
0.972737 0.846182 0.071744
0.978084 0.826793 0.055177
0.000000 0.521607 0.228615
0.000000 0.524993 0.225667
0.000000 0.531597 0.219626
0.011199 0.659786 0.224494
0.557056 0.764275 0.207413
0.854102 0.831282 0.112202
0.973206 0.865967 0.183920
0.983468 0.879124 0.285610
0.000000 0.554843 0.215197
0.000000 0.574255 0.218386
0.000000 0.657737 0.223446
0.407082 0.729357 0.208269
0.704144 0.801054 0.191112
0.881621 0.842045 0.164983
0.969578 0.872954 0.271092
0.983032 0.881838 0.310603
0.000412 0.031250 0.211136
0.000000 0.035828 0.225613
0.000000 0.037547 0.237427
0.099921 0.042020 0.267940
0.444303 0.000000 0.319473
0.635230 0.000000 0.324346
0.654047 0.000000 0.269009
0.657143 0.000000 0.271595
0.000243 0.031630 0.210090
0.000000 0.038348 0.230864
0.000000 0.039430 0.244369
0.121350 0.043169 0.271636
0.469215 0.000000 0.308433
0.636882 0.000000 0.306655
0.653469 0.000000 0.258109
0.657145 0.000000 0.262728
0.000000 0.031791 0.191231
0.000000 0.029327 0.194601
0.003442 0.028421 0.200127
0.212352 0.032380 0.235997
0.507010 0.000000 0.270305
0.638391 0.000000 0.261975
0.651734 0.000000 0.232967
0.657442 0.000000 0.240230
0.000000 0.314566 0.322340
0.000000 0.302035 0.317537
0.000000 0.261190 0.304373
0.211657 0.235483 0.289536
0.546108 0.184890 0.276176
0.680666 0.054072 0.252118
0.665159 0.000000 0.211654
0.662969 0.000000 0.215221
0.000000 0.503907 0.364563
0.000000 0.503323 0.364630
0.000000 0.498039 0.363844
0.000000 0.505051 0.362387
0.498883 0.628028 0.393426
0.835585 0.621735 0.375614
0.885594 0.482670 0.314373
0.832785 0.325860 0.281418
0.000000 0.531962 0.330724
0.000000 0.532659 0.332321
0.000000 0.537757 0.339692
0.000000 0.566705 0.350779
0.452014 0.770524 0.419206
0.849545 0.852910 0.432674
0.968044 0.873160 0.412359
0.973493 0.849537 0.386937
0.000000 0.541164 0.323376
0.000000 0.545587 0.326000
0.000000 0.553053 0.332284
0.000000 0.683427 0.371306
0.566047 0.793773 0.394167
0.860752 0.863066 0.411660
0.969959 0.894709 0.449254
0.977606 0.902271 0.488953
0.000000 0.583842 0.287964
0.000000 0.608324 0.293535
0.000000 0.679628 0.324766
0.413295 0.753267 0.350193
0.707530 0.825389 0.389633
0.886973 0.869284 0.412670
0.968167 0.894990 0.455070
0.978189 0.900739 0.474750
0.000000 0.054697 0.307456
0.000000 0.057828 0.325803
0.000000 0.057186 0.346325
0.014040 0.056607 0.361026
0.338931 0.023970 0.425855
0.623419 0.000000 0.452516
0.640798 0.000000 0.382854
0.632231 0.000000 0.377017
0.000000 0.056690 0.317344
0.000000 0.059271 0.337561
0.000000 0.057099 0.359681
0.012287 0.057612 0.372901
0.368083 0.017687 0.438034
0.633205 0.000000 0.451749
0.633624 0.000000 0.368984
0.632225 0.000000 0.367547
0.000000 0.057142 0.319231
0.000000 0.058123 0.331441
0.000000 0.058136 0.338628
0.074488 0.054169 0.363073
0.430299 0.006424 0.414416
0.640627 0.000000 0.414479
0.643456 0.000000 0.350641
0.640551 0.000000 0.347764
0.000000 0.204455 0.380480
0.000000 0.190413 0.373166
0.000000 0.163541 0.360143
0.156587 0.141472 0.367724
0.488158 0.108038 0.388402
0.656950 0.000000 0.373449
0.661425 0.000000 0.323842
0.651780 0.000000 0.319044
0.000000 0.512508 0.498296
0.000000 0.511177 0.497063
0.000000 0.504293 0.494221
0.000000 0.513537 0.500333
0.503848 0.605111 0.558236
0.814368 0.565674 0.539936
0.875602 0.453811 0.480765
0.828411 0.307962 0.435428
0.000000 0.555075 0.473731
0.000000 0.556097 0.475067
0.000000 0.566386 0.483173
0.000000 0.589229 0.498549
0.457460 0.801663 0.609767
0.849774 0.873626 0.635566
0.959619 0.892371 0.626685
0.963943 0.863253 0.597499
0.000000 0.565537 0.448458
0.000000 0.567497 0.449877
0.000000 0.575292 0.455027
0.000000 0.711321 0.522899
0.578199 0.821651 0.564377
0.862050 0.886709 0.605807
0.964837 0.916790 0.636430
0.969708 0.920786 0.659303
0.000000 0.633559 0.444598
0.000000 0.666247 0.458295
0.000000 0.721704 0.485026
0.477328 0.794227 0.517259
0.732411 0.851360 0.549970
0.889530 0.890242 0.584522
0.965824 0.913811 0.609786
0.971705 0.916542 0.618726
0.000000 0.059490 0.381626
0.000000 0.061213 0.390104
0.000000 0.057799 0.399953
0.014913 0.059069 0.405445
0.307864 0.033520 0.464227
0.571599 0.000000 0.480383
0.664080 0.000000 0.453589
0.639291 0.000000 0.403068
0.000000 0.062585 0.387271
0.000000 0.062619 0.392682
0.000000 0.057496 0.401102
0.023069 0.059021 0.408179
0.330290 0.029026 0.467158
0.581341 0.000000 0.480025
0.663843 0.000000 0.450055
0.638392 0.000000 0.402724
0.000000 0.064236 0.390444
0.000000 0.062195 0.394877
0.000000 0.056509 0.400974
0.065397 0.057966 0.418787
0.385215 0.015149 0.470891
0.625264 0.000000 0.486449
0.653146 0.000000 0.429220
0.639246 0.000000 0.404309
0.000000 0.135014 0.429369
0.000000 0.129274 0.427524
0.000000 0.113477 0.420376
0.121113 0.103876 0.454717
0.470337 0.060962 0.499073
0.656321 0.000000 0.484173
0.653451 0.000000 0.420351
0.637830 0.000000 0.403765
0.000000 0.495696 0.577551
0.000000 0.493396 0.575898
0.000000 0.480071 0.570005
0.000000 0.483034 0.590009
0.498394 0.539312 0.660372
0.798240 0.497472 0.649167
0.868386 0.427447 0.614273
0.822918 0.284297 0.561449
0.000000 0.575275 0.580238
0.000000 0.576650 0.581260
0.000000 0.582982 0.585218
0.000000 0.626395 0.617040
0.476087 0.816759 0.737464
0.855079 0.885169 0.768355
0.956605 0.904034 0.769256
0.955560 0.866189 0.747633
0.000000 0.580482 0.542435
0.000000 0.584529 0.545301
0.000000 0.599728 0.557121
0.000000 0.743900 0.650645
0.588081 0.840807 0.701760
0.869262 0.904744 0.746788
0.960187 0.931189 0.775047
0.963026 0.933653 0.790165
0.000000 0.649501 0.558614
0.000000 0.692227 0.583235
0.039638 0.753896 0.619644
0.496352 0.818716 0.654665
0.752756 0.873245 0.685182
0.896139 0.906604 0.709277
0.962272 0.927622 0.737375
0.964797 0.930201 0.752860
0.000000 0.061586 0.396863
0.000000 0.060239 0.400188
0.000000 0.056584 0.400145
0.029314 0.059181 0.410044
0.261477 0.042396 0.457256
0.500561 0.000000 0.477990
0.646039 0.000000 0.486920
0.648184 0.000000 0.421315
0.000000 0.061393 0.397719
0.000000 0.059896 0.401387
0.000000 0.056795 0.399362
0.041621 0.059165 0.413117
0.273649 0.040401 0.459158
0.509525 0.000000 0.478868
0.651791 0.000000 0.488485
0.646866 0.000000 0.418825
0.000000 0.060142 0.400535
0.000000 0.057689 0.401561
0.000000 0.057275 0.399007
0.071161 0.057657 0.420084
0.307793 0.033392 0.464331
0.530688 0.000000 0.481040
0.661806 0.000000 0.481991
0.642576 0.000000 0.409355
0.000000 0.133882 0.446132
0.000000 0.126242 0.442801
0.000000 0.112850 0.435836
0.124604 0.107089 0.472978
0.408410 0.080725 0.505572
0.610819 0.007691 0.501781
0.701092 0.000000 0.490074
0.688479 0.000000 0.455797
0.000000 0.469722 0.629168
0.000000 0.466830 0.627731
0.000000 0.454301 0.621214
0.000000 0.483089 0.672648
0.525810 0.523712 0.727955
0.798803 0.481695 0.711973
0.870976 0.441138 0.683732
0.846968 0.351826 0.644722
0.000000 0.598537 0.666463
0.000000 0.600852 0.667584
0.000000 0.606099 0.670593
0.000000 0.635155 0.694228
0.515475 0.833969 0.833069
0.866230 0.895376 0.863643
0.953653 0.910568 0.864344
0.949582 0.860309 0.843945
0.000000 0.596612 0.622092
0.000000 0.602496 0.626493
0.000000 0.616654 0.637734
0.000000 0.756280 0.747246
0.624418 0.861662 0.803702
0.878330 0.917033 0.841607
0.958455 0.940768 0.867513
0.959184 0.940775 0.872727
0.000000 0.711764 0.677255
0.000000 0.735949 0.693032
0.108617 0.778507 0.718029
0.528865 0.835879 0.749160
0.768514 0.887500 0.779966
0.904314 0.919422 0.806800
0.959855 0.937337 0.833370
0.960686 0.938800 0.842967
0.000000 0.059717 0.401778
0.000000 0.057026 0.401344
0.000000 0.057071 0.398768
0.031959 0.059340 0.410863
0.215594 0.047331 0.450701
0.429663 0.002039 0.474072
0.585440 0.000000 0.480050
0.668384 0.000000 0.466109
0.000000 0.058183 0.401685
0.000000 0.056101 0.401018
0.000000 0.057382 0.399147
0.042269 0.059142 0.413193
0.225474 0.046242 0.452074
0.438678 0.000754 0.474593
0.592262 0.000000 0.480889
0.668254 0.000000 0.465198
0.000000 0.062055 0.406127
0.000000 0.059853 0.404697
0.000000 0.059213 0.400830
0.070367 0.058628 0.421688
0.253229 0.043636 0.456225
0.456452 0.000000 0.475449
0.611605 0.000000 0.485070
0.665886 0.000000 0.459087
0.000000 0.135349 0.446654
0.000000 0.128966 0.443186
0.000000 0.117487 0.439900
0.094839 0.112600 0.472131
0.319804 0.107191 0.504280
0.539281 0.079934 0.525982
0.685951 0.051262 0.526910
0.737521 0.028305 0.513550
0.000000 0.402012 0.593261
0.000000 0.394415 0.589680
0.000000 0.386683 0.582970
0.000000 0.436616 0.666605
0.482462 0.481534 0.708736
0.741834 0.503848 0.720870
0.859965 0.511636 0.721998
0.893649 0.517821 0.710925
0.000000 0.611905 0.699279
0.000000 0.612771 0.699780
0.000000 0.619823 0.702819
0.000000 0.730396 0.797005
0.610520 0.850733 0.870280
0.876332 0.896709 0.885302
0.948261 0.910708 0.882831
0.952511 0.897526 0.869645
0.000000 0.615672 0.687521
0.000000 0.618188 0.689105
0.000000 0.629891 0.696472
0.000000 0.785776 0.826361
0.681635 0.882485 0.879301
0.898570 0.928718 0.907390
0.956864 0.945523 0.920149
0.956932 0.944386 0.918701
0.000000 0.735578 0.755873
0.000000 0.759348 0.772288
0.212109 0.803207 0.798576
0.567292 0.855119 0.826324
0.787216 0.898358 0.849650
0.912804 0.928882 0.877366
0.957759 0.943575 0.895933
0.957881 0.944465 0.905933
