LUTs/SPK Cube Block1 S32/TheBrim_SPK_Type-A_Block1_S32.cube
TITLE "TheBrim® Industrial Imaging Burau"
# © Copyright 2022 - TheBrim® d.o.o. Croatia
LUT_3D_SIZE 8
DOMAIN_MIN 0.000000 0.000000 0.000000
DOMAIN_MAX 0.903226 0.903226 0.903226
0.004913 0.003448 0.003296
0.009764 0.006248 0.005910
0.055956 0.011041 0.007508
0.191837 0.005409 0.001868
0.398569 0.000000 0.000000
0.565991 0.000000 0.000000
0.635308 0.000000 0.000000
0.670849 0.000000 0.000000
0.005771 0.014534 0.011548
0.009290 0.015757 0.011365
0.058427 0.026389 0.011952
0.209409 0.038122 0.006444
0.416117 0.012904 0.000000
0.600669 0.000000 0.000000
0.686921 0.000000 0.000000
0.714628 0.002942 0.000000
0.000000 0.053412 0.031945
0.000000 0.056306 0.032746
0.035578 0.067826 0.030046
0.194584 0.100860 0.022554
0.441276 0.130372 0.000960
0.654365 0.147777 0.000000
0.750959 0.170388 0.000000
0.782363 0.200483 0.000000
0.000000 0.137860 0.102180
0.000000 0.139123 0.100371
0.000000 0.152614 0.100884
0.149864 0.185042 0.083087
0.454742 0.256347 0.043141
0.707905 0.310373 0.000000
0.820899 0.346298 0.000000
0.852532 0.364680 0.000000
0.000000 0.285695 0.218734
0.000000 0.287475 0.219132
0.000000 0.290766 0.213463
0.029847 0.364928 0.211523
0.445067 0.421492 0.158970
0.755918 0.491926 0.056302
0.884795 0.533559 0.000000
0.921540 0.549290 0.000000
0.000000 0.429134 0.330929
0.000000 0.429407 0.328629
0.000000 0.436405 0.325661
0.000000 0.520922 0.336998
0.462888 0.632466 0.293083
0.768885 0.663264 0.157681
0.932514 0.705758 0.000000
0.968010 0.707777 0.000000
0.000000 0.477878 0.359721
0.000000 0.482960 0.359997
0.000000 0.503379 0.361816
0.000000 0.627005 0.397041
0.489937 0.740982 0.388712
0.810280 0.790852 0.280950
0.940603 0.790669 0.096505
0.986599 0.791335 0.000000
0.000000 0.530995 0.369347
0.000000 0.559288 0.379136
0.000000 0.622088 0.396385
0.320607 0.708505 0.404032
0.640226 0.776836 0.371785
0.839487 0.809868 0.290581
0.945520 0.824288 0.190696
0.989642 0.826184 0.010805
0.005573 0.006982 0.010300
0.006951 0.006745 0.009914
0.033199 0.009011 0.011844
0.163706 0.005636 0.009365
0.373033 0.000000 0.006166
0.560592 0.000000 0.004182
0.633709 0.000000 0.013195
0.666511 0.000000 0.044442
0.004937 0.013187 0.013996
0.006994 0.013394 0.013874
0.059367 0.024688 0.017559
0.213712 0.035419 0.017776
0.422387 0.003907 0.009873
0.602160 0.000000 0.013866
0.686051 0.000000 0.031616
0.721898 0.003319 0.074954
0.000000 0.054427 0.035998
0.000000 0.055180 0.036597
0.034350 0.068778 0.036325
0.204651 0.101712 0.033476
0.449244 0.128706 0.014410
0.660302 0.141965 0.008511
0.754801 0.168779 0.035817
0.790846 0.211272 0.083930
0.000000 0.137563 0.103098
0.000000 0.138391 0.101025
0.000000 0.150018 0.099842
0.152641 0.182649 0.080382
0.458272 0.252176 0.040523
0.709452 0.304145 0.000000
0.822252 0.344863 0.000000
0.857470 0.374097 0.071418
0.000000 0.285234 0.218525
0.000000 0.286635 0.218532
0.000000 0.290301 0.213221
0.032888 0.362943 0.209822
0.445812 0.417335 0.155272
0.758587 0.488393 0.052081
0.885270 0.530464 0.000000
0.923920 0.557742 0.000000
0.000000 0.429587 0.331277
0.000000 0.429974 0.329320
0.000000 0.435634 0.324749
0.000000 0.521270 0.336405
0.466762 0.630986 0.290694
0.770068 0.661164 0.154887
0.932788 0.703259 0.000000
0.968516 0.713240 0.000000
0.000000 0.478518 0.359702
0.000000 0.483511 0.360077
0.000000 0.506113 0.362445
0.000000 0.630160 0.397602
0.493921 0.741822 0.388165
0.814369 0.791087 0.277845
0.941673 0.790736 0.094346
0.986634 0.793485 0.000000
0.000000 0.537406 0.371423
0.000000 0.566472 0.381352
0.000000 0.626633 0.397144
0.333925 0.711118 0.404143
0.644610 0.777672 0.370773
0.842786 0.810465 0.288855
0.946419 0.826207 0.208438
0.988950 0.833499 0.142476
0.004028 0.009027 0.037064
0.005288 0.007159 0.032295
0.016389 0.007477 0.026967
0.118589 0.011774 0.039660
0.354674 0.000000 0.055316
0.560312 0.000000 0.073682
0.635634 0.000000 0.087196
0.665477 0.000000 0.109705
0.001752 0.015377 0.042600
0.003900 0.013392 0.041857
0.019487 0.014745 0.039465
0.146941 0.027391 0.053721
0.392930 0.003169 0.065111
0.590044 0.000000 0.089677
0.680564 0.000000 0.116584
0.718682 0.000000 0.148715
0.000000 0.058923 0.078022
0.000000 0.058784 0.076758
0.016870 0.072800 0.084430
0.191121 0.110539 0.098168
0.468762 0.144161 0.114584
0.681038 0.164702 0.144926
0.768126 0.188075 0.171936
0.800933 0.231111 0.200932
0.000000 0.144322 0.136065
0.000000 0.145175 0.137096
0.000000 0.157434 0.140306
0.153083 0.200481 0.143557
0.481327 0.278033 0.153091
0.730664 0.333673 0.166283
0.837895 0.377284 0.195970
0.864538 0.395992 0.213156
0.000000 0.285619 0.222575
0.000000 0.286596 0.222463
0.000000 0.290615 0.219663
0.027934 0.365634 0.232681
0.454103 0.429721 0.204089
0.774517 0.513320 0.191007
0.892988 0.561095 0.196851
0.931047 0.596742 0.223142
0.000000 0.429460 0.331915
0.000000 0.429383 0.329131
0.000000 0.435037 0.324347
0.000000 0.519721 0.335483
0.471299 0.630455 0.294308
0.775982 0.667156 0.200075
0.934246 0.728050 0.224180
0.969023 0.747240 0.230082
0.000000 0.480577 0.360453
0.000000 0.485984 0.361352
0.000000 0.515474 0.366902
0.000000 0.640364 0.402058
0.506619 0.748085 0.401039
0.821835 0.797838 0.308335
0.942577 0.806902 0.238987
0.983226 0.820135 0.248298
0.000000 0.553038 0.377003
0.000000 0.579971 0.385455
0.000000 0.637871 0.398800
0.366058 0.717552 0.403985
0.656515 0.783546 0.385014
0.848424 0.824313 0.362925
0.944986 0.847889 0.362227
0.983704 0.857054 0.336432
0.001830 0.018595 0.101086
0.001656 0.020153 0.110759
0.014256 0.020455 0.112891
0.090638 0.024243 0.117904
0.332272 0.006294 0.148442
0.560215 0.000000 0.160779
0.636568 0.000000 0.158994
0.664972 0.000000 0.177177
0.000000 0.027545 0.114954
0.000523 0.024123 0.121803
0.013557 0.024386 0.126164
0.101385 0.026116 0.121629
0.354097 0.006903 0.146288
0.581474 0.000000 0.169109
0.675710 0.000000 0.195046
0.714603 0.000000 0.226206
0.000000 0.068520 0.151733
0.000000 0.069882 0.154408
0.000000 0.080282 0.163744
0.134416 0.096046 0.167343
0.431388 0.136322 0.205567
0.669398 0.152306 0.240149
0.760442 0.175503 0.271820
0.790987 0.203985 0.292598
0.000000 0.159355 0.210838
0.000000 0.160743 0.213074
0.000000 0.172999 0.218824
0.136493 0.222975 0.241558
0.510906 0.312276 0.279104
0.755438 0.369790 0.317712
0.847285 0.403100 0.348076
0.869860 0.419695 0.358915
0.000000 0.304472 0.313260
0.000000 0.306526 0.315293
0.000000 0.313756 0.316704
0.000000 0.391459 0.341573
0.473840 0.469684 0.340743
0.791301 0.551990 0.347788
0.897375 0.593271 0.364938
0.933274 0.631548 0.385857
0.000000 0.443499 0.396638
0.000000 0.443280 0.395465
0.000000 0.450501 0.399321
0.000000 0.542622 0.427931
0.484023 0.671715 0.441757
0.794884 0.711700 0.392880
0.934161 0.759517 0.393176
0.966169 0.776927 0.398992
0.000000 0.497961 0.431644
0.000000 0.503510 0.435078
0.000000 0.541289 0.452691
0.000000 0.660042 0.500709
0.523389 0.779998 0.521717
0.830342 0.828429 0.468801
0.940359 0.833751 0.413350
0.977536 0.844298 0.416647
0.000000 0.579319 0.436603
0.000000 0.602521 0.447486
0.000000 0.658284 0.473509
0.370026 0.740632 0.496763
0.671571 0.810752 0.506672
0.853092 0.846996 0.490017
0.943853 0.867176 0.482243
0.978928 0.874019 0.452319
0.000000 0.041133 0.200701
0.000000 0.044174 0.218329
0.010574 0.048303 0.238979
0.115498 0.050637 0.246688
0.303810 0.028950 0.245551
0.560058 0.000000 0.253755
0.639533 0.000000 0.232387
0.672537 0.000000 0.250489
0.000000 0.057888 0.230400
0.000000 0.051676 0.239245
0.005276 0.054130 0.256794
0.123174 0.055012 0.264075
0.326200 0.024855 0.254008
0.579317 0.000000 0.261239
0.673226 0.000000 0.275842
0.711861 0.000000 0.297671
0.000000 0.100587 0.274776
0.000000 0.096208 0.280958
0.000000 0.106618 0.295617
0.141704 0.123315 0.312744
0.401417 0.132250 0.317595
0.657686 0.132097 0.338428
0.751369 0.153063 0.356722
0.781760 0.176186 0.369180
0.000000 0.190370 0.324203
0.000000 0.190687 0.324913
0.000000 0.208207 0.339231
0.138279 0.259715 0.375410
0.460476 0.301729 0.385487
0.740267 0.356780 0.417046
0.836154 0.387221 0.434146
0.861983 0.406152 0.443745
0.000000 0.322237 0.393196
0.000000 0.325119 0.395648
0.000000 0.338920 0.403235
0.000000 0.421182 0.444202
0.504223 0.507102 0.466067
0.802388 0.586213 0.485924
0.902867 0.626637 0.501961
0.932896 0.657869 0.520762
0.000000 0.458431 0.472234
0.000000 0.459962 0.473895
0.000000 0.465856 0.475504
0.000000 0.570650 0.521118
0.493607 0.690036 0.546570
0.799374 0.733059 0.516187
0.933628 0.789433 0.537809
0.961063 0.797494 0.534512
0.000000 0.513643 0.498886
0.000000 0.518240 0.501273
0.000000 0.554815 0.521602
0.000000 0.680125 0.578078
0.522407 0.796548 0.608397
0.835429 0.848879 0.589456
0.936160 0.853757 0.544989
0.971285 0.861318 0.542069
0.000000 0.614241 0.533637
0.000000 0.639004 0.545862
0.000000 0.691448 0.563746
0.413655 0.771621 0.588964
0.690562 0.832280 0.602008
0.858246 0.865869 0.596241
0.941458 0.885629 0.595689
0.973322 0.888674 0.561204
0.000000 0.069954 0.291163
0.000000 0.063760 0.294310
0.026025 0.065760 0.305853
0.141225 0.064269 0.305467
0.312863 0.050849 0.301440
0.519917 0.000000 0.299146
0.665269 0.000000 0.318852
0.715666 0.000000 0.327561
0.000000 0.087669 0.315488
0.000000 0.083224 0.318560
0.015938 0.082631 0.325820
0.146757 0.087942 0.330790
0.340204 0.080233 0.325935
0.551390 0.034851 0.326203
0.687361 0.030006 0.341589
0.737396 0.069426 0.353787
0.000000 0.125565 0.356664
0.000000 0.127262 0.364686
0.000000 0.138785 0.382054
0.163489 0.150652 0.391468
0.405336 0.156477 0.387537
0.624090 0.141980 0.382285
0.742412 0.169688 0.397400
0.783935 0.204466 0.409442
0.000000 0.219603 0.427460
0.000000 0.221907 0.429408
0.000000 0.241702 0.450127
0.140597 0.299349 0.497642
0.499307 0.333061 0.510412
0.724911 0.339185 0.499446
0.822883 0.367416 0.506604
0.852246 0.387510 0.506507
0.000000 0.347327 0.479523
0.000000 0.350389 0.481477
0.000000 0.372579 0.497749
0.000000 0.455946 0.548024
0.531374 0.542381 0.584290
0.785524 0.575277 0.582110
0.890738 0.609362 0.590530
0.921427 0.634613 0.601161
0.000000 0.467597 0.528493
0.000000 0.471042 0.531495
0.000000 0.480808 0.536578
0.000000 0.601104 0.596973
0.520218 0.711372 0.630860
0.786516 0.729644 0.615906
0.920395 0.779913 0.630112
0.951585 0.790981 0.632707
0.000000 0.524124 0.548575
0.000000 0.530663 0.553341
0.000000 0.582743 0.587009
0.000000 0.708722 0.646945
0.542193 0.811085 0.680037
0.818007 0.850081 0.668383
0.924366 0.858937 0.644247
0.962252 0.867837 0.644869
0.000000 0.638643 0.594938
0.000000 0.662005 0.605017
0.000000 0.721089 0.629385
0.429298 0.791221 0.658161
0.714317 0.851892 0.678625
0.841161 0.876625 0.678852
0.932318 0.895990 0.677357
0.965279 0.897232 0.652291
0.000000 0.117683 0.356659
0.000000 0.120991 0.362350
0.000591 0.128845 0.375572
0.140768 0.134192 0.377556
0.312984 0.139040 0.377767
0.498914 0.125501 0.369819
0.637782 0.095192 0.361277
0.723326 0.115613 0.370636
0.000000 0.130101 0.370032
0.000000 0.133592 0.375104
0.000000 0.144940 0.389175
0.143141 0.153373 0.394537
0.324492 0.161127 0.394684
0.515063 0.151900 0.385844
0.656117 0.128877 0.376367
0.739909 0.158033 0.391258
0.000000 0.162753 0.398576
0.000000 0.166695 0.403533
0.000000 0.182845 0.420629
0.147101 0.205166 0.443077
0.359680 0.213195 0.441326
0.555156 0.213981 0.432390
0.698073 0.208386 0.422969
0.777945 0.245479 0.438440
0.000000 0.233098 0.448234
0.000000 0.241051 0.456772
0.000000 0.262647 0.477646
0.153853 0.307511 0.512686
0.441335 0.334872 0.522267
0.670698 0.355603 0.520450
0.788512 0.373122 0.518607
0.847263 0.418407 0.530268
0.000000 0.365522 0.537672
0.000000 0.367678 0.538864
0.000000 0.398836 0.563181
0.054774 0.494753 0.620030
0.575224 0.565885 0.641975
0.793258 0.583954 0.628981
0.875832 0.588976 0.616130
0.910674 0.618188 0.618585
0.000000 0.482372 0.586627
0.000000 0.484343 0.587650
0.000000 0.500435 0.597612
0.000000 0.636842 0.672467
0.566796 0.738304 0.708563
0.805211 0.751767 0.699732
0.911826 0.771039 0.694165
0.945122 0.783239 0.696207
0.000000 0.537970 0.602879
0.000000 0.544273 0.607412
0.000000 0.600686 0.641502
0.000000 0.723678 0.704992
0.604247 0.831948 0.741330
0.831116 0.864024 0.742117
0.916392 0.860522 0.721456
0.954566 0.867404 0.720907
0.000000 0.679670 0.662778
0.000000 0.701896 0.673482
0.000000 0.745058 0.694824
0.475803 0.811175 0.718527
0.731399 0.865863 0.742201
0.852191 0.891649 0.752608
0.924794 0.902595 0.746532
0.958320 0.903773 0.733527
0.000000 0.151582 0.391342
0.000000 0.155471 0.395862
0.000000 0.167305 0.408263
0.122096 0.183490 0.424454
0.281936 0.189068 0.423960
0.447209 0.185668 0.411831
0.603199 0.176583 0.403645
0.702083 0.163439 0.395382
0.000000 0.163340 0.400565
0.000000 0.167549 0.405421
0.000000 0.180705 0.418855
0.121936 0.199069 0.437710
0.290421 0.204285 0.437729
0.460872 0.202368 0.426618
0.618398 0.194810 0.417404
0.714248 0.188362 0.409648
0.000000 0.193346 0.425866
0.000000 0.197369 0.430951
0.000000 0.212186 0.445323
0.124882 0.237380 0.467447
0.315697 0.247925 0.471245
0.495221 0.251498 0.460727
0.653928 0.251456 0.451879
0.753837 0.272828 0.458646
0.000000 0.251972 0.465658
0.000000 0.257786 0.471501
0.000000 0.275537 0.488170
0.110233 0.306728 0.512311
0.363279 0.339081 0.529014
0.579178 0.364030 0.531515
0.748989 0.404576 0.544775
0.828339 0.426696 0.542369
0.000000 0.355260 0.531983
0.000000 0.369779 0.543398
0.000000 0.412552 0.573864
0.214283 0.484570 0.613318
0.536878 0.545642 0.633611
0.736046 0.579292 0.632514
0.847047 0.606226 0.631248
0.895762 0.624575 0.626784
0.000000 0.488206 0.607586
0.000000 0.493519 0.610722
0.000000 0.569546 0.658074
0.143517 0.675023 0.707628
0.640138 0.753252 0.730705
0.816310 0.753905 0.716053
0.903779 0.773116 0.708839
0.934875 0.778710 0.700786
0.000000 0.552115 0.639752
0.000000 0.562067 0.646357
0.000000 0.632688 0.690276
0.053963 0.759115 0.753241
0.661540 0.848090 0.781847
0.843911 0.870568 0.778989
0.919973 0.867677 0.764002
0.951108 0.865411 0.752240
0.000000 0.703004 0.706438
0.000000 0.725194 0.717468
0.179207 0.773994 0.738855
0.538160 0.832440 0.762903
0.757898 0.877085 0.780748
0.862358 0.900243 0.795087
0.927053 0.909679 0.794907
0.954210 0.906269 0.780478
