LUTs/SPK Cube Block1 S32/TheBrim_SPK_Type-Y_Block1_S32.cube
TITLE "TheBrim® Industrial Imaging Burau"
# © Copyright 2022 - TheBrim® d.o.o. Croatia
LUT_3D_SIZE 8
DOMAIN_MIN 0.000000 0.000000 0.000000
DOMAIN_MAX 0.903226 0.903226 0.903226
0.000000 0.000031 0.000031
0.028364 0.000031 0.000031
0.123758 0.000031 0.000031
0.308556 0.000031 0.000031
0.532525 0.000031 0.000031
0.765630 0.000031 0.000031
0.975426 0.000031 0.000031
0.999523 0.000031 0.000031
0.000000 0.054566 0.000031
0.028364 0.054566 0.000031
0.123758 0.054566 0.000031
0.308556 0.054566 0.000031
0.532525 0.054566 0.000031
0.765630 0.054566 0.000031
0.975426 0.054566 0.000031
0.999523 0.054566 0.000031
0.000000 0.160572 0.000031
0.028364 0.160572 0.000031
0.123758 0.160572 0.000031
0.308556 0.160572 0.000031
0.532525 0.160572 0.000031
0.765630 0.160572 0.000031
0.975426 0.160572 0.000031
0.999523 0.160572 0.000031
0.000000 0.325435 0.000031
0.028364 0.325435 0.000031
0.123758 0.325435 0.000031
0.308556 0.325435 0.000031
0.532525 0.325435 0.000031
0.765630 0.325435 0.000031
0.975426 0.325435 0.000031
0.999523 0.325435 0.000031
0.000000 0.530596 0.000031
0.028364 0.530596 0.000031
0.123758 0.530596 0.000031
0.308556 0.530596 0.000031
0.532525 0.530596 0.000031
0.765630 0.530596 0.000031
0.975426 0.530596 0.000031
0.999523 0.530596 0.000031
0.000000 0.757217 0.000031
0.028364 0.757217 0.000031
0.123758 0.757217 0.000031
0.308556 0.757217 0.000031
0.532525 0.757217 0.000031
0.765630 0.757217 0.000031
0.975426 0.757217 0.000031
0.999523 0.757217 0.000031
0.000000 0.940601 0.000031
0.028364 0.940601 0.000031
0.123758 0.940601 0.000031
0.308556 0.940601 0.000031
0.532525 0.940601 0.000031
0.765630 0.940601 0.000031
0.975426 0.940601 0.000031
0.999523 0.940601 0.000031
0.000000 0.984952 0.000031
0.028364 0.984952 0.000031
0.123758 0.984952 0.000031
0.308556 0.984952 0.000031
0.532525 0.984952 0.000031
0.765630 0.984952 0.000031
0.975426 0.984952 0.000031
0.999523 0.984952 0.000031
0.000000 0.000031 0.046446
0.028364 0.000031 0.046446
0.123758 0.000031 0.046446
0.308556 0.000031 0.046446
0.532525 0.000031 0.046446
0.765630 0.000031 0.046446
0.975426 0.000031 0.046446
0.999523 0.000031 0.046446
0.000000 0.054566 0.046446
0.028364 0.054566 0.046446
0.123758 0.054566 0.046446
0.308556 0.054566 0.046446
0.532525 0.054566 0.046446
0.765630 0.054566 0.046446
0.975426 0.054566 0.046446
0.999523 0.054566 0.046446
0.000000 0.160572 0.046446
0.028364 0.160572 0.046446
0.123758 0.160572 0.046446
0.308556 0.160572 0.046446
0.532525 0.160572 0.046446
0.765630 0.160572 0.046446
0.975426 0.160572 0.046446
0.999523 0.160572 0.046446
0.000000 0.325435 0.046446
0.028364 0.325435 0.046446
0.123758 0.325435 0.046446
0.308556 0.325435 0.046446
0.532525 0.325435 0.046446
0.765630 0.325435 0.046446
0.975426 0.325435 0.046446
0.999523 0.325435 0.046446
0.000000 0.530596 0.046446
0.028364 0.530596 0.046446
0.123758 0.530596 0.046446
0.308556 0.530596 0.046446
0.532525 0.530596 0.046446
0.765630 0.530596 0.046446
0.975426 0.530596 0.046446
0.999523 0.530596 0.046446
0.000000 0.757217 0.046446
0.028364 0.757217 0.046446
0.123758 0.757217 0.046446
0.308556 0.757217 0.046446
0.532525 0.757217 0.046446
0.765630 0.757217 0.046446
0.975426 0.757217 0.046446
0.999523 0.757217 0.046446
0.000000 0.940601 0.046446
0.028364 0.940601 0.046446
0.123758 0.940601 0.046446
0.308556 0.940601 0.046446
0.532525 0.940601 0.046446
0.765630 0.940601 0.046446
0.975426 0.940601 0.046446
0.999523 0.940601 0.046446
0.000000 0.984952 0.046446
0.028364 0.984952 0.046446
0.123758 0.984952 0.046446
0.308556 0.984952 0.046446
0.532525 0.984952 0.046446
0.765630 0.984952 0.046446
0.975426 0.984952 0.046446
0.999523 0.984952 0.046446
0.000000 0.000031 0.157268
0.028364 0.000031 0.157268
0.123758 0.000031 0.157268
0.308556 0.000031 0.157268
0.532525 0.000031 0.157268
0.765630 0.000031 0.157268
0.975426 0.000031 0.157268
0.999523 0.000031 0.157268
0.000000 0.054566 0.157268
0.028364 0.054566 0.157268
0.123758 0.054566 0.157268
0.308556 0.054566 0.157268
0.532525 0.054566 0.157268
0.765630 0.054566 0.157268
0.975426 0.054566 0.157268
0.999523 0.054566 0.157268
0.000000 0.160572 0.157268
0.028364 0.160572 0.157268
0.123758 0.160572 0.157268
0.308556 0.160572 0.157268
0.532525 0.160572 0.157268
0.765630 0.160572 0.157268
0.975426 0.160572 0.157268
0.999523 0.160572 0.157268
0.000000 0.325435 0.157268
0.028364 0.325435 0.157268
0.123758 0.325435 0.157268
0.308556 0.325435 0.157268
0.532525 0.325435 0.157268
0.765630 0.325435 0.157268
0.975426 0.325435 0.157268
0.999523 0.325435 0.157268
0.000000 0.530596 0.157268
0.028364 0.530596 0.157268
0.123758 0.530596 0.157268
0.308556 0.530596 0.157268
0.532525 0.530596 0.157268
0.765630 0.530596 0.157268
0.975426 0.530596 0.157268
0.999523 0.530596 0.157268
0.000000 0.757217 0.157268
0.028364 0.757217 0.157268
0.123758 0.757217 0.157268
0.308556 0.757217 0.157268
0.532525 0.757217 0.157268
0.765630 0.757217 0.157268
0.975426 0.757217 0.157268
0.999523 0.757217 0.157268
0.000000 0.940601 0.157268
0.028364 0.940601 0.157268
0.123758 0.940601 0.157268
0.308556 0.940601 0.157268
0.532525 0.940601 0.157268
0.765630 0.940601 0.157268
0.975426 0.940601 0.157268
0.999523 0.940601 0.157268
0.000000 0.984952 0.157268
0.028364 0.984952 0.157268
0.123758 0.984952 0.157268
0.308556 0.984952 0.157268
0.532525 0.984952 0.157268
0.765630 0.984952 0.157268
0.975426 0.984952 0.157268
0.999523 0.984952 0.157268
0.000000 0.000031 0.321381
0.028364 0.000031 0.321381
0.123758 0.000031 0.321381
0.308556 0.000031 0.321381
0.532525 0.000031 0.321381
0.765630 0.000031 0.321381
0.975426 0.000031 0.321381
0.999523 0.000031 0.321381
0.000000 0.054566 0.321381
0.028364 0.054566 0.321381
0.123758 0.054566 0.321381
0.308556 0.054566 0.321381
0.532525 0.054566 0.321381
0.765630 0.054566 0.321381
0.975426 0.054566 0.321381
0.999523 0.054566 0.321381
0.000000 0.160572 0.321381
0.028364 0.160572 0.321381
0.123758 0.160572 0.321381
0.308556 0.160572 0.321381
0.532525 0.160572 0.321381
0.765630 0.160572 0.321381
0.975426 0.160572 0.321381
0.999523 0.160572 0.321381
0.000000 0.325435 0.321381
0.028364 0.325435 0.321381
0.123758 0.325435 0.321381
0.308556 0.325435 0.321381
0.532525 0.325435 0.321381
0.765630 0.325435 0.321381
0.975426 0.325435 0.321381
0.999523 0.325435 0.321381
0.000000 0.530596 0.321381
0.028364 0.530596 0.321381
0.123758 0.530596 0.321381
0.308556 0.530596 0.321381
0.532525 0.530596 0.321381
0.765630 0.530596 0.321381
0.975426 0.530596 0.321381
0.999523 0.530596 0.321381
0.000000 0.757217 0.321381
0.028364 0.757217 0.321381
0.123758 0.757217 0.321381
0.308556 0.757217 0.321381
0.532525 0.757217 0.321381
0.765630 0.757217 0.321381
0.975426 0.757217 0.321381
0.999523 0.757217 0.321381
0.000000 0.940601 0.321381
0.028364 0.940601 0.321381
0.123758 0.940601 0.321381
0.308556 0.940601 0.321381
0.532525 0.940601 0.321381
0.765630 0.940601 0.321381
0.975426 0.940601 0.321381
0.999523 0.940601 0.321381
0.000000 0.984952 0.321381
0.028364 0.984952 0.321381
0.123758 0.984952 0.321381
0.308556 0.984952 0.321381
0.532525 0.984952 0.321381
0.765630 0.984952 0.321381
0.975426 0.984952 0.321381
0.999523 0.984952 0.321381
0.000000 0.000031 0.494624
0.028364 0.000031 0.494624
0.123758 0.000031 0.494624
0.308556 0.000031 0.494624
0.532525 0.000031 0.494624
0.765630 0.000031 0.494624
0.975426 0.000031 0.494624
0.999523 0.000031 0.494624
0.000000 0.054566 0.494624
0.028364 0.054566 0.494624
0.123758 0.054566 0.494624
0.308556 0.054566 0.494624
0.532525 0.054566 0.494624
0.765630 0.054566 0.494624
0.975426 0.054566 0.494624
0.999523 0.054566 0.494624
0.000000 0.160572 0.494624
0.028364 0.160572 0.494624
0.123758 0.160572 0.494624
0.308556 0.160572 0.494624
0.532525 0.160572 0.494624
0.765630 0.160572 0.494624
0.975426 0.160572 0.494624
0.999523 0.160572 0.494624
0.000000 0.325435 0.494624
0.028364 0.325435 0.494624
0.123758 0.325435 0.494624
0.308556 0.325435 0.494624
0.532525 0.325435 0.494624
0.765630 0.325435 0.494624
0.975426 0.325435 0.494624
0.999523 0.325435 0.494624
0.000000 0.530596 0.494624
0.028364 0.530596 0.494624
0.123758 0.530596 0.494624
0.308556 0.530596 0.494624
0.532525 0.530596 0.494624
0.765630 0.530596 0.494624
0.975426 0.530596 0.494624
0.999523 0.530596 0.494624
0.000000 0.757217 0.494624
0.028364 0.757217 0.494624
0.123758 0.757217 0.494624
0.308556 0.757217 0.494624
0.532525 0.757217 0.494624
0.765630 0.757217 0.494624
0.975426 0.757217 0.494624
0.999523 0.757217 0.494624
0.000000 0.940601 0.494624
0.028364 0.940601 0.494624
0.123758 0.940601 0.494624
0.308556 0.940601 0.494624
0.532525 0.940601 0.494624
0.765630 0.940601 0.494624
0.975426 0.940601 0.494624
0.999523 0.940601 0.494624
0.000000 0.984952 0.494624
0.028364 0.984952 0.494624
0.123758 0.984952 0.494624
0.308556 0.984952 0.494624
0.532525 0.984952 0.494624
0.765630 0.984952 0.494624
0.975426 0.984952 0.494624
0.999523 0.984952 0.494624
0.000000 0.000031 0.670562
0.028364 0.000031 0.670562
0.123758 0.000031 0.670562
0.308556 0.000031 0.670562
0.532525 0.000031 0.670562
0.765630 0.000031 0.670562
0.975426 0.000031 0.670562
0.999523 0.000031 0.670562
0.000000 0.054566 0.670562
0.028364 0.054566 0.670562
0.123758 0.054566 0.670562
0.308556 0.054566 0.670562
0.532525 0.054566 0.670562
0.765630 0.054566 0.670562
0.975426 0.054566 0.670562
0.999523 0.054566 0.670562
0.000000 0.160572 0.670562
0.028364 0.160572 0.670562
0.123758 0.160572 0.670562
0.308556 0.160572 0.670562
0.532525 0.160572 0.670562
0.765630 0.160572 0.670562
0.975426 0.160572 0.670562
0.999523 0.160572 0.670562
0.000000 0.325435 0.670562
0.028364 0.325435 0.670562
0.123758 0.325435 0.670562
0.308556 0.325435 0.670562
0.532525 0.325435 0.670562
0.765630 0.325435 0.670562
0.975426 0.325435 0.670562
0.999523 0.325435 0.670562
0.000000 0.530596 0.670562
0.028364 0.530596 0.670562
0.123758 0.530596 0.670562
0.308556 0.530596 0.670562
0.532525 0.530596 0.670562
0.765630 0.530596 0.670562
0.975426 0.530596 0.670562
0.999523 0.530596 0.670562
0.000000 0.757217 0.670562
0.028364 0.757217 0.670562
0.123758 0.757217 0.670562
0.308556 0.757217 0.670562
0.532525 0.757217 0.670562
0.765630 0.757217 0.670562
0.975426 0.757217 0.670562
0.999523 0.757217 0.670562
0.000000 0.940601 0.670562
0.028364 0.940601 0.670562
0.123758 0.940601 0.670562
0.308556 0.940601 0.670562
0.532525 0.940601 0.670562
0.765630 0.940601 0.670562
0.975426 0.940601 0.670562
0.999523 0.940601 0.670562
0.000000 0.984952 0.670562
0.028364 0.984952 0.670562
0.123758 0.984952 0.670562
0.308556 0.984952 0.670562
0.532525 0.984952 0.670562
0.765630 0.984952 0.670562
0.975426 0.984952 0.670562
0.999523 0.984952 0.670562
0.000000 0.000031 0.877414
0.028364 0.000031 0.877414
0.123758 0.000031 0.877414
0.308556 0.000031 0.877414
0.532525 0.000031 0.877414
0.765630 0.000031 0.877414
0.975426 0.000031 0.877414
0.999523 0.000031 0.877414
0.000000 0.054566 0.877414
0.028364 0.054566 0.877414
0.123758 0.054566 0.877414
0.308556 0.054566 0.877414
0.532525 0.054566 0.877414
0.765630 0.054566 0.877414
0.975426 0.054566 0.877414
0.999523 0.054566 0.877414
0.000000 0.160572 0.877414
0.028364 0.160572 0.877414
0.123758 0.160572 0.877414
0.308556 0.160572 0.877414
0.532525 0.160572 0.877414
0.765630 0.160572 0.877414
0.975426 0.160572 0.877414
0.999523 0.160572 0.877414
0.000000 0.325435 0.877414
0.028364 0.325435 0.877414
0.123758 0.325435 0.877414
0.308556 0.325435 0.877414
0.532525 0.325435 0.877414
0.765630 0.325435 0.877414
0.975426 0.325435 0.877414
0.999523 0.325435 0.877414
0.000000 0.530596 0.877414
0.028364 0.530596 0.877414
0.123758 0.530596 0.877414
0.308556 0.530596 0.877414
0.532525 0.530596 0.877414
0.765630 0.530596 0.877414
0.975426 0.530596 0.877414
0.999523 0.530596 0.877414
0.000000 0.757217 0.877414
0.028364 0.757217 0.877414
0.123758 0.757217 0.877414
0.308556 0.757217 0.877414
0.532525 0.757217 0.877414
0.765630 0.757217 0.877414
0.975426 0.757217 0.877414
0.999523 0.757217 0.877414
0.000000 0.940601 0.877414
0.028364 0.940601 0.877414
0.123758 0.940601 0.877414
0.308556 0.940601 0.877414
0.532525 0.940601 0.877414
0.765630 0.940601 0.877414
0.975426 0.940601 0.877414
0.999523 0.940601 0.877414
0.000000 0.984952 0.877414
0.028364 0.984952 0.877414
0.123758 0.984952 0.877414
0.308556 0.984952 0.877414
0.532525 0.984952 0.877414
0.765630 0.984952 0.877414
0.975426 0.984952 0.877414
0.999523 0.984952 0.877414
0.000000 0.000031 0.956059
0.028364 0.000031 0.956059
0.123758 0.000031 0.956059
0.308556 0.000031 0.956059
0.532525 0.000031 0.956059
0.765630 0.000031 0.956059
0.975426 0.000031 0.956059
0.999523 0.000031 0.956059
0.000000 0.054566 0.956059
0.028364 0.054566 0.956059
0.123758 0.054566 0.956059
0.308556 0.054566 0.956059
0.532525 0.054566 0.956059
0.765630 0.054566 0.956059
0.975426 0.054566 0.956059
0.999523 0.054566 0.956059
0.000000 0.160572 0.956059
0.028364 0.160572 0.956059
0.123758 0.160572 0.956059
0.308556 0.160572 0.956059
0.532525 0.160572 0.956059
0.765630 0.160572 0.956059
0.975426 0.160572 0.956059
0.999523 0.160572 0.956059
0.000000 0.325435 0.956059
0.028364 0.325435 0.956059
0.123758 0.325435 0.956059
0.308556 0.325435 0.956059
0.532525 0.325435 0.956059
0.765630 0.325435 0.956059
0.975426 0.325435 0.956059
0.999523 0.325435 0.956059
0.000000 0.530596 0.956059
0.028364 0.530596 0.956059
0.123758 0.530596 0.956059
0.308556 0.530596 0.956059
0.532525 0.530596 0.956059
0.765630 0.530596 0.956059
0.975426 0.530596 0.956059
0.999523 0.530596 0.956059
0.000000 0.757217 0.956059
0.028364 0.757217 0.956059
0.123758 0.757217 0.956059
0.308556 0.757217 0.956059
0.532525 0.757217 0.956059
0.765630 0.757217 0.956059
0.975426 0.757217 0.956059
0.999523 0.757217 0.956059
0.000000 0.940601 0.956059
0.028364 0.940601 0.956059
0.123758 0.940601 0.956059
0.308556 0.940601 0.956059
0.532525 0.940601 0.956059
0.765630 0.940601 0.956059
0.975426 0.940601 0.956059
0.999523 0.940601 0.956059
0.000000 0.984952 0.956059
0.028364 0.984952 0.956059
0.123758 0.984952 0.956059
0.308556 0.984952 0.956059
0.532525 0.984952 0.956059
0.765630 0.984952 0.956059
0.975426 0.984952 0.956059
0.999523 0.984952 0.956059
