LUTs/SPK Cube Block1 S32/TheBrim_SPK_Type-L_Block 1_S32.cube
TITLE "TheBrim® Industrial Imaging Burau"
# © Copyright 2022 - TheBrim® d.o.o. Croatia
LUT_3D_SIZE 5
DOMAIN_MIN 0.000000 0.000000 0.000000
DOMAIN_MAX 0.903226 0.903226 0.903226
0.0073548486 0.0089417868 0.0091554131
0.0785061910 0.0234673912 0.0154854461
0.3354011769 0.0000000000 0.0000000000
0.5653767871 0.0000000000 0.0000000000
0.6370813921 0.0000000000 0.0000000000
0.0000000000 0.0988735396 0.0683978273
0.0810559243 0.1010777299 0.0431032913
0.3438192347 0.0942200302 0.0018940876
0.5995747163 0.0000000000 0.0000000000
0.6774577485 0.0000000000 0.0000000000
0.0000000000 0.3051440132 0.2457903558
0.0000000000 0.2861647433 0.1825205443
0.3334342398 0.3158912869 0.0954968657
0.6916545456 0.3135866823 0.0000000000
0.8075010398 0.2692912184 0.0000000000
0.0000000000 0.4959536520 0.3900717912
0.0000000000 0.4965664740 0.3634679327
0.0363164721 0.5961399597 0.2996753766
0.7459678035 0.6612201803 0.0878220700
0.9425404303 0.6472980456 0.0000000000
0.0000000000 0.5561504933 0.3655992735
0.0000000000 0.5905837068 0.3621527034
0.2992530463 0.6873682371 0.3309268379
0.7488581575 0.7765675569 0.2185997632
0.9796759673 0.8084825395 0.0000000000
0.0003307762 0.0225607100 0.1008926528
0.0733171391 0.0183344531 0.0794187789
0.3398302311 0.0000000000 0.0529123812
0.5780969046 0.0000000000 0.0240364051
0.6434626166 0.0000000000 0.0010061110
0.0000000000 0.1121774378 0.1504421425
0.0604532914 0.1018013029 0.1127750008
0.3463010408 0.0881764730 0.0656049341
0.6083796642 0.0000000000 0.0196546047
0.6762813271 0.0000000000 0.0000000000
0.0000000000 0.3010270306 0.2523842222
0.0000000000 0.2871511652 0.1903243034
0.3388093533 0.3151972475 0.1225555416
0.6944612212 0.3060723524 0.0020260043
0.8043931216 0.2561792886 0.0000000000
0.0000000000 0.4958492999 0.3924285718
0.0000000000 0.4954338608 0.3632543064
0.0398929900 0.5945156122 0.2978738276
0.7487508522 0.6554788503 0.0764309640
0.9418532820 0.6400967717 0.0000000000
0.0000000000 0.5637179837 0.3649170475
0.0000000000 0.5982210934 0.3608473187
0.3274684544 0.6926330919 0.3282008875
0.7599805078 0.7783563080 0.2125247036
0.9778694960 0.8155499278 0.0000000000
0.0000000000 0.0470922949 0.2491699830
0.0615765523 0.0468648863 0.2629326363
0.3420511571 0.0179288585 0.2646593669
0.6061351113 0.0000000000 0.2261721759
0.6542128437 0.0000000000 0.1660791943
0.0000000000 0.1184287145 0.3075815189
0.0027810798 0.1076440316 0.3060841658
0.3644277744 0.0967500744 0.2872348437
0.6324869498 0.0000000000 0.2362057211
0.6929865105 0.0000000000 0.1780845990
0.0000000000 0.3249482547 0.3982043577
0.0000000000 0.3169446516 0.3735881098
0.3297090695 0.3473268409 0.3486912928
0.7085093658 0.3296184998 0.2866668143
0.8124449629 0.2669856294 0.2220601156
0.0000000000 0.5147729482 0.5021566905
0.0000000000 0.5167073984 0.4812134368
0.0000000000 0.6172092233 0.4502710938
0.7448740762 0.6879933648 0.3697950123
0.9374488392 0.6734264134 0.2661498288
0.0000000000 0.5842211869 0.4503656012
0.0000000000 0.6184998413 0.4547818575
0.2902580990 0.7195047217 0.4609652070
0.7432428375 0.8131518002 0.4407612775
0.9647201569 0.8553877884 0.3805905241
0.0000000000 0.1133125122 0.3973341012
0.1000164896 0.1044376681 0.3975378830
0.3607222932 0.0856129574 0.3885134021
0.6017946579 0.0000000000 0.3453638415
0.6939906526 0.0000000000 0.3078433834
0.0000000000 0.1649608557 0.4355111895
0.0204756385 0.1612819547 0.4410457844
0.3732081109 0.1525675765 0.4393672920
0.6296802743 0.0703519666 0.3893157313
0.7225338836 0.0000000000 0.3407556169
0.0000000000 0.3531282225 0.5345781742
0.0000000000 0.3611849861 0.5495359535
0.3567667609 0.3879945954 0.5639050298
0.7257628896 0.3553776977 0.5272351391
0.8177501803 0.2856341231 0.4518196384
0.0000000000 0.5298911933 0.5968438436
0.0000000000 0.5481193256 0.6014776640
0.0000000000 0.6560340818 0.6236869242
0.7386483952 0.7181609433 0.6042833551
0.9267852440 0.7007302180 0.5453884529
0.0000000000 0.6220261520 0.5919855679
0.0000000000 0.6599462981 0.6043424223
0.2750364863 0.7586554341 0.6315152947
0.7386306751 0.8474373457 0.6385511805
0.9517106102 0.8851704457 0.6117514158
0.0000000000 0.1906727998 0.4586861982
0.0382883315 0.1930768341 0.4637541624
0.3065045273 0.1919880291 0.4672991777
0.5350536650 0.1558851832 0.4377104576
0.6806562364 0.0722470386 0.3869451684
0.0000000000 0.2237760172 0.4818326578
0.0039811280 0.2265137811 0.4863729551
0.3108932188 0.2262273053 0.4888232587
0.5488871989 0.2036183571 0.4666829101
0.7044583416 0.1557060128 0.4209964141
0.0000000000 0.3463669992 0.5608453498
0.0000000000 0.3499956930 0.5637327505
0.3203095120 0.3717688406 0.5711673398
0.6261569169 0.3897902377 0.5647575661
0.8009416293 0.3868939769 0.5364378059
0.0000000000 0.5593637480 0.6634460286
0.0000000000 0.5889416392 0.6801994502
0.1958234580 0.6879116552 0.7209518676
0.7600228393 0.7318940630 0.7103197750
0.9102326509 0.7261133548 0.6680995380
0.0000000000 0.6621918354 0.6907705068
0.0000000000 0.6994012064 0.7077286946
0.3183799841 0.7905526965 0.7414403040
0.7540944632 0.8724946286 0.7671601237
0.9462173623 0.9038277995 0.7632164049
