LUTs/SPK Cube Block1 S32/TheBrim_SPK_Type-Q_Block1_S32.cube
TITLE "TheBrim® SPK Block 1"
# © Copyright 2021 - TheBrim® d.o.o. Croatia
LUT_3D_SIZE 5
DOMAIN_MIN 0.000000 0.000000 0.000000
DOMAIN_MAX 0.903226 0.903226 0.903226
0.000000 0.000000 0.000000
0.210475 0.000000 0.000000
0.580275 0.000000 0.000000
0.967840 0.000000 0.000000
1.000000 0.000000 0.000000
0.000000 0.173524 0.000000
0.102666 0.152950 0.000000
0.472420 0.148450 0.000000
0.880823 0.191352 0.000000
1.000000 0.274310 0.000000
0.000000 0.521746 0.000000
0.009586 0.481703 0.000000
0.370956 0.460521 0.000000
0.784997 0.486497 0.000000
1.000000 0.555734 0.000000
0.000000 0.858263 0.055612
0.027364 0.844855 0.049586
0.260408 0.833450 0.024175
0.681229 0.798981 0.000000
1.000000 0.830174 0.019327
0.000000 1.000000 0.037071
0.042201 1.000000 0.050112
0.272808 1.000000 0.061428
0.516826 1.000000 0.076445
0.998742 1.000000 0.095279
0.000000 0.000000 0.123920
0.179386 0.000000 0.079774
0.544187 0.000000 0.080693
0.933553 0.000000 0.118641
1.000000 0.000000 0.169304
0.000000 0.143942 0.153551
0.132176 0.132285 0.131986
0.487220 0.128342 0.110300
0.885479 0.179128 0.136933
1.000000 0.268657 0.193490
0.000000 0.485663 0.207683
0.022926 0.449812 0.194361
0.392025 0.436685 0.164397
0.795224 0.470462 0.175760
1.000000 0.546210 0.224785
0.000000 0.854366 0.307655
0.034084 0.823531 0.297908
0.269831 0.806346 0.270244
0.696367 0.778107 0.238097
1.000000 0.820938 0.266487
0.000000 1.000000 0.289918
0.056902 1.000000 0.300956
0.280203 1.000000 0.310972
0.546775 1.000000 0.324331
0.999601 1.000000 0.332796
0.000000 0.000000 0.455578
0.217157 0.000000 0.400320
0.516407 0.000000 0.362177
0.900220 0.000000 0.365091
1.000000 0.000000 0.396624
0.000000 0.133912 0.424149
0.184277 0.129529 0.406928
0.462009 0.072181 0.330790
0.850748 0.121029 0.353270
1.000000 0.212580 0.400077
0.000000 0.454859 0.468339
0.070229 0.430308 0.452344
0.424213 0.422432 0.423622
0.813710 0.458786 0.436746
1.000000 0.540898 0.481743
0.000000 0.838858 0.564688
0.044982 0.795605 0.552464
0.312008 0.780562 0.525410
0.720578 0.761358 0.493642
1.000000 0.812749 0.521027
0.000000 1.000000 0.551971
0.070993 1.000000 0.560448
0.292392 1.000000 0.572647
0.613110 1.000000 0.586578
1.000000 1.000000 0.581534
0.057790 0.000000 0.790903
0.303388 0.000000 0.755392
0.574270 0.000000 0.692440
0.864563 0.000000 0.627596
1.000000 0.000000 0.637737
0.001144 0.162616 0.763422
0.279536 0.162181 0.736339
0.539987 0.109635 0.647087
0.822401 0.063087 0.572677
1.000000 0.153667 0.616517
0.000000 0.465586 0.800066
0.201333 0.457108 0.773692
0.513944 0.453042 0.745590
0.792507 0.399940 0.656426
1.000000 0.481583 0.692360
0.000000 0.805924 0.845001
0.056910 0.772022 0.820642
0.406288 0.755311 0.792014
0.754719 0.747545 0.753424
1.000000 0.805410 0.782938
0.000000 1.000000 0.842423
0.084611 1.000000 0.845732
0.305937 1.000000 0.855341
0.683799 1.000000 0.850692
1.000000 1.000000 0.832123
0.158268 0.000000 0.976358
0.392557 0.000000 0.955998
0.651556 0.000000 0.935596
0.930128 0.000000 0.915269
1.000000 0.000000 0.894280
0.113416 0.190380 0.999725
0.383144 0.197238 0.998612
0.636216 0.147266 0.959257
0.908278 0.108306 0.916635
1.000000 0.084429 0.871450
0.075404 0.453833 1.000000
0.336280 0.462437 1.000000
0.627807 0.474854 1.000000
0.883420 0.440103 0.996767
1.000000 0.415193 0.929488
0.000000 0.785067 1.000000
0.245213 0.782100 1.000000
0.544626 0.779565 1.000000
0.863905 0.776706 1.000000
1.000000 0.732084 1.000000
0.000000 1.000000 1.000000
0.103565 1.000000 1.000000
0.385961 1.000000 1.000000
0.754410 1.000000 1.000000
1.000000 1.000000 1.000000
