LUTs/SPK Cube Block1 S32/TheBrim_SPK_Type-K_Block1_S32.cube
TITLE "TheBrim® SPK Block 1"
# TheBrim® d.o.o. Croatia
# Copyright: (C) Copyright 2020 TheBrim® d.o.o. Croatia
LUT_3D_SIZE 5
DOMAIN_MIN 0.000000 0.000000 0.000000
DOMAIN_MAX 0.903226 0.903226 0.903226
0.0022280000 0.0019840000 0.0018310000
0.0170940000 0.0082017419 0.0081235161
0.2427021613 0.0343521290 0.0501630323
0.5898798710 0.0207104839 0.1063938710
0.7153624516 0.0000000000 0.1542994516
0.0064885806 0.0305999355 0.0096750968
0.0409919032 0.0465316452 0.0068862903
0.2673694194 0.0760113226 0.0368651290
0.6016696129 0.0566053226 0.0688326452
0.7315798710 0.0259740645 0.1084862258
0.0000000000 0.1654468387 0.0136876452
0.0000000000 0.2068730323 0.0166009032
0.3383840323 0.3027611935 0.0000000000
0.7371046129 0.3775740645 0.0000000000
0.8759167742 0.4039385484 0.0000000000
0.0000000000 0.3676094839 0.0000000000
0.0000000000 0.4445880968 0.0000000000
0.4121742581 0.6306742581 0.0000000000
0.8303864194 0.6908369355 0.0000000000
0.9422668065 0.6960629355 0.0000000000
0.0000000000 0.5794178387 0.0000000000
0.1967015806 0.6176964194 0.0000000000
0.5783326129 0.7059209355 0.0000000000
0.8789300000 0.7683262581 0.0000000000
0.9406616452 0.7468870000 0.0000000000
0.0075494194 0.0099348387 0.0238163548
0.0167560323 0.0060631613 0.0298788710
0.2370615806 0.0294859677 0.0800273226
0.5984440000 0.0107744839 0.1477583548
0.7151748710 0.0000000000 0.1996634516
0.0000000000 0.0298790323 0.0246545161
0.0274191613 0.0486315806 0.0454189355
0.2765890323 0.0749039677 0.0799483871
0.6238293226 0.0734831935 0.1319372258
0.7438258710 0.0434051613 0.1826755161
0.0000000000 0.1628810968 0.0154556774
0.0000000000 0.1973828387 0.0166673226
0.3503999355 0.3090613548 0.0000550968
0.7433196129 0.3759372258 0.0000000000
0.8782013871 0.4011369032 0.0192495806
0.0000000000 0.3627721290 0.0000000000
0.0000000000 0.4391736452 0.0000000000
0.4129750000 0.6294499355 0.0000000000
0.8317672258 0.6902555806 0.0000000000
0.9630120000 0.7200327419 0.0000000000
0.0000000000 0.5881829032 0.0000000000
0.2446005484 0.6260651935 0.0000000000
0.5977112581 0.7104009032 0.0000000000
0.8884354194 0.7786000000 0.0000000000
0.9763716129 0.7906556774 0.0000000000
0.0084899032 0.0381299032 0.1823277097
0.0226587742 0.0330463548 0.2209670000
0.2143575161 0.0000000000 0.2399169355
0.6005000323 0.0000000000 0.3844032903
0.6944550000 0.0000000000 0.4170853548
0.0000000000 0.0775918387 0.2348666129
0.0092658065 0.0781898065 0.2699851613
0.2913228387 0.0466850645 0.3131890645
0.6414696452 0.0057776452 0.4013550645
0.7406037742 0.0000000000 0.4441782258
0.0000000000 0.2112583871 0.2000427419
0.0000000000 0.2501260000 0.2516181613
0.3438738065 0.3550215806 0.3651182581
0.7691779032 0.4272378065 0.4433720968
0.8900892581 0.4434992581 0.4929560968
0.0000000000 0.4062491935 0.1973885484
0.0000000000 0.4913417419 0.2507580968
0.3294293226 0.6848502258 0.3498554194
0.8342679677 0.7667622258 0.3865808387
0.9635869032 0.7934521290 0.4306274194
0.0000000000 0.6290825161 0.2186194839
0.0539776774 0.6728021935 0.2398640323
0.5726937742 0.7754447097 0.3017830000
0.8730713226 0.8474472258 0.3549813871
0.9722734516 0.8642600000 0.3931600000
0.0000000000 0.0856412258 0.4167539677
0.0558292581 0.0600870968 0.4235455484
0.2967364194 0.0169883548 0.4601353871
0.5611124839 0.0000000000 0.4932204839
0.7096770968 0.0000000000 0.5432263871
0.0000000000 0.1358329677 0.4635865806
0.0058228065 0.1385861290 0.4814312903
0.3295533548 0.1092883871 0.5203333548
0.6225587097 0.0258700323 0.5545360000
0.7586827097 0.0258275161 0.5949293548
0.0000000000 0.3304501613 0.5220956129
0.0000000000 0.3588463226 0.5720242258
0.3946534839 0.4276891613 0.6784776129
0.7748549355 0.4309709355 0.7104924516
0.8802157742 0.4333841290 0.7343512581
0.0000000000 0.4573777097 0.4241478065
0.0000000000 0.5435604516 0.5148069355
0.2277230968 0.7280511290 0.6715363226
0.8264528387 0.8150929677 0.7363987742
0.9536535806 0.8328052581 0.7619783871
0.0000000000 0.6923641613 0.5560790968
0.0000000000 0.7343562581 0.5874762581
0.5171764194 0.8214180968 0.6526608710
0.8481140000 0.8899036452 0.7137607742
0.9591301290 0.9096548387 0.7441227742
0.0000000000 0.1683840000 0.4948201290
0.0229111613 0.1740936774 0.5163674839
0.2663985806 0.1615077419 0.5449387097
0.5049536129 0.1227564839 0.5506012581
0.6988909355 0.0935158710 0.5891933226
0.0000000000 0.2042827419 0.5237663226
0.0008957742 0.2110583871 0.5450320645
0.2797173226 0.2057978710 0.5766550645
0.5333944839 0.1883043871 0.5871917097
0.7338900968 0.1909999032 0.6268255484
0.0000000000 0.3462592258 0.5950839032
0.0000000000 0.3592265161 0.6227051935
0.3439657419 0.4036581935 0.6861018387
0.6658541935 0.4443231935 0.7118273548
0.8581730323 0.5071417742 0.7550513548
0.0000000000 0.5018436452 0.5423349355
0.0000000000 0.6045934839 0.6620306129
0.2822717742 0.7556129355 0.7909043548
0.8294607742 0.8226448387 0.8266099677
0.9430471935 0.8444095484 0.8411628387
0.0000000000 0.7152125806 0.7001897742
0.0000000000 0.7569759032 0.7323925484
0.4995588710 0.8410174194 0.7928241613
0.8385356452 0.9046057419 0.8351030645
0.9552539677 0.9231853871 0.8574487742
