LUTs/SPK Cube Block1 S32/TheBrim_SPK_Type-N_Block1_S32.cube
TITLE "TheBrim® SPK Block 1"
# TheBrim® d.o.o. Croatia
# Copyright: (C) Copyright 2020 TheBrim® d.o.o. Croatia
LUT_3D_SIZE 32
0.0000920000 0.0000310000 0.0002750000
0.0011167097 0.0000929677 0.0004880000
0.0022206129 0.0001549355 0.0004900000
0.0029713226 0.0002169032 0.0005190000
0.0040098065 0.0002828710 0.0005190000
0.0063388065 0.0004466774 0.0005190000
0.0102169032 0.0007492258 0.0005858065
0.0168957419 0.0011635484 0.0005824516
0.0273735484 0.0014354839 0.0002355161
0.0437691290 0.0016260000 0.0000000000
0.0650729355 0.0015889677 0.0000000000
0.0897813548 0.0011604839 0.0000000000
0.1198838065 0.0001869355 0.0000000000
0.1544995806 0.0000000000 0.0000000000
0.1900160645 0.0000000000 0.0000000000
0.2260487419 0.0000000000 0.0000000000
0.2662206774 0.0000000000 0.0000000000
0.3065859355 0.0000000000 0.0000000000
0.3420845161 0.0000000000 0.0000000000
0.3744955806 0.0000000000 0.0000000000
0.4100369032 0.0000000000 0.0000000000
0.4433858387 0.0000000000 0.0000000000
0.4729582258 0.0000000000 0.0000000000
0.5038317742 0.0000000000 0.0000000000
0.5333806774 0.0000000000 0.0000000000
0.5563652581 0.0000000000 0.0000000000
0.5754273871 0.0000000000 0.0000000000
0.5901971935 0.0000000000 0.0000000000
0.6013600323 0.0000000000 0.0000000000
0.6101550645 0.0000000000 0.0000000000
0.6136558387 0.0000000000 0.0000000000
0.6163330000 0.0000000000 0.0000000000
0.0000000000 0.0010827742 0.0005500000
0.0025182581 0.0020174516 0.0008540000
0.0036521935 0.0021084839 0.0008550000
0.0044019677 0.0021404194 0.0008249677
0.0054143871 0.0022073548 0.0008288710
0.0077703548 0.0023653226 0.0008240000
0.0116534839 0.0026300968 0.0008190000
0.0192350323 0.0032389677 0.0006536774
0.0298786774 0.0035470323 0.0002400645
0.0467404839 0.0039701290 0.0000000000
0.0686149677 0.0043231935 0.0000000000
0.0937080645 0.0041524839 0.0000000000
0.1242549355 0.0034040645 0.0000000000
0.1595004194 0.0021899677 0.0000000000
0.1954980323 0.0003079677 0.0000000000
0.2320300645 0.0000000000 0.0000000000
0.2727126452 0.0000000000 0.0000000000
0.3136726452 0.0000000000 0.0000000000
0.3494295161 0.0000000000 0.0000000000
0.3821194516 0.0000000000 0.0000000000
0.4179636129 0.0000000000 0.0000000000
0.4514788387 0.0000000000 0.0000000000
0.4810515806 0.0000000000 0.0000000000
0.5120516774 0.0000000000 0.0000000000
0.5415580000 0.0000000000 0.0000000000
0.5645926452 0.0000000000 0.0000000000
0.5835962258 0.0000000000 0.0000000000
0.5983787419 0.0000000000 0.0000000000
0.6062647742 0.0000000000 0.0000000000
0.6122414839 0.0000000000 0.0000000000
0.6156462258 0.0000000000 0.0000000000
0.6183224194 0.0000000000 0.0000000000
0.0000000000 0.0020336774 0.0006429355
0.0024252903 0.0030303548 0.0010389677
0.0053390323 0.0040432903 0.0008870000
0.0060598387 0.0040742903 0.0008850000
0.0071002903 0.0041402258 0.0008870000
0.0094350645 0.0043049677 0.0008840000
0.0133422581 0.0045957097 0.0008810000
0.0219057742 0.0055417097 0.0006556774
0.0326837419 0.0059065161 0.0002262903
0.0500963548 0.0066417742 0.0000000000
0.0726005161 0.0074258710 0.0000000000
0.0981161935 0.0075247742 0.0000000000
0.1292725806 0.0072741935 0.0000000000
0.1651157419 0.0063330645 0.0000000000
0.2017311935 0.0043019355 0.0000000000
0.2387379032 0.0011162581 0.0000000000
0.2799429355 0.0000000000 0.0000000000
0.3217001613 0.0000000000 0.0000000000
0.3576306129 0.0000000000 0.0000000000
0.3907695806 0.0000000000 0.0000000000
0.4268559677 0.0000000000 0.0000000000
0.4605987742 0.0000000000 0.0000000000
0.4902558387 0.0000000000 0.0000000000
0.5212332903 0.0000000000 0.0000000000
0.5506770323 0.0000000000 0.0000000000
0.5738725161 0.0000000000 0.0000000000
0.5912040968 0.0000000000 0.0000000000
0.6011735806 0.0000000000 0.0000000000
0.6084174516 0.0000000000 0.0000000000
0.6144541290 0.0000000000 0.0000000000
0.6178550645 0.0000000000 0.0000000000
0.6205322258 0.0000000000 0.0000000000
0.0000000000 0.0026934194 0.0007350000
0.0022974194 0.0037181290 0.0011658710
0.0053360645 0.0048210000 0.0010399677
0.0072812581 0.0054846452 0.0009219032
0.0082927419 0.0055506129 0.0009189032
0.0106555806 0.0057115161 0.0008929032
0.0145598387 0.0060051613 0.0009130000
0.0233687419 0.0070364194 0.0007079032
0.0347210645 0.0076257419 0.0002262903
0.0525042581 0.0085250645 0.0000000000
0.0754697419 0.0096612581 0.0000000000
0.1013084516 0.0099733226 0.0000000000
0.1328472581 0.0100125484 0.0000000000
0.1691954516 0.0093599032 0.0000000000
0.2062043871 0.0075085806 0.0000000000
0.2435990323 0.0045885484 0.0000000000
0.2850667742 0.0008976774 0.0000000000
0.3273919677 0.0000000000 0.0000000000
0.3634919677 0.0000000000 0.0000000000
0.3969482258 0.0000000000 0.0000000000
0.4332769355 0.0000000000 0.0000000000
0.4670644516 0.0000000000 0.0000000000
0.4967631613 0.0000000000 0.0000000000
0.5278756129 0.0000000000 0.0000000000
0.5572207742 0.0000000000 0.0000000000
0.5799642581 0.0000000000 0.0000000000
0.5930336452 0.0000000000 0.0000000000
0.6027428387 0.0000000000 0.0000000000
0.6099538710 0.0000000000 0.0000000000
0.6160426774 0.0000000000 0.0000000000
0.6194813871 0.0000000000 0.0000000000
0.6221315484 0.0000000000 0.0000000000
0.0000000000 0.0036280645 0.0008048710
0.0020996129 0.0046819032 0.0013636452
0.0051624194 0.0057568065 0.0012096774
0.0071395161 0.0064735161 0.0011167097
0.0099294516 0.0074540000 0.0009848710
0.0123204194 0.0076148065 0.0009848710
0.0162236774 0.0079145484 0.0009538710
0.0253092581 0.0090922258 0.0007590000
0.0375117097 0.0099753226 0.0002262903
0.0558219355 0.0111323871 0.0000000000
0.0792668710 0.0126007097 0.0000000000
0.1056442903 0.0133016129 0.0000000000
0.1376926774 0.0137684839 0.0000000000
0.1747122258 0.0134256452 0.0000000000
0.2123078065 0.0118772258 0.0000000000
0.2501446452 0.0092771613 0.0000000000
0.2920091935 0.0057015161 0.0000000000
0.3349199355 0.0012680000 0.0000000000
0.3715314839 0.0000000000 0.0000000000
0.4054587419 0.0000000000 0.0000000000
0.4419569032 0.0000000000 0.0000000000
0.4759332903 0.0000000000 0.0000000000
0.5057795484 0.0000000000 0.0000000000
0.5369053548 0.0000000000 0.0000000000
0.5654127742 0.0000000000 0.0000000000
0.5827510645 0.0000000000 0.0000000000
0.5951824516 0.0000000000 0.0000000000
0.6048710323 0.0000000000 0.0000000000
0.6121110645 0.0000000000 0.0000000000
0.6181267097 0.0000000000 0.0000000000
0.6215925484 0.0000000000 0.0000000000
0.6242987419 0.0000000000 0.0000000000
0.0000000000 0.0056381290 0.0010266774
0.0016480323 0.0067028387 0.0017562258
0.0047107742 0.0078027419 0.0016322581
0.0067130645 0.0085195484 0.0015082903
0.0095068710 0.0095262258 0.0013764516
0.0159023548 0.0117890968 0.0010828387
0.0198262903 0.0120996774 0.0011068710
0.0294085161 0.0134485484 0.0008853548
0.0434249032 0.0150265161 0.0002492903
0.0630553548 0.0168281935 0.0000000000
0.0873039355 0.0188498065 0.0000000000
0.1151495484 0.0205758710 0.0000000000
0.1483570323 0.0219772581 0.0000000000
0.1867843548 0.0223357419 0.0000000000
0.2256954194 0.0214575161 0.0000000000
0.2645351290 0.0195614839 0.0000000000
0.3073122581 0.0165532581 0.0000000000
0.3513648710 0.0121404194 0.0000000000
0.3890539677 0.0069355161 0.0000000000
0.4239421290 0.0018034839 0.0000000000
0.4608910000 0.0001033871 0.0000000000
0.4952758710 0.0000000000 0.0000000000
0.5244877097 0.0000000000 0.0000000000
0.5515698065 0.0000000000 0.0000000000
0.5716866452 0.0000000000 0.0000000000
0.5874682903 0.0000000000 0.0000000000
0.5998724516 0.0000000000 0.0000000000
0.6095485806 0.0000000000 0.0000000000
0.6167817742 0.0000000000 0.0000000000
0.6227863548 0.0000000000 0.0000000000
0.6262512903 0.0000000000 0.0000000000
0.6289846129 0.0000000000 0.0000000000
0.0000000000 0.0091198710 0.0013960323
0.0009607742 0.0102173871 0.0024542903
0.0039645806 0.0113143548 0.0023506452
0.0059348065 0.0120051935 0.0022394516
0.0087458065 0.0130076774 0.0021045161
0.0151112903 0.0152766452 0.0018167419
0.0255993548 0.0190073548 0.0012924194
0.0354921935 0.0205226452 0.0012130000
0.0529463226 0.0232993871 0.0002945484
0.0748963548 0.0262100968 0.0000000000
0.1008514839 0.0293567742 0.0000000000
0.1308040323 0.0325723871 0.0000000000
0.1656208710 0.0352379032 0.0000000000
0.2067693548 0.0371997742 0.0000000000
0.2480790000 0.0374635484 0.0000000000
0.2885640968 0.0367728710 0.0000000000
0.3323353226 0.0345349355 0.0000000000
0.3777591935 0.0307212903 0.0000000000
0.4164771935 0.0258018387 0.0000000000
0.4516992581 0.0200005484 0.0000000000
0.4875665161 0.0132390645 0.0000000000
0.5155698065 0.0075902258 0.0000000000
0.5377069032 0.0041407097 0.0000000000
0.5593377097 0.0020456774 0.0000000000
0.5792887742 0.0016124516 0.0000000000
0.5950246129 0.0012168387 0.0000000000
0.6075505806 0.0009863226 0.0000000000
0.6172378710 0.0008092258 0.0000000000
0.6244559032 0.0006379355 0.0000000000
0.6304507419 0.0003661935 0.0000000000
0.6339134194 0.0002245161 0.0000000000
0.6366517742 0.0001062581 0.0000000000
0.0000000000 0.0153000000 0.0020760968
0.0000118065 0.0170102903 0.0033787419
0.0032555806 0.0188029677 0.0035705806
0.0054359355 0.0197174516 0.0034416129
0.0083492903 0.0208772581 0.0032921290
0.0149948065 0.0234986452 0.0029772258
0.0254092903 0.0272400000 0.0024896129
0.0423918065 0.0323723548 0.0018576774
0.0622078065 0.0361063226 0.0007369355
0.0870919677 0.0403530323 0.0000000000
0.1150866129 0.0446264516 0.0000000000
0.1466970645 0.0490190323 0.0000000000
0.1834107419 0.0529728387 0.0000000000
0.2259455484 0.0565253548 0.0000000000
0.2687420323 0.0579206129 0.0000000000
0.3096708065 0.0582746774 0.0000000000
0.3531020000 0.0571093548 0.0000000000
0.3976351935 0.0541739032 0.0000000000
0.4347170645 0.0499043548 0.0000000000
0.4674916774 0.0444946452 0.0000000000
0.5008270000 0.0385297419 0.0000000000
0.5286784516 0.0338320000 0.0000000000
0.5508297097 0.0307213226 0.0000000000
0.5724578065 0.0282307097 0.0000000000
0.5924563548 0.0265071935 0.0000000000
0.6080202581 0.0246179677 0.0000000000
0.6204791290 0.0232138710 0.0000000000
0.6301512903 0.0225551613 0.0000000000
0.6373735484 0.0218710323 0.0000000000
0.6433655161 0.0206783871 0.0000000000
0.6467816129 0.0199283226 0.0000000000
0.6495070000 0.0193710645 0.0000000000
0.0000000000 0.0246790645 0.0027671613
0.0000000000 0.0264589355 0.0040410645
0.0004525806 0.0285012581 0.0053047419
0.0025489032 0.0297041613 0.0052364194
0.0059083226 0.0314216129 0.0050372258
0.0135160323 0.0352156452 0.0045401613
0.0258402903 0.0412152903 0.0038209032
0.0452441935 0.0485909032 0.0032271290
0.0673010323 0.0536249677 0.0016192258
0.0936574839 0.0590073226 0.0000000000
0.1233518710 0.0643258710 0.0000000000
0.1569604839 0.0694572258 0.0000000000
0.1950429677 0.0744762903 0.0000000000
0.2390080000 0.0791550323 0.0000000000
0.2830438710 0.0827806129 0.0000000000
0.3252180968 0.0848872903 0.0000000000
0.3696041613 0.0857465806 0.0000000000
0.4151473548 0.0849823226 0.0000000000
0.4529693226 0.0830207097 0.0000000000
0.4863134839 0.0797542258 0.0000000000
0.5200124839 0.0755790323 0.0000000000
0.5478650645 0.0727104194 0.0000000000
0.5696656774 0.0704679677 0.0000000000
0.5908673548 0.0688280645 0.0000000000
0.6104814194 0.0679597742 0.0000000000
0.6258651935 0.0671837419 0.0000000000
0.6380782903 0.0670912581 0.0000000000
0.6475339677 0.0667706452 0.0000000000
0.6546177742 0.0665620645 0.0000000000
0.6604730968 0.0659329677 0.0000000000
0.6638332581 0.0655352581 0.0000000000
0.6664937097 0.0652926129 0.0000000000
0.0000000000 0.0405341290 0.0040983548
0.0000000000 0.0426125806 0.0053235806
0.0000000000 0.0450106774 0.0067631935
0.0000000000 0.0466134839 0.0076921613
0.0011634194 0.0487325806 0.0081045806
0.0092132581 0.0534776774 0.0075321613
0.0231917097 0.0612013871 0.0064333871
0.0456730645 0.0713524194 0.0054126129
0.0707088387 0.0772401935 0.0039868387
0.0995210000 0.0834470645 0.0012288710
0.1312894194 0.0895556774 0.0000000000
0.1675060000 0.0955313226 0.0000000000
0.2075892581 0.1013910000 0.0000000000
0.2529465484 0.1074645484 0.0000000000
0.2983712903 0.1124463871 0.0000000000
0.3419926452 0.1160527419 0.0000000000
0.3873762903 0.1184396774 0.0000000000
0.4342720645 0.1197262258 0.0000000000
0.4729190968 0.1195433871 0.0000000000
0.5069593548 0.1184200323 0.0000000000
0.5413000323 0.1166657419 0.0000000000
0.5693103871 0.1154605806 0.0000000000
0.5910072258 0.1147862581 0.0000000000
0.6119740000 0.1144076774 0.0000000000
0.6314263548 0.1144667419 0.0000000000
0.6466704194 0.1146772581 0.0000000000
0.6587054516 0.1151072258 0.0000000000
0.6680255484 0.1153555806 0.0000000000
0.6750664516 0.1156054839 0.0000000000
0.6808917097 0.1157106452 0.0000000000
0.6842273226 0.1157681613 0.0000000000
0.6868638065 0.1158211613 0.0000000000
0.0000000000 0.0615972258 0.0062245161
0.0000000000 0.0639608387 0.0073441935
0.0000000000 0.0667106452 0.0086631290
0.0000000000 0.0685140000 0.0095300645
0.0000000000 0.0710479032 0.0107605806
0.0010959677 0.0765222581 0.0122033871
0.0152919032 0.0851492903 0.0109317742
0.0406227097 0.0977228710 0.0093665161
0.0690606129 0.1044836774 0.0083850968
0.1022092903 0.1120140645 0.0056142258
0.1371106129 0.1188971935 0.0002276129
0.1768559355 0.1258196774 0.0000000000
0.2196193871 0.1322936774 0.0000000000
0.2666373226 0.1390487742 0.0000000000
0.3136224839 0.1452341613 0.0000000000
0.3587042258 0.1501886774 0.0000000000
0.4052795484 0.1540801935 0.0000000000
0.4536810645 0.1569665806 0.0000000000
0.4933501935 0.1583104516 0.0000000000
0.5280642258 0.1585360968 0.0000000000
0.5632009032 0.1583288065 0.0000000000
0.5912840645 0.1580133226 0.0000000000
0.6128420323 0.1581131935 0.0000000000
0.6334886774 0.1584688387 0.0000000000
0.6526778387 0.1590370968 0.0000000000
0.6676980968 0.1596295806 0.0000000000
0.6794472258 0.1603638710 0.0000000000
0.6886134839 0.1608828387 0.0000000000
0.6955724839 0.1613053226 0.0000000000
0.7013802581 0.1616040000 0.0000000000
0.7046674839 0.1617638387 0.0000000000
0.7072620000 0.1618691290 0.0000000000
0.0000000000 0.0859107742 0.0089157742
0.0000000000 0.0884979032 0.0099081935
0.0000000000 0.0915466129 0.0110811613
0.0000000000 0.0935340968 0.0118615161
0.0000000000 0.0963550323 0.0129323548
0.0000000000 0.1027731613 0.0154064194
0.0009607742 0.1130172903 0.0166679355
0.0270595484 0.1279209677 0.0142182581
0.0619005806 0.1356975484 0.0139891290
0.0999592581 0.1443689677 0.0117648710
0.1393915806 0.1527407097 0.0059843548
0.1839568710 0.1603325484 0.0000000000
0.2306229677 0.1670733226 0.0000000000
0.2798010323 0.1738142581 0.0000000000
0.3281437097 0.1805222258 0.0000000000
0.3746798710 0.1865546129 0.0000000000
0.4224222903 0.1918245806 0.0000000000
0.4723343548 0.1961215484 0.0000000000
0.5130537419 0.1986577419 0.0000000000
0.5486250645 0.2001175806 0.0000000000
0.5845004839 0.2009700968 0.0000000000
0.6129601290 0.2014712258 0.0000000000
0.6343206774 0.2019397097 0.0000000000
0.6545175161 0.2026107097 0.0000000000
0.6733183548 0.2034665161 0.0000000000
0.6879309677 0.2042311613 0.0000000000
0.6993369677 0.2051004194 0.0000000000
0.7083592903 0.2058657097 0.0000000000
0.7151901290 0.2064081290 0.0000000000
0.7208371290 0.2067504194 0.0000000000
0.7241045161 0.2069632581 0.0000000000
0.7266687097 0.2071288710 0.0000000000
0.0000000000 0.1149332258 0.0124087742
0.0000000000 0.1179005161 0.0131809355
0.0000000000 0.1213987419 0.0140932903
0.0000000000 0.1237200968 0.0147128387
0.0000000000 0.1269190000 0.0155431613
0.0000000000 0.1342823871 0.0174710323
0.0000000000 0.1463515161 0.0207194194
0.0022788387 0.1635583871 0.0203870645
0.0418632903 0.1735003548 0.0204478065
0.0888295484 0.1837407097 0.0190931613
0.1357976452 0.1939186774 0.0147567097
0.1860232903 0.2035412903 0.0044277097
0.2397007097 0.2107602903 0.0000000000
0.2935370000 0.2164910645 0.0000000000
0.3433567742 0.2222468065 0.0000000000
0.3911662903 0.2286702258 0.0000000000
0.4400853226 0.2350583226 0.0000000000
0.4916943871 0.2409145161 0.0000000000
0.5336826774 0.2447303226 0.0000000000
0.5701904516 0.2473824194 0.0000000000
0.6069906774 0.2494161935 0.0000000000
0.6358624839 0.2507224516 0.0000000000
0.6571070645 0.2515950645 0.0000000000
0.6767842258 0.2525666452 0.0000000000
0.6950209677 0.2536781290 0.0000000000
0.7089963548 0.2546630968 0.0000000000
0.7198613548 0.2556338387 0.0000000000
0.7283982903 0.2564343226 0.0000000000
0.7349659032 0.2570538387 0.0000000000
0.7403720000 0.2575208065 0.0000000000
0.7434713548 0.2577750000 0.0000000000
0.7458453871 0.2579741613 0.0000000000
0.0000000000 0.1480168710 0.0159131935
0.0000000000 0.1513870000 0.0166381290
0.0000000000 0.1553098387 0.0172769677
0.0000000000 0.1578626129 0.0176736452
0.0000000000 0.1614704839 0.0182297419
0.0000000000 0.1696952581 0.0194967742
0.0000000000 0.1832895484 0.0216085484
0.0000000000 0.2044267097 0.0253464194
0.0063672258 0.2162337419 0.0246270968
0.0633801290 0.2278189032 0.0237032903
0.1222945484 0.2398327419 0.0210370968
0.1805726774 0.2523931290 0.0139908065
0.2430960323 0.2634630645 0.0001801613
0.3056904516 0.2690133226 0.0000000000
0.3595114839 0.2722216774 0.0000000000
0.4079985161 0.2764615484 0.0000000000
0.4575509032 0.2826891613 0.0000000000
0.5106389032 0.2898037742 0.0000000000
0.5538773871 0.2948478710 0.0000000000
0.5914808387 0.2985841935 0.0000000000
0.6293100000 0.3018158710 0.0000000000
0.6586615806 0.3038832581 0.0000000000
0.6799258065 0.3052093871 0.0000000000
0.6992725806 0.3063746452 0.0000000000
0.7169111935 0.3075480968 0.0000000000
0.7300621935 0.3084548710 0.0000000000
0.7402050968 0.3092988710 0.0000000000
0.7481228065 0.3099928065 0.0000000000
0.7541339355 0.3104929677 0.0000000000
0.7590864194 0.3108626129 0.0000000000
0.7619409355 0.3110854516 0.0000000000
0.7641446452 0.3112458387 0.0000000000
0.0000000000 0.1785133548 0.0173086452
0.0000000000 0.1822708387 0.0184672258
0.0000000000 0.1866927097 0.0198255161
0.0000000000 0.1895572258 0.0206221290
0.0000000000 0.1935867097 0.0213149677
0.0000000000 0.2027194839 0.0221293871
0.0000000000 0.2177215484 0.0228934194
0.0000000000 0.2418806774 0.0244062903
0.0000000000 0.2553976129 0.0238057097
0.0267350000 0.2679639355 0.0221240000
0.1007521613 0.2809212581 0.0191217097
0.1666670323 0.2949786774 0.0138794839
0.2356755161 0.3103186774 0.0039405806
0.3102700645 0.3249402903 0.0000000000
0.3739367742 0.3282671290 0.0000000000
0.4250035161 0.3281604839 0.0000000000
0.4740415806 0.3306441290 0.0000000000
0.5272650000 0.3370856129 0.0000000000
0.5714507742 0.3428746452 0.0000000000
0.6098620968 0.3474580323 0.0000000000
0.6487121290 0.3514898387 0.0000000000
0.6785940323 0.3541475806 0.0000000000
0.7000379677 0.3558478387 0.0000000000
0.7192836774 0.3572003226 0.0000000000
0.7366075484 0.3583710000 0.0000000000
0.7492191935 0.3591562581 0.0000000000
0.7586719677 0.3597470000 0.0000000000
0.7660435806 0.3602586129 0.0000000000
0.7715384516 0.3605701935 0.0000000000
0.7759999677 0.3607935806 0.0000000000
0.7785671935 0.3608929677 0.0000000000
0.7805915484 0.3609874516 0.0000000000
0.0000000000 0.2067967097 0.0174149355
0.0000000000 0.2110220323 0.0182101613
0.0000000000 0.2158782258 0.0191620645
0.0000000000 0.2190965806 0.0198042903
0.0000000000 0.2235522581 0.0206615484
0.0000000000 0.2337991935 0.0226854194
0.0000000000 0.2504638065 0.0235834194
0.0000000000 0.2774174839 0.0223637419
0.0000000000 0.2925466452 0.0208692258
0.0000000000 0.3063049677 0.0179207419
0.0682777419 0.3202073226 0.0137765161
0.1483686129 0.3350336452 0.0084926129
0.2227733548 0.3519160968 0.0020634839
0.3010086452 0.3691409032 0.0000000000
0.3779197097 0.3833559677 0.0000000000
0.4416196774 0.3872470645 0.0000000000
0.4918779677 0.3834259355 0.0000000000
0.5435987742 0.3852056129 0.0000000000
0.5874217419 0.3898594516 0.0000000000
0.6263036774 0.3947525161 0.0000000000
0.6659446129 0.3995351935 0.0000000000
0.6965834194 0.4028102258 0.0000000000
0.7184005161 0.4048511935 0.0000000000
0.7378649355 0.4065482581 0.0000000000
0.7552263871 0.4078782258 0.0000000000
0.7676303871 0.4086855161 0.0000000000
0.7768732258 0.4092212581 0.0000000000
0.7839705806 0.4096435484 0.0000000000
0.7892376129 0.4098589032 0.0000000000
0.7934452903 0.4099393548 0.0000000000
0.7958732903 0.4100013226 0.0000000000
0.7977581935 0.4100332903 0.0000000000
0.0000000000 0.2369541290 0.0161882581
0.0000000000 0.2417326452 0.0163842903
0.0000000000 0.2472837097 0.0166223871
0.0000000000 0.2509497742 0.0167768710
0.0000000000 0.2559479032 0.0170659355
0.0000000000 0.2672856774 0.0179224839
0.0000000000 0.2856652258 0.0195520645
0.0000000000 0.3152871290 0.0176205806
0.0000000000 0.3320628387 0.0143086452
0.0000000000 0.3471105806 0.0095458710
0.0203530645 0.3620468065 0.0041762903
0.1214737742 0.3776285806 0.0010630645
0.2059583226 0.3953279677 0.0000000000
0.2870563548 0.4142683548 0.0000000000
0.3681178710 0.4317393548 0.0000000000
0.4431239677 0.4446028065 0.0000000000
0.5124838065 0.4497857742 0.0000000000
0.5632570968 0.4425409355 0.0000000000
0.6048768387 0.4412026452 0.0000000000
0.6422433548 0.4437453226 0.0000000000
0.6821109677 0.4483936452 0.0000000000
0.7131388387 0.4521080645 0.0000000000
0.7353596129 0.4545944516 0.0000000000
0.7552271290 0.4566977097 0.0000000000
0.7729337097 0.4583812581 0.0000000000
0.7855558065 0.4594561613 0.0000000000
0.7948287097 0.4601301290 0.0000000000
0.8019825806 0.4606620000 0.0000000000
0.8072557097 0.4609746774 0.0000000000
0.8115518387 0.4611640323 0.0000000000
0.8140093226 0.4612574839 0.0000000000
0.8159097097 0.4613204516 0.0000000000
0.0000000000 0.2655274839 0.0135981613
0.0000000000 0.2707007419 0.0132665806
0.0000000000 0.2767336452 0.0128793871
0.0000000000 0.2807319677 0.0126312258
0.0000000000 0.2862430323 0.0122718387
0.0000000000 0.2989296129 0.0114755806
0.0000000000 0.3191441290 0.0110405484
0.0000000000 0.3517190645 0.0102213871
0.0000000000 0.3701495161 0.0050079355
0.0000000000 0.3865131613 0.0011990323
0.0000000000 0.4027029355 0.0000000000
0.0776124194 0.4192052258 0.0000000000
0.1845435484 0.4376033871 0.0000000000
0.2703021290 0.4570391935 0.0000000000
0.3543829355 0.4767841613 0.0000000000
0.4342915806 0.4936933548 0.0000000000
0.5127442258 0.5057177742 0.0000000000
0.5855060323 0.5123969355 0.0000000000
0.6266901935 0.5020917419 0.0000000000
0.6606594839 0.4970405161 0.0000000000
0.6983778387 0.4978708387 0.0000000000
0.7287332581 0.5004162581 0.0000000000
0.7509253548 0.5027732581 0.0000000000
0.7709440000 0.5049936774 0.0000000000
0.7889931935 0.5069058710 0.0000000000
0.8018197742 0.5081776452 0.0000000000
0.8112420323 0.5089812581 0.0000000000
0.8185051613 0.5096109355 0.0000000000
0.8238685161 0.5099909355 0.0000000000
0.8282107742 0.5102132581 0.0000000000
0.8307046774 0.5103562258 0.0000000000
0.8326640968 0.5104666452 0.0000000000
0.0000000000 0.2891384516 0.0105377742
0.0000000000 0.2947535806 0.0108216129
0.0000000000 0.3012742581 0.0110656129
0.0000000000 0.3055787742 0.0109136129
0.0000000000 0.3114990645 0.0104171935
0.0000000000 0.3247756129 0.0086088710
0.0000000000 0.3463261935 0.0060651613
0.0000000000 0.3813632903 0.0021688710
0.0000000000 0.4010343871 0.0000000000
0.0000000000 0.4184924516 0.0000000000
0.0000000000 0.4357130323 0.0000000000
0.0279926452 0.4530412581 0.0000000000
0.1620717742 0.4721070645 0.0000000000
0.2543561290 0.4916620645 0.0000000000
0.3396674516 0.5119017097 0.0000000000
0.4227917742 0.5311547419 0.0000000000
0.5055158387 0.5475405161 0.0000000000
0.5829023548 0.5580315484 0.0000000000
0.6461191935 0.5630778710 0.0000000000
0.6819586774 0.5534648065 0.0000000000
0.7159603548 0.5470522903 0.0000000000
0.7439113226 0.5458974839 0.0000000000
0.7651062903 0.5467758065 0.0000000000
0.7846347419 0.5483642258 0.0000000000
0.8026063226 0.5501453871 0.0000000000
0.8155242903 0.5514995161 0.0000000000
0.8250171290 0.5524701290 0.0000000000
0.8323226452 0.5531726452 0.0000000000
0.8377677419 0.5536883871 0.0000000000
0.8421998065 0.5540741935 0.0000000000
0.8447286774 0.5542384516 0.0000000000
0.8467190968 0.5543984194 0.0000000000
0.0000000000 0.3100969355 0.0069767742
0.0000000000 0.3159631935 0.0068754194
0.0000000000 0.3227158387 0.0068447419
0.0000000000 0.3272203871 0.0068152258
