LUTs/SPK Cube Block1 S32/TheBrim_SPK_Type-D_Block1_S32.cube
TITLE "TheBrim® SPK Block 1"
# TheBrim® d.o.o. Croatia
# Copyright: (C) Copyright 2020 TheBrim® d.o.o. Croatia
LUT_3D_SIZE 8
DOMAIN_MIN 0.000000 0.000000 0.000000
DOMAIN_MAX 0.903226 0.903226 0.903226
0.0066220000 0.0100400000 0.0125730000
0.0368854839 0.0163565806 0.0085160323
0.0828727419 0.0236098065 0.0000000000
0.1879644516 0.0341677742 0.0000000000
0.3476042903 0.0680855161 0.0000000000
0.4854671290 0.1056480323 0.0085005484
0.5509643226 0.1141053871 0.0000000000
0.5764218065 0.1181344839 0.0040280000
0.0000000000 0.0297360645 0.0190436129
0.0377647097 0.0340685161 0.0113408710
0.0937744516 0.0398844194 0.0000000000
0.2266135161 0.0591026452 0.0000000000
0.4086304194 0.1004205806 0.0000000000
0.5462842581 0.1433775161 0.0133687742
0.6025205806 0.1493106452 0.0000000000
0.6316688387 0.1606658387 0.0051760000
0.0000000000 0.0572999677 0.0160875484
0.0206124194 0.0617381290 0.0012679677
0.0997670968 0.0733957742 0.0000000000
0.2692240645 0.1080923548 0.0000000000
0.4721431613 0.1592197097 0.0000000000
0.6094668065 0.2010299355 0.0106308710
0.6758953548 0.2243157742 0.0000000000
0.6976437419 0.2385198065 0.0147586452
0.0000000000 0.1167397742 0.0297967742
0.0000000000 0.1250442903 0.0015407742
0.1012487742 0.1531768387 0.0000000000
0.3152928710 0.2091790323 0.0000000000
0.5439362581 0.2774620323 0.0000000000
0.6878929032 0.3230848387 0.0061094194
0.7539212903 0.3621364516 0.0220235484
0.7760755484 0.3786869032 0.0085166129
0.0000000000 0.2674788387 0.1111028065
0.0000000000 0.2820553226 0.0694618387
0.0986739677 0.3154147419 0.0000000000
0.3968121613 0.4086537097 0.0000000000
0.6378854839 0.4716547419 0.0109449677
0.7819392581 0.5178280645 0.0063139032
0.8387738387 0.5498961613 0.0022681290
0.8597149032 0.5674283548 0.0158270645
0.0039869355 0.4133872903 0.1831623548
0.0152797742 0.4435590323 0.1551462581
0.1106520968 0.4876000000 0.0000000000
0.4489602258 0.6031915806 0.0022866774
0.7171856452 0.6794275484 0.0066221613
0.8530440000 0.6971529677 0.0061477097
0.9098460645 0.7138673871 0.0024933548
0.9280570968 0.7244427419 0.0168207097
0.0000000000 0.4701206452 0.2007070000
0.0000000000 0.5034394839 0.1568943871
0.1308901290 0.5609565484 0.0118741613
0.4824573226 0.6746608065 0.0022413548
0.7468496129 0.7605769677 0.0063128065
0.8842229032 0.7774855806 0.0162912258
0.9367211935 0.7825347742 0.0066075806
0.9531674194 0.7859061935 0.0188144839
0.0158878065 0.4974130968 0.2032416452
0.0000000000 0.5329739355 0.0899647097
0.1400297742 0.5880991935 0.0000000000
0.4827585806 0.6925667419 0.0000000000
0.7354046452 0.7732743871 0.0018668387
0.8773803871 0.7937432258 0.0009294194
0.9448987742 0.8044747742 0.0106496129
0.9639056774 0.8060146129 0.0026794516
0.0003719032 0.0148988387 0.0385191613
0.0356654194 0.0160500968 0.0365272903
0.0836259677 0.0202487419 0.0161653226
0.1870391613 0.0057088710 0.0000000000
0.3522329677 0.0362440323 0.0000000000
0.4960208387 0.0796509032 0.0000000000
0.5637946129 0.0889429032 0.0032940323
0.5917985484 0.0964407097 0.0016478710
0.0000000000 0.0326168065 0.0431954839
0.0340789032 0.0349987742 0.0369886774
0.0945348065 0.0384076129 0.0098411290
0.2299437742 0.0461683548 0.0000000000
0.4196903871 0.0850613226 0.0000000000
0.5625813871 0.1338009355 0.0124417097
0.6152631613 0.1364035161 0.0004776129
0.6372162581 0.1419492258 0.0012199355
0.0000000000 0.0623910645 0.0431810323
0.0116566452 0.0648984194 0.0287334194
0.0975902581 0.0736489355 0.0038580968
0.2639081613 0.1040735806 0.0000000000
0.4859331290 0.1563985484 0.0000000000
0.6344564839 0.2044749355 0.0007443871
0.6846852581 0.2189609032 0.0112085484
0.7066494194 0.2293179032 0.0198687742
0.0000000000 0.1297816129 0.0585461935
0.0000000000 0.1409801290 0.0260788387
0.0948764516 0.1648479677 0.0000000000
0.3245937097 0.2233208387 0.0000000000
0.5640809032 0.3027500000 0.0000000000
0.7135222903 0.3518047419 0.0064106774
0.7655765484 0.3650529355 0.0181057097
0.7885330645 0.3775661935 0.0047992903
0.0006851613 0.2935260968 0.1408219677
0.0000000000 0.3294215161 0.1113775161
0.0754020645 0.3490849355 0.0000000000
0.3927828065 0.4407595806 0.0000000000
0.6594515161 0.5134849032 0.0000000000
0.8061631290 0.5599158065 0.0005590968
0.8539199677 0.5666337742 0.0002441290
0.8730969355 0.5751317097 0.0096644839
0.0049813871 0.4321734516 0.2074201935
0.0021167097 0.4737528065 0.1827749032
0.0630000645 0.5094684194 0.0155346129
0.4449698710 0.6225499032 0.0000000000
0.7298456129 0.7049461290 0.0004479677
0.8688278710 0.7242410000 0.0175534516
0.9197102581 0.7266284516 0.0038483226
0.9380818710 0.7320633548 0.0158335806
0.0281089677 0.4862918387 0.2349221290
0.0278496452 0.5213041290 0.2066702258
0.0491640323 0.5577275161 0.0465050645
0.4205627419 0.6646179355 0.0000000000
0.7222336452 0.7599730000 0.0113621613
0.8779415161 0.7832058387 0.0116292581
0.9442395806 0.7908988065 0.0163349355
0.9618040000 0.7913600323 0.0023871935
0.0000000000 0.5235607419 0.2660502258
0.0000000000 0.5582689355 0.2303305806
0.0203659032 0.5850797419 0.0725965484
0.3782473548 0.6737467097 0.0015712258
0.6843840000 0.7645390968 0.0005344839
0.8698187742 0.8029439355 0.0000552258
0.9533968710 0.8141857097 0.0122830968
0.9788453871 0.8176306129 0.0119361613
0.0000000000 0.0262611290 0.0798347742
0.0104616452 0.0119843226 0.0779242581
0.0750153548 0.0041878710 0.0763057097
0.1780238065 0.0000000000 0.0486402903
0.3512347097 0.0000000000 0.0310543871
0.4998474839 0.0000000000 0.0277472581
0.5716139032 0.0000000000 0.0419843226
0.6019278710 0.0000000000 0.0496440323
0.0000000000 0.0422312258 0.0909521935
0.0129200645 0.0346038065 0.0802440645
0.0863053226 0.0350604516 0.0720487742
0.2175903548 0.0163131613 0.0494846774
0.4138775806 0.0000000000 0.0277771290
0.5721541290 0.0000000000 0.0102244194
0.6329169355 0.0089665484 0.0032041935
0.6562048065 0.0000000000 0.0054445806
0.0000000000 0.0780196452 0.1059538710
0.0000000000 0.0678304516 0.0797308065
0.0902572903 0.0819346452 0.0706924516
0.2758294194 0.1165280323 0.0670566129
0.4922524516 0.1328884516 0.0251345806
0.6350419032 0.1217141290 0.0025594839
0.7040933871 0.1200571613 0.0014647742
0.7365641935 0.1101831935 0.0069383226
0.0000000000 0.1554653548 0.1270910968
0.0000000000 0.1619038387 0.1074955806
0.0678333871 0.1983013548 0.0865876129
0.3224278710 0.2501257419 0.0606336774
0.5774605161 0.3009337742 0.0133195161
0.7260557742 0.3197465161 0.0025832258
0.7948332581 0.3271416129 0.0011341935
0.8265293871 0.3323697097 0.0068673548
0.0004322903 0.3344303226 0.2211635161
0.0096848710 0.3709157419 0.2052896452
0.0000000000 0.3953128387 0.0990599032
0.3738563548 0.4685471613 0.0111987419
0.6590665806 0.5242202581 0.0017956129
0.8204096452 0.5586333871 0.0011814194
0.8820536129 0.5649972258 0.0037359677
0.9116210645 0.5736932903 0.0024887742
0.0133468387 0.4578069032 0.2718438387
0.0211568387 0.5112332258 0.2710905806
0.0000000000 0.5382997097 0.1721742258
0.3321307742 0.6087814839 0.0009292903
0.6851041290 0.7005045161 0.0017561290
0.8716322903 0.7342739677 0.0021913871
0.9424479032 0.7417652258 0.0000000000
0.9684517742 0.7456773226 0.0000000000
0.0003465806 0.5120111935 0.3144292903
0.0164274516 0.5567687419 0.3086192581
0.0256306129 0.5912093548 0.2600677419
0.2530320968 0.6496417742 0.0384336129
0.6409979355 0.7466576129 0.0015277419
0.8786610645 0.7972549355 0.0014647742
0.9735185161 0.8124844839 0.0042783226
0.9949588387 0.8166424194 0.0109024516
0.0097015161 0.5652397097 0.3880988387
0.0060191935 0.5992768387 0.3689192258
0.0034288065 0.6322679355 0.3359104839
0.2394982581 0.6861698387 0.2011590645
0.6121500645 0.7730711290 0.1506425161
0.8633482903 0.8263530000 0.0989618710
0.9887715484 0.8483462581 0.0911852581
0.9994043871 0.8510120968 0.1490381935
0.0000000000 0.0631160323 0.1630467419
0.0000276129 0.0251385484 0.1487039677
0.0604658710 0.0000000000 0.1478607742
0.1859377419 0.0000000000 0.1533655484
0.3631296452 0.0000000000 0.1535485806
0.5110267097 0.0000000000 0.1701571613
0.5845063548 0.0000000000 0.1831076129
0.6095462903 0.0000000000 0.1929191290
0.0000000000 0.0800211290 0.1775129355
0.0000000000 0.0568578065 0.1667472581
0.0708155484 0.0109999032 0.1654782258
0.2190739355 0.0086608065 0.1777383871
0.4213659677 0.0000000000 0.1819971290
0.5739352581 0.0000000000 0.1979242903
0.6423113871 0.0000000000 0.1974103226
0.6702883226 0.0000000000 0.2057344516
0.0000000000 0.1410827419 0.2333293548
0.0000000000 0.1122701935 0.2071180645
0.0641565806 0.1014967419 0.1974805161
0.2687105484 0.1264403226 0.2152767097
0.5021183871 0.1471027097 0.2188807742
0.6433363226 0.1296192258 0.2221293548
0.7115508387 0.1051046129 0.2203632581
0.7433451935 0.1115351290 0.2374680323
0.0010633548 0.2386120000 0.2936718710
0.0000000000 0.2301330000 0.2693193548
0.0204397419 0.2284544194 0.2409567419
0.3148322581 0.2946056129 0.2585977097
0.5484493871 0.3283313871 0.2521055806
0.7133019355 0.3355574194 0.2493939355
0.7959576452 0.3311157742 0.2545173871
0.8386561613 0.3525468710 0.3000557742
0.0000000000 0.3911547097 0.3610868710
0.0000000000 0.4388524839 0.3725860323
0.0000000000 0.4559800968 0.3197249032
0.2845205161 0.5031789677 0.2902244194
0.6087466774 0.5567766452 0.2660070968
0.8046567097 0.5793813548 0.2611200323
0.8978184194 0.5877430000 0.2682713871
0.9351419677 0.6025104516 0.3149943871
0.0070927742 0.5176192903 0.4230985806
0.0000000000 0.5639550323 0.4312330323
0.0147596452 0.5982735484 0.3946562903
0.1048694516 0.6290177742 0.2995939677
0.6071376452 0.7182333871 0.2751317419
0.8502587419 0.7602667097 0.2433079355
0.9583770968 0.7750932258 0.2560703226
0.9930865484 0.7909348387 0.3224584194
0.0043490000 0.5723581613 0.4682440323
0.0051800000 0.6114511613 0.4734555484
0.0087438065 0.6432711935 0.4518778710
0.0000000000 0.6833572903 0.3678020000
0.5728810000 0.7801296129 0.3479722258
0.8517603871 0.8347069032 0.3269288710
0.9758252581 0.8558735161 0.3200180323
1.0000000000 0.8661215484 0.3717513871
0.0000000000 0.6158362581 0.5344433548
0.0000000000 0.6522611613 0.5306800000
0.0005081290 0.6869636452 0.5248222258
0.0445045806 0.7343100968 0.4830323226
0.5681227742 0.8188692903 0.4739397742
0.8305163548 0.8700522258 0.4667802258
0.9671917097 0.8935558065 0.4608225806
1.0000000000 0.9000696129 0.4726206774
0.0020474839 0.1339295484 0.2753972903
0.0014883871 0.1178037742 0.2746975806
0.0578978387 0.0017434516 0.2559095806
0.2017219032 0.0000000000 0.2833241935
0.3776163548 0.0000000000 0.3022235484
0.5271269355 0.0000000000 0.3248589355
0.6019495161 0.0000000000 0.3375066129
0.6291177097 0.0000000000 0.3471515806
0.0000000000 0.1707942258 0.3249373226
0.0000000000 0.1650962258 0.3370049355
0.0607706774 0.0281162903 0.3133162581
0.2384249677 0.0110306129 0.3385019355
0.4385100968 0.0000000000 0.3494301613
0.5912376129 0.0000000000 0.3764720968
0.6557214839 0.0000000000 0.3787476774
0.6809700645 0.0000000000 0.3797280645
0.0000000000 0.2170082903 0.3717560968
0.0000000000 0.2240236774 0.3913543226
0.0049793871 0.1431491613 0.3738645806
0.2809248387 0.1551347742 0.4037249355
0.4968271290 0.1554387742 0.4136174194
0.6461987419 0.1417307419 0.4234865806
0.7207573871 0.1203536129 0.4248833226
0.7517058387 0.1231739355 0.4405765161
0.0035170645 0.3100243226 0.4420846774
0.0109834839 0.3385562581 0.4688838710
0.0000000000 0.3257181613 0.4623097419
0.2647333548 0.3275275806 0.4686531613
0.5429274194 0.3607000645 0.4805542581
0.7093120000 0.3617603226 0.4805946452
0.8010491935 0.3654527742 0.4949872258
0.8402434194 0.3757421935 0.5248452903
0.0007401290 0.4473355806 0.5194249677
0.0000000000 0.4968535806 0.5515011613
0.0040204194 0.5405601613 0.5587787419
0.1890279355 0.5413504516 0.5111133226
0.5470373226 0.5941065161 0.5152565806
0.7720768710 0.6191380968 0.5371576129
0.8897549677 0.6340649355 0.5682167419
0.9264428065 0.6397388387 0.5947720323
0.0000000000 0.5777182581 0.5855115806
0.0000000000 0.6272603871 0.6130301613
0.0000000000 0.6659180323 0.6095926774
0.0348580968 0.6833241613 0.5458371935
0.5337575806 0.7612927097 0.5671003548
0.8061088065 0.8067933226 0.5755271613
0.9383705484 0.8250643548 0.5950256129
0.9832144194 0.8400830968 0.6323911613
0.0000000000 0.6296318387 0.6251203871
0.0000000000 0.6690424516 0.6429796129
0.0000000000 0.7037353871 0.6441600968
0.0091149032 0.7412393226 0.6096810968
0.5144812258 0.8282542258 0.6300740323
0.8129429677 0.8833421290 0.6376262581
0.9540593548 0.9032623548 0.6326953226
0.9974811290 0.9162665161 0.6629079032
0.0000000000 0.6633881935 0.6682031935
0.0000000000 0.7027333871 0.6822315161
0.0000000000 0.7359836129 0.6916740000
0.0076668387 0.7774954194 0.6775265806
0.5164905806 0.8601397097 0.7058522258
0.8046902258 0.9127820645 0.7163526774
0.9498311613 0.9359752903 0.7121048387
0.9982323226 0.9443831290 0.7202343226
0.0039248710 0.1819616774 0.3720662581
0.0000000000 0.1769527419 0.3859064839
0.0608783548 0.0099339355 0.3691580968
0.2169584516 0.0000000000 0.4039906129
0.3988804516 0.0000000000 0.4301983548
0.5456580645 0.0000000000 0.4482523226
0.6171441290 0.0000000000 0.4624073548
0.6438528387 0.0000000000 0.4712633548
0.0000000000 0.2258702903 0.4309318387
0.0000000000 0.2310291935 0.4572556452
0.0563708387 0.0427560645 0.4484974839
0.2466892903 0.0000000000 0.4785934516
0.4543005484 0.0000000000 0.5017707742
0.6053327097 0.0000000000 0.5149003226
0.6665964516 0.0000000000 0.5200963871
0.6937828387 0.0000000000 0.5278006774
0.0000000000 0.2795868710 0.4852857097
0.0000000000 0.2908058065 0.5158209677
0.0000000000 0.2186660645 0.5206744516
0.2446498065 0.1604230968 0.5513885484
0.4824818710 0.1643322903 0.5742430968
0.6526902903 0.1390687742 0.5872018387
0.7287556774 0.1222329355 0.5874947419
0.7609961290 0.1265212258 0.5999204516
0.0000000000 0.3706014839 0.5542672581
0.0000000000 0.3974148387 0.5873755484
0.0000314839 0.3906250000 0.6013497742
0.1514391613 0.3368932581 0.6200680323
0.4959905806 0.3727850323 0.6512687097
0.7100368710 0.3799488387 0.6652284516
0.8013345161 0.3775627419 0.6726299032
0.8442676452 0.3935448387 0.6980943871
0.0102114194 0.4975910323 0.6286915161
0.0272394839 0.5467646452 0.6658129032
0.0025577097 0.5722972903 0.6882710000
0.0277456774 0.5628929032 0.6862102581
0.4863842581 0.6159453226 0.7186497419
0.7618004839 0.6464350323 0.7345372581
0.8792329032 0.6563766774 0.7533706129
0.9232977097 0.6639138065 0.7795096452
0.0223724839 0.6060606774 0.6878802581
0.0143981935 0.6553375484 0.7201540000
0.0000000000 0.6997543548 0.7432012581
0.0182043226 0.7280851613 0.7386199355
0.4892440323 0.7945388710 0.7654348710
0.7898517419 0.8401742903 0.7857855161
0.9261949032 0.8617545484 0.8122570323
0.9701900323 0.8562790323 0.8241765806
0.0069956774 0.6552538387 0.7227735484
0.0145550645 0.6947240323 0.7459923871
0.0000000000 0.7351016129 0.7658199677
0.0000000000 0.7822768710 0.7804840000
0.4671108387 0.8609381290 0.8093931613
0.7965738710 0.9184809032 0.8347924516
0.9355294516 0.9398343226 0.8471228710
0.9880644194 0.9442050000 0.8489870323
0.0000000000 0.6788744194 0.7471360323
0.0000000000 0.7215410645 0.7741727419
0.0000000000 0.7603505484 0.7974992903
0.0048905806 0.8099658065 0.8227923548
0.4880713871 0.8896997742 0.8590669032
0.7873273548 0.9402625484 0.8751654516
0.9343195161 0.9630334194 0.8754528065
0.9906402903 0.9716538387 0.8780683226
0.0014887742 0.2127580000 0.4337062581
0.0000000000 0.2113260968 0.4525128710
0.0623571613 0.0388971290 0.4556179032
0.2278768065 0.0000000000 0.4932134194
0.4115894839 0.0000000000 0.5213143226
0.5621348065 0.0000000000 0.5422350968
0.6320442903 0.0000000000 0.5500352581
0.6599678710 0.0000000000 0.5582962581
0.0000000000 0.2656498065 0.5039228387
0.0000000000 0.2689130645 0.5241961613
0.0322659355 0.1334978710 0.5321378710
0.2237449677 0.0000000000 0.5679854194
0.4347680645 0.0000000000 0.5977961935
0.6026958387 0.0000000000 0.6154195161
0.6792733871 0.0000000000 0.6188177419
0.7064701613 0.0000000000 0.6273864839
0.0000000000 0.3215911613 0.5572369677
0.0000000000 0.3254800323 0.5780481290
0.0082508387 0.2990725806 0.5919857742
0.1863205484 0.1581401290 0.6401221290
0.4460213226 0.1608866452 0.6721429355
0.6422220323 0.1319076774 0.6922654839
0.7330782581 0.1185461613 0.6962220323
0.7677886452 0.1287185161 0.7084429032
0.0000000000 0.4112775484 0.6254202258
0.0000000000 0.4229332581 0.6491600645
0.0000000000 0.4130947419 0.6609960645
0.0396640968 0.3473077742 0.7197905806
0.4572556452 0.3788372903 0.7621431290
0.6954788710 0.3950051290 0.7834340968
0.8056829677 0.3862521935 0.7866724839
0.8446899677 0.3987948710 0.8006698710
0.0002443871 0.5332848065 0.6944214839
0.0041819355 0.5556553548 0.7152906774
0.0190311290 0.5794667097 0.7435136774
0.0010985806 0.5863330968 0.7881295161
0.4698445161 0.6318770323 0.8445588710
0.7476077419 0.6648767742 0.8644999032
0.8751260323 0.6646208065 0.8685528710
0.9219032258 0.6790494516 0.8820101290
0.0064403548 0.6296859677 0.7498514839
0.0000000000 0.6638432581 0.7756257419
0.0051031613 0.7007783871 0.8023502903
0.0236263871 0.7455536129 0.8369396452
0.4492541935 0.8128594516 0.8890833548
0.7685842581 0.8615606129 0.9119596452
0.9176496129 0.8705237419 0.9198126129
0.9639792258 0.8681750645 0.9231141935
0.0095222903 0.6676174194 0.7723063548
0.0037784839 0.7046182258 0.7985910000
0.0084767419 0.7429414516 0.8236264516
0.0277850968 0.7989826452 0.8613695484
0.4302671935 0.8770928710 0.9087937742
0.7784197742 0.9334418065 0.9338185484
0.9291069355 0.9504176774 0.9408758387
0.9801292581 0.9518257097 0.9399285806
0.0000000000 0.6901808387 0.7916292581
0.0221755806 0.7299283871 0.8183738710
0.0054480000 0.7656842581 0.8439300645
0.0038766129 0.8192934194 0.8838955484
0.4514216774 0.9000685161 0.9287553548
0.7731451290 0.9523955484 0.9483495484
0.9251105161 0.9745220000 0.9520344194
0.9841662903 0.9835974194 0.9559463226
0.0000000000 0.2417283226 0.4794839355
0.0000000000 0.2304894516 0.4858153548
0.0418849355 0.0933894194 0.4973298065
0.2070353548 0.0000000000 0.5364096452
0.4061744194 0.0000000000 0.5728452903
0.5616138065 0.0000000000 0.5930380645
0.6413966452 0.0000000000 0.6015694194
0.6710267097 0.0000000000 0.6089604516
0.0000000000 0.2817516774 0.5328274194
0.0000000000 0.2863930323 0.5512440323
0.0104695806 0.2129193548 0.5633788710
0.1915822903 0.0000000000 0.6074929677
0.4125305484 0.0000000000 0.6466625161
0.5858232258 0.0000000000 0.6641391613
0.6818245806 0.0000000000 0.6736805484
0.7162811613 0.0000000000 0.6818441290
0.0000000000 0.3375518710 0.5849426452
0.0000000000 0.3384681290 0.6013684839
0.0005907097 0.3240900323 0.6232849355
0.1442971290 0.1608728387 0.6820215484
0.4277746452 0.1703688710 0.7252403871
0.6268319355 0.1498780000 0.7467583871
0.7312071935 0.1236149032 0.7520752581
0.7739534194 0.1351926129 0.7617239032
0.0000000000 0.4246571613 0.6532571935
0.0000000000 0.4310000645 0.6684893871
0.0000000000 0.4298221613 0.6876837742
0.0242035806 0.3635065161 0.7651742258
0.4536168710 0.3880506774 0.8155568710
0.6850389032 0.3966653548 0.8343394516
0.8013572581 0.3911290000 0.8409620968
0.8462476774 0.4037730000 0.8480527742
0.0207981613 0.5447843226 0.7200680968
0.0000089032 0.5603175806 0.7392931935
0.0136951613 0.5820413871 0.7671785484
0.0294525806 0.5986073226 0.8248816129
0.4450695161 0.6375849677 0.8910287419
0.7418801290 0.6632720968 0.9127976129
0.8698570645 0.6691952581 0.9184993548
0.9202179677 0.6821879355 0.9245664839
0.0100579355 0.6253075484 0.7603215806
0.0000000000 0.6538431613 0.7842369032
0.0009607742 0.6989518710 0.8250566129
0.0101655484 0.7477110323 0.8726412581
0.4194779677 0.8148122258 0.9333614194
0.7622573871 0.8524012258 0.9538712903
0.9086256129 0.8614580000 0.9596371290
0.9622376452 0.8725691613 0.9628697097
0.0030007742 0.6692142581 0.7902961290
0.0132153871 0.7026505161 0.8150732581
0.0040558065 0.7400899355 0.8431900645
0.0111093871 0.7998594516 0.8905915161
0.3794820000 0.8802241290 0.9477575161
0.7689109355 0.9341724839 0.9689462258
0.9199670645 0.9486317097 0.9752953871
0.9774574194 0.9554671613 0.9779832903
0.0004666452 0.6944788710 0.8081318710
0.0000000000 0.7330776774 0.8355320968
0.0009164839 0.7681568065 0.8619162258
0.0147163871 0.8246174516 0.9074054194
0.4228742903 0.9028005161 0.9557870323
0.7686852581 0.9570746774 0.9760783871
0.9229000000 0.9792313871 0.9835345161
0.9821713548 0.9860173548 0.9850162581
