LUTs/SPK Cube Block1 S32/TheBrim_SPK_Type-T_Block1_S32.cube
TITLE "TheBrim® SPK Block 1"
# TheBrim® d.o.o. Croatia
# Copyright: (C) Copyright 2020 TheBrim® d.o.o. Croatia
LUT_3D_SIZE 8
DOMAIN_MIN 0.000000 0.000000 0.000000
DOMAIN_MAX 0.903226 0.903226 0.903226
0.0000000000 0.0000000000 0.0000000000
0.0297654516 0.0081873548 0.0041126129
0.0672751935 0.0108870000 0.0070249032
0.1990741290 0.0229966129 0.0102931613
0.3813408710 0.0367009355 0.0154774516
0.5695509032 0.0203404194 0.0275019032
0.6829419355 0.0160078387 0.0266605806
0.7431464516 0.0186936774 0.0320626774
0.0160318387 0.0268159032 0.0126354839
0.0278800323 0.0243099032 0.0102776129
0.0659074839 0.0234117419 0.0096470645
0.1973927419 0.0343232903 0.0102014839
0.3806034516 0.0461869032 0.0163337097
0.5703585484 0.0293892258 0.0271764194
0.6855733871 0.0223204194 0.0282486774
0.7452972581 0.0265127419 0.0339378065
0.0242429355 0.0781189032 0.0224579355
0.0411138387 0.0783112581 0.0219187097
0.0702244839 0.0706877742 0.0146343548
0.1939726452 0.0690424839 0.0109146129
0.3768862258 0.0742611935 0.0176007742
0.5668032581 0.0532060323 0.0265208065
0.6828428065 0.0446510645 0.0291184194
0.7422407097 0.0474663871 0.0354102903
0.0534812258 0.1875462258 0.0548963548
0.0679015806 0.1956924516 0.0591430968
0.0941578065 0.1916040645 0.0516023226
0.1925957742 0.1673742581 0.0247431935
0.3715665161 0.1627771613 0.0248689355
0.5591727097 0.1568316774 0.0262840645
0.6730473548 0.1511814194 0.0335101613
0.7321626129 0.1502991290 0.0369235484
0.0588504839 0.3341565806 0.0881091935
0.0685334839 0.3435620000 0.0910979677
0.0981857097 0.3534840968 0.0940818387
0.2087693548 0.3263222581 0.0627527419
0.3741206452 0.2924211290 0.0367794516
0.5523000968 0.2919066452 0.0374973226
0.6627639032 0.2940447742 0.0337752258
0.7202019032 0.2954397419 0.0335572581
0.0699789355 0.4881461935 0.1241374194
0.0873630968 0.4980490968 0.1277333871
0.1209470323 0.5144128710 0.1343460645
0.2372446129 0.4914956452 0.1013163548
0.3959578065 0.4515531613 0.0559937419
0.5519486452 0.4243125484 0.0437080323
0.6563306129 0.4245900000 0.0424389677
0.7115972258 0.4257176129 0.0389077419
0.1001532581 0.5785993226 0.1540197097
0.1184360645 0.5865264516 0.1573901613
0.1619310000 0.6037608387 0.1666812581
0.2649547097 0.5856130323 0.1333616129
0.4126999355 0.5445780645 0.0659161290
0.5621296452 0.5105384194 0.0434482581
0.6561538387 0.4995632581 0.0382797097
0.7096253226 0.5001271290 0.0381064839
0.1208429677 0.6257228710 0.1723688065
0.1423005484 0.6336117742 0.1760899032
0.1869666774 0.6477849677 0.1851985806
0.2827373226 0.6311848065 0.1535125806
0.4230082903 0.5901014839 0.0793931613
0.5684102903 0.5552112581 0.0508710323
0.6595328065 0.5378910000 0.0459430968
0.7094215484 0.5364255161 0.0464410645
0.0125376452 0.0055894839 0.0298246129
0.0231631290 0.0084249677 0.0217315806
0.0559242258 0.0118291290 0.0171063548
0.1913748387 0.0233373548 0.0164300000
0.3719260000 0.0371321290 0.0210687097
0.5559909355 0.0224611290 0.0319240968
0.6677224839 0.0187626452 0.0308797419
0.7300640968 0.0176193226 0.0351354194
0.0161347097 0.0244220645 0.0250138065
0.0361225484 0.0366632581 0.0348730323
0.0742705806 0.0346590323 0.0277140645
0.2022457419 0.0414486129 0.0192628387
0.3860867419 0.0501090000 0.0254791935
0.5742415484 0.0329992903 0.0354918710
0.6877578065 0.0268287419 0.0356877419
0.7472838387 0.0275133548 0.0403579677
0.0257696774 0.0732941935 0.0351590323
0.0477885484 0.0880736129 0.0469121613
0.0800980968 0.0892892581 0.0428406774
0.2008192258 0.0819041290 0.0224117419
0.3850994839 0.0829604194 0.0277819677
0.5756312903 0.0623100323 0.0359203548
0.6911857419 0.0531133226 0.0395032903
0.7504748710 0.0519421935 0.0446885161
0.0521615484 0.1822747097 0.0670676452
0.0730858387 0.1965177419 0.0790146452
0.1033660645 0.2054908065 0.0826939355
0.2019465806 0.1829688387 0.0483335484
0.3808867419 0.1748173871 0.0342120968
0.5679022903 0.1694609032 0.0365117419
0.6814555484 0.1659800645 0.0411277419
0.7403564516 0.1655559032 0.0430586129
0.0615247419 0.3279027419 0.1008459032
0.0724890000 0.3432408387 0.1098119355
0.1052295161 0.3610160645 0.1189193548
0.2196750645 0.3445403548 0.0928874516
0.3848841290 0.3093642903 0.0559763548
0.5618238065 0.3070039032 0.0454031613
0.6711337097 0.3077963548 0.0402291935
0.7281996774 0.3091806774 0.0414587742
0.0691340323 0.4812930645 0.1379343226
0.0910596452 0.4985989677 0.1503649355
0.1265740323 0.5153356452 0.1577906452
0.2520672581 0.5115454516 0.1410456452
0.4079954194 0.4704873226 0.0798371290
0.5621277097 0.4408331290 0.0567872258
0.6658357742 0.4409631935 0.0487887419
0.7205545806 0.4417133871 0.0450706129
0.0963638387 0.5715763871 0.1670667419
0.1224316452 0.5893180000 0.1807161290
0.1633546129 0.6048121935 0.1901583226
0.2813613226 0.6050860000 0.1790960645
0.4259536129 0.5640593871 0.1029261935
0.5731042258 0.5284197742 0.0636202258
0.6658323871 0.5160227097 0.0531743226
0.7188240000 0.5162874839 0.0514480000
0.1137048387 0.6188863548 0.1848400645
0.1403540645 0.6350920968 0.1983114839
0.1884785806 0.6493305806 0.2087809032
0.2990081290 0.6498135484 0.1990964839
0.4366703226 0.6096514194 0.1216863548
0.5797877097 0.5734428710 0.0706668065
0.6695943226 0.5549535161 0.0583513871
0.7189181290 0.5529500323 0.0560365806
0.0122937097 0.0103688710 0.0945661935
0.0170355161 0.0102303871 0.0838733871
0.0394248387 0.0118414839 0.0609111935
0.1672452903 0.0203458065 0.0402829032
0.3448606452 0.0357656774 0.0373761613
0.5282385484 0.0303815484 0.0450694194
0.6383350000 0.0227070968 0.0470571613
0.7001719677 0.0166665161 0.0478397097
0.0094602581 0.0240389677 0.0856498387
0.0260236452 0.0358649032 0.0979211613
0.0577248387 0.0386964516 0.0799412903
0.1829870000 0.0465676129 0.0548256452
0.3628773548 0.0525284516 0.0470075484
0.5467874516 0.0368437419 0.0507626452
0.6569583871 0.0280695484 0.0520818387
0.7196235806 0.0293410323 0.0552720645
0.0287986774 0.0657746452 0.0705251935
0.0507163871 0.0805349355 0.0824113871
0.0953455484 0.1073262581 0.1039550000
0.2174306452 0.1144811613 0.0919099032
0.4035990968 0.1048150000 0.0725019355
0.5901520323 0.0829458387 0.0670843871
0.7034380323 0.0733120645 0.0701942258
0.7617304516 0.0685977419 0.0732470000
0.0511708387 0.1734797419 0.0967074839
0.0751064194 0.1867239355 0.1089203226
0.1155122581 0.2101933226 0.1290548387
0.2247616774 0.2188944516 0.1204453871
0.4070845484 0.2087193548 0.0915038065
0.5892785161 0.2000484194 0.0779803548
0.7004338065 0.1973336774 0.0742326452
0.7581728710 0.1976730323 0.0717736129
0.0655684839 0.3141086774 0.1292912581
0.0807513871 0.3304245484 0.1399673871
0.1148011290 0.3577082581 0.1612322258
0.2485429355 0.3864007419 0.1719702903
0.4108671290 0.3482519355 0.1164883871
0.5853942258 0.3437706129 0.0931545161
0.6921080000 0.3431060000 0.0842473871
0.7478915161 0.3436988710 0.0803781935
0.0620208065 0.4678837419 0.1665746774
0.0857367742 0.4849025484 0.1785436452
0.1327958065 0.5133705161 0.2009218387
0.2849169355 0.5530068710 0.2331683226
0.4362014839 0.5127405806 0.1604534516
0.5868411935 0.4805474839 0.1121528710
0.6883109677 0.4790800323 0.0978690323
0.7418458065 0.4790835161 0.0921441935
0.0903860323 0.5583189677 0.1942770323
0.1160396129 0.5760115484 0.2080531935
0.1695716129 0.6042959677 0.2341780968
0.3141677419 0.6442812581 0.2708049677
0.4548921613 0.6046497742 0.1972519032
0.5985344194 0.5688968710 0.1381424194
0.6889195161 0.5547857742 0.1120715484
0.7407962581 0.5542916774 0.1033052258
0.1060287742 0.6043778710 0.2104206452
0.1288203548 0.6215262581 0.2245165806
0.1934233871 0.6496956129 0.2533796774
0.3310044839 0.6879389355 0.2898283226
0.4656690323 0.6486089355 0.2169368065
0.6053250645 0.6136700645 0.1551601613
0.6928879355 0.5937116452 0.1230173871
0.7411173871 0.5907875484 0.1129070968
0.0250836452 0.0090498065 0.2180500323
0.0305942903 0.0088342581 0.2079358065
0.0393765161 0.0092527097 0.1899150968
0.1223083871 0.0164885484 0.1328409677
0.2868890968 0.0363011290 0.1096052258
0.4599512258 0.0339864839 0.0985943226
0.5732195806 0.0231570968 0.0944667742
0.6341044194 0.0245863548 0.0940689032
0.0268124839 0.0252284194 0.2158195806
0.0312272903 0.0356640645 0.2267907742
0.0494482258 0.0384051613 0.2112839355
0.1415464516 0.0478043548 0.1507339355
0.3041155484 0.0579753871 0.1242861935
0.4795987742 0.0497376774 0.1111657419
0.5927952903 0.0371074194 0.1059217742
0.6520138710 0.0324135161 0.1039065484
0.0250578387 0.0662213871 0.1957430000
0.0352441290 0.0794569677 0.2065250968
0.0665932258 0.1027378065 0.2283785161
0.1816798065 0.1239545806 0.1911196774
0.3520920645 0.1226551613 0.1610324194
0.5314705484 0.1041526774 0.1448571290
0.6434563548 0.0894647097 0.1366389677
0.7033886129 0.0851095806 0.1335929355
0.0491045161 0.1551033871 0.1643147742
0.0724824839 0.1692100645 0.1759201935
0.1159915484 0.1939054839 0.1975610323
0.2677690323 0.2774530968 0.2722967742
0.4627439032 0.2826841935 0.2497656452
0.6428942903 0.2775298387 0.2256360968
0.7503014839 0.2769148065 0.2129120645
0.8050520968 0.2774546129 0.2061006452
0.0627746774 0.2880044839 0.1898214516
0.0771395161 0.3041333548 0.2022293548
0.1212503871 0.3334575161 0.2262412258
0.2896838065 0.4280800000 0.3124497419
0.4679564839 0.4312864194 0.2885366129
0.6396407097 0.4247348387 0.2540401290
0.7427093226 0.4227215161 0.2365888710
0.7961722581 0.4224086452 0.2280763871
0.0591057742 0.4369210968 0.2254901290
0.0783101613 0.4554031613 0.2396562258
0.1295156452 0.4876590968 0.2674670000
0.3188663871 0.5794776129 0.3592694516
0.4931256129 0.5937286452 0.3515497742
0.6388992258 0.5611947419 0.2907605484
0.7374817097 0.5583735484 0.2704388387
0.7894376129 0.5574575484 0.2606378065
0.0807611613 0.5303502581 0.2543323871
0.0997097419 0.5488566774 0.2692035484
0.1560196774 0.5789246452 0.2972263226
0.3428032581 0.6635425484 0.3879216774
0.5124376129 0.6813226452 0.3892282258
0.6493529355 0.6479894194 0.3242521613
0.7372418387 0.6322315484 0.2926839677
0.7876928065 0.6310816452 0.2824759355
0.0857168065 0.5740229355 0.2678764516
0.1125874839 0.5920446774 0.2826742581
0.1783349032 0.6224441935 0.3126595161
0.3571710645 0.7043140968 0.4025160000
0.5228930968 0.7233539032 0.4075011935
0.6556800645 0.6911481935 0.3421630323
0.7406802903 0.6705401290 0.3066743871
0.7875070968 0.6665548387 0.2937120645
0.0100689677 0.0103924839 0.3832485484
0.0183636129 0.0121565806 0.3738887419
0.0312617742 0.0121950645 0.3504670000
0.0901583548 0.0153159355 0.2739612903
0.2385224516 0.0296770645 0.1946499355
0.3982307742 0.0414704839 0.1806308710
0.5072624516 0.0360755484 0.1741562258
0.5639847097 0.0297339032 0.1696640645
0.0122701613 0.0250234516 0.3736865806
0.0141030323 0.0324481290 0.3854711935
0.0230593548 0.0392808710 0.3781002258
0.1023644516 0.0421970968 0.2981520645
0.2568230645 0.0578788065 0.2130700968
0.4180280645 0.0576417097 0.1939570323
0.5270012581 0.0481960968 0.1857231935
0.5849208710 0.0401514839 0.1816120645
0.0164718387 0.0612273871 0.3480640000
0.0174728065 0.0718710000 0.3596603871
0.0274864194 0.0926247419 0.3819619032
0.1244990000 0.1191227419 0.3591899032
0.3022794194 0.1289475161 0.2582507097
0.4726256452 0.1205710645 0.2342905161
0.5813412903 0.1074395484 0.2224870323
0.6388586774 0.0989420323 0.2163004516
0.0331490000 0.1542882903 0.3049118387
0.0439257419 0.1663870000 0.3188761290
0.0638299355 0.1861997097 0.3428430323
0.2104265161 0.2698886452 0.4368897742
0.4108877419 0.2965885161 0.3688323871
0.5886425806 0.2947869677 0.3406974194
0.6960508065 0.2936351613 0.3262704839
0.7521647097 0.2943116452 0.3192286774
0.0646726452 0.2633639355 0.2739996774
0.0817431290 0.2785956129 0.2881716129
0.1182958710 0.3066935484 0.3138976452
0.2922882581 0.4049276129 0.4024096129
0.5238714516 0.5185395161 0.5024350968
0.6943938710 0.5122985161 0.4683428065
0.7949445484 0.5092283226 0.4480056452
0.8467889677 0.5082928387 0.4377583226
0.0561367742 0.4068140968 0.3074142903
0.0716150323 0.4245437419 0.3224261613
0.1208290000 0.4556196452 0.3496013871
0.3172832581 0.5557428387 0.4420480645
0.5479205484 0.6651904194 0.5494210645
0.6911987419 0.6466514516 0.5046268710
0.7879420968 0.6427679677 0.4828216774
0.8384880000 0.6412509355 0.4721414194
0.0556523226 0.4961882581 0.3321591290
0.0730365484 0.5131825806 0.3466638387
0.1406581935 0.5461413871 0.3762896774
0.3383593548 0.6398749032 0.4681034516
0.5635160323 0.7441604839 0.5737154839
0.7013558065 0.7317247742 0.5371632581
0.7863670645 0.7148830323 0.5041440968
0.8352867742 0.7133100000 0.4931914194
0.0678120323 0.5428282258 0.3470322258
0.0961648387 0.5619252903 0.3634124839
0.1579571935 0.5930499032 0.3928056774
0.3514423548 0.6807103226 0.4814530323
0.5719643548 0.7821624516 0.5857093548
0.7076376774 0.7728856129 0.5540140323
0.7894050000 0.7530477097 0.5180525806
0.8346486774 0.7477571935 0.5036967419
0.0001585806 0.0124363871 0.5346200645
0.0046151290 0.0129523548 0.5281688065
0.0122080968 0.0116881935 0.5044539032
0.0426999032 0.0113074194 0.4278299677
0.2110642581 0.0281803226 0.3141884194
0.3502085161 0.0352448710 0.2548392903
0.4536882258 0.0362754516 0.2431540645
0.5102144516 0.0331035484 0.2376081290
0.0002541613 0.0225814839 0.5234710968
0.0043167742 0.0280003226 0.5363566129
0.0112512258 0.0339919032 0.5354397419
0.0442268387 0.0374724839 0.4605876774
0.2253694516 0.0529194839 0.3388954839
0.3713180968 0.0604060645 0.2741405806
0.4762514194 0.0558263871 0.2606485161
0.5320790000 0.0478208710 0.2533149355
0.0005640645 0.0538871290 0.4972110000
0.0047340645 0.0641929032 0.5103078710
0.0113485161 0.0817219355 0.5306898065
0.0471181935 0.1172751290 0.5244859355
0.2658051290 0.1238521290 0.3984135806
0.4242523871 0.1259755161 0.3240406774
0.5304161613 0.1171345806 0.3068826774
0.5878912903 0.1116784194 0.2993131935
0.0090063548 0.1469843226 0.4467870645
0.0104685484 0.1572581290 0.4590680323
0.0219944194 0.1770346452 0.4825480645
0.1215997742 0.2583566129 0.5754927097
0.3706527097 0.2929804516 0.5218367097
0.5399107419 0.3011396452 0.4411796129
0.6464241613 0.3021636129 0.4236391935
0.7021307097 0.3027334839 0.4155135806
0.0317086129 0.2568907097 0.3921025161
0.0387536774 0.2707038387 0.4064171290
0.0610046774 0.2990527097 0.4350380968
0.2477389355 0.3990574194 0.5314676774
0.4963497097 0.5240135484 0.6471301290
0.6650962258 0.5349641613 0.5825511935
0.7669411935 0.5346513226 0.5660864516
0.8199873871 0.5346315806 0.5578367419
0.0443133548 0.3750446129 0.3802070323
0.0675807419 0.3945687419 0.3977983871
0.1235411290 0.4295170645 0.4291391290
0.3173935161 0.5320020000 0.5206133548
0.5561353548 0.6542031935 0.6309784516
0.7354163226 0.7189519355 0.6812760645
0.8293210645 0.7140964194 0.6607517419
0.8782001613 0.7121756452 0.6506026129
0.0522309677 0.4658008387 0.4059773548
0.0766846129 0.4859862903 0.4236806129
0.1333636129 0.5208789032 0.4545279355
0.3337118387 0.6179908387 0.5426281935
0.5704543548 0.7341006452 0.6518652258
0.7466605806 0.8011482581 0.7110722258
0.8269769677 0.7848497419 0.6792069677
0.8744489032 0.7828425806 0.6686191935
0.0620469355 0.5125841613 0.4201583226
0.0786617419 0.5301856774 0.4356972903
0.1397194516 0.5640328387 0.4659501613
0.3446655484 0.6594080645 0.5541854516
0.5787973548 0.7723761290 0.6626466129
0.7534169355 0.8403350645 0.7252126774
0.8299530323 0.8225561290 0.6920636774
0.8734950323 0.8163593548 0.6778029677
0.0000000000 0.0063045484 0.6387280000
0.0041948387 0.0093346774 0.6376285484
0.0109857742 0.0128379032 0.6152245484
0.0321380323 0.0146927742 0.5443864839
0.1659670968 0.0230181290 0.4210635484
0.3201804839 0.0337520000 0.3275026129
0.4134350968 0.0356789355 0.2973346774
0.4722633226 0.0328911613 0.2924664839
0.0000110000 0.0161645161 0.6283608387
0.0041948387 0.0197495806 0.6415880323
0.0110455484 0.0275622258 0.6413710323
0.0315827097 0.0344946774 0.5746725161
0.1764052258 0.0425899677 0.4458138065
0.3402850645 0.0604269355 0.3508072903
0.4380048710 0.0558444194 0.3202091613
0.4941103548 0.0506670000 0.3112504839
0.0000000000 0.0458700000 0.6032577419
0.0041948387 0.0569682258 0.6158603871
0.0109777742 0.0759402258 0.6360031290
0.0342257742 0.1123037742 0.6359981290
0.2173340968 0.1152541290 0.5096434516
0.3919223871 0.1284996774 0.4068740645
0.4930430000 0.1201655484 0.3730744516
0.5505052258 0.1160379032 0.3636581613
0.0011733871 0.1403918387 0.5493647742
0.0049044516 0.1514479032 0.5623377097
0.0118841935 0.1699976129 0.5838023871
0.0674310323 0.2493383871 0.6665293226
0.3333660968 0.2900262258 0.6319587419
0.5067108065 0.3033052903 0.5278528065
0.6109139032 0.3046215806 0.4943572258
0.6671701935 0.3059359355 0.4846289355
0.0108789032 0.2533893548 0.4908594839
0.0192096129 0.2693795161 0.5072928710
0.0370563226 0.2944879355 0.5320678710
0.1976202258 0.3938675806 0.6277700000
0.4665499355 0.5201020645 0.7411518065
0.6347282903 0.5373425161 0.6652608710
0.7340070000 0.5397908387 0.6334475806
0.7866733226 0.5406050000 0.6246957419
0.0436757097 0.3704332258 0.4497475806
0.0560589355 0.3877680323 0.4658557097
0.1025597419 0.4198637097 0.4953171613
0.3077589677 0.5242920000 0.5880500323
0.5479334516 0.6465364516 0.6955480645
0.7464083871 0.7465052903 0.7811653226
0.8403632903 0.7490340645 0.7572742581
0.8895104516 0.7482219355 0.7495394194
0.0562088065 0.4457880323 0.4594750645
0.0728073226 0.4639143548 0.4757737097
0.1317550645 0.4991308710 0.5069826129
0.3363450645 0.6005833548 0.5964157097
0.5717192581 0.7198054194 0.7018854194
0.7670197742 0.8196558387 0.7907086129
0.8556468387 0.8322603871 0.7921092258
0.9019676452 0.8299714516 0.7822877419
0.0575585484 0.4913470968 0.4725650645
0.0862035806 0.5125082903 0.4912151290
0.1467194839 0.5463059032 0.5210629677
0.3445375806 0.6427278710 0.6066752903
0.5784911613 0.7590512903 0.7108107419
0.7726243871 0.8559499677 0.7998057419
0.8587160000 0.8695672581 0.8039105484
0.9008763548 0.8630637419 0.7901642581
0.0000000000 0.0015068065 0.7053757419
0.0041948387 0.0033122903 0.6975700000
0.0109777742 0.0037555161 0.6768009355
0.0309181613 0.0141867419 0.6157533548
0.1190205161 0.0185946452 0.4919000323
0.3049150000 0.0308077419 0.3907624839
0.3881727097 0.0319610645 0.3387227419
0.4469952903 0.0342390323 0.3323324194
0.0000000000 0.0078479355 0.6951441290
0.0041948387 0.0143160968 0.7074119355
0.0109777742 0.0181071613 0.7027557742
0.0311477097 0.0274680323 0.6407866452
0.1226450323 0.0357065161 0.5174373548
0.3239394516 0.0559692581 0.4149660645
0.4115011290 0.0550931290 0.3632340323
0.4682836452 0.0514877742 0.3526840323
0.0000000000 0.0399586129 0.6700216129
0.0041948387 0.0511403226 0.6820498710
0.0109777742 0.0697147097 0.7013418710
0.0322617742 0.1056991935 0.7033749677
0.1660797742 0.1096124516 0.5816245484
0.3752854839 0.1245618710 0.4743732903
0.4675845484 0.1221321613 0.4203964516
0.5250884839 0.1176903871 0.4082281613
0.0000898387 0.1371213548 0.6169443548
0.0042750645 0.1480671613 0.6295019355
0.0113210323 0.1667060645 0.6501951290
0.0522422903 0.2445205161 0.7258529032
0.3072262581 0.2889618387 0.6996432581
0.4906408710 0.3006681935 0.5965762903
0.5856930000 0.3059062258 0.5429754839
0.6429943226 0.3067596774 0.5306133226
0.0037488065 0.2506024516 0.5556290645
0.0084285161 0.2631504516 0.5684708065
0.0193068065 0.2887820323 0.5931050968
0.1623710645 0.3899831290 0.6870569355
0.4489806774 0.5179610323 0.7988131613
0.6189417097 0.5351295806 0.7309463871
0.7115271935 0.5414233548 0.6790209355
0.7651730000 0.5426025161 0.6676937097
0.0271225161 0.3686811613 0.5101531613
0.0435615161 0.3865160000 0.5263899032
0.0764345484 0.4205262903 0.5569349677
0.2840104194 0.5232298710 0.6475907742
0.5297702258 0.6453393548 0.7530598065
0.7309452581 0.7461521290 0.8392637742
0.8215361613 0.7524175806 0.7977080645
0.8701106129 0.7526086452 0.7885457419
0.0487849032 0.4385563548 0.4983497419
0.0762134516 0.4589154194 0.5164953548
0.1281158387 0.4930033226 0.5467518710
0.3351143548 0.5929141935 0.6338335806
0.5716797742 0.7119928065 0.7368773226
0.7672953226 0.8127076129 0.8223019032
0.8722359355 0.8589641613 0.8572113226
0.9183425806 0.8579074516 0.8487561935
0.0561018710 0.4774758387 0.5056378387
0.0810422581 0.4982758710 0.5238973226
0.1485872581 0.5344719355 0.5556505484
0.3471866774 0.6312709032 0.6401359355
0.5809140000 0.7491240645 0.7425081290
0.7740527419 0.8484489355 0.8278730645
0.8767890968 0.8957570323 0.8677016452
0.9189101935 0.8922952903 0.8577187419
