LUTs/SPK Cube Block1 S32/TheBrim_SPK_Type-F_Block1_S32.cube
TITLE "TheBrim® SPK Block 1"
# © Copyright 2021 - TheBrim® d.o.o. Croatia
LUT_3D_SIZE 8
DOMAIN_MIN 0.000000 0.000000 0.000000
DOMAIN_MAX 0.903226 0.903226 0.903226
0.005615 0.006592 0.005554
0.026726 0.006586 0.003409
0.150506 0.006085 0.000000
0.342637 0.000000 0.000000
0.486756 0.000000 0.000000
0.551663 0.000000 0.000000
0.572365 0.000000 0.000000
0.583039 0.000000 0.000000
0.003867 0.042622 0.006664
0.031382 0.034948 0.004221
0.133101 0.040345 0.000000
0.309823 0.028204 0.000000
0.482662 0.000000 0.000000
0.576922 0.000000 0.000000
0.613494 0.000000 0.000000
0.624005 0.000000 0.000000
0.000000 0.141443 0.000249
0.032054 0.136793 0.000000
0.146401 0.130211 0.000000
0.310777 0.134935 0.000000
0.489470 0.120022 0.000000
0.612546 0.078639 0.000000
0.669178 0.030483 0.000000
0.680779 0.008635 0.000000
0.000000 0.303933 0.000000
0.000000 0.280963 0.000000
0.176518 0.280323 0.000000
0.352582 0.285545 0.000000
0.541282 0.283157 0.000000
0.678816 0.261642 0.000000
0.745131 0.236475 0.000000
0.760272 0.212472 0.000000
0.000000 0.383741 0.000000
0.000000 0.411704 0.000000
0.199931 0.437612 0.000000
0.405243 0.466778 0.000000
0.602502 0.474386 0.000000
0.751616 0.460537 0.000000
0.828582 0.437641 0.000000
0.854365 0.413248 0.000000
0.000000 0.434926 0.000000
0.000000 0.484341 0.000000
0.239381 0.533917 0.000000
0.447406 0.580623 0.000000
0.648415 0.616218 0.000000
0.806200 0.626827 0.000000
0.894496 0.617708 0.000000
0.927957 0.598940 0.000000
0.000000 0.460709 0.000000
0.002453 0.522754 0.000000
0.288012 0.585369 0.000000
0.484107 0.637663 0.000000
0.677751 0.682059 0.000000
0.833796 0.708467 0.000000
0.928111 0.716301 0.000000
0.967752 0.710272 0.000000
0.000000 0.462208 0.000000
0.005989 0.533485 0.000000
0.305361 0.601188 0.000000
0.487568 0.654855 0.000000
0.673137 0.703253 0.000000
0.834066 0.737673 0.000000
0.935515 0.753443 0.000000
0.980905 0.754994 0.000000
0.001499 0.008294 0.059609
0.024321 0.008906 0.037353
0.154223 0.007998 0.024178
0.357971 0.000000 0.002367
0.512247 0.000000 0.000000
0.573466 0.000000 0.000000
0.589318 0.000000 0.000000
0.597488 0.000000 0.000000
0.000000 0.044852 0.054236
0.021511 0.036947 0.034349
0.122105 0.042863 0.024876
0.297045 0.032944 0.008225
0.479575 0.000000 0.000000
0.586622 0.000000 0.000000
0.631847 0.000000 0.000000
0.641362 0.000000 0.000000
0.000000 0.162248 0.071284
0.013072 0.127880 0.044160
0.132400 0.127180 0.030771
0.298992 0.133138 0.010576
0.482727 0.121165 0.000000
0.617430 0.081602 0.000000
0.683081 0.029617 0.000000
0.698503 0.007127 0.000000
0.000000 0.318973 0.067539
0.000000 0.261042 0.039080
0.154039 0.277127 0.014629
0.337178 0.281547 0.000000
0.529009 0.279418 0.000000
0.674856 0.260911 0.000000
0.751978 0.235717 0.000000
0.775507 0.214222 0.000000
0.000000 0.416560 0.059299
0.000000 0.423983 0.007306
0.156842 0.439390 0.000000
0.383480 0.464344 0.000000
0.585570 0.468527 0.000000
0.746136 0.460380 0.000000
0.832996 0.437515 0.000000
0.863578 0.413644 0.000000
0.000000 0.473131 0.086629
0.000000 0.515062 0.019974
0.186504 0.558082 0.000000
0.421975 0.600509 0.000000
0.633182 0.629737 0.000000
0.799202 0.633862 0.000000
0.896591 0.623659 0.000000
0.934784 0.607763 0.000000
0.000000 0.511457 0.111586
0.000000 0.571289 0.085140
0.247604 0.627614 0.015890
0.459634 0.672968 0.000000
0.661755 0.710318 0.000000
0.826523 0.733114 0.000000
0.927593 0.739070 0.000000
0.971690 0.729625 0.000000
0.000000 0.514713 0.089806
0.000000 0.586463 0.080653
0.270042 0.648399 0.068919
0.469485 0.698168 0.042394
0.661664 0.741093 0.000000
0.829353 0.772166 0.000000
0.934261 0.786211 0.000000
0.982614 0.786605 0.000000
0.000000 0.000000 0.218037
0.018343 0.001087 0.191991
0.143210 0.003544 0.158112
0.356165 0.000000 0.130215
0.527754 0.000000 0.095149
0.596043 0.000000 0.050136
0.610474 0.000000 0.009934
0.618188 0.000000 0.000000
0.000000 0.058530 0.210325
0.005696 0.046765 0.144733
0.116204 0.052216 0.128574
0.296392 0.042959 0.113914
0.486486 0.000000 0.088341
0.603561 0.000000 0.054685
0.651490 0.000000 0.012725
0.661409 0.000000 0.000000
0.000000 0.174256 0.219458
0.000000 0.132727 0.146738
0.116586 0.139492 0.143282
0.290841 0.144188 0.128224
0.479318 0.132800 0.104327
0.623903 0.095887 0.070677
0.698254 0.045048 0.024084
0.717389 0.012978 0.000000
0.000000 0.329302 0.231406
0.000000 0.289635 0.181398
0.119413 0.284523 0.161174
0.324457 0.293522 0.146337
0.524143 0.291818 0.116547
0.678440 0.274955 0.077414
0.764208 0.250531 0.022625
0.792039 0.228217 0.000000
0.000000 0.445194 0.236256
0.000000 0.446695 0.196261
0.065920 0.461556 0.172790
0.360350 0.482940 0.145630
0.577066 0.488680 0.101468
0.743520 0.478459 0.035688
0.837639 0.456421 0.000000
0.874224 0.429595 0.000000
0.000000 0.507894 0.250336
0.000000 0.545349 0.214944
0.043193 0.587593 0.187823
0.389477 0.627511 0.143203
0.617455 0.655289 0.068157
0.791795 0.659593 0.000000
0.895421 0.648833 0.000000
0.938805 0.627475 0.000000
0.000000 0.552177 0.280058
0.000000 0.612103 0.275411
0.156464 0.664111 0.261017
0.433235 0.706091 0.219642
0.646412 0.742695 0.160783
0.817421 0.763293 0.052725
0.922955 0.764573 0.000000
0.971618 0.752111 0.000000
0.000000 0.567015 0.276051
0.000000 0.637717 0.289876
0.225005 0.693161 0.303898
0.460688 0.740541 0.311526
0.656756 0.778132 0.289512
0.823127 0.803834 0.242501
0.929074 0.813594 0.170419
0.979359 0.812905 0.068576
0.000000 0.000000 0.322903
0.017230 0.000000 0.330652
0.128410 0.000000 0.335997
0.340877 0.000000 0.327763
0.523876 0.000000 0.283711
0.612566 0.000000 0.231437
0.628145 0.000000 0.164112
0.636793 0.000000 0.113056
0.000000 0.057665 0.356979
0.000000 0.047109 0.305881
0.103600 0.048182 0.295315
0.286973 0.041366 0.280508
0.481597 0.000000 0.258722
0.612491 0.000000 0.228154
0.667191 0.000000 0.172681
0.679266 0.000000 0.135823
0.000000 0.179115 0.366645
0.000000 0.152605 0.305429
0.093125 0.153440 0.293892
0.284888 0.158159 0.285381
0.479343 0.147841 0.268084
0.631059 0.113785 0.243591
0.711025 0.069853 0.205098
0.734356 0.036009 0.161413
0.000000 0.345987 0.398195
0.000000 0.304836 0.340306
0.045511 0.304426 0.323716
0.308699 0.314381 0.317196
0.519019 0.311530 0.298505
0.679999 0.295408 0.273619
0.772005 0.271707 0.239822
0.804712 0.250702 0.187826
0.000000 0.478675 0.411794
0.000000 0.469197 0.366704
0.000000 0.488861 0.354157
0.329132 0.508936 0.342606
0.564315 0.514510 0.323864
0.738483 0.503966 0.297572
0.838396 0.481893 0.264452
0.880268 0.455458 0.205066
0.000000 0.536229 0.413653
0.000000 0.575017 0.381682
0.000000 0.619505 0.374507
0.346222 0.658966 0.361416
0.596595 0.685723 0.340704
0.780472 0.690686 0.311913
0.889399 0.679483 0.277212
0.938045 0.657753 0.215855
0.000000 0.580976 0.427242
0.000000 0.643497 0.422321
0.000000 0.692507 0.419719
0.393234 0.736132 0.407720
0.624900 0.773566 0.384798
0.802524 0.793381 0.353628
0.912266 0.795191 0.314352
0.964809 0.783235 0.249761
0.000000 0.607048 0.428029
0.000000 0.675806 0.441913
0.174769 0.725697 0.458299
0.445150 0.769342 0.463520
0.649305 0.805225 0.448453
0.815169 0.831510 0.427457
0.919968 0.842903 0.393508
0.971693 0.841118 0.338256
0.000000 0.000000 0.378013
0.012768 0.000000 0.384943
0.106628 0.000000 0.413356
0.290350 0.000000 0.434186
0.501174 0.000000 0.429461
0.617420 0.000000 0.400119
0.640956 0.000000 0.330157
0.650797 0.000000 0.271601
0.000000 0.051432 0.429302
0.000000 0.038797 0.410033
0.092044 0.030400 0.423279
0.271745 0.018357 0.431491
0.472204 0.000000 0.424035
0.607456 0.000000 0.395297
0.677333 0.000000 0.343662
0.693188 0.000000 0.304939
0.000000 0.186195 0.477083
0.000000 0.165546 0.446708
0.059377 0.163234 0.438370
0.276110 0.167136 0.442693
0.476436 0.156851 0.435733
0.632441 0.126668 0.413874
0.719931 0.085348 0.381744
0.746549 0.055063 0.343637
0.000000 0.347736 0.515613
0.000000 0.316854 0.478729
0.000000 0.322910 0.478774
0.292011 0.331138 0.479081
0.511386 0.330316 0.470168
0.679508 0.315058 0.452131
0.776601 0.292832 0.424347
0.813022 0.275336 0.383409
0.000000 0.492873 0.541814
0.000000 0.490937 0.519001
0.000000 0.508001 0.514124
0.294805 0.531762 0.515118
0.548350 0.537189 0.505614
0.730607 0.527379 0.487857
0.835508 0.506856 0.461603
0.881611 0.484206 0.417486
0.000000 0.553990 0.540473
0.000000 0.599937 0.538533
0.000000 0.645714 0.539575
0.297982 0.685765 0.538576
0.573964 0.711641 0.529773
0.766394 0.716501 0.512648
0.879975 0.706711 0.487002
0.932507 0.687437 0.443549
0.000000 0.599765 0.552119
0.000000 0.660946 0.563730
0.000000 0.716639 0.568940
0.348985 0.760295 0.568865
0.602358 0.797914 0.561109
0.786502 0.818604 0.542621
0.899789 0.820948 0.513303
0.954574 0.811525 0.470607
0.000000 0.634291 0.556542
0.000000 0.701052 0.575906
0.008159 0.749480 0.594812
0.422915 0.792714 0.601342
0.637707 0.829309 0.598731
0.804249 0.855522 0.589033
0.908195 0.868062 0.567894
0.960241 0.866021 0.525388
0.000000 0.000000 0.396747
0.005694 0.000000 0.408498
0.086314 0.000000 0.438183
0.239862 0.000000 0.468286
0.440563 0.000000 0.483041
0.590457 0.000000 0.474652
0.651130 0.000000 0.452903
0.661757 0.000000 0.413165
0.000000 0.059216 0.459409
0.000000 0.050879 0.469610
0.073223 0.040132 0.489428
0.251625 0.023511 0.509383
0.445253 0.000000 0.514982
0.600818 0.000000 0.505669
0.685023 0.000000 0.487659
0.704615 0.000000 0.457972
0.000000 0.187517 0.521479
0.000000 0.174289 0.522098
0.017851 0.175583 0.537897
0.265972 0.178034 0.553598
0.469885 0.167556 0.556895
0.634587 0.136962 0.547896
0.727520 0.090649 0.530692
0.756429 0.062642 0.504603
0.000000 0.345696 0.577712
0.000000 0.331797 0.576891
0.000000 0.337087 0.590395
0.273429 0.348001 0.602628
0.503296 0.347730 0.603363
0.678706 0.333156 0.593934
0.780257 0.311730 0.577104
0.818539 0.295241 0.551456
0.000000 0.491677 0.614101
0.000000 0.501030 0.622219
0.000000 0.522202 0.633778
0.259538 0.548759 0.645075
0.533513 0.556033 0.643366
0.723478 0.547767 0.633943
0.832744 0.528741 0.618711
0.881013 0.509339 0.592908
0.000000 0.563298 0.625942
0.000000 0.613777 0.647633
0.000000 0.660654 0.659781
0.250424 0.702621 0.667407
0.554456 0.729183 0.667597
0.754118 0.735476 0.659510
0.871212 0.727260 0.645773
0.925854 0.711692 0.621069
0.000000 0.610971 0.639881
0.000000 0.673201 0.662511
0.000000 0.730711 0.677663
0.311107 0.775343 0.685485
0.584193 0.812819 0.684474
0.773293 0.834552 0.674734
0.888970 0.838571 0.660837
0.944959 0.833591 0.639077
0.000000 0.652883 0.654761
0.000000 0.715733 0.678441
0.000000 0.764769 0.695710
0.405011 0.809250 0.706815
0.627413 0.845279 0.708443
0.794230 0.870973 0.702540
0.898472 0.883329 0.688492
0.950464 0.883809 0.664566
0.000000 0.000000 0.409036
0.006445 0.000000 0.425964
0.078408 0.000000 0.454869
0.209548 0.000000 0.485045
0.395647 0.000000 0.507102
0.565680 0.000000 0.514948
0.652947 0.000000 0.505708
0.668247 0.000000 0.493291
0.000000 0.055869 0.473105
0.000000 0.060030 0.492408
0.059682 0.059312 0.519532
0.230952 0.051378 0.548360
0.425547 0.005178 0.568534
0.597905 0.000000 0.575255
0.689908 0.000000 0.568606
0.713990 0.000000 0.551880
0.000000 0.184701 0.538914
0.000000 0.189141 0.559343
0.000000 0.197315 0.585848
0.247110 0.201970 0.612521
0.459251 0.193400 0.628454
0.634560 0.164416 0.630475
0.734250 0.118646 0.621985
0.765445 0.081684 0.606643
0.000000 0.338779 0.603357
0.000000 0.344077 0.624807
0.000000 0.356901 0.647562
0.247285 0.371123 0.669527
0.492001 0.373486 0.680789
0.677280 0.359296 0.681059
0.784385 0.336575 0.673936
0.824182 0.315090 0.660937
0.000000 0.482943 0.648245
0.000000 0.506065 0.671605
0.000000 0.534870 0.693690
0.220214 0.563414 0.713846
0.518333 0.576455 0.723826
0.717834 0.570607 0.724387
0.831776 0.551775 0.718347
0.881456 0.531862 0.708201
0.000000 0.565212 0.667705
0.000000 0.616319 0.697115
0.000000 0.667687 0.721078
0.209083 0.709705 0.737221
0.537886 0.741910 0.748620
0.744774 0.750002 0.750030
0.865068 0.743555 0.746174
0.921235 0.730124 0.738143
0.000000 0.613112 0.682373
0.000000 0.677273 0.712401
0.000000 0.736087 0.734763
0.275646 0.780939 0.748281
0.568960 0.819143 0.755537
0.763552 0.842916 0.759305
0.881293 0.850308 0.757284
0.938421 0.847719 0.750544
0.000000 0.658593 0.702521
0.000000 0.718705 0.729273
0.000000 0.771098 0.748841
0.389355 0.816929 0.762684
0.617852 0.853100 0.768497
0.786551 0.879026 0.769151
0.891920 0.891681 0.765340
0.944339 0.894452 0.758193
0.000000 0.000000 0.415459
0.015385 0.000000 0.434710
0.082157 0.000000 0.463864
0.198711 0.000000 0.493144
0.368153 0.000000 0.515796
0.541299 0.000000 0.527095
0.644220 0.000000 0.523702
0.668364 0.000000 0.510768
0.000000 0.044336 0.477979
0.000000 0.052842 0.502128
0.069510 0.061323 0.531442
0.225296 0.061892 0.560239
0.405499 0.034856 0.581635
0.581218 0.000000 0.592896
0.687602 0.000000 0.591007
0.716232 0.000000 0.579731
0.000000 0.175283 0.543585
0.000000 0.188301 0.569696
0.000000 0.205196 0.598190
0.242451 0.217633 0.625887
0.445572 0.216125 0.644856
0.626343 0.191530 0.653080
0.734235 0.152328 0.652202
0.769597 0.094974 0.644099
0.000000 0.325879 0.607891
0.000000 0.344292 0.636056
0.000000 0.366745 0.662455
0.231232 0.387239 0.688613
0.479474 0.394338 0.705967
0.672144 0.384590 0.713233
0.785280 0.361786 0.712240
0.827857 0.332066 0.705864
0.000000 0.474856 0.657066
0.000000 0.509010 0.688730
0.000000 0.543347 0.716013
0.186274 0.575317 0.740049
0.502603 0.595267 0.757134
0.711415 0.593995 0.764583
0.832343 0.576161 0.764365
0.881433 0.550301 0.759779
0.000000 0.569070 0.685216
0.000000 0.621645 0.720150
0.000000 0.671214 0.748183
0.159631 0.714662 0.770518
0.520184 0.749977 0.787122
0.735762 0.763712 0.795395
0.862303 0.759452 0.796985
0.917511 0.743525 0.793484
0.000000 0.617033 0.702684
0.000000 0.676043 0.736378
0.000000 0.736523 0.765702
0.231474 0.784274 0.785247
0.553595 0.823862 0.797988
0.754963 0.849342 0.805924
0.876568 0.858523 0.808193
0.933700 0.855943 0.806496
0.000000 0.657185 0.722771
0.000000 0.713992 0.752062
0.000000 0.772079 0.776990
0.363900 0.818791 0.793017
0.604347 0.855727 0.803011
0.778128 0.881884 0.808374
0.887703 0.895955 0.811074
0.940003 0.899282 0.809804
