LUTs/SPK Cube Block1 S32/TheBrim_SPK_Type-I_Block1_S32.cube
TITLE "TheBrim® SPK Block 1"
# © Copyright 2021 - TheBrim® d.o.o. Croatia
LUT_3D_SIZE 5
DOMAIN_MIN 0.000000 0.000000 0.000000
DOMAIN_MAX 0.903226 0.903226 0.903226
0.006195 0.007263 0.008331
0.016081 0.017923 0.020012
0.073708 0.079417 0.083428
0.172478 0.178135 0.189013
0.228278 0.233758 0.248555
0.017176 0.019170 0.021324
0.038974 0.042739 0.046327
0.112498 0.118588 0.125161
0.253829 0.257965 0.275106
0.378325 0.380875 0.393127
0.091639 0.097617 0.102704
0.135803 0.141624 0.149935
0.228736 0.234180 0.249016
0.384705 0.386655 0.398758
0.551273 0.548877 0.544152
0.234374 0.239546 0.254876
0.342735 0.346783 0.361047
0.450815 0.447743 0.456476
0.574136 0.573227 0.565504
0.699456 0.704535 0.671267
0.312158 0.315415 0.332687
0.467191 0.463700 0.470326
0.597342 0.597463 0.586297
0.727132 0.733213 0.693640
0.826338 0.831708 0.776982
0.016268 0.018141 0.020236
0.048480 0.052931 0.056767
0.157320 0.162921 0.172792
0.273938 0.277016 0.296012
0.316390 0.319759 0.336606
0.044229 0.048398 0.052139
0.075322 0.081030 0.085163
0.172055 0.177715 0.188570
0.338353 0.342294 0.356979
0.481071 0.477301 0.482014
0.152662 0.158276 0.167822
0.191822 0.197686 0.209793
0.308994 0.312173 0.329746
0.470585 0.467024 0.473189
0.630785 0.631535 0.614623
0.341591 0.345608 0.359997
0.422908 0.421395 0.432411
0.524825 0.520995 0.519740
0.637973 0.638840 0.620700
0.751427 0.755014 0.713273
0.468149 0.464637 0.471145
0.598962 0.599114 0.587664
0.701162 0.706395 0.672656
0.794984 0.797336 0.749299
0.863173 0.869505 0.814403
0.054305 0.059074 0.062994
0.140474 0.146247 0.154896
0.318312 0.321728 0.338401
0.459049 0.455707 0.463465
0.466979 0.463484 0.470160
0.116212 0.122291 0.129143
0.164842 0.170428 0.180817
0.296502 0.299346 0.318134
0.478735 0.475020 0.480054
0.602489 0.602719 0.590664
0.254285 0.258386 0.275573
0.307714 0.310846 0.328548
0.433955 0.431872 0.441908
0.582304 0.581764 0.572830
0.722938 0.729102 0.690257
0.449470 0.446414 0.455348
0.521789 0.517857 0.517005
0.616609 0.617092 0.602622
0.719816 0.725864 0.687729
0.815199 0.819715 0.766678
0.595228 0.595310 0.584506
0.700815 0.706006 0.672362
0.781287 0.782429 0.737579
0.845534 0.851362 0.796740
0.892549 0.899299 0.842105
0.094806 0.100787 0.106109
0.192367 0.198247 0.210394
0.379281 0.381741 0.393975
0.591296 0.591164 0.580906
0.642958 0.643947 0.624940
0.215582 0.221573 0.235255
0.313937 0.317231 0.334313
0.456645 0.453368 0.461449
0.615580 0.616050 0.601738
0.737649 0.742694 0.702146
0.372023 0.375135 0.387574
0.458688 0.455364 0.463163
0.574604 0.573710 0.565928
0.703276 0.708702 0.674360
0.816925 0.821634 0.768177
0.553871 0.551666 0.546593
0.632689 0.633466 0.616225
0.715342 0.721511 0.684115
0.803152 0.806365 0.756312
0.870114 0.876719 0.820917
0.703699 0.709175 0.674698
0.786073 0.787450 0.741619
0.840471 0.846201 0.791517
0.887425 0.894496 0.837158
0.918900 0.921850 0.866580
0.130217 0.136140 0.144024
0.237636 0.242610 0.258253
0.404455 0.404615 0.416161
0.606094 0.606378 0.593720
0.740205 0.744979 0.704212
0.273158 0.276297 0.295220
0.403976 0.404166 0.415729
0.554395 0.552201 0.547061
0.713629 0.719950 0.682720
0.827570 0.833035 0.778174
0.464809 0.461364 0.468325
0.581310 0.580794 0.572085
0.689678 0.693800 0.663370
0.800647 0.803603 0.754169
0.877726 0.884641 0.828029
0.647322 0.648387 0.628632
0.733800 0.739252 0.699028
0.807206 0.810853 0.759800
0.866940 0.873419 0.817947
0.913558 0.917716 0.862012
0.789448 0.791205 0.744529
0.846527 0.852365 0.797763
0.885704 0.892915 0.835503
0.915175 0.918981 0.863409
0.941252 0.939170 0.885603
