LUTs/SPK Cube Block1 S32/TheBrim_SPK_Type-A_Block1_S32.cube
TITLE "TheBrim® Industrial Imaging Burau"
# © Copyright 2022 - TheBrim® d.o.o. Croatia
LUT_3D_SIZE 5
DOMAIN_MIN 0.000000 0.000000 0.000000
DOMAIN_MAX 0.903226 0.903226 0.903226
0.004913 0.003448 0.003296
0.031784 0.009240 0.006919
0.286821 0.000000 0.000000
0.591879 0.000000 0.000000
0.670849 0.000000 0.000000
0.000614 0.039066 0.025068
0.023684 0.049950 0.023534
0.315679 0.094789 0.007420
0.674177 0.114495 0.000000
0.766413 0.162261 0.000000
0.000000 0.204860 0.158312
0.000000 0.209542 0.154559
0.274250 0.291594 0.127430
0.773980 0.410798 0.000000
0.887493 0.453342 0.000000
0.000000 0.453538 0.350218
0.000000 0.457891 0.345858
0.082693 0.618469 0.359695
0.840441 0.717343 0.163694
0.974538 0.735005 0.000000
0.000000 0.530995 0.369347
0.000000 0.604449 0.392168
0.483616 0.740467 0.391385
0.870136 0.814563 0.274526
0.989642 0.826184 0.010805
0.004299 0.008360 0.027260
0.012782 0.007825 0.021067
0.245612 0.001984 0.031820
0.586332 0.000000 0.059419
0.667210 0.000000 0.094038
0.000000 0.042351 0.055432
0.012462 0.051124 0.058078
0.326352 0.100921 0.074326
0.694459 0.121521 0.119741
0.782612 0.185537 0.168846
0.000000 0.204343 0.159760
0.000000 0.209420 0.156988
0.286091 0.295941 0.150449
0.787237 0.426307 0.142762
0.897203 0.485765 0.172090
0.000000 0.454410 0.351181
0.000000 0.456832 0.345419
0.085382 0.617023 0.358250
0.841341 0.714022 0.169818
0.974807 0.762847 0.168212
0.000000 0.548243 0.375345
0.000000 0.618147 0.395614
0.507697 0.745640 0.388096
0.876851 0.822406 0.314108
0.984991 0.852137 0.301979
0.000000 0.027969 0.143219
0.005270 0.033837 0.171763
0.178103 0.038426 0.184609
0.591812 0.000000 0.208365
0.666614 0.000000 0.215833
0.000000 0.068701 0.200317
0.000000 0.069725 0.216931
0.241059 0.087346 0.224328
0.671576 0.073419 0.278615
0.765008 0.127878 0.315290
0.000000 0.235387 0.304545
0.000000 0.241951 0.309826
0.311263 0.358415 0.363785
0.819380 0.495511 0.410927
0.905925 0.542480 0.434827
0.000000 0.473858 0.449407
0.000000 0.481060 0.453988
0.074258 0.651809 0.507410
0.857790 0.776340 0.468088
0.968323 0.810900 0.464867
0.000000 0.594258 0.487516
0.000000 0.657218 0.519070
0.551520 0.796208 0.560494
0.884519 0.863082 0.542509
0.975969 0.882065 0.510498
0.000000 0.080571 0.309983
0.002624 0.080141 0.321684
0.222491 0.085761 0.328837
0.562291 0.011184 0.319238
0.720423 0.022832 0.341438
0.000000 0.121881 0.357466
0.000000 0.131092 0.374351
0.264822 0.153581 0.391251
0.626611 0.133648 0.378109
0.771814 0.188692 0.401759
0.000000 0.287012 0.471109
0.000000 0.305935 0.485769
0.363919 0.431138 0.570005
0.792380 0.464014 0.561825
0.885465 0.500821 0.564656
0.000000 0.491956 0.551581
0.000000 0.502866 0.558501
0.246947 0.704839 0.651342
0.835546 0.776260 0.645972
0.954150 0.818713 0.655353
0.000000 0.650853 0.613690
0.000000 0.714484 0.640114
0.608739 0.830690 0.686115
0.864245 0.885144 0.699920
0.963741 0.899069 0.673357
0.000000 0.151582 0.391342
0.000000 0.163230 0.404290
0.193144 0.186645 0.425554
0.496380 0.184556 0.410398
0.702083 0.163439 0.395382
0.000000 0.182759 0.417207
0.000000 0.195985 0.432137
0.212441 0.227551 0.460291
0.532560 0.236879 0.449005
0.739785 0.243497 0.441512
0.000000 0.296577 0.495899
0.000000 0.319740 0.515582
0.306881 0.403591 0.566565
0.702560 0.480103 0.585553
0.864551 0.531156 0.589204
0.000000 0.510580 0.620237
0.000000 0.552425 0.645299
0.467971 0.760315 0.741355
0.854650 0.796588 0.733719
0.940536 0.806624 0.716874
0.000000 0.703004 0.706438
0.035985 0.761395 0.733498
0.665391 0.858327 0.772566
0.885712 0.904887 0.798196
0.954210 0.906269 0.780478
