LUTs/SPK Cube Block1 S32/TheBrim_SPK_Type-J_Block 1_S32.cube
TITLE "TheBrim® Industrial Imaging Burau"
# © Copyright 2022 - TheBrim® d.o.o. Croatia
LUT_3D_SIZE 5
DOMAIN_MIN 0.000000 0.000000 0.000000
DOMAIN_MAX 0.903226 0.903226 0.903226
0.0000000000 0.0000000000 0.0000000000
0.2344100788 0.0000000000 0.0000000000
0.5480297403 0.0000000000 0.0000305180
0.8616548163 0.0000000000 0.0000610361
1.0000000000 0.0000000000 0.0000915541
0.0000000000 0.2348137046 0.0253447431
0.2303127853 0.2347831865 0.0168341467
0.5475581873 0.2342948978 0.0083757263
0.8615258530 0.2343185247 0.0021992681
1.0000000000 0.2343490427 0.0001053365
0.0000000000 0.5488980279 0.0569427319
0.2169143797 0.5489049191 0.0492669517
0.5392720462 0.5485318114 0.0386447035
0.8592872068 0.5480533672 0.0288956652
0.9985607297 0.5479519685 0.0254796132
0.0000000000 0.8630488018 0.0706187533
0.2163079566 0.8630320661 0.0657151928
0.5088755824 0.8627436214 0.0657358663
0.8482642863 0.8623872494 0.0616838577
0.9914559322 0.8621539340 0.0566877586
0.0000000000 1.0000000000 0.0706187533
0.2162538117 1.0000000000 0.0657053483
0.5088047017 1.0000000000 0.0657053483
0.8361889854 1.0000000000 0.0657053483
0.9846494240 1.0000000000 0.0657053483
0.0075271278 0.0000000000 0.1813470763
0.1973099821 0.0000000000 0.1811610147
0.4897018830 0.0000000000 0.1902179825
0.8055291804 0.0000000000 0.2002151030
1.0000000000 0.0000000000 0.2105725333
0.0000000000 0.1950477091 0.1994501830
0.1949325281 0.1949325281 0.1949325281
0.5050549202 0.1850811066 0.1772832542
0.8199071169 0.1849058740 0.1710752934
1.0000000000 0.1930669896 0.1784468777
0.0000000000 0.4909984076 0.2408277281
0.1648732394 0.5005992858 0.2157911188
0.4884309542 0.4956858807 0.1976909654
0.8084658038 0.4945921534 0.1894363268
0.9993276186 0.5026351346 0.1929271972
0.0000000000 0.8096865255 0.2719167547
0.1674180504 0.8179628221 0.2409803183
0.4594737606 0.8130356347 0.2317343355
0.8019221445 0.8146412776 0.2255372037
0.9933500198 0.8221122916 0.2281105639
0.0000000000 1.0000000000 0.2823923193
0.1828749474 1.0000000000 0.2564066972
0.4745683789 1.0000000000 0.2470455334
0.8020009008 1.0000000000 0.2487791552
0.9852804584 1.0000000000 0.2568487166
0.0179091694 0.0000000000 0.3932230254
0.1661697640 0.0000000000 0.3655598954
0.4276995548 0.0000000000 0.3932456678
0.7393010876 0.0000000000 0.4315960199
1.0000000000 0.0000000000 0.4739649092
0.0139329637 0.1519946249 0.3664321207
0.1483147395 0.1343404288 0.4282321439
0.4501381926 0.1235744505 0.4139861241
0.7656233926 0.1273832992 0.4162100035
1.0000000000 0.1463921027 0.4339518159
0.0000000000 0.4233748526 0.4317998016
0.1061466786 0.4348772018 0.4425086816
0.4231001902 0.4231001902 0.4231001902
0.7433068269 0.4233246455 0.4146417698
1.0000000000 0.4389292104 0.4248731901
0.0000000000 0.7439004521 0.5062751497
0.1135143250 0.7576247117 0.4813837472
0.3906063492 0.7477624613 0.4606206484
0.7437675510 0.7520911013 0.4517418666
0.9968792839 0.7677301220 0.4660617203
0.0000000000 1.0000000000 0.5512744975
0.1483669155 1.0000000000 0.5168452218
0.4238680636 1.0000000000 0.4976843204
0.7572959044 1.0000000000 0.4988636951
0.9882131439 1.0000000000 0.5174290025
0.0295621399 0.0000000000 0.6304333808
0.1490727683 0.0000000000 0.5169584339
0.3804970011 0.0000000000 0.5535003458
0.6854456004 0.0000000000 0.6305357639
1.0000000000 0.0000000000 0.7239721695
0.0200542926 0.1151593460 0.4780011666
0.1059222233 0.0727569853 0.6608874352
0.3913299222 0.0563008685 0.6438199731
0.7072699395 0.0629124551 0.6505792275
1.0000000000 0.0931361474 0.6807881531
0.0175862688 0.3584098130 0.5639857550
0.0658490784 0.3598372699 0.6513766345
0.3452506294 0.3325994236 0.6308596490
0.6717646567 0.3403086752 0.6314198028
0.9992144065 0.3717009133 0.6545091640
0.0000000000 0.6788005424 0.6917342863
0.0534587526 0.6898431520 0.7027424400
0.3374596682 0.6727077627 0.6814211564
0.6784343259 0.6784343259 0.6784343259
1.0000000000 0.7091423691 0.7008385079
0.0000000000 1.0000000000 0.8056414081
0.1114036577 1.0000000000 0.7712239458
0.3790774198 1.0000000000 0.7514521913
0.7165749895 1.0000000000 0.7545847208
0.9938707955 1.0000000000 0.7864613098
0.0441901274 0.0000000000 0.9294117647
0.1581130004 0.0000000000 0.7140557742
0.3687908702 0.0000000000 0.7281373903
0.6701688583 0.0000000000 0.8390862307
1.0000000000 0.0000000000 0.9294117647
0.0255061934 0.0944159363 0.5983835281
0.0728731508 0.0285993448 0.9059109021
0.3449119776 0.0062187898 0.8812808718
0.6596686823 0.0151251363 0.8910958685
0.9987418690 0.0565715931 0.9281231157
0.0265280557 0.3129989639 0.6761444882
0.0365369896 0.2917003227 0.8675388920
0.2834289483 0.2547282048 0.8400391812
0.6049823168 0.2652027850 0.8472109215
0.9577935454 0.3124201055 0.8882045300
0.0211165174 0.6329565339 0.8600107798
0.0313695957 0.6290531777 0.9249905862
0.2944735268 0.5995934209 0.8962022263
0.6153899541 0.6036001447 0.9014247496
0.9772611040 0.6521130054 0.9404612655
0.0000000000 1.0000000000 1.0000000000
0.0840722884 1.0000000000 1.0000000000
0.3435524480 0.9986148746 0.9986946153
0.6933537115 0.9994506752 0.9994861155
1.0000000000 1.0000000000 1.0000000000
