LUTs/SPK Cube Block1 S32/TheBrim_SPK_Type-X_Block1_S32.cube
TITLE "TheBrim® SPK Block 1"
# © Copyright 2021 - TheBrim® d.o.o. Croatia
LUT_3D_SIZE 5
DOMAIN_MIN 0.000000 0.000000 0.000000
DOMAIN_MAX 0.903226 0.903226 0.903226
0.000000 0.000000 0.000000
0.072838 0.090674 0.084697
0.401126 0.407591 0.397936
0.795558 0.790995 0.718114
0.943453 0.920728 0.861587
0.005917 0.005543 0.005384
0.075452 0.094310 0.088448
0.404599 0.411071 0.400785
0.796694 0.792279 0.719321
0.943707 0.920972 0.861923
0.020175 0.019104 0.018555
0.083558 0.105241 0.099705
0.415568 0.421925 0.409695
0.800194 0.795972 0.722780
0.944486 0.921710 0.862891
0.032796 0.033439 0.032248
0.101168 0.125474 0.120689
0.436111 0.442082 0.426330
0.806630 0.801721 0.728255
0.945922 0.923038 0.864693
0.045706 0.049275 0.046635
0.125363 0.151392 0.147570
0.461053 0.466242 0.446446
0.813702 0.808108 0.734332
0.947242 0.924267 0.866359
0.000000 0.000000 0.000000
0.047356 0.051636 0.048710
0.395467 0.401976 0.393351
0.799604 0.795448 0.722276
0.944981 0.922161 0.863511
0.000000 0.000000 0.000000
0.069228 0.085430 0.079483
0.409196 0.415607 0.404520
0.801514 0.797164 0.723908
0.945275 0.922425 0.863877
0.026786 0.026437 0.025623
0.091952 0.115773 0.110567
0.430236 0.436321 0.421569
0.806131 0.801271 0.727812
0.946136 0.923242 0.864965
0.041352 0.043766 0.041709
0.117395 0.142721 0.138611
0.454967 0.460390 0.441549
0.813214 0.807611 0.733861
0.947650 0.924662 0.866878
0.056102 0.064285 0.059816
0.148026 0.176121 0.173091
0.486069 0.489887 0.466429
0.821618 0.814383 0.740404
0.949049 0.925972 0.868612
0.000000 0.000000 0.000000
0.015812 0.014815 0.014388
0.202763 0.229889 0.226823
0.771536 0.764431 0.693717
0.943117 0.920437 0.861187
0.000000 0.000000 0.000000
0.015812 0.014815 0.014388
0.275409 0.297490 0.293613
0.782313 0.775933 0.704170
0.944184 0.921412 0.862505
0.000000 0.000000 0.000000
0.051354 0.057407 0.053763
0.386547 0.393118 0.386070
0.800273 0.796030 0.722817
0.946631 0.923675 0.865578
0.039284 0.041256 0.039427
0.115747 0.140954 0.136745
0.459990 0.465212 0.445580
0.818136 0.811677 0.737768
0.949627 0.926513 0.869342
0.068037 0.083888 0.077778
0.176881 0.204821 0.202041
0.520078 0.520183 0.493017
0.834368 0.824484 0.750202
0.952923 0.929579 0.873460
0.000000 0.000000 0.000000
0.015812 0.014815 0.014388
0.029816 0.029916 0.028942
0.572869 0.567570 0.534841
0.924224 0.903236 0.839452
0.000000 0.000000 0.000000
0.015812 0.014815 0.014388
0.029816 0.029916 0.028942
0.625741 0.625173 0.580476
0.928179 0.906765 0.843466
0.000000 0.000000 0.000000
0.015812 0.014815 0.014388
0.088576 0.108690 0.103964
0.717463 0.712783 0.648371
0.936413 0.914227 0.852773
0.000000 0.000000 0.000000
0.016390 0.015349 0.014908
0.325223 0.340088 0.336301
0.787022 0.781238 0.709070
0.944938 0.922100 0.863434
0.046581 0.050505 0.047705
0.131174 0.157832 0.154224
0.479497 0.484014 0.461271
0.826348 0.818050 0.743965
0.952234 0.928944 0.872623
0.000000 0.000000 0.000000
0.015812 0.014815 0.014388
0.029816 0.029916 0.028942
0.242375 0.267462 0.263613
0.838381 0.827676 0.753328
0.000000 0.000000 0.000000
0.015812 0.014815 0.014388
0.029816 0.029916 0.028942
0.075210 0.092320 0.087178
0.858266 0.844606 0.769881
0.000000 0.000000 0.000000
0.015812 0.014815 0.014388
0.029816 0.029916 0.028942
0.238805 0.263316 0.259592
0.891081 0.874667 0.805419
0.000000 0.000000 0.000000
0.015812 0.014815 0.014388
0.029816 0.029916 0.028942
0.594231 0.591634 0.554013
0.920407 0.899857 0.835578
0.000000 0.000000 0.000000
0.015812 0.014815 0.014388
0.225154 0.251602 0.247891
0.757536 0.750301 0.681094
0.940157 0.917676 0.857433
