LUTs/SPK Cube Block1 S32/TheBrim_SPK_Type-L_Block 1_S32.cube
TITLE "TheBrim® Industrial Imaging Burau"
# © Copyright 2022 - TheBrim® d.o.o. Croatia
LUT_3D_SIZE 8
DOMAIN_MIN 0.000000 0.000000 0.000000
DOMAIN_MAX 0.903226 0.903226 0.903226
0.0073548486 0.0089417868 0.0091554131
0.0308557112 0.0170251306 0.0146082984
0.1032514022 0.0244045905 0.0146191274
0.2693896637 0.0000000000 0.0011262143
0.4143858121 0.0000000000 0.0000000000
0.5433398061 0.0000000000 0.0000000000
0.6164698991 0.0000000000 0.0000000000
0.6370813921 0.0000000000 0.0000000000
0.0064560429 0.0508095896 0.0379477108
0.0297511549 0.0497188156 0.0302335369
0.1174472149 0.0528060603 0.0197865214
0.2723873232 0.0424102363 0.0027220126
0.4215329410 0.0000000000 0.0000000000
0.5495251245 0.0000000000 0.0000000000
0.6225410209 0.0000000000 0.0000000000
0.6445789864 0.0000000000 0.0000000000
0.0000000000 0.1180437934 0.0793675874
0.0019334657 0.1150707453 0.0667114593
0.1038597942 0.1210926444 0.0474112577
0.2584130125 0.1239633094 0.0177742994
0.4342294317 0.1053679762 0.0000000000
0.5831875112 0.0537186482 0.0000000000
0.6679902638 0.0000000000 0.0000000000
0.6906444968 0.0000000000 0.0000000000
0.0000000000 0.2309280685 0.1792314867
0.0000000000 0.2199750441 0.1577241415
0.0000000000 0.2170827211 0.1213869959
0.2264104135 0.2312056842 0.0763571300
0.4447542190 0.2374490853 0.0148603184
0.6256194055 0.2250105213 0.0000000000
0.7351191311 0.1991341736 0.0000000000
0.7629191001 0.1635058341 0.0000000000
0.0000000000 0.3837545562 0.3021936075
0.0000000000 0.3669922745 0.2691632395
0.0000000000 0.3615767984 0.2306534061
0.1348602200 0.3902991999 0.1810044866
0.4496065880 0.4146260186 0.1045459580
0.6705163702 0.4112404846 0.0000000000
0.8028829707 0.3967709941 0.0000000000
0.8482603484 0.3689306625 0.0000000000
0.0000000000 0.4836598026 0.3782248835
0.0000000000 0.4822225012 0.3682858458
0.0000000000 0.4865826436 0.3405951511
0.0000000000 0.5381487853 0.3046015796
0.4090874859 0.5995461672 0.2279264712
0.6920059953 0.6194084914 0.0973259795
0.8616311894 0.6131798571 0.0000000000
0.9271957609 0.5934553563 0.0000000000
0.0000000000 0.5057199182 0.3774107409
0.0000000000 0.5136477184 0.3734404418
0.0000000000 0.5407713682 0.3665226904
0.0000000000 0.6031827366 0.3597801716
0.3115646158 0.6881518617 0.3282451879
0.6794542192 0.7461469739 0.2297920097
0.8830076024 0.7592569349 0.0005788584
0.9670828442 0.7515250408 0.0000000000
0.0000000000 0.5561504933 0.3655992735
0.0000000000 0.5684413894 0.3646984990
0.0000000000 0.6003701543 0.3604328640
0.0180154904 0.6517143019 0.3449612002
0.4567497791 0.7189425990 0.3105210956
0.7013986616 0.7684842131 0.2412224938
0.8807187492 0.7977500326 0.1080486418
0.9796759673 0.8084825395 0.0000000000
0.0074129313 0.0204805607 0.0419121031
0.0231277549 0.0198810289 0.0382706114
0.1031204700 0.0229948538 0.0324150848
0.2751900610 0.0000000000 0.0142223929
0.4182911372 0.0000000000 0.0005247135
0.5474282395 0.0000000000 0.0000000000
0.6180775109 0.0000000000 0.0000000000
0.6375775564 0.0000000000 0.0000000000
0.0000000000 0.0495317695 0.0636468570
0.0198908734 0.0442511635 0.0475087186
0.1251919068 0.0491517707 0.0341437843
0.2802855898 0.0322290232 0.0172210368
0.4251232412 0.0000000000 0.0000511916
0.5509220633 0.0000000000 0.0000000000
0.6191958495 0.0000000000 0.0000000000
0.6425638110 0.0000000000 0.0000000000
0.0000000000 0.1318468093 0.1105786861
0.0000000000 0.1189573658 0.0859496403
0.1006819798 0.1210572041 0.0617941164
0.2676727777 0.1209863235 0.0307119810
0.4386072943 0.0998894951 0.0000000000
0.5867522156 0.0389469306 0.0000000000
0.6664171078 0.0000000000 0.0000000000
0.6876015525 0.0000000000 0.0000000000
0.0000000000 0.2340448468 0.1921012411
0.0000000000 0.2203973745 0.1615782751
0.0000000000 0.2153274414 0.1222040919
0.2296394195 0.2288932041 0.0734480713
0.4477666453 0.2335280089 0.0122426578
0.6286603809 0.2192859270 0.0000000000
0.7352717213 0.1915903100 0.0000000000
0.7602512324 0.1552708846 0.0000000000
0.0000000000 0.3828872531 0.3025992021
0.0000000000 0.3663671468 0.2692479025
0.0000000000 0.3610629139 0.2302763606
0.1377141493 0.3885498269 0.1797325733
0.4510320759 0.4111755107 0.1021291258
0.6725069342 0.4069512228 0.0000000000
0.8032718296 0.3910001304 0.0000000000
0.8465444468 0.3634177256 0.0000000000
0.0000000000 0.4844040491 0.3769067009
0.0000000000 0.4823150397 0.3682454832
0.0000000000 0.4861376708 0.3395663977
0.0000000000 0.5378957809 0.3032745369
0.4135155556 0.5980596431 0.2251010910
0.6935358353 0.6169709857 0.0943076465
0.8620909290 0.6092006980 0.0000000000
0.9272676260 0.5906171782 0.0000000000
0.0000000000 0.5067644229 0.3767570641
0.0000000000 0.5144766279 0.3730732408
0.0000000000 0.5423602754 0.3663041418
0.0000000000 0.6049468765 0.3592987741
0.3160104057 0.6889768334 0.3277598525
0.6837661235 0.7464501854 0.2272787011
0.8850946429 0.7593553802 0.0000000000
0.9676469358 0.7507148360 0.0000000000
0.0000000000 0.5590122983 0.3655618643
0.0000000000 0.5714892559 0.3645222819
0.0000000000 0.6029238255 0.3599229173
0.0320065368 0.6538840364 0.3441687156
0.4611424085 0.7198778294 0.3097128597
0.7058680784 0.7692786667 0.2392466965
0.8823598323 0.7980197727 0.1049082367
0.9798059151 0.8083388094 0.0000000000
0.0000000000 0.0228875484 0.1201938388
0.0152373639 0.0144616149 0.1106751625
0.0963927180 0.0158300047 0.0980623503
0.2517108563 0.0048228354 0.0866535242
0.4253979036 0.0000000000 0.0693625913
0.5595084626 0.0000000000 0.0524565795
0.6279643726 0.0000000000 0.0354580291
0.6463067014 0.0000000000 0.0176984965
0.0000000000 0.0513096917 0.1396426928
0.0050079125 0.0416325185 0.1206427494
0.0968613176 0.0438061907 0.1071774009
0.2576490770 0.0340669970 0.0900459493
0.4327596433 0.0000000000 0.0644531240
0.5634551348 0.0000000000 0.0443072773
0.6286977901 0.0000000000 0.0277802799
0.6507839938 0.0000000000 0.0128165939
0.0000000000 0.1321766010 0.1779428377
0.0000000000 0.1219441963 0.1555583448
0.0792071215 0.1238097348 0.1358771600
0.2527366564 0.1242911323 0.1088913336
0.4400849583 0.1027345644 0.0813985140
0.5947883057 0.0347127981 0.0527046616
0.6743232501 0.0000000000 0.0285442155
0.6913513341 0.0000000000 0.0062621057
0.0000000000 0.2385388748 0.2357134946
0.0000000000 0.2286579198 0.2123780201
0.0000000000 0.2242682438 0.1805496693
0.2215186665 0.2375888776 0.1497579476
0.4484734825 0.2404241024 0.1094859432
0.6312002697 0.2199976865 0.0625265495
0.7378559105 0.1852868573 0.0204569339
0.7648702860 0.1518636926 0.0006221743
0.0000000000 0.3767009502 0.3125195352
0.0000000000 0.3724422065 0.2852944868
0.0000000000 0.3619292326 0.2390123967
0.1346633294 0.3880123155 0.1980118971
0.4500909388 0.4134771619 0.1468902359
0.6743015921 0.4080833438 0.0693507778
0.8041647285 0.3870258936 0.0002441444
0.8459724796 0.3578476904 0.0000000000
0.0000000000 0.4829952968 0.3803887113
0.0000000000 0.4835623417 0.3704329378
0.0000000000 0.4856552889 0.3392602328
0.0000000000 0.5357831447 0.3004668768
0.4174907769 0.5950501702 0.2214655060
0.6960225637 0.6112965985 0.0914802974
0.8607245082 0.6011665768 0.0000000000
0.9256403252 0.5870416448 0.0000000000
0.0000000000 0.5090168514 0.3752252552
0.0000000000 0.5179802962 0.3717402914
0.0000000000 0.5476940418 0.3660452307
0.0000000000 0.6099232865 0.3582109535
0.3292847703 0.6913867744 0.3263973695
0.6901414413 0.7461489428 0.2226183005
0.8867071769 0.7577871465 0.0000000000
0.9671783361 0.7518745216 0.0000000000
0.0000000000 0.5658128998 0.3647910375
0.0000000000 0.5784296498 0.3641698477
0.0000000000 0.6092774853 0.3583664971
0.0843124949 0.6595771282 0.3418887224
0.4712763680 0.7219894811 0.3078079431
0.7097261498 0.7699392346 0.2374786189
0.8821737707 0.8007624589 0.1339968547
0.9767107948 0.8201374789 0.0035046528
0.0000000000 0.0344282912 0.2029715715
0.0005069933 0.0328482441 0.2107979730
0.0847870013 0.0353497392 0.2058550344
0.2414735293 0.0275627158 0.2007880546
0.4348397926 0.0000000000 0.1881082997
0.5754438037 0.0000000000 0.1686043163
0.6397778090 0.0000000000 0.1434761529
0.6525097399 0.0000000000 0.1177356596
0.0000000000 0.0601057795 0.2213227603
0.0000000000 0.0488111499 0.2254052870
0.0806286717 0.0478119301 0.2234038940
0.2560660765 0.0329476739 0.2051905286
0.4448979491 0.0000000000 0.1807396688
0.5776243672 0.0000000000 0.1590531531
0.6419042275 0.0000000000 0.1368488151
0.6601550021 0.0000000000 0.1157756136
0.0000000000 0.1360041544 0.2731148340
0.0000000000 0.1284799799 0.2639889544
0.0446124578 0.1265573432 0.2460886451
0.2462934113 0.1307235484 0.2258748711
0.4544126876 0.1114853673 0.2039166464
0.6110691898 0.0400741293 0.1786703485
0.6826261269 0.0000000000 0.1524228620
0.7019607843 0.0000000000 0.1252234093
0.0000000000 0.2469214923 0.3200151606
0.0000000000 0.2418584504 0.3104216658
0.0000000000 0.2389149359 0.2857109104
0.2076122830 0.2530526658 0.2632082832
0.4560606620 0.2548473236 0.2290979703
0.6449845810 0.2324136081 0.2018424038
0.7454814837 0.1935208224 0.1721335804
0.7727124388 0.1598682802 0.1442558397
0.0000000000 0.3893236069 0.3924512142
0.0000000000 0.3884228324 0.3815592259
0.0000000000 0.3832879254 0.3541491003
0.0470794970 0.4101881044 0.3301816070
0.4424446922 0.4311461248 0.2847481154
0.6752850607 0.4242126222 0.2335910139
0.8071131653 0.3999822798 0.1910951302
0.8515228258 0.3724904447 0.1561234209
0.0000000000 0.4951552605 0.4565952200
0.0000000000 0.4980692415 0.4466286176
0.0000000000 0.4977522476 0.4166008314
0.0000000000 0.5501532055 0.3974847225
0.3898886830 0.6142785067 0.3604495997
0.6896285413 0.6317840504 0.2892815216
0.8588766899 0.6257247420 0.2195005378
0.9253892896 0.6071107042 0.1628245926
0.0000000000 0.5199088396 0.4395415402
0.0000000000 0.5286104199 0.4350662168
0.0000000000 0.5578614727 0.4320784018
0.0000000000 0.6184850745 0.4276572233
0.2893592934 0.7053975098 0.4133147272
0.6725010275 0.7630805504 0.3596482549
0.8784997920 0.7798556300 0.2779809853
0.9617677823 0.7756224820 0.2031940578
0.0000000000 0.5732986806 0.3851081791
0.0000000000 0.5852814428 0.3859882801
0.0000000000 0.6147559664 0.3883637652
0.0343416593 0.6690751310 0.3926057733
0.4512535779 0.7380862725 0.3990017646
0.6951719962 0.7911817620 0.3795115636
0.8721796036 0.8301345993 0.3668180263
0.9693195215 0.8453443986 0.2991250674
0.0000000000 0.0615017339 0.2958675123
0.0000000000 0.0593566107 0.3079083573
0.0998127078 0.0582806036 0.3198527258
0.2682782163 0.0483061255 0.3214800267
0.4534538304 0.0000000000 0.3091261257
0.5926215246 0.0000000000 0.2831306591
0.6467428141 0.0000000000 0.2459675574
0.6559730457 0.0000000000 0.2144758895
0.0000000000 0.0888183364 0.3252809998
0.0000000000 0.0742316959 0.3301884981
0.0897230488 0.0692385502 0.3418454064
0.2766362225 0.0540828959 0.3387995088
0.4689195874 0.0000000000 0.3148605645
0.5986926464 0.0000000000 0.2810475565
0.6541527920 0.0000000000 0.2501327781
0.6700487550 0.0000000000 0.2246128023
0.0000000000 0.1522555049 0.3800480905
0.0000000000 0.1438443383 0.3836511886
0.0165831112 0.1421235144 0.3786974210
0.2680576988 0.1435627847 0.3733291986
0.4887366268 0.1179522393 0.3520866712
0.6309246229 0.0359601001 0.3202524138
0.6976183620 0.0000000000 0.2905317769
0.7114883207 0.0000000000 0.2486442851
0.0000000000 0.2684081641 0.4243573368
0.0000000000 0.2630507707 0.4217800387
0.0000000000 0.2623419645 0.4096151527
0.2174518910 0.2752018744 0.4019413414
0.4723700953 0.2763871558 0.3827326939
0.6614909049 0.2498482712 0.3573840130
0.7527329647 0.2075955473 0.3240100710
0.7781111792 0.1682804313 0.2837577556
0.0000000000 0.4033717516 0.4752830918
0.0000000000 0.4030951203 0.4717154340
0.0000000000 0.4055385327 0.4589086846
0.0201300955 0.4329713007 0.4469977874
0.4490434808 0.4543575583 0.4250090447
0.6792031837 0.4469456114 0.3927042186
0.8070777250 0.4178471489 0.3592682561
0.8520140678 0.3825682903 0.3206255215
0.0000000000 0.5074121929 0.5218255697
0.0000000000 0.5106717169 0.5205635009
0.0000000000 0.5171681224 0.5061141916
0.0000000000 0.5712490494 0.5021872085
0.3719076485 0.6296605852 0.4781281610
0.6813679959 0.6492236357 0.4342530586
0.8550776856 0.6488111499 0.3965819791
0.9203104965 0.6227192069 0.3506926858
0.0000000000 0.5377323617 0.5201716886
0.0000000000 0.5470078781 0.5211561416
0.0000000000 0.5716930377 0.5250732802
0.0000000000 0.6383808701 0.5394394032
0.2331824659 0.7262147535 0.5363255783
0.6664486103 0.7832913710 0.4917588976
0.8705651006 0.8006581068 0.4380185914
0.9549041758 0.7957614375 0.3848354856
0.0000000000 0.5967099580 0.5012756050
0.0000000000 0.6104292954 0.5039183692
0.0000000000 0.6418806006 0.5085364383
0.0000000000 0.6980160810 0.5141389605
0.4462525565 0.7622378586 0.5154620653
0.6925090508 0.8141106574 0.5054856184
0.8678509637 0.8483016955 0.4832118764
0.9625514069 0.8625349173 0.4358035721
0.0000000000 0.0966575359 0.3816497956
0.0046781208 0.0893056407 0.3814440449
0.1315504889 0.0883448145 0.3849034129
0.2909294959 0.0756630906 0.3783203755
0.4533219137 0.0193435175 0.3580691923
0.5813741488 0.0000000000 0.3334588511
0.6585710172 0.0000000000 0.3141852298
0.6884245552 0.0000000000 0.2896802250
0.0000000000 0.1229591673 0.4037025278
0.0000000000 0.1170622937 0.4026353807
0.1219697921 0.1061200983 0.3995107268
0.2893307442 0.0996187706 0.3976688152
0.4649276304 0.0579074959 0.3778173200
0.5949438493 0.0000000000 0.3525533020
0.6700438328 0.0000000000 0.3275314594
0.6990527101 0.0000000000 0.3020026236
0.0000000000 0.1771700421 0.4422556772
0.0000000000 0.1688169582 0.4388967235
0.0469987719 0.1674377395 0.4459070135
0.2889153050 0.1609452718 0.4468491350
0.4910323713 0.1370890216 0.4250356249
0.6273067580 0.0818129687 0.3936955628
0.7012490248 0.0064265094 0.3624884019
0.7266262549 0.0000000000 0.3335809233
0.0000000000 0.2851202386 0.4966457224
0.0000000000 0.2849341770 0.5069450700
0.0000000000 0.2826591061 0.5091723950
0.2273928977 0.2993121134 0.5204158330
0.5046424344 0.2939497978 0.5137944019
0.6771643815 0.2583923390 0.4799297101
0.7588444490 0.2153225191 0.4359758514
0.7831909568 0.1794785845 0.3978420790
0.0000000000 0.4150828048 0.5389796637
0.0000000000 0.4202246030 0.5463276210
0.0000000000 0.4255898719 0.5473169963
0.0000000000 0.4536684411 0.5564320469
0.4526731591 0.4721426866 0.5546718449
0.6879530022 0.4640140580 0.5317331049
0.8120236170 0.4309098561 0.4917352707
0.8520002855 0.3933244240 0.4493703192
0.0000000000 0.5151342425 0.5785842089
0.0000000000 0.5207840184 0.5815858062
0.0000000000 0.5344649621 0.5781372672
0.0000000000 0.5929660831 0.5908475402
0.3726194080 0.6483179389 0.5938835934
0.6852142539 0.6713600465 0.5755816272
0.8515494060 0.6642572179 0.5382127748
0.9162191097 0.6390138734 0.4997762830
0.0000000000 0.5498746053 0.5814942520
0.0000000000 0.5595704831 0.5829197400
0.0000000000 0.5875673427 0.5903494070
0.0000000000 0.6564101428 0.6130902719
0.2456800971 0.7439349080 0.6274918352
0.6593910666 0.7997996638 0.6142410975
0.8622376125 0.8196501746 0.5837614473
0.9466524905 0.8162370760 0.5419684630
0.0000000000 0.6151605766 0.5745243246
0.0000000000 0.6286958212 0.5787653482
0.0000000000 0.6633899148 0.5890971827
0.0000000000 0.7197065346 0.6041386405
0.4388366719 0.7825756737 0.6150749292
0.6867372027 0.8328841766 0.6171531095
0.8635794220 0.8680202896 0.6091229262
0.9534954235 0.8810692144 0.5812235274
0.0000000000 0.1535825476 0.4307336390
0.0000000000 0.1537814071 0.4339754428
0.1184779372 0.1521609974 0.4370774543
0.2680842790 0.1479298183 0.4371266770
0.4138985078 0.1307678487 0.4222988455
0.5432758167 0.0914674995 0.3984987091
0.6398349072 0.0155258087 0.3721409638
0.6971212132 0.0000000000 0.3485327958
0.0000000000 0.1668283631 0.4398014358
0.0000000000 0.1669386218 0.4427114790
0.1094002958 0.1685265445 0.4480354009
0.2652096762 0.1649815292 0.4492384025
0.4175429529 0.1523618259 0.4375135670
0.5503057957 0.1168998590 0.4108732837
0.6489538956 0.0536211874 0.3827258028
0.7064912371 0.0032368815 0.3617028084
0.0000000000 0.2062360177 0.4677864820
0.0000000000 0.2058727545 0.4699473564
0.0547090080 0.2100635711 0.4762980628
0.2566715151 0.2109633611 0.4790712670
0.4291211050 0.1999128759 0.4696530049
0.5686146531 0.1771218039 0.4500653431
0.6739147021 0.1372022337 0.4163015577
0.7326058225 0.1093077572 0.3901416874
0.0000000000 0.2890600196 0.5215587829
0.0000000000 0.2878018887 0.5218541188
0.0000000000 0.2940925435 0.5293979824
0.2365601242 0.3038691465 0.5352712291
0.4566966186 0.2998368269 0.5275403195
0.6252581113 0.2850572336 0.5107563799
0.7312502307 0.2647371387 0.4815107416
0.7836260851 0.2446798928 0.4505959633
0.0000000000 0.4310338972 0.5920249460
0.0000000000 0.4329338915 0.5984199529
0.0000000000 0.4415685290 0.6107167556
0.0414021564 0.4733663617 0.6297186679
0.4793675874 0.4869016064 0.6229850092
0.6977630766 0.4725167788 0.5972592828
0.8082758044 0.4453537509 0.5651739898
0.8499565610 0.4214335113 0.5337384358
0.0000000000 0.5234597617 0.6178235220
0.0000000000 0.5341971909 0.6269838574
0.0000000000 0.5514418545 0.6371916509
0.0000000000 0.6114541110 0.6675206797
0.3808789689 0.6644078392 0.6797593997
0.6928142313 0.6850213011 0.6681694342
0.8526894026 0.6759978047 0.6430570220
0.9130068395 0.6485926013 0.6161607809
0.0000000000 0.5645971003 0.6301114647
0.0000000000 0.5737318399 0.6342205716
0.0000000000 0.6042134589 0.6489440511
0.0000000000 0.6731783312 0.6813857161
0.2771707804 0.7608537177 0.7058602027
0.6661394921 0.8126605581 0.7016615106
0.8625546064 0.8316457347 0.6788970188
0.9411159267 0.8306504527 0.6542374550
0.0000000000 0.6422989932 0.6442167076
0.0000000000 0.6563766714 0.6500584519
0.0000000000 0.6859870495 0.6613717861
0.0000000000 0.7441564099 0.6815767000
0.4414878039 0.7998400264 0.6943745893
0.6930711735 0.8492359414 0.7024874667
0.8616607230 0.8828756857 0.7050401534
0.9469261685 0.8936111460 0.6858315059
0.0000000000 0.1906727998 0.4586861982
0.0000000000 0.1913491190 0.4607220471
0.0861790179 0.1938998368 0.4649571640
0.2366802275 0.1940524270 0.4675984515
0.3752587266 0.1852967018 0.4619565512
0.5117053926 0.1631583222 0.4444884167
0.6101634930 0.1275201382 0.4164620235
0.6806562364 0.0722470386 0.3869451684
0.0000000000 0.2026821423 0.4676191250
0.0000000000 0.2034372177 0.4695644041
0.0729558448 0.2070540982 0.4743301412
0.2346168140 0.2073110404 0.4764841245
0.3767521418 0.1989481119 0.4706266290
0.5165105078 0.1789282752 0.4547690596
0.6180991689 0.1455494109 0.4273116803
0.6879431577 0.1006307883 0.3973409924
0.0000000000 0.2360639599 0.4896915463
0.0000000000 0.2357538572 0.4907399887
0.0404078589 0.2391315155 0.4946325160
0.2289168309 0.2406879358 0.4973279484
0.3806997984 0.2349505435 0.4912095728
0.5266612030 0.2218622406 0.4788399206
0.6353733661 0.1939657952 0.4546105627
0.7129197154 0.1806195655 0.4345503634
0.0000000000 0.2957375645 0.5278405777
0.0000000000 0.2969139859 0.5295899507
0.0000000000 0.3014365631 0.5346470859
0.2090121752 0.3071503284 0.5377087348
0.3895992538 0.3100003199 0.5352987938
0.5582139069 0.3127656485 0.5313088057
0.6883792704 0.3135473042 0.5216336014
0.7693475784 0.3032292520 0.4970897107
0.0000000000 0.4108988794 0.5933972736
0.0000000000 0.4160111440 0.5980419229
0.0000000000 0.4302857129 0.6084229801
0.2066987106 0.4557928908 0.6190058501
0.4546853811 0.4733309214 0.6175705176
0.6381012854 0.4822018276 0.6072632944
0.7659443243 0.4768030872 0.5902155214
0.8381037466 0.4747692073 0.5710285319
0.0000000000 0.5441687156 0.6554099385
0.0000000000 0.5493390628 0.6588417418
0.0000000000 0.5807559123 0.6770787341
0.0000000000 0.6286997591 0.6971970161
0.4485423942 0.6704011892 0.7076765186
0.7118693040 0.6869370467 0.6952822550
0.8371488271 0.6808895518 0.6703716556
0.8974022746 0.6746884821 0.6464494471
0.0000000000 0.5840636744 0.6734264134
0.0000000000 0.5936729204 0.6788852054
0.0000000000 0.6278157202 0.6979422471
0.0000000000 0.7020021313 0.7330212617
0.3543341775 0.7782332514 0.7550641494
0.6874991694 0.8237553437 0.7594607166
0.8670889970 0.8402577298 0.7483029260
0.9365677537 0.8392358676 0.7263702971
0.0000000000 0.6621918354 0.6907705068
0.0000000000 0.6772451067 0.6978369106
0.0000000000 0.7093382753 0.7119017910
0.0560075015 0.7632803944 0.7324443723
0.4642158709 0.8157871809 0.7499538538
0.7023663790 0.8624522233 0.7640984748
0.8656270843 0.8945650810 0.7736555448
0.9462173623 0.9038277995 0.7632164049
