LUTs/SPK Cube Block1 S32/TheBrim_SPK_Type-E_Block 1_S32.cube
TITLE "TheBrim® Industrial Imaging Burau"
# © Copyright 2022 - TheBrim® d.o.o. Croatia
LUT_3D_SIZE 5
DOMAIN_MIN 0.000000 0.000000 0.000000
DOMAIN_MAX 0.903226 0.903226 0.903226
0.0077821012 0.0134279393 0.0119020371
0.1114154712 0.0367122222 0.0204441360
0.3931816783 0.0000000000 0.0000000000
0.5827208805 0.0000000000 0.0000000000
0.6462190851 0.0000000000 0.0000000000
0.0187892704 0.1222031074 0.0504532176
0.1242507697 0.1215110369 0.0270517847
0.3616841038 0.1129000263 0.0000000000
0.5992882405 0.0516158566 0.0000000000
0.6954309074 0.0059096715 0.0000000000
0.0000000000 0.3577876387 0.1802927271
0.0635848365 0.3115695381 0.1140223028
0.3768584627 0.3293753399 0.0235422097
0.6723838776 0.3208834481 0.0000000000
0.8077569976 0.3004954260 0.0000000000
0.0000000000 0.5440889749 0.2900080479
0.0000000000 0.5762855111 0.2210815693
0.4458390862 0.6223913841 0.0928772362
0.7708400092 0.6331504712 0.0000000000
0.9255182530 0.6221846489 0.0000000000
0.2828865147 0.6397679644 0.1971288428
0.3678064172 0.6558135643 0.1753163171
0.5865228381 0.7042742489 0.0888370410
0.8200242668 0.7539989712 0.0000000000
0.9764272723 0.7817792512 0.0000000000
0.0000000000 0.0350494811 0.1526423950
0.1080712842 0.0319159671 0.1218802068
0.3995146647 0.0000000000 0.0873977707
0.5990815053 0.0000000000 0.0337283451
0.6560744443 0.0000000000 0.0000000000
0.0000000000 0.1425172956 0.1744076669
0.0987426074 0.1217748704 0.1247695765
0.3517391593 0.1106771314 0.0841500602
0.6067720524 0.0436791963 0.0236888932
0.7003945196 0.0010681315 0.0000000000
0.0000000000 0.3527895707 0.1910813478
0.0540553312 0.3120095886 0.1235498392
0.3761959258 0.3276791274 0.0752210712
0.6709012914 0.3160862086 0.0004341438
0.8093587027 0.2961904129 0.0000000000
0.0000000000 0.5413344753 0.2961973041
0.0000000000 0.5747113707 0.2213060246
0.4456825582 0.6206429955 0.0931440230
0.7704885594 0.6303979405 0.0000000000
0.9249679437 0.6268637542 0.0000000000
0.3031908584 0.6433169176 0.1917389624
0.3847852785 0.6593851599 0.1702207882
0.5968103722 0.7065000972 0.0827944684
0.8241422338 0.7622910191 0.0089723049
0.9712884275 0.8122283833 0.1224177182
0.0000000000 0.0654503750 0.3069534378
0.0790860338 0.0683732160 0.3282107320
0.3441381975 0.0618285723 0.3320392698
0.6176217092 0.0000000000 0.3056027683
0.6660814093 0.0000000000 0.2312598291
0.0000000000 0.1424621662 0.3626715102
0.0417644352 0.1317434417 0.3509240322
0.3553343818 0.1313417849 0.3332442403
0.6316265379 0.0710509282 0.3063115745
0.7249891095 0.0149902662 0.2497399813
0.0000000000 0.3796267446 0.4262553622
0.0000000000 0.3532591548 0.3743422008
0.3585358230 0.3638164290 0.3581509019
0.6785662426 0.3542219499 0.3327293714
0.8239128562 0.3309750761 0.2861283185
0.0000000000 0.5585978436 0.4694443009
0.0000000000 0.6054391030 0.4177713460
0.3930399171 0.6533987010 0.3944496538
0.7542962761 0.6765806009 0.3637179837
0.9189982206 0.6732954811 0.3268649847
0.2575299581 0.6772687335 0.3799260184
0.3482896359 0.6956455182 0.3836305151
0.5726154702 0.7487636501 0.3962935344
0.8055892321 0.8091027449 0.4246940197
0.9570699725 0.8500530374 0.4435817354
0.0000000000 0.1325162373 0.4664801128
0.0974982587 0.1275624697 0.4744236643
0.3319664203 0.1233243994 0.4795999183
0.5765591890 0.0789806973 0.4588230372
0.7176391832 0.0334684495 0.4329585028
0.0000000000 0.1909494311 0.5094096481
0.0341329553 0.1898832685 0.5123777740
0.3413945269 0.1882244651 0.5123925408
0.6060514327 0.1590236195 0.4957198444
0.7446092583 0.1335784621 0.4670510956
0.0000000000 0.4018862120 0.5880910717
0.0000000000 0.4019935174 0.6055621596
0.3530465129 0.4149567948 0.6146191274
0.6864182399 0.3976963799 0.5973449302
0.8296049636 0.3721015857 0.5681391623
0.0000000000 0.5802134786 0.6308635868
0.0000000000 0.6397472909 0.6485729123
0.3473396388 0.6898037739 0.6479999606
0.7384820227 0.7172020861 0.6437008543
0.9077311557 0.7122699764 0.6258645343
0.1179827573 0.7207530081 0.6119817778
0.2908468019 0.7394743513 0.6187085453
0.5471319192 0.7905290697 0.6382469845
0.7922252822 0.8488805539 0.6708057994
0.9415894486 0.8813300945 0.6863237325
0.0000000000 0.2220040018 0.5314712404
0.0600506501 0.2236746186 0.5342424757
0.2844134014 0.2246000044 0.5335444985
0.4905165179 0.2071141498 0.5196706020
0.6647592889 0.1764149666 0.4993086679
0.0000000000 0.2563889771 0.5544365606
0.0407632464 0.2581747749 0.5570040141
0.2897678414 0.2605945604 0.5557606499
0.5026169223 0.2508612733 0.5431478378
0.6831321357 0.2353079000 0.5270175749
0.0000000000 0.3926933896 0.6198780755
0.0000000000 0.3927721459 0.6234673912
0.3099707864 0.4035479687 0.6318952936
0.5802144631 0.4265024599 0.6358370435
0.7744490139 0.4444391940 0.6283985164
0.0000000000 0.6028509760 0.7023909903
0.0000000000 0.6551736698 0.7334209497
0.3492583377 0.7098757866 0.7557040439
0.7346465937 0.7354115137 0.7536632728
0.8858359360 0.7385706234 0.7429996776
0.0000000000 0.7483048949 0.7400512408
0.2491926255 0.7674505374 0.7479416318
0.5365234534 0.8167765562 0.7670902276
0.7902731119 0.8705247381 0.7935897341
0.9352899337 0.8954953891 0.8052033265
