LUTs/SPK Cube Block1 S32/TheBrim_SPK_Type-C_Block1_S32.cube
TITLE "TheBrim® SPK Block 1"
# TheBrim® d.o.o. Croatia
# Copyright: (C) Copyright 2020 TheBrim® d.o.o. Croatia
LUT_3D_SIZE 32
0.0000000000 0.0000000000 0.0000000000
0.0000000000 0.0000000000 0.0000000000
0.0000078710 0.0000000000 0.0000000000
0.0005023226 0.0000000000 0.0000000000
0.0014399677 0.0000000000 0.0000000000
0.0024435484 0.0000000000 0.0000000000
0.0040617419 0.0000000000 0.0000000000
0.0076346452 0.0000000000 0.0000000000
0.0130195806 0.0000000000 0.0000000000
0.0206259355 0.0000000000 0.0000000000
0.0329507419 0.0000000000 0.0000000000
0.0530186452 0.0000000000 0.0000000000
0.0798880968 0.0000000000 0.0000000000
0.1139745484 0.0000000000 0.0000000000
0.1542369032 0.0000000000 0.0000000000
0.2007061613 0.0000310000 0.0000310000
0.2511570323 0.0000610000 0.0000610000
0.3060384194 0.0000920000 0.0000920000
0.3652380968 0.0001094194 0.0001094194
0.4263828710 0.0001593871 0.0001593871
0.4868733548 0.0002833548 0.0002833548
0.5457791290 0.0004073226 0.0004073226
0.6025654194 0.0005312903 0.0005312903
0.6534148387 0.0006552581 0.0006552581
0.7006598387 0.0007792258 0.0007792258
0.7425150000 0.0009281935 0.0009281935
0.7799624839 0.0010581613 0.0010581613
0.8121875806 0.0011821290 0.0011821290
0.8395796452 0.0013370968 0.0013370968
0.8620035161 0.0014610645 0.0014610645
0.8806684516 0.0016150323 0.0016150323
0.8964230000 0.0017400000 0.0017400000
0.0000000000 0.0000000000 0.0000000000
0.0000000000 0.0000000000 0.0000000000
0.0000767419 0.0000000000 0.0000000000
0.0007232258 0.0000010000 0.0000000000
0.0017149032 0.0000019677 0.0000000000
0.0027249355 0.0000029677 0.0000000000
0.0049086774 0.0000039355 0.0000000000
0.0088631290 0.0000369032 0.0000000000
0.0148870000 0.0000698710 0.0000000000
0.0231664839 0.0001038065 0.0000000000
0.0378467419 0.0001367742 0.0000000000
0.0594644516 0.0001903871 0.0000000000
0.0886416452 0.0003143548 0.0000010000
0.1241565161 0.0004393226 0.0000319677
0.1664742581 0.0005632903 0.0000620000
0.2140828387 0.0006882258 0.0000769677
0.2657245161 0.0008121935 0.0001094516
0.3217929355 0.0009371613 0.0001593871
0.3818685484 0.0010911290 0.0002833548
0.4429999677 0.0012160968 0.0004073226
0.5030232581 0.0013584516 0.0005312903
0.5615659355 0.0014930645 0.0006552581
0.6167355161 0.0016390000 0.0007792581
0.6667143226 0.0017719677 0.0009261935
0.7124545484 0.0019189355 0.0010581613
0.7531769032 0.0020499032 0.0011831290
0.7891297742 0.0021758710 0.0013320968
0.8202668710 0.0023027742 0.0014620323
0.8460138065 0.0024297097 0.0016121613
0.8675649355 0.0025566129 0.0017409032
0.8851481290 0.0027416129 0.0018930000
0.9003521613 0.0029634516 0.0020179355
0.0000000000 0.0000767419 0.0000000000
0.0000010000 0.0001155806 0.0000000000
0.0001534839 0.0001534839 0.0000000000
0.0010010968 0.0002203871 0.0000000000
0.0019898387 0.0003443548 0.0000000000
0.0031893548 0.0004703226 0.0000000000
0.0057564194 0.0005904194 0.0000000000
0.0103651613 0.0007134194 0.0000000000
0.0168081613 0.0008442258 0.0000000000
0.0266121290 0.0009691290 0.0000000000
0.0429008065 0.0011027742 0.0000020000
0.0669135161 0.0012471290 0.0000329355
0.0975748710 0.0013830323 0.0000630000
0.1352321935 0.0015260000 0.0000759355
0.1787898065 0.0016615806 0.0001094839
0.2279163548 0.0018029355 0.0001593871
0.2803244839 0.0019269032 0.0002833548
0.3379624516 0.0020809355 0.0004073226
0.3985410000 0.0022088387 0.0005312903
0.4594646774 0.0023387419 0.0006552581
0.5191708710 0.0024685806 0.0007792903
0.5769939677 0.0026004194 0.0009058065
0.6309047742 0.0027793226 0.0010581613
0.6795781613 0.0030284194 0.0011821290
0.7242450645 0.0032572258 0.0013300968
0.7632862258 0.0034869032 0.0014610645
0.7982642903 0.0037214839 0.0016102581
0.8275923871 0.0041068387 0.0017398710
0.8524356452 0.0045204839 0.0018910645
0.8725350968 0.0049361290 0.0020179355
0.8896710645 0.0053518387 0.0021419032
0.9037313226 0.0057646774 0.0022658710
0.0000000000 0.0008462258 0.0000000000
0.0000029677 0.0010010968 0.0000000000
0.0003162903 0.0011270645 0.0000000000
0.0012800323 0.0012800323 0.0000000000
0.0022506774 0.0014070000 0.0000000000
0.0036882581 0.0015580645 0.0000000000
0.0068535484 0.0016820323 0.0000000000
0.0119275806 0.0018340000 0.0000000000
0.0190165484 0.0019579677 0.0000030000
0.0302399032 0.0021099355 0.0000339032
0.0488357742 0.0022428065 0.0000436774
0.0745286774 0.0023785806 0.0000749032
0.1072774839 0.0025113548 0.0001095161
0.1464440323 0.0026442258 0.0001593871
0.1918036452 0.0028296452 0.0002833548
0.2418063871 0.0030643871 0.0004073226
0.2956723548 0.0033000323 0.0005312903
0.3541938710 0.0035486774 0.0006552581
0.4152735484 0.0037983226 0.0007793226
0.4759444839 0.0041690323 0.0009067097
0.5351640000 0.0045902581 0.0010475161
0.5924052581 0.0050088710 0.0011821290
0.6444493548 0.0054304839 0.0013090968
0.6923031613 0.0058878065 0.0014610645
0.7352995484 0.0064611290 0.0015880323
0.7733665161 0.0070550968 0.0017398065
0.8066708387 0.0076403871 0.0018668710
0.8348781290 0.0082399677 0.0020179355
0.8582203871 0.0088930323 0.0021419032
0.8774673548 0.0096525484 0.0022658710
0.8937399032 0.0104140645 0.0023898387
0.9070745806 0.0112006774 0.0025168065
0.0000000000 0.0019898387 0.0000000000
0.0000398065 0.0021138387 0.0000000000
0.0005662258 0.0022497097 0.0000000000
0.0015319355 0.0023873871 0.0000000000
0.0025513226 0.0025513226 0.0000000000
0.0043562903 0.0026871935 0.0000000000
0.0080440323 0.0028656774 0.0000040000
0.0136341935 0.0031303226 0.0000348710
0.0214977419 0.0033707742 0.0000427419
0.0345578710 0.0036116129 0.0000738710
0.0551551935 0.0038590000 0.0001095484
0.0827835806 0.0042564516 0.0001555161
0.1173449355 0.0046789677 0.0002794839
0.1582305161 0.0051054839 0.0004034516
0.2051171935 0.0055274516 0.0005177419
0.2559732903 0.0059862903 0.0006291290
0.3112252258 0.0065763871 0.0007648387
0.3706713871 0.0071725161 0.0009037419
0.4319221290 0.0077684194 0.0010320323
0.4922258710 0.0083624839 0.0011821290
0.5510252903 0.0090489355 0.0013100968
0.6071217097 0.0098124839 0.0014510645
0.6578370323 0.0105809032 0.0015890323
0.7045354839 0.0113483226 0.0017320000
0.7460741613 0.0121167419 0.0018678387
0.7829145806 0.0130299355 0.0020121290
0.8148961290 0.0139621290 0.0021419032
0.8416790968 0.0149075161 0.0022658710
0.8638549355 0.0158571290 0.0023898387
0.8821172581 0.0168354839 0.0025178065
0.8977546774 0.0179535806 0.0026796452
0.9100630323 0.0191364194 0.0028964839
0.0000000000 0.0034059355 0.0000000000
0.0001038065 0.0036561935 0.0000000000
0.0008171613 0.0039317742 0.0000000000
0.0018088387 0.0043253226 0.0000000000
0.0028607097 0.0047596774 0.0000040000
0.0051911935 0.0051911935 0.0000098387
0.0093457419 0.0056244194 0.0000418065
0.0155423871 0.0060820645 0.0000728387
0.0242880000 0.0066954194 0.0001047419
0.0395436129 0.0072830645 0.0001506774
0.0619281935 0.0079012903 0.0002533548
0.0916216452 0.0084888387 0.0003773226
0.1277876452 0.0091789355 0.0005012903
0.1705285806 0.0099525161 0.0006252581
0.2186603871 0.0107265806 0.0007629355
0.2705874194 0.0115210645 0.0009036774
0.3271330000 0.0122943871 0.0010330000
0.3873487742 0.0131904839 0.0011821290
0.4484747097 0.0141503548 0.0013060968
0.5083832903 0.0151052258 0.0014490645
0.5667112903 0.0160393548 0.0015850323
0.6213992258 0.0170306129 0.0017300000
0.6709773548 0.0181913548 0.0018688065
0.7163624516 0.0193657742 0.0020101935
0.7565413226 0.0205660323 0.0021419032
0.7921104516 0.0217462581 0.0022658710
0.8226945806 0.0231570000 0.0023898387
0.8481428065 0.0248942903 0.0025139677
0.8691888710 0.0266470968 0.0026583548
0.8866349032 0.0283990645 0.0028954839
0.9014393548 0.0301576774 0.0031125806
0.9128804516 0.0323789677 0.0033305161
0.0000000000 0.0067896452 0.0000000000
0.0001593871 0.0074108710 0.0000000000
0.0010930968 0.0080071613 0.0000020000
0.0020819355 0.0086285161 0.0000089032
0.0033419677 0.0093108065 0.0000408065
0.0060820968 0.0101131935 0.0000718387
0.0108945806 0.0108945806 0.0001038065
0.0174827097 0.0116746129 0.0001526129
0.0278519032 0.0124579677 0.0002533548
0.0447229355 0.0133833548 0.0003773226
0.0694842581 0.0143492258 0.0005012903
0.1007238710 0.0152845484 0.0006252581
0.1389935484 0.0162499355 0.0007552258
0.1830433548 0.0172366774 0.0009036129
0.2325266129 0.0184274839 0.0010281613
0.2853895484 0.0196280000 0.0011666452
0.3433477419 0.0208441613 0.0013060968
0.4040487097 0.0220366774 0.0014360645
0.4649129032 0.0234641290 0.0015850323
0.5244818710 0.0252435806 0.0017150000
0.5820609355 0.0270286774 0.0018639677
0.6353888065 0.0288016774 0.0019879355
0.6837840000 0.0305806452 0.0021419032
0.7280065484 0.0328439677 0.0022658710
0.7666153871 0.0352987097 0.0023898387
0.8011109355 0.0377730000 0.0025140000
0.8300013548 0.0402336774 0.0026562258
0.8544260323 0.0427926129 0.0028734839
0.8741535806 0.0458110968 0.0031116129
0.8910322581 0.0489424194 0.0033295484
0.9048381935 0.0520727742 0.0035600645
0.9156591290 0.0551992581 0.0038608387
0.0000000000 0.0126136774 0.0000000000
0.0004083226 0.0135371613 0.0000079677
0.0013710968 0.0145094194 0.0000397742
0.0023475806 0.0154794516 0.0000709032
0.0038550323 0.0164467097 0.0001027742
0.0072520645 0.0174497419 0.0001526129
0.0124520000 0.0186535484 0.0002533548
0.0198953226 0.0198953226 0.0003773226
0.0314605484 0.0210982581 0.0005012903
0.0509483871 0.0223389032 0.0006252581
0.0770609032 0.0237986452 0.0007562258
0.1106607742 0.0255975161 0.0008841935
0.1502033871 0.0273968387 0.0010281613
0.1962291613 0.0291921613 0.0011589032
0.2464325161 0.0310390323 0.0013060968
0.3008501290 0.0333005161 0.0014370645
0.3596130000 0.0357931935 0.0015850323
0.4207018387 0.0382698387 0.0017160000
0.4813733871 0.0407577742 0.0018639677
0.5404269677 0.0433417742 0.0019879355
0.5973429677 0.0464065806 0.0021119032
0.6488182581 0.0495457742 0.0022561935
0.6964340000 0.0526987419 0.0023898387
0.7388490323 0.0558522258 0.0025140323
0.7766044194 0.0592197097 0.0026590968
0.8093626129 0.0629850000 0.0028687097
0.8372073226 0.0667816129 0.0030922581
0.8600789677 0.0705776774 0.0033285806
0.8790483226 0.0743705161 0.0035599677
0.8950356774 0.0785552581 0.0038618387
0.9081411290 0.0829871613 0.0042637419
0.9183194839 0.0873902903 0.0046674194
0.0000387419 0.0213260000 0.0000387419
0.0006572581 0.0225612903 0.0000699677
0.0016250323 0.0240880000 0.0001017419
0.0026182258 0.0259045806 0.0001516452
0.0046219677 0.0277402903 0.0002533548
0.0084286452 0.0295688387 0.0003773226
0.0142805484 0.0313985806 0.0005012903
0.0223070645 0.0337620968 0.0006252581
0.0362955161 0.0362955161 0.0007492258
0.0572467742 0.0387856452 0.0008811935
0.0857689677 0.0412736129 0.0010281613
0.1206724516 0.0438411935 0.0011598710
0.1623522581 0.0469910968 0.0012877097
0.2094636774 0.0501650000 0.0014380645
0.2608376452 0.0533328387 0.0015680323
0.3163948387 0.0564975161 0.0017170000
0.3762053226 0.0599011613 0.0018489677
0.4373433226 0.0637169355 0.0019879355
0.4975713226 0.0675274516 0.0021119032
0.5562677097 0.0713439677 0.0022358710
0.6117878065 0.0751500968 0.0023598387
0.6621920323 0.0793616774 0.0025140645
0.7084328065 0.0838160323 0.0026619677
0.7496207742 0.0882449032 0.0028617419
0.7859375806 0.0926672258 0.0030861935
0.8175305806 0.0971869677 0.0033026129
0.8437983871 0.1021308387 0.0035531290
0.8656919355 0.1071430323 0.0038364516
0.8835959355 0.1121611290 0.0042347419
0.8990248710 0.1172089355 0.0046376452
0.9109801613 0.1224215484 0.0050405484
0.9209548387 0.1280193871 0.0054669355
0.0001007097 0.0366769677 0.0001007097
0.0009054516 0.0392080323 0.0001506774
0.0019049032 0.0417390968 0.0002533548
0.0030253871 0.0444030323 0.0003773226
0.0054624194 0.0475481935 0.0005012903
0.0098562581 0.0507473871 0.0006252581
0.0161499355 0.0539485806 0.0007492258
0.0254920323 0.0571527742 0.0008801935
0.0411939355 0.0606196774 0.0010281613
0.0644194516 0.0644194516 0.0011521290
0.0945673871 0.0682769355 0.0012857742
0.1315299355 0.0721034194 0.0014300645
0.1746009355 0.0759504194 0.0015630323
0.2232121290 0.0801696129 0.0017090000
0.2754231935 0.0846437742 0.0018419677
0.3325382258 0.0890919032 0.0019879355
0.3928437742 0.0935481290 0.0021119032
0.4538572581 0.0980509677 0.0022358710
0.5137409032 0.1030461935 0.0023598387
0.5717823871 0.1081040645 0.0024838065
0.6261185161 0.1131492903 0.0026541935
0.6751678710 0.1182070968 0.0028607742
0.7202835484 0.1234454516 0.0030784194
0.7598492903 0.1290544516 0.0033036452
0.7951698710 0.1346787419 0.0035380645
0.8250435161 0.1403040323 0.0038393548
0.8502838387 0.1459310323 0.0042309032
0.8708275806 0.1519172903 0.0046346452
0.8881302258 0.1581035484 0.0050385484
0.9025393548 0.1642739677 0.0054598710
0.9138085161 0.1704217742 0.0059575484
0.9234804839 0.1766309355 0.0065373871
0.0002533548 0.0612331613 0.0002533548
0.0011841290 0.0650978710 0.0003773226
0.0021768387 0.0689626452 0.0005012903
0.0034920000 0.0728072903 0.0006252581
0.0064648387 0.0766720000 0.0007492258
0.0113942258 0.0809974839 0.0008731935
0.0182673548 0.0854750323 0.0010071613
0.0290202581 0.0899549032 0.0011521290
0.0467944839 0.0944407742 0.0012857742
0.0719801290 0.0989879677 0.0014300645
0.1040355161 0.1040355161 0.0015640323
0.1427279355 0.1091107419 0.0017090000
0.1874430968 0.1141966452 0.0018429677
0.2370891935 0.1192341290 0.0019879355
0.2905274516 0.1244940000 0.0021119032
0.3487459032 0.1301300323 0.0022358710
0.4095646774 0.1357817419 0.0023598387
0.4703400645 0.1414283548 0.0024838065
0.5297229677 0.1470781613 0.0026374516
0.5871394194 0.1530813548 0.0028510968
0.6398275484 0.1592852581 0.0030774194
0.6879544839 0.1654781613 0.0032946774
0.7315631935 0.1716820645 0.0035310000
0.7699759677 0.1779174516 0.0038195806
0.8038084516 0.1845238065 0.0042067419
0.8324181935 0.1912131290 0.0046091290
0.8562621935 0.1979029032 0.0050115484
0.8758100645 0.2045904516 0.0054341290
0.8923340968 0.2114067742 0.0059489032
0.9059278710 0.2184456774 0.0065170323
0.9165217742 0.2254649032 0.0070955806
0.9259918710 0.2324911935 0.0076540968
0.0004902903 0.0952511290 0.0004902903
0.0014430323 0.0998757742 0.0006152581
0.0024365806 0.1048740968 0.0007492258
0.0040636452 0.1099632581 0.0008731935
0.0076286452 0.1150657097 0.0010081613
0.0130024839 0.1201791613 0.0011521290
0.0206387097 0.1254938065 0.0012819032
0.0329669677 0.1311510645 0.0014107097
0.0530088387 0.1368387097 0.0015620323
0.0798978065 0.1425070645 0.0016890000
0.1140016452 0.1481913226 0.0018429677
0.1542376452 0.1542376452 0.0019679355
0.2006021613 0.1604189355 0.0021119032
0.2511270323 0.1666005161 0.0022358710
0.3060285806 0.1728846774 0.0023598387
0.3651193226 0.1791131935 0.0024838065
0.4262120645 0.1857297742 0.0026404194
0.4866695484 0.1924508065 0.0028420323
0.5456779032 0.1991566774 0.0030694194
0.6021612903 0.2058519032 0.0032937097
0.6532543548 0.2126702581 0.0035222903
0.7003882258 0.2197114516 0.0038245161
0.7424209032 0.2267620000 0.0042077419
0.7797269355 0.2338125484 0.0046100323
0.8120695161 0.2408615161 0.0050125484
0.8393879032 0.2480036774 0.0054310968
0.8619411935 0.2553403871 0.0059184516
0.8805543871 0.2626683871 0.0065033226
0.8963713226 0.2700137419 0.0070651935
0.9090538387 0.2774088065 0.0076521290
0.9191933871 0.2851533548 0.0082555806
0.9284096129 0.2929959355 0.0089577419
0.0007302258 0.1378187097 0.0007302258
0.0017219677 0.1435287097 0.0008731935
0.0027160645 0.1492207097 0.0009991613
0.0048938710 0.1553060323 0.0011521290
0.0088353226 0.1615302903 0.0012760968
0.0148802258 0.1677807097 0.0014116774
0.0231413226 0.1739974194 0.0015540323
0.0378760645 0.1802722903 0.0016900000
0.0594238065 0.1869524839 0.0018329677
0.0886610968 0.1936700323 0.0019689355
0.1241081290 0.2003941935 0.0021119032
0.1664410000 0.2071391290 0.0022358710
0.2139594516 0.2139594516 0.0023598387
0.2656892903 0.2210259355 0.0024838065
0.3216682903 0.2280784839 0.0026433871
0.3817308387 0.2350970323 0.0028274839
0.4428334516 0.2421298710 0.0030598065
0.5028570968 0.2493328387 0.0032879032
0.5614368387 0.2567176774 0.0035106774
0.6165386774 0.2640448065 0.0038058387
0.6665491935 0.2714145161 0.0041857419
0.7123188065 0.2788137419 0.0045896452
0.7530408065 0.2865918710 0.0049932258
0.7889800645 0.2944352903 0.0054200645
0.8200812581 0.3022902903 0.0059064194
0.8459048065 0.3101454516 0.0064762903
0.8674285484 0.3181150323 0.0070603226
0.8850864839 0.3263334516 0.0076235484
0.9002128710 0.3345458710 0.0082446129
0.9118979677 0.3427537419 0.0089267419
0.9218087097 0.3509740968 0.0096889355
0.9307160323 0.3593366774 0.0104457419
0.0009971613 0.1881434516 0.0009971613
0.0019889032 0.1948853548 0.0011341290
0.0031796452 0.2016050323 0.0012760968
0.0057305484 0.2083357419 0.0014126452
0.0103503226 0.2152465806 0.0015540323
0.0167692903 0.2222555161 0.0016910000
0.0266086452 0.2293060645 0.0018329677
0.0428200323 0.2363790323 0.0019639355
0.0668887097 0.2434220000 0.0021119032
0.0974537097 0.2506586452 0.0022358710
0.1352123548 0.2580419677 0.0023598387
0.1786628387 0.2654297742 0.0024838065
0.2278154516 0.2727984839 0.0026443871
0.2802017742 0.2802017742 0.0028264839
0.3379301290 0.2880317742 0.0030438387
0.3983782903 0.2959004516 0.0032768387
0.4592750645 0.3037870000 0.0035067097
0.5190164194 0.3116682581 0.0038039677
0.5768542903 0.3195990323 0.0041787419
0.6307570323 0.3278009032 0.0045816452
0.6793921935 0.3360415484 0.0049845484
0.7241015484 0.3442698065 0.0054122903
0.7631797742 0.3525190645 0.0058968065
0.7981154839 0.3608544194 0.0064462581
0.8274545161 0.3693082581 0.0070347742
0.8523039355 0.3777435484 0.0076060000
0.8724500968 0.3861970323 0.0082200323
0.8895540968 0.3946466774 0.0089141613
0.9036231613 0.4031556774 0.0096579677
0.9147113548 0.4116212258 0.0104153548
0.9243124194 0.4201480968 0.0111595806
0.9330038710 0.4286373871 0.0119551290
0.0012760968 0.2447945161 0.0012760968
0.0022408065 0.2519916774 0.0014010323
0.0036371613 0.2594005161 0.0015375806
0.0068445484 0.2668021290 0.0016813548
0.0118740000 0.2741924516 0.0018165161
0.0190225484 0.2816208710 0.0019569355
0.0301494516 0.2894916129 0.0020809032
0.0488191290 0.2973801935 0.0022358710
0.0744204194 0.3052427742 0.0023598387
0.1072745161 0.3131318710 0.0024838065
0.1463886774 0.3211578710 0.0026314516
0.1917810000 0.3293880968 0.0028254839
0.2416698710 0.3376391935 0.0030428710
0.2956239355 0.3458772903 0.0032603548
0.3541289355 0.3541289355 0.0035087419
0.4150884516 0.3624919355 0.0038088710
0.4757806129 0.3709489355 0.0041652258
0.5349742903 0.3793894839 0.0045546452
0.5922431613 0.3878213548 0.0049585484
0.6442509032 0.3962461613 0.0053900000
0.6921849355 0.4047466452 0.0058683548
0.7350845161 0.4132401935 0.0064362258
0.7733103871 0.4217284839 0.0070180968
0.8065007419 0.4302162258 0.0075929677
0.8348244516 0.4386838387 0.0081923871
0.8580900645 0.4470646129 0.0088961935
0.8774244194 0.4554217742 0.0096405484
0.8936537419 0.4638141290 0.0103848065
0.9070229032 0.4721924839 0.0111291613
0.9174030000 0.4805112258 0.0119285161
0.9267972581 0.4887655484 0.0128359032
0.9351743226 0.4970199032 0.0137496774
0.0015385484 0.3066871935 0.0015385484
0.0024946452 0.3145898065 0.0016794516
0.0043364839 0.3226407097 0.0018174839
0.0079936774 0.3308886129 0.0019569355
0.0136252581 0.3391337097 0.0020809032
0.0213652581 0.3473648710 0.0022048710
0.0345615806 0.3556220000 0.0023348387
0.0549939032 0.3640159677 0.0024838065
0.0827717742 0.3724343548 0.0026305161
0.1171980645 0.3808890323 0.0028157742
0.1582739032 0.3893837419 0.0030419032
0.2049905161 0.3977997097 0.0032593548
0.2559802581 0.4062990968 0.0034767742
0.3111230968 0.4147799677 0.0037953226
0.3706420000 0.4232613548 0.0041507097
0.4317582258 0.4317582258 0.0045526452
0.4920305161 0.4402080968 0.0049555484
0.5508621613 0.4485829677 0.0053729677
0.6068724839 0.4569723548 0.0058703226
0.6576972581 0.4653467419 0.0064151935
0.7042817097 0.4737214516 0.0069934194
0.7459677097 0.4820180000 0.0075627419
0.7827525484 0.4902263548 0.0081953226
0.8148056129 0.4984792258 0.0088657419
0.8415075161 0.5067165806 0.0096100323
0.8638091613 0.5149397742 0.0103543548
0.8820450000 0.5231086774 0.0111146452
0.8977050968 0.5312225806 0.0119174839
0.9099780645 0.5393214516 0.0128049032
0.9200647419 0.5473918710 0.0137346774
0.9291755484 0.5554447097 0.0146494516
0.9373602903 0.5633566774 0.0155652258
0.0018184516 0.3739758387 0.0018184516
0.0028540000 0.3824286774 0.0019569355
0.0051489677 0.3908955161 0.0020809032
0.0093386452 0.3993629355 0.0022048710
0.0154711613 0.4078447742 0.0023288387
0.0242482903 0.4163296452 0.0024528065
0.0394295806 0.4248402258 0.0026195806
0.0618679355 0.4333179355 0.0028017097
0.0914977742 0.4417418387 0.0030329355
0.1277377742 0.4501292258 0.0032583548
0.1704350968 0.4585011290 0.0034758065
0.2185509677 0.4668333548 0.0037733548
0.2704516774 0.4751802903 0.0041327419
0.3270350968 0.4834940323 0.0045362258
0.3872325484 0.4917245484 0.0049400323
0.4482895161 0.4999675484 0.0053579677
0.5082125484 0.5082125484 0.0058418065
0.5664653871 0.5164565484 0.0064016129
0.6212406129 0.5245694194 0.0069739677
0.6707824839 0.5326705484 0.0075508065
0.7162346452 0.5407615806 0.0081677419
0.7563460323 0.5488635806 0.0088352581
0.7920485161 0.5569267742 0.0095795484
0.8224891935 0.5648008387 0.0103238710
0.8480599677 0.5726366452 0.0110826774
0.8690625806 0.5804717097 0.0118902581
0.8865899032 0.5883417419 0.0127729032
0.9013197742 0.5960410000 0.0137036774
0.9128345806 0.6033815806 0.0146189355
0.9226250968 0.6107552581 0.0155332258
0.9314928710 0.6181285161 0.0165424516
0.9392847742 0.6254727742 0.0176262258
0.0020809032 0.4432896129 0.0020809032
0.0032987419 0.4516315161 0.0022048710
0.0060484839 0.4599945161 0.0023288387
0.0108317742 0.4683590645 0.0024528065
0.0174510968 0.4767240968 0.0026016452
0.0277020968 0.4850207419 0.0027920323
0.0446908710 0.4932618065 0.0030094194
0.0693356774 0.5014657419 0.0032505806
0.1006094839 0.5097085161 0.0034748387
0.1388223871 0.5179512581 0.0037603871
0.1829508065 0.5260893871 0.0041217419
0.2323975484 0.5341600323 0.0045246452
0.2852770645 0.5422422903 0.0049273871
0.3432097419 0.5503313548 0.0053424516
0.4039217419 0.5583603226 0.0058378065
0.4647303548 0.5661748710 0.0063851290
0.5242860968 0.5740327097 0.0069590323
0.5818770000 0.5818770000 0.0075318710
0.6352371613 0.5897217419 0.0081411935
0.6836214839 0.5973591613 0.0088163548
0.7277270323 0.6047103548 0.0095520968
0.7664923226 0.6120789355 0.0103239032
0.8008859032 0.6194223548 0.0110678710
0.8298892581 0.6267394839 0.0118624194
0.8542212903 0.6337173871 0.0127419032
0.8740862258 0.6405551613 0.0136639355
0.8909204839 0.6474597742 0.0145714516
0.9047686452 0.6543237419 0.0155022258
0.9156042258 0.6610926129 0.0165159032
0.9251346774 0.6676894516 0.0175928065
0.9337407742 0.6742524839 0.0186955161
0.9411147742 0.6807709677 0.0198116774
0.0023288387 0.5112944839 0.0023288387
0.0038118065 0.5194814194 0.0024528065
0.0072169032 0.5276272258 0.0025967742
0.0124089355 0.5357083871 0.0027910645
0.0197559355 0.5437595484 0.0030084194
0.0313881290 0.5518407097 0.0032385161
0.0508245161 0.5598732581 0.0034680645
0.0769910645 0.5677322903 0.0037477742
0.1105169032 0.5755802903 0.0041127419
0.1500941613 0.5833975806 0.0045166452
0.1961304839 0.5912295484 0.0049075484
0.2463001935 0.5988405484 0.0053220968
0.3007174516 0.6061615806 0.0058092258
0.3594711613 0.6134706129 0.0063672581
0.4206288710 0.6207656452 0.0069430968
0.4812047742 0.6280577419 0.0075163548
0.5402531290 0.6349921935 0.0081212581
0.5971346452 0.6418318387 0.0087873226
0.6486876452 0.6486876452 0.0095311290
0.6962408065 0.6555511613 0.0102933548
0.7386671613 0.6623749355 0.0110377419
0.7764252258 0.6689264839 0.0118350645
0.8092395484 0.6754743871 0.0127099032
0.8370707097 0.6820067742 0.0136406774
0.8599683871 0.6885572581 0.0145578710
0.8789447742 0.6949511613 0.0154702258
0.8949941935 0.7010628065 0.0164892581
0.9080210323 0.7071630000 0.0175691613
0.9182859355 0.7132457097 0.0186640000
0.9275975484 0.7193300000 0.0197516452
0.9359151613 0.7251100968 0.0208838065
0.9427726129 0.7307066452 0.0223144839
0.0025957742 0.5769945484 0.0025957742
0.0045994839 0.5848230645 0.0027890968
0.0083881613 0.5926467419 0.0030074194
0.0142240000 0.6002550968 0.0032249677
