LUTs/SPK Cube Block1 S32/TheBrim_SPK_Type-N_Block1_S32.cube
TITLE "TheBrim® SPK Block 1"
# TheBrim® d.o.o. Croatia
# Copyright: (C) Copyright 2020 TheBrim® d.o.o. Croatia
LUT_3D_SIZE 5
DOMAIN_MIN 0.000000 0.000000 0.000000
DOMAIN_MAX 0.903226 0.903226 0.903226
0.0000920000 0.0000310000 0.0002750000
0.0168957419 0.0011635484 0.0005824516
0.1900160645 0.0000000000 0.0000000000
0.4433858387 0.0000000000 0.0000000000
0.6013600323 0.0000000000 0.0000000000
0.0000000000 0.0153000000 0.0020760968
0.0423918065 0.0323723548 0.0018576774
0.2687420323 0.0579206129 0.0000000000
0.5286784516 0.0338320000 0.0000000000
0.6373735484 0.0218710323 0.0000000000
0.0000000000 0.1785133548 0.0173086452
0.0000000000 0.2418806774 0.0244062903
0.3739367742 0.3282671290 0.0000000000
0.6785940323 0.3541475806 0.0000000000
0.7715384516 0.3605701935 0.0000000000
0.0000000000 0.3434625806 0.0000590323
0.0000000000 0.4503136452 0.0000000000
0.2999068387 0.5950013226 0.0000000000
0.7912263226 0.6848085161 0.0000000000
0.8750828710 0.6656516129 0.0000000000
0.0000000000 0.3817591613 0.0000000000
0.0000000000 0.4984662258 0.0000000000
0.2632850000 0.6556397097 0.0000000000
0.7790684194 0.7707862903 0.0000000000
0.9136998387 0.7805611935 0.0000000000
0.0000000000 0.0006100000 0.0107881935
0.0222508387 0.0019344194 0.0277385484
0.2242915161 0.0000000000 0.0422835806
0.4911812581 0.0000000000 0.0381094839
0.6294426452 0.0000000000 0.0595711935
0.0000000000 0.0227009677 0.0212166774
0.0413249032 0.0433710968 0.0444768710
0.2984827097 0.0672647419 0.0523730000
0.5745613226 0.0267708065 0.0339306129
0.6661809355 0.0128262903 0.0545201290
0.0000000000 0.1853693548 0.0382562258
0.0000000000 0.2497077742 0.0611101290
0.3826531290 0.3445541613 0.0148778387
0.7276247742 0.3846151935 0.0000000000
0.8228609677 0.3895231613 0.0000000000
0.0000000000 0.3512870000 0.0258147742
0.0000000000 0.4592787097 0.0269097742
0.2910639032 0.6043120645 0.0000000000
0.7950881613 0.6969063226 0.0000000000
0.9128694194 0.7055202903 0.0000000000
0.0000000000 0.3894427097 0.0056902903
0.0000000000 0.5073249677 0.0000000000
0.2494838387 0.6647663548 0.0000000000
0.7798581613 0.7802260323 0.0000000000
0.9179766774 0.7926436774 0.0000000000
0.0000000000 0.0000000000 0.1128789032
0.0305529355 0.0000000000 0.1825096452
0.3160063226 0.0480029677 0.3178986452
0.5969870000 0.0000000000 0.3529437419
0.6739573226 0.0000000000 0.3654631290
0.0000000000 0.0342829355 0.1728951290
0.0194869677 0.0454947419 0.2567833871
0.3322556129 0.0993395161 0.3334548387
0.6238394516 0.0633752581 0.3678727097
0.7036004194 0.0175592581 0.3810987419
0.0000000000 0.2302370323 0.2200898387
0.0000000000 0.3005910000 0.3096724839
0.3832290323 0.3857920323 0.3859605484
0.7460523548 0.4248762903 0.4197800000
0.8418942903 0.4277649032 0.4357980645
0.0000000000 0.4049170645 0.2326332581
0.0000000000 0.5168999355 0.3128346129
0.2421738387 0.6660393548 0.3825635806
0.7933329677 0.7591720000 0.4010628387
0.9175127742 0.7745057097 0.4052388065
0.0000000000 0.4455399032 0.2221166774
0.0000000000 0.5678220323 0.2965077742
0.0549495484 0.7271422903 0.3559019032
0.7750460968 0.8387489355 0.3799923871
0.9162293548 0.8591022258 0.3733205484
0.0037369355 0.0000000000 0.2102766774
0.0495170645 0.0000000000 0.3070531290
0.3192701290 0.0000000000 0.5375974194
0.6474343548 0.0000000000 0.6098555484
0.7271865161 0.0000000000 0.6190197742
0.0000000000 0.0198787097 0.3289687419
0.0237798065 0.0002136129 0.4474656452
0.3344492258 0.0069640000 0.5696736774
0.6662785161 0.0885234194 0.6294410000
0.7480243548 0.0555143226 0.6385272258
0.0000000000 0.2559522258 0.4415894194
0.0000000000 0.3195889677 0.5813903871
0.3768279677 0.3944238387 0.6932620000
0.7586263871 0.4576738710 0.7264787097
0.8546329032 0.4625550645 0.7357130323
0.0000000000 0.4679896774 0.4851792258
0.0000000000 0.5840441613 0.6174737419
0.2438298387 0.7278797097 0.7332111290
0.7904070645 0.7970026774 0.7852036774
0.9056669032 0.8114161935 0.7962231613
0.0000000000 0.5311091613 0.5037045484
0.0000000000 0.6453876774 0.6199162258
0.0808135806 0.8023147097 0.7310691613
0.7819666452 0.8862984839 0.7857874839
0.9061840000 0.9039640968 0.7968678710
0.0062780968 0.0000000000 0.2360617742
0.0582863871 0.0000000000 0.3391961935
0.3272174194 0.0000000000 0.5912907742
0.6520270645 0.0000000000 0.6820282258
0.7353163871 0.0000000000 0.6886840000
0.0000000000 0.0074353548 0.3706691935
0.0361505161 0.0000000000 0.4980922581
0.3426516129 0.0000000000 0.6282131935
0.6699008710 0.0551453871 0.7039077097
0.7548494194 0.0417736452 0.7097495484
0.0000000000 0.2572357419 0.5043875484
0.0000000000 0.3173355484 0.6572096129
0.3846435806 0.3876540323 0.7750461613
0.7578722903 0.4549373226 0.8149866452
0.8559936129 0.4650446129 0.8182767419
0.0000000000 0.4756620968 0.5544375161
0.0000000000 0.5922899032 0.7013734194
0.2117359032 0.7386354194 0.8351499032
0.7902458387 0.8031969032 0.8878074839
0.9034240000 0.8189893871 0.8940871935
0.0000000000 0.5363487742 0.5740712258
0.0000000000 0.6583576129 0.7118087742
0.0331461290 0.8173545806 0.8377551613
0.7848730323 0.8972963871 0.8944467097
0.9053717419 0.9134582581 0.9051586452
