LUTs/SPK Cube Block1 S32/TheBrim_SPK_Type-Z_Block1_S32.cube
TITLE "TheBrim® Industrial Imaging Burau"
# © Copyright 2022 - TheBrim® d.o.o. Croatia
LUT_3D_SIZE 5
DOMAIN_MIN 0.000000 0.000000 0.000000
DOMAIN_MAX 0.903226 0.903226 0.903226
0.000000 0.000000 0.000000
0.000000 0.000000 0.000000
0.000000 0.000000 0.000000
0.010084 0.010084 0.010084
0.054878 0.054878 0.054878
0.000000 0.000000 0.000000
0.009598 0.009598 0.009598
0.052713 0.052713 0.052713
0.196487 0.196487 0.196487
0.376366 0.376366 0.376366
0.050392 0.050392 0.050392
0.191222 0.191222 0.191222
0.369032 0.369032 0.369032
0.556211 0.556211 0.556211
0.710257 0.710257 0.710257
0.364652 0.364652 0.364652
0.549162 0.549162 0.549162
0.706357 0.706357 0.706357
0.824845 0.824845 0.824845
0.916759 0.916759 0.916759
0.701714 0.701714 0.701714
0.819639 0.819639 0.819639
0.914356 0.914356 0.914356
0.972407 0.972407 0.972407
0.995685 0.995685 0.995685
0.000000 0.000000 0.000000
0.000000 0.000000 0.000000
0.002167 0.002167 0.002167
0.020207 0.020207 0.020207
0.091790 0.091790 0.091790
0.002167 0.002167 0.002167
0.018846 0.018846 0.018846
0.090088 0.090088 0.090088
0.264206 0.264206 0.264206
0.443029 0.443029 0.443029
0.084788 0.084788 0.084788
0.259443 0.259443 0.259443
0.435720 0.435720 0.435720
0.622652 0.622652 0.622652
0.754219 0.754219 0.754219
0.431026 0.431026 0.431026
0.617968 0.617968 0.617968
0.750907 0.750907 0.750907
0.861704 0.861704 0.861704
0.941957 0.941957 0.941957
0.746196 0.746196 0.746196
0.858516 0.858516 0.858516
0.940235 0.940235 0.940235
0.983719 0.983719 0.983719
0.999619 0.999619 0.999619
0.000000 0.000000 0.000000
0.000000 0.000000 0.000000
0.005282 0.005282 0.005282
0.036754 0.036754 0.036754
0.154320 0.154320 0.154320
0.004792 0.004792 0.004792
0.035847 0.035847 0.035847
0.148238 0.148238 0.148238
0.327382 0.327382 0.327382
0.510965 0.510965 0.510965
0.142347 0.142347 0.142347
0.322051 0.322051 0.322051
0.506050 0.506050 0.506050
0.676748 0.676748 0.676748
0.798417 0.798417 0.798417
0.498283 0.498283 0.498283
0.671529 0.671529 0.671529
0.795003 0.795003 0.795003
0.894718 0.894718 0.894718
0.963874 0.963874 0.963874
0.791920 0.791920 0.791920
0.893149 0.893149 0.893149
0.962120 0.962120 0.962120
0.991776 0.991776 0.991776
1.000000 1.000000 1.000000
0.000000 0.000000 0.000000
0.000000 0.000000 0.000000
0.012165 0.012165 0.012165
0.063045 0.063045 0.063045
0.222543 0.222543 0.222543
0.011724 0.011724 0.011724
0.060935 0.060935 0.060935
0.216319 0.216319 0.216319
0.393866 0.393866 0.393866
0.580237 0.580237 0.580237
0.208950 0.208950 0.208950
0.388499 0.388499 0.388499
0.573950 0.573950 0.573950
0.722558 0.722558 0.722558
0.838756 0.838756 0.838756
0.568849 0.568849 0.568849
0.718178 0.718178 0.718178
0.834518 0.834518 0.834518
0.924074 0.924074 0.924074
0.977909 0.977909 0.977909
0.832232 0.832232 0.832232
0.921899 0.921899 0.921899
0.976647 0.976647 0.976647
0.996057 0.996057 0.996057
1.000000 1.000000 1.000000
0.000000 0.000000 0.000000
0.002167 0.002167 0.002167
0.024667 0.024667 0.024667
0.107938 0.107938 0.107938
0.287748 0.287748 0.287748
0.023174 0.023174 0.023174
0.102391 0.102391 0.102391
0.281568 0.281568 0.281568
0.461602 0.461602 0.461602
0.645123 0.645123 0.645123
0.275600 0.275600 0.275600
0.455727 0.455727 0.455727
0.639744 0.639744 0.639744
0.767083 0.767083 0.767083
0.874701 0.874701 0.874701
0.634556 0.634556 0.634556
0.762669 0.762669 0.762669
0.871438 0.871438 0.871438
0.948073 0.948073 0.948073
0.986833 0.986833 0.986833
0.868264 0.868264 0.868264
0.945490 0.945490 0.945490
0.986338 0.986338 0.986338
0.999793 0.999793 0.999793
1.000000 1.000000 1.000000
