LUTs/SPK Cube Block1 S32/TheBrim_SPK_Type-E_Block 1_S32.cube
TITLE "TheBrim® Industrial Imaging Burau"
# © Copyright 2022 - TheBrim® d.o.o. Croatia
LUT_3D_SIZE 8
DOMAIN_MIN 0.000000 0.000000 0.000000
DOMAIN_MAX 0.903226 0.903226 0.903226
0.0077821012 0.0134279393 0.0119020371
0.0554325810 0.0277852022 0.0195955375
0.1423578142 0.0383158962 0.0182616036
0.3312595830 0.0000000000 0.0000000000
0.4554276587 0.0000000000 0.0000000000
0.5602566469 0.0000000000 0.0000000000
0.6332745123 0.0000000000 0.0000000000
0.6462190851 0.0000000000 0.0000000000
0.0175675642 0.0703775623 0.0370636720
0.0590002387 0.0687364792 0.0289950950
0.1511145239 0.0698154397 0.0172997930
0.3018431422 0.0574782744 0.0000000000
0.4411471831 0.0121442125 0.0000000000
0.5621704236 0.0000000000 0.0000000000
0.6389193659 0.0000000000 0.0000000000
0.6587895658 0.0000000000 0.0000000000
0.0130666450 0.1441869279 0.0541242429
0.0638161829 0.1452895153 0.0448585710
0.1503564951 0.1431837703 0.0260407514
0.2824947024 0.1405769387 0.0045107638
0.4378748613 0.1261438729 0.0000000000
0.5810955485 0.0999938472 0.0000000000
0.6756561995 0.0664446725 0.0000000000
0.7072797840 0.0506422325 0.0000000000
0.0000000000 0.2807020135 0.1287792536
0.0000000000 0.2441886507 0.1034571529
0.1319669125 0.2492871330 0.0773543809
0.2852580621 0.2510827753 0.0318244130
0.4522577200 0.2502597725 0.0000000000
0.6097578984 0.2423034232 0.0000000000
0.7223999980 0.2301739775 0.0000000000
0.7712337904 0.2150399811 0.0000000000
0.0000000000 0.4228678593 0.2110106149
0.0000000000 0.4230381697 0.1767221160
0.0712163163 0.4056753717 0.1394221753
0.3104866397 0.4163429047 0.0884225863
0.4910904540 0.4146821324 0.0000000000
0.6611404396 0.4122859738 0.0000000000
0.7850702776 0.4056389469 0.0000000000
0.8457568844 0.3942537477 0.0000000000
0.0000000000 0.5234597617 0.2788069414
0.0000000000 0.5388851562 0.2360127684
0.0046229914 0.5613533276 0.1969506568
0.3325029472 0.5809262226 0.1373282437
0.5426378911 0.5937753035 0.0111203814
0.7131126682 0.5925890376 0.0000000000
0.8483430425 0.5921814741 0.0000000000
0.9138721737 0.5847459004 0.0000000000
0.0000000000 0.5974502667 0.2428606236
0.0037724240 0.6087862433 0.2346926168
0.2331155231 0.6320715107 0.2087316061
0.3965051918 0.6617832874 0.1665714208
0.5893679073 0.7031952884 0.0845891262
0.7601813362 0.7223872001 0.0000000000
0.8868558293 0.7240843972 0.0000000000
0.9553422574 0.7176628101 0.0000000000
0.2828865147 0.6397679644 0.1971288428
0.3148044507 0.6455417814 0.1889204734
0.3898876985 0.6603932398 0.1685127622
0.5164440572 0.6882995297 0.1284278039
0.6508076207 0.7183893364 0.0405525735
0.7924546598 0.7478766579 0.0000000000
0.9027114297 0.7716502140 0.0000000000
0.9764272723 0.7817792512 0.0000000000
0.0074956253 0.0321886606 0.0699690143
0.0436506472 0.0333129059 0.0628396055
0.1446771855 0.0382715958 0.0538318603
0.3517411282 0.0000000000 0.0171422805
0.4666012005 0.0000000000 0.0000000000
0.5647565817 0.0000000000 0.0000000000
0.6349155955 0.0000000000 0.0000000000
0.6468511039 0.0000000000 0.0000000000
0.0000000000 0.0655222400 0.0749070307
0.0409335568 0.0620481053 0.0597779566
0.1543159651 0.0648862834 0.0458528686
0.3017525725 0.0503921815 0.0207857412
0.4440513195 0.0023242936 0.0000000000
0.5655539886 0.0000000000 0.0000000000
0.6365123783 0.0000000000 0.0000000000
0.6557092123 0.0000000000 0.0000000000
0.0000000000 0.1691083563 0.0884275086
0.0259787309 0.1432969824 0.0628386211
0.1454174942 0.1409303573 0.0472311028
0.2864531880 0.1358003726 0.0212572942
0.4404875996 0.1215415550 0.0000000000
0.5844515489 0.0918130425 0.0000000000
0.6758727791 0.0558834605 0.0000000000
0.7049515526 0.0397187418 0.0000000000
0.0000000000 0.2853968699 0.1467533970
0.0000000000 0.2492989464 0.1091738716
0.1252499895 0.2475023196 0.0779391460
0.2867180059 0.2486196738 0.0289911572
0.4546056404 0.2467314929 0.0000000000
0.6124877866 0.2375849398 0.0000000000
0.7242714432 0.2244621810 0.0000000000
0.7692776822 0.2092258015 0.0000000000
0.0000000000 0.4221472397 0.2120275548
0.0000000000 0.4224396223 0.1771040838
0.0732413362 0.4047362035 0.1395038849
0.3103468474 0.4141190253 0.0871762688
0.4912696245 0.4114363908 0.0000000000
0.6626574817 0.4089240667 0.0000000000
0.7858716224 0.4008702565 0.0000000000
0.8449122237 0.3900343820 0.0000000000
0.0000000000 0.5257732263 0.2747322903
0.0000000000 0.5394955170 0.2360610066
0.0057216410 0.5608158162 0.1961896746
0.3336183325 0.5797891794 0.1368310949
0.5438418772 0.5915474863 0.0090530300
0.7138273811 0.5902962465 0.0000000000
0.8487732485 0.5893836586 0.0000000000
0.9142334680 0.5831323819 0.0000000000
0.0000000000 0.5994703643 0.2414745137
0.0156213006 0.6099213176 0.2339158834
0.2394780430 0.6330195389 0.2074212991
0.4008072515 0.6627076888 0.1654658801
0.5909666590 0.7035142512 0.0836184555
0.7627586343 0.7223980291 0.0000000000
0.8886406427 0.7241857958 0.0000000000
0.9558699242 0.7174472149 0.0000000000
0.2904195493 0.6410575979 0.1950831494
0.3222666046 0.6469406892 0.1871031731
0.3958131213 0.6616257749 0.1666718350
0.5211866597 0.6893824280 0.1269068240
0.6528720186 0.7188185579 0.0384025281
0.7958086912 0.7485854641 0.0000000000
0.9029595119 0.7748418107 0.0000000000
0.9751455145 0.7932599424 0.0000000000
0.0000000000 0.0347147670 0.1906501574
0.0247954184 0.0233138166 0.1871327067
0.1382989144 0.0283010556 0.1522210491
0.3042412697 0.0123804812 0.1327347859
0.4658254516 0.0000000000 0.1069480233
0.5814883453 0.0000000000 0.0797593997
0.6496006812 0.0000000000 0.0452425077
0.6594048489 0.0000000000 0.0167603128
0.0000000000 0.0706443491 0.2001560358
0.0135431203 0.0584578051 0.1500414701
0.1238176104 0.0624605911 0.1362512521
0.2798100990 0.0553981251 0.1191660698
0.4498940482 0.0057551124 0.0929382723
0.5814381382 0.0000000000 0.0673907319
0.6498103697 0.0000000000 0.0340778259
0.6686567385 0.0000000000 0.0112188267
0.0000000000 0.1680983075 0.2073149782
0.0000000000 0.1385351831 0.1510525033
0.1209124895 0.1440412289 0.1479347406
0.2688068675 0.1415712363 0.1267424203
0.4328561197 0.1291336567 0.1023713012
0.5864135638 0.1005717211 0.0725157943
0.6851207309 0.0637118309 0.0362199957
0.7164706375 0.0363755393 0.0025201997
0.0000000000 0.2829948045 0.2061100077
0.0000000000 0.2678499792 0.1736594826
0.1067491638 0.2511546403 0.1491603846
0.2763773113 0.2542576363 0.1323488803
0.4491438950 0.2537457207 0.1048048691
0.6109274286 0.2438283409 0.0694157517
0.7303563474 0.2296807665 0.0290137996
0.7808312229 0.2186105922 0.0000000000
0.0000000000 0.4163606248 0.2316486881
0.0000000000 0.4243445389 0.1899452890
0.0556846009 0.4064629341 0.1553102627
0.3050180032 0.4153653428 0.1281600327
0.4894139305 0.4177191700 0.0893420654
0.6596145374 0.4130656606 0.0297993931
0.7841734409 0.4055021080 0.0000000000
0.8475062574 0.3943728665 0.0000000000
0.0000000000 0.5218265541 0.2845955252
0.0000000000 0.5372027260 0.2435871499
0.0050325239 0.5604259728 0.1971288428
0.3328809772 0.5767048881 0.1401772508
0.5436213597 0.5904596657 0.0390434070
0.7122542251 0.5929808499 0.0000000000
0.8439888068 0.5972642050 0.0000000000
0.9140326395 0.5934405895 0.0000000000
0.0000000000 0.6034780725 0.2398777309
0.0661828080 0.6144537393 0.2327778557
0.2565169560 0.6363942439 0.2078721786
0.4117445246 0.6667163815 0.1724466365
0.5938757177 0.7071084892 0.1112904456
0.7645326186 0.7275693609 0.0016853836
0.8857857289 0.7362689723 0.0000000000
0.9533713824 0.7347607902 0.0000000000
0.3084222417 0.6442797126 0.1904453912
0.3390062439 0.6499698511 0.1827804399
0.4110032315 0.6647592889 0.1622437653
0.5334194730 0.6923682740 0.1242665210
0.6563943916 0.7231974050 0.0774823598
0.7958362559 0.7601882274 0.0924046988
0.8988021668 0.7934302527 0.1401162147
0.9699485869 0.8173367100 0.1758124814
0.0000000000 0.0504286062 0.2653957378
0.0030803535 0.0495130649 0.2751506828
0.1079433054 0.0534242968 0.2694723578
0.2596347187 0.0525491181 0.2667385317
0.4428305978 0.0118400165 0.2616922255
0.5933234396 0.0000000000 0.2457411332
0.6623916794 0.0000000000 0.1950309734
0.6670373132 0.0000000000 0.1552315064
0.0000000000 0.0811504318 0.2690667631
0.0019442947 0.0687020233 0.2732615175
0.1015571586 0.0690052348 0.2752806306
0.2683520502 0.0609888338 0.2660700881
0.4524851286 0.0142155017 0.2499634522
0.5941671158 0.0000000000 0.2295114406
0.6645948853 0.0000000000 0.1825264510
0.6830957110 0.0000000000 0.1539566398
0.0000000000 0.1640285787 0.3211108568
0.0000000000 0.1488197639 0.2875774334
0.0914615928 0.1478106995 0.2746663320
0.2591149275 0.1512887721 0.2621637785
0.4392698312 0.1444832483 0.2473763096
0.5990844587 0.1179108922 0.2284590603
0.6964104382 0.0838911490 0.1998449486
0.7315465511 0.0595889416 0.1642746919
0.0000000000 0.2966078210 0.3438389238
0.0000000000 0.2778126438 0.3159424784
0.0460477903 0.2648513353 0.2867337571
0.2626796319 0.2735066463 0.2789851274
0.4497040488 0.2727929178 0.2578449831
0.6178313977 0.2638078151 0.2413514571
0.7376944602 0.2478035622 0.2178230298
0.7916818642 0.2373161842 0.1794332996
0.0000000000 0.4392284842 0.3739090415
0.0000000000 0.4397817468 0.3449474179
0.0000000000 0.4290659756 0.3180196743
0.2770880864 0.4348525905 0.2974967821
0.4778318407 0.4387490555 0.2754873658
0.6571553738 0.4359975093 0.2501859386
0.7841793477 0.4246093567 0.2275740370
0.8525437036 0.4150552401 0.1904719714
0.0000000000 0.5322932587 0.3948178393
0.0000000000 0.5547633990 0.3648855450
0.0000000000 0.5776036937 0.3408727668
0.2911303244 0.5996918662 0.3168462063
0.5214071772 0.6160337864 0.2893760291
0.7028723878 0.6219798827 0.2591159120
0.8376085667 0.6205986951 0.2338873343
0.9120568423 0.6172968397 0.2020973772
0.0000000000 0.6236632974 0.3594956647
0.0000000000 0.6355367853 0.3594336442
0.1767191626 0.6603784730 0.3580770679
0.3700352188 0.6921792591 0.3486971995
0.5684994721 0.7338984094 0.3367538154
0.7466086824 0.7548593832 0.3031475424
0.8746161248 0.7621531957 0.2680823101
0.9459417155 0.7617466166 0.2379826589
0.2876453606 0.6624389331 0.2962258532
0.3175185877 0.6688752870 0.2968726389
0.3895874403 0.6860224898 0.3018460955
0.5133932373 0.7171617235 0.3093673167
0.6422842264 0.7533679369 0.3249718816
0.7825205443 0.7894225445 0.3427934347
0.8917987680 0.8209654039 0.3663277687
0.9624194902 0.8399978342 0.3643185001
0.0000000000 0.0821732785 0.3574991940
0.0004607240 0.0825847799 0.3738923058
0.1099171337 0.0851020263 0.3907481105
0.2614894282 0.0827196499 0.4021628433
0.4345434722 0.0473758174 0.4027348105
0.5854911313 0.0000000000 0.3901584231
0.6691991721 0.0000000000 0.3496019118
0.6637561313 0.0000000000 0.2960397916
0.0000000000 0.1129984716 0.3837909809
0.0000000000 0.0991107928 0.3918054130
0.1010934812 0.0983163392 0.4118213119
0.2655522658 0.0904416995 0.4199410805
0.4481486130 0.0449668609 0.4120319849
0.5931531292 0.0000000000 0.3855561052
0.6770108068 0.0000000000 0.3441066950
0.6969321983 0.0000000000 0.3144559543
0.0000000000 0.1822862445 0.4353103611
0.0000000000 0.1721247204 0.4354422778
0.0656955038 0.1686978394 0.4269730284
0.2667720031 0.1699313590 0.4272004371
0.4576298801 0.1613036127 0.4174169429
0.6117681515 0.1354252960 0.3944713118
0.7091709183 0.1041531612 0.3692476564
0.7428342895 0.0797495552 0.3361188432
0.0000000000 0.3136664230 0.4691912965
0.0000000000 0.2968864212 0.4538456427
0.0000000000 0.2946782931 0.4429497166
0.2625802022 0.2990394200 0.4376307169
0.4601884735 0.2994962062 0.4247137088
0.6324190226 0.2894951479 0.4112975829
0.7456429340 0.2705020957 0.3916311648
0.7995958820 0.2599625416 0.3616043631
0.0000000000 0.4577736103 0.5005933791
0.0000000000 0.4612812164 0.4913424740
0.0000000000 0.4513215051 0.4671761211
0.2516685248 0.4611817866 0.4566926808
0.4735809725 0.4649896509 0.4426140181
0.6575481705 0.4641538503 0.4280490356
0.7840080528 0.4507702114 0.4121934352
0.8540469633 0.4380441872 0.3856555350
0.0000000000 0.5510027885 0.5185906570
0.0000000000 0.5785192350 0.5157455878
0.0000000000 0.5967700096 0.4929540236
0.2382730725 0.6199538784 0.4804268588
0.4975415747 0.6381741350 0.4649955577
0.6889089061 0.6459355626 0.4457317809
0.8309448042 0.6496617173 0.4355613966
0.9067762363 0.6423117910 0.4122150931
0.0000000000 0.6467890834 0.5021389703
0.0000000000 0.6585050589 0.5018377277
0.0011104630 0.6821496516 0.5040163222
0.3135827445 0.7170002732 0.5058897363
0.5441007883 0.7577684419 0.5014173662
0.7309726150 0.7780580187 0.4820393929
0.8618851783 0.7862585124 0.4611955690
0.9363462518 0.7852661838 0.4409571837
0.2312332489 0.6910747028 0.4525087555
0.2713231295 0.6980997595 0.4540878181
0.3602143154 0.7149732844 0.4583524686
0.4972905392 0.7455297219 0.4676260161
0.6302473192 0.7793791547 0.4824853501
0.7741428491 0.8153815863 0.5054290123
0.8834712798 0.8454349683 0.5309780295
0.9524686390 0.8604813483 0.5232549955
0.0000000000 0.1166724503 0.4472616209
0.0067454721 0.1083813869 0.4528946611
0.1233086482 0.1116162996 0.4650221379
0.2668054745 0.1061811344 0.4676348762
0.4187489079 0.0854495382 0.4612487294
0.5542790481 0.0455624549 0.4474348846
0.6584942299 0.0074621539 0.4347570985
0.7165946785 0.0000000000 0.4143769520
0.0000000000 0.1437685354 0.4707585457
0.0000000000 0.1368832709 0.4746599330
0.1175781471 0.1302825134 0.4778190428
0.2665022630 0.1332535926 0.4835958131
0.4290768046 0.1187870554 0.4778141205
0.5665984933 0.0916929393 0.4652721890
0.6693901560 0.0550387998 0.4483819284
0.7276264591 0.0254087326 0.4275282600
0.0000000000 0.2056453459 0.5158656911
0.0000000000 0.1953853764 0.5108065870
0.0613077966 0.1964938705 0.5163608709
0.2679346422 0.1927253844 0.5153911847
0.4466532289 0.1864347295 0.5111609901
0.6015633114 0.1654294553 0.4990536945
0.7024293840 0.1415623762 0.4806975834
0.7554303659 0.1327347859 0.4615932880
0.0000000000 0.3304533160 0.5588567547
0.0000000000 0.3256432785 0.5678704066
0.0000000000 0.3198980107 0.5669686476
0.2536472754 0.3266080425 0.5709645425
0.4673631672 0.3242305884 0.5681096287
0.6392708156 0.3099786620 0.5560107010
0.7495541658 0.2908920867 0.5401167069
0.8052407357 0.2822544959 0.5212673848
0.0000000000 0.4687935774 0.5938944223
0.0000000000 0.4753047497 0.5988285009
0.0000000000 0.4749277042 0.5900658845
0.2257744569 0.4876143504 0.5929168605
0.4713945023 0.4926153717 0.5904724636
0.6601490954 0.4899022192 0.5831963713
0.7865233303 0.4767381133 0.5727139155
0.8548256657 0.4634735933 0.5560933951
0.0000000000 0.5636589166 0.6127978893
0.0000000000 0.5929887256 0.6244449531
0.0000000000 0.6159343567 0.6145876249
0.1836684165 0.6400839738 0.6131906861
0.4820846777 0.6599935518 0.6112129200
0.6862380850 0.6723612352 0.6064412761
0.8245921288 0.6737089514 0.5993217119
0.9008931450 0.6657614621 0.5882712267
0.0000000000 0.6600604946 0.6132379398
0.0000000000 0.6749267198 0.6167179813
0.0000000000 0.7033528009 0.6231139726
0.2621076647 0.7377249783 0.6326631669
0.5215322027 0.7740926420 0.6349047665
0.7168496519 0.7961256851 0.6285018840
0.8495037126 0.8070895385 0.6206361043
0.9274960191 0.8104799947 0.6141967971
0.1291887861 0.7154458219 0.5864588486
0.2016100729 0.7219205694 0.5884474437
0.3248694984 0.7395166828 0.5944841097
0.4753037653 0.7691408432 0.6050797776
0.6185973021 0.8022164960 0.6180735731
0.7656007502 0.8365867045 0.6354885471
0.8786189109 0.8647322165 0.6553301979
0.9436243130 0.8772111430 0.6545810291
0.0000000000 0.1805112757 0.5035029300
0.0000000000 0.1808538653 0.5056549443
0.1225673550 0.1808400830 0.5081131235
0.2513269196 0.1793171342 0.5086841063
0.3799525986 0.1723836315 0.5047246362
0.5091034832 0.1561263742 0.4952212189
0.6176492738 0.1371254464 0.4800695024
0.7046394810 0.1184828594 0.4696352848
0.0000000000 0.1956423187 0.5131554919
0.0000000000 0.1964357878 0.5153409776
0.1148521967 0.1981536584 0.5178916954
0.2520918396 0.1971258894 0.5177784833
0.3819667895 0.1921691684 0.5140178727
0.5129211921 0.1779674491 0.5047758277
0.6267426664 0.1570665269 0.4902005085
0.7121656244 0.1439644416 0.4814349387
0.0000000000 0.2378842136 0.5402683127
0.0000000000 0.2388145217 0.5426467512
0.0791706968 0.2419224399 0.5461976732
0.2498187376 0.2445469916 0.5468011429
0.3904586813 0.2394258670 0.5399887280
0.5247001725 0.2296551707 0.5309583404
0.6482952965 0.2134185870 0.5187481695
0.7359165381 0.2083575140 0.5089065926
0.0000000000 0.3329597334 0.5873596232
0.0000000000 0.3319142443 0.5902854175
0.0000000000 0.3321003059 0.5957264894
0.2497704994 0.3350133024 0.6012965246
0.4215772414 0.3319103065 0.5949960253
0.5772483061 0.3301107264 0.5851455883
0.7016782463 0.3278848781 0.5743195584
0.7836999190 0.3268098554 0.5617943625
0.0000000000 0.4716150198 0.6387844958
0.0000000000 0.4836095955 0.6536704100
0.0000000000 0.4931361474 0.6644078392
0.2017055649 0.5077080211 0.6757172356
0.4669762771 0.5112530364 0.6764713266
0.6550880224 0.5054733127 0.6695634197
0.7744687030 0.4974569117 0.6563628891
0.8442792204 0.4915058932 0.6401912792
0.0000000000 0.5657361124 0.6590415858
0.0000000000 0.5942133851 0.6785012687
0.0000000000 0.6263331340 0.6915137688
0.1157736447 0.6540090619 0.7035920230
0.4672450328 0.6772214798 0.7126017371
0.6802624552 0.6910747028 0.7167856624
0.8203018825 0.6951641206 0.7167443154
0.8982134639 0.6883497368 0.7125790946
0.0000000000 0.6681723876 0.6903944457
0.0000000000 0.6833447776 0.6956947408
0.0000000000 0.7147015754 0.7078300933
0.1979813791 0.7509304312 0.7209991214
0.5101849049 0.7855536441 0.7281295146
0.7080407662 0.8089521236 0.7327121435
0.8452242953 0.8225218241 0.7335459752
0.9224211638 0.8285545522 0.7334051984
0.0465528147 0.7361508379 0.6867224359
0.1752296852 0.7431916459 0.6891806151
0.2951715040 0.7579879749 0.6951030845
0.4663521339 0.7883130659 0.7066772988
0.6096368107 0.8200951474 0.7208859093
0.7618558908 0.8537791921 0.7362542055
0.8744379389 0.8794064733 0.7500956150
0.9369507060 0.8884535966 0.7518873195
0.0000000000 0.2220040018 0.5314712404
0.0000000000 0.2229343099 0.5331969866
0.1007499071 0.2244316630 0.5347977072
0.2320158891 0.2266447134 0.5357949581
0.3422165452 0.2198096560 0.5293920756
0.4655566959 0.2108393200 0.5224881066
0.5721035546 0.1940366758 0.5112614043
0.6647592889 0.1764149666 0.4993086679
0.0000000000 0.2354575368 0.5403519912
0.0000000000 0.2361466540 0.5418267018
0.0927374439 0.2387712057 0.5441588710
0.2315000357 0.2405451901 0.5445516678
0.3444355023 0.2338282671 0.5377884755
0.4703519666 0.2253806757 0.5303529018
0.5773664405 0.2101127937 0.5193752661
0.6701048689 0.1941715459 0.5076543684
0.0000000000 0.2695156737 0.5615787673
0.0000000000 0.2694694044 0.5634620260
0.0753027808 0.2703947903 0.5650706222
0.2318554232 0.2729327102 0.5656258537
0.3484117081 0.2698868125 0.5598215187
0.4794384680 0.2650433036 0.5524036651
0.5922809038 0.2550255096 0.5420501726
0.6902940315 0.2565159715 0.5371584256
0.0000000000 0.3401570695 0.5956625000
0.0000000000 0.3391263472 0.5968792839
0.0202314941 0.3390771245 0.6002313465
0.2307183800 0.3400537019 0.6035007150
0.3616555547 0.3407930261 0.6024099410
0.5092747781 0.3464772579 0.5987674648
0.6446794006 0.3592485670 0.5972740496
0.7424129436 0.3640979826 0.5894023632
0.0000000000 0.4612132891 0.6495662254
0.0000000000 0.4634164950 0.6523935745
0.0000000000 0.4707359032 0.6587629856
0.2547429716 0.4836637404 0.6662133260
0.4437205433 0.4977069628 0.6714624296
0.5967089735 0.5085664641 0.6731990047
0.7246022194 0.5166315955 0.6709859543
0.8133624731 0.5254079943 0.6667508374
0.0000000000 0.5982575181 0.7047733666
0.0000000000 0.6137843113 0.7148049429
0.0000000000 0.6381829951 0.7283588922
0.1785039760 0.6591439689 0.7369492293
0.4894749666 0.6827747793 0.7424188503
0.6880691677 0.6949790435 0.7393168388
0.8021653044 0.6999800648 0.7344812056
0.8753603713 0.7026115078 0.7298621520
0.0000000000 0.6607240160 0.7252873988
0.0000000000 0.6833496999 0.7369049289
0.0000000000 0.7215317105 0.7546536325
0.1626168730 0.7601833052 0.7704678859
0.5014134284 0.7942463643 0.7811432945
0.7067895264 0.8198234383 0.7893408349
0.8434985492 0.8320414849 0.7888958621
0.9169033046 0.8377700170 0.7834666037
0.0000000000 0.7483048949 0.7400512408
0.1458565603 0.7553585009 0.7431030452
0.2906154554 0.7728138375 0.7500710037
0.4612241181 0.8012369652 0.7605967754
0.6075733971 0.8313878080 0.7744007757
0.7603280197 0.8639810788 0.7899561180
0.8736671121 0.8882901774 0.8035268030
0.9352899337 0.8954953891 0.8052033265
