LUTs/SPK Cube Block1 S32/TheBrim_SPK_Type-W_Block1_S32.cube
TITLE "TheBrim® Industrial Imaging Burau"
# © Copyright 2022 - TheBrim® d.o.o. Croatia
LUT_3D_SIZE 32
DOMAIN_MIN 0.000000 0.000000 0.000000
DOMAIN_MAX 1.000000 1.000000 1.000000
0.038086 0.065277 0.119720
0.038469 0.065154 0.119595
0.039547 0.065125 0.119440
0.041553 0.065134 0.119284
0.045534 0.065293 0.119098
0.052785 0.065536 0.118943
0.063056 0.065704 0.118745
0.077709 0.065649 0.118435
0.099906 0.065068 0.118187
0.129583 0.063993 0.118164
0.169668 0.063254 0.118164
0.225673 0.063171 0.118164
0.287515 0.063171 0.118164
0.344978 0.063171 0.118164
0.402543 0.063171 0.118164
0.451560 0.063171 0.118164
0.482846 0.063171 0.118164
0.506529 0.063171 0.118164
0.526302 0.063171 0.118164
0.542864 0.063171 0.118164
0.555758 0.063171 0.118164
0.564298 0.063171 0.118164
0.569670 0.063171 0.118164
0.573479 0.063171 0.118164
0.576736 0.063171 0.118164
0.579703 0.063171 0.118164
0.582425 0.063171 0.118164
0.584697 0.063171 0.118164
0.586875 0.063171 0.118164
0.588747 0.063171 0.118164
0.590306 0.063171 0.118164
0.592194 0.063171 0.118164
0.038177 0.066591 0.119845
0.038627 0.066216 0.119657
0.039774 0.066126 0.119472
0.041903 0.066163 0.119316
0.045831 0.066324 0.119160
0.052293 0.066518 0.119000
0.062225 0.066797 0.118782
0.076171 0.066949 0.118465
0.096425 0.066674 0.118209
0.124135 0.065819 0.118164
0.161672 0.064092 0.118164
0.215320 0.063257 0.118164
0.278141 0.063171 0.118164
0.336643 0.063171 0.118164
0.394447 0.063171 0.118164
0.447321 0.063171 0.118164
0.484101 0.063171 0.118164
0.509192 0.063171 0.118164
0.530586 0.063171 0.118164
0.548555 0.063171 0.118164
0.562658 0.063171 0.118164
0.572342 0.063171 0.118164
0.578130 0.063171 0.118164
0.582085 0.063171 0.118164
0.585322 0.063171 0.118164
0.588200 0.063171 0.118164
0.590789 0.063171 0.118164
0.593222 0.063171 0.118164
0.595350 0.063171 0.118164
0.596506 0.063171 0.118164
0.597469 0.063171 0.118164
0.598581 0.063171 0.118164
0.038175 0.068677 0.119969
0.038810 0.068047 0.119720
0.039963 0.067706 0.119566
0.042342 0.067810 0.119381
0.046445 0.068028 0.119226
0.052728 0.068281 0.119092
0.061640 0.068552 0.118869
0.075024 0.069002 0.118520
0.094194 0.069124 0.118209
0.120324 0.068549 0.118164
0.154692 0.067157 0.118164
0.204551 0.064683 0.118164
0.267888 0.063332 0.118164
0.328860 0.063171 0.118164
0.385658 0.063171 0.118164
0.441324 0.063171 0.118164
0.483809 0.063171 0.118164
0.511544 0.063171 0.118164
0.533686 0.063171 0.118164
0.552980 0.063171 0.118164
0.568771 0.063171 0.118164
0.579626 0.063171 0.118164
0.586901 0.063171 0.118164
0.591115 0.063171 0.118164
0.594660 0.063171 0.118164
0.597518 0.063171 0.118164
0.600000 0.063171 0.118164
0.602363 0.063171 0.118164
0.604221 0.063171 0.118164
0.605134 0.063171 0.118164
0.605943 0.063171 0.118164
0.606858 0.063171 0.118164
0.038028 0.072071 0.120053
0.038802 0.071072 0.119778
0.040252 0.070544 0.119625
0.042532 0.070327 0.119470
0.046932 0.070637 0.119312
0.053516 0.070957 0.119121
0.062037 0.071303 0.118875
0.073828 0.071778 0.118581
0.091996 0.072319 0.118209
0.117819 0.072216 0.118164
0.149550 0.071177 0.118164
0.194570 0.069243 0.118164
0.256983 0.066108 0.118164
0.320768 0.063546 0.118164
0.377394 0.063189 0.118164
0.434209 0.063171 0.118164
0.481238 0.063171 0.118164
0.512800 0.063171 0.118164
0.536942 0.063171 0.118164
0.557426 0.063171 0.118164
0.574906 0.063171 0.118164
0.587021 0.063171 0.118164
0.595801 0.063171 0.118164
0.600727 0.063171 0.118164
0.604223 0.063171 0.118164
0.607274 0.063171 0.118164
0.609917 0.063171 0.118164
0.612174 0.063171 0.118164
0.613609 0.063171 0.118164
0.614707 0.063171 0.118164
0.615505 0.063171 0.118164
0.616134 0.063171 0.118164
0.037443 0.077234 0.120022
0.038489 0.075958 0.119777
0.040326 0.075244 0.119621
0.043101 0.074923 0.119494
0.047088 0.074631 0.119338
0.054264 0.075077 0.119113
0.063266 0.075496 0.118884
0.074485 0.075910 0.118520
0.090510 0.076440 0.118209
0.115773 0.076743 0.118164
0.147249 0.076214 0.118164
0.188181 0.074825 0.118164
0.246298 0.072328 0.118164
0.312284 0.068581 0.118164
0.371477 0.064797 0.118164
0.427384 0.063415 0.118164
0.477368 0.063187 0.118164
0.514145 0.063171 0.118164
0.539654 0.063171 0.118164
0.561903 0.063171 0.118164
0.580686 0.063171 0.118164
0.594406 0.063171 0.118164
0.604238 0.063171 0.118164
0.610915 0.063171 0.118164
0.614636 0.063171 0.118164
0.617633 0.063171 0.118164
0.620551 0.063171 0.118164
0.622698 0.063171 0.118164
0.623870 0.063171 0.118164
0.624893 0.063171 0.118164
0.625880 0.063171 0.118164
0.626135 0.063171 0.118164
0.036495 0.084141 0.119884
0.037482 0.083269 0.119702
0.039840 0.082404 0.119542
0.043260 0.081909 0.119382
0.048034 0.081461 0.119223
0.054820 0.081014 0.119010
0.064307 0.081653 0.118723
0.075943 0.082236 0.118352
0.091237 0.082664 0.118209
0.114114 0.082959 0.118164
0.146590 0.083028 0.118164
0.186986 0.082505 0.118164
0.240284 0.080893 0.118164
0.305775 0.078047 0.118164
0.368849 0.074046 0.118164
0.424531 0.069233 0.118164
0.476868 0.064675 0.118164
0.517333 0.063507 0.118164
0.544711 0.063240 0.118164
0.567498 0.063181 0.118164
0.587407 0.063171 0.118164
0.602845 0.063171 0.118164
0.613349 0.063171 0.118164
0.621270 0.063171 0.118164
0.625862 0.063171 0.118164
0.628917 0.063171 0.118164
0.631798 0.063171 0.118164
0.633713 0.063171 0.118164
0.634792 0.063171 0.118164
0.635813 0.063171 0.118164
0.636595 0.063171 0.118164
0.636857 0.063171 0.118164
0.036157 0.092650 0.119637
0.036366 0.091644 0.119419
0.038692 0.091261 0.119206
0.042846 0.090769 0.119051
0.048712 0.090215 0.118847
0.056495 0.089518 0.118692
0.065255 0.089063 0.118440
0.077491 0.089877 0.118212
0.093542 0.090466 0.118187
0.115906 0.090834 0.118164
0.147430 0.091251 0.118164
0.188302 0.091386 0.118164
0.241005 0.090612 0.118164
0.304635 0.088756 0.118164
0.368636 0.085982 0.118164
0.425764 0.082227 0.118164
0.478675 0.076835 0.118164
0.521556 0.070761 0.118164
0.551677 0.066175 0.118164
0.574635 0.064244 0.118164
0.595180 0.063618 0.118164
0.612005 0.063325 0.118164
0.623252 0.063224 0.118164
0.631479 0.063183 0.118164
0.637555 0.063171 0.118164
0.640868 0.063171 0.118164
0.643534 0.063171 0.118164
0.645120 0.063171 0.118164
0.646288 0.063171 0.118164
0.647207 0.063171 0.118164
0.647648 0.063171 0.118164
0.647918 0.063171 0.118164
0.036133 0.103400 0.119034
0.036136 0.102284 0.118850
0.037153 0.101942 0.118633
0.041736 0.102105 0.118486
0.048657 0.101632 0.118319
0.058149 0.100535 0.118211
0.067727 0.099901 0.118211
0.078931 0.099173 0.118188
0.095630 0.099928 0.118164
0.119089 0.100801 0.118164
0.151266 0.101539 0.118164
0.190704 0.101686 0.118164
0.243569 0.101591 0.118164
0.307599 0.100643 0.118164
0.371334 0.098584 0.118164
0.429016 0.095762 0.118164
0.481377 0.091883 0.118164
0.526298 0.086785 0.118164
0.559587 0.081170 0.118164
0.582915 0.076439 0.118164
0.603825 0.071727 0.118164
0.621675 0.067285 0.118164
0.634007 0.065328 0.118164
0.642769 0.064368 0.118164
0.649636 0.063957 0.118164
0.653896 0.063757 0.118164
0.656261 0.063667 0.118164
0.657665 0.063529 0.118164
0.658735 0.063405 0.118164
0.659553 0.063350 0.118164
0.659789 0.063316 0.118164
0.659975 0.063295 0.118164
0.036133 0.118885 0.118316
0.036133 0.115647 0.118232
0.036226 0.115069 0.118209
0.039876 0.115635 0.118209
0.047367 0.115902 0.118187
0.058188 0.114849 0.118164
0.069859 0.114150 0.118164
0.082477 0.113386 0.118164
0.097878 0.112715 0.118164
0.122719 0.113958 0.118164
0.157278 0.115211 0.118164
0.197868 0.115403 0.118164
0.248504 0.115106 0.118164
0.312613 0.114781 0.118164
0.378686 0.113468 0.118164
0.436861 0.110965 0.118164
0.487394 0.107677 0.118164
0.533257 0.103761 0.118164
0.568688 0.099145 0.118164
0.592954 0.094507 0.118164
0.613847 0.089957 0.118164
0.632246 0.085299 0.118164
0.646112 0.080752 0.118164
0.655066 0.076869 0.118164
0.662182 0.073979 0.118164
0.667680 0.071538 0.118164
0.669932 0.070507 0.118164
0.670892 0.069057 0.118164
0.671852 0.067505 0.118164
0.672294 0.066736 0.118164
0.672534 0.066301 0.118164
0.672783 0.065890 0.118164
0.036133 0.144301 0.118164
0.036133 0.137294 0.118164
0.036133 0.133651 0.118164
0.036677 0.134178 0.118164
0.045180 0.134732 0.118164
0.057385 0.133012 0.118164
0.070800 0.132361 0.118164
0.085528 0.131725 0.118164
0.103130 0.131219 0.118164
0.126996 0.131468 0.118164
0.164472 0.133608 0.118164
0.208714 0.134417 0.118164
0.260446 0.134142 0.118164
0.322194 0.133642 0.118164
0.390574 0.132954 0.118164
0.450513 0.130710 0.118164
0.499900 0.127149 0.118164
0.544488 0.123308 0.118164
0.580515 0.119181 0.118164
0.605839 0.114760 0.118164
0.626323 0.110208 0.118164
0.644935 0.106082 0.118164
0.659825 0.102146 0.118164
0.669136 0.098223 0.118164
0.675989 0.094497 0.118164
0.682031 0.091523 0.118164
0.685048 0.089894 0.118164
0.685832 0.087971 0.118164
0.686182 0.085525 0.118164
0.686082 0.083636 0.118164
0.686213 0.082087 0.118164
0.686434 0.080798 0.118164
0.036133 0.176328 0.118164
0.036133 0.168145 0.118164
0.036133 0.161313 0.118164
0.036210 0.158552 0.118164
0.041618 0.159272 0.118164
0.056166 0.157173 0.118164
0.071464 0.155972 0.118164
0.088028 0.154894 0.118164
0.108166 0.154310 0.118164
0.135087 0.154738 0.118164
0.171692 0.156227 0.118164
0.220081 0.158084 0.118164
0.275210 0.158720 0.118164
0.337880 0.158784 0.118164
0.405746 0.158458 0.118164
0.467137 0.156803 0.118164
0.516086 0.153292 0.118164
0.559133 0.149064 0.118164
0.594662 0.144667 0.118164
0.620845 0.140044 0.118164
0.641153 0.135141 0.118164
0.659464 0.130370 0.118164
0.674930 0.126139 0.118164
0.684708 0.122033 0.118164
0.691581 0.117819 0.118164
0.697427 0.113975 0.118164
0.701307 0.111543 0.118164
0.702166 0.109474 0.118164
0.702326 0.106544 0.118164
0.701791 0.103707 0.118164
0.701282 0.101342 0.118164
0.701219 0.099601 0.118164
0.036133 0.216108 0.118164
0.036133 0.207346 0.118164
0.036133 0.198764 0.118164
0.036142 0.191589 0.118164
0.037846 0.189146 0.118164
0.053865 0.187749 0.118164
0.072209 0.187387 0.118164
0.090236 0.186615 0.118164
0.112680 0.186128 0.118164
0.143312 0.186902 0.118164
0.184615 0.188958 0.118164
0.231088 0.189230 0.118164
0.289230 0.190316 0.118164
0.354019 0.191170 0.118164
0.422748 0.191676 0.118164
0.482798 0.190286 0.118164
0.531591 0.187272 0.118164
0.573731 0.183322 0.118164
0.609142 0.178516 0.118164
0.636055 0.173243 0.118164
0.656484 0.167855 0.118164
0.675222 0.162545 0.118164
0.691204 0.157187 0.118164
0.701397 0.152177 0.118164
0.708656 0.147218 0.118164
0.714682 0.142473 0.118164
0.719030 0.138230 0.118164
0.720063 0.135289 0.118164
0.720107 0.131835 0.118164
0.719426 0.128294 0.118164
0.718691 0.124969 0.118164
0.718033 0.122426 0.118164
0.036133 0.252085 0.118164
0.036133 0.249231 0.118164
0.036133 0.242900 0.118164
0.036133 0.234463 0.118164
0.036697 0.228544 0.118164
0.049661 0.226928 0.118164
0.071454 0.227434 0.118164
0.092509 0.227947 0.118164
0.116730 0.227522 0.118164
0.150645 0.229296 0.118164
0.197312 0.233488 0.118164
0.248972 0.235125 0.118164
0.303061 0.233491 0.118164
0.370102 0.234852 0.118164
0.440091 0.236157 0.118164
0.499559 0.234941 0.118164
0.545577 0.230980 0.118164
0.586589 0.226973 0.118164
0.622441 0.221898 0.118164
0.650114 0.215226 0.118164
0.670244 0.208219 0.118164
0.689605 0.202435 0.118164
0.706598 0.196374 0.118164
0.717996 0.189996 0.118164
0.725895 0.184023 0.118164
0.732430 0.178474 0.118164
0.737575 0.173240 0.118164
0.739115 0.168289 0.118164
0.739169 0.163981 0.118164
0.738503 0.159684 0.118164
0.737818 0.155564 0.118164
0.737623 0.152910 0.118164
0.036133 0.277768 0.118164
0.036133 0.278793 0.118164
0.036133 0.280841 0.118164
0.036133 0.278784 0.118164
0.036448 0.275306 0.118164
0.044958 0.274743 0.118164
0.069153 0.275636 0.118164
0.093570 0.276623 0.118164
0.121660 0.276886 0.118164
0.157666 0.277619 0.118164
0.208606 0.283161 0.118164
0.265112 0.286931 0.118164
0.323895 0.287896 0.118164
0.386156 0.288005 0.118164
0.457532 0.290841 0.118164
0.517066 0.290707 0.118164
0.561970 0.286562 0.118164
0.599957 0.281743 0.118164
0.636257 0.276869 0.118164
0.664903 0.269601 0.118164
0.684940 0.260291 0.118164
0.703900 0.252451 0.118164
0.721978 0.245674 0.118164
0.735163 0.238276 0.118164
0.743690 0.230984 0.118164
0.750778 0.224962 0.118164
0.756876 0.219372 0.118164
0.759455 0.212480 0.118164
0.759387 0.205754 0.118164
0.758567 0.199934 0.118164
0.757936 0.194847 0.118164
0.757921 0.191861 0.118164
0.036133 0.303022 0.118164
0.036133 0.305790 0.118164
0.036133 0.310626 0.118164
0.036133 0.314901 0.118164
0.036314 0.316461 0.118164
0.042185 0.320730 0.118164
0.067393 0.325043 0.118164
0.093546 0.329445 0.118164
0.126003 0.332194 0.118164
0.167073 0.334353 0.118164
0.220757 0.339008 0.118164
0.280196 0.342537 0.118164
0.342585 0.343895 0.118164
0.407510 0.345131 0.118164
0.472710 0.346861 0.118164
0.532492 0.348731 0.118164
0.577498 0.346424 0.118164
0.614639 0.342752 0.118164
0.649771 0.338678 0.118164
0.679956 0.332614 0.118164
0.701173 0.323376 0.118164
0.720017 0.314075 0.118164
0.738365 0.305645 0.118164
0.753341 0.297870 0.118164
0.762747 0.290427 0.118164
0.770390 0.284311 0.118164
0.776990 0.278149 0.118164
0.780568 0.269788 0.118164
0.780893 0.260101 0.118164
0.779424 0.251026 0.118164
0.778555 0.244192 0.118164
0.778531 0.240498 0.118164
0.036133 0.328867 0.118164
0.036133 0.334163 0.118164
0.036133 0.340100 0.118164
0.036133 0.347736 0.118164
0.036235 0.354218 0.118164
0.040253 0.360867 0.118164
0.066889 0.368334 0.118164
0.094717 0.375731 0.118164
0.129476 0.382836 0.118164
0.175822 0.389789 0.118164
0.235256 0.397929 0.118164
0.295594 0.402252 0.118164
0.360098 0.404610 0.118164
0.427506 0.406865 0.118164
0.493294 0.409315 0.118164
0.546378 0.408777 0.118164
0.591302 0.407547 0.118164
0.628262 0.405015 0.118164
0.663410 0.401940 0.118164
0.693669 0.396591 0.118164
0.716607 0.388890 0.118164
0.736501 0.380836 0.118164
0.755395 0.372405 0.118164
0.771505 0.364622 0.118164
0.782149 0.357668 0.118164
0.790481 0.351816 0.118164
0.797738 0.345915 0.118164
0.802258 0.337112 0.118164
0.803511 0.326192 0.118164
0.802105 0.315589 0.118164
0.800549 0.305890 0.118164
0.800500 0.301546 0.118164
0.036133 0.353137 0.118164
0.036133 0.361403 0.118164
0.036133 0.370082 0.118164
0.036133 0.380356 0.118164
0.036216 0.389764 0.118164
0.039296 0.398612 0.118164
0.065685 0.407209 0.118164
0.097041 0.415612 0.118164
0.133606 0.424407 0.118164
0.182751 0.434028 0.118164
0.246683 0.445236 0.118164
0.310572 0.453083 0.118164
0.375266 0.459163 0.118164
0.443747 0.464287 0.118164
0.510329 0.469206 0.118164
0.563158 0.471240 0.118164
0.603985 0.468654 0.118164
0.641011 0.467167 0.118164
0.676852 0.465387 0.118164
0.707741 0.460731 0.118164
0.731324 0.453071 0.118164
0.751833 0.445869 0.118164
0.771744 0.438641 0.118164
0.789205 0.431216 0.118164
0.800531 0.424327 0.118164
0.809635 0.418923 0.118164
0.817440 0.413354 0.118164
0.822614 0.403870 0.118164
0.824286 0.392179 0.118164
0.823701 0.381535 0.118164
0.822271 0.371674 0.118164
0.822295 0.367411 0.118164
0.036133 0.372069 0.118164
0.036133 0.382004 0.118164
0.036133 0.393424 0.118164
0.036133 0.405777 0.118164
0.036224 0.418245 0.118164
0.039298 0.430304 0.118164
0.064932 0.442019 0.118164
0.099473 0.452761 0.118164
0.139791 0.463543 0.118164
0.192008 0.473961 0.118164
0.257078 0.484580 0.118164
0.323282 0.492511 0.118164
0.390172 0.499154 0.118164
0.456897 0.505633 0.118164
0.522846 0.512663 0.118164
0.575513 0.517038 0.118164
0.616997 0.518204 0.118164
0.651689 0.517431 0.118164
0.688566 0.518296 0.118164
0.721259 0.516797 0.118164
0.746564 0.512006 0.118164
0.767433 0.506345 0.118164
0.788322 0.500559 0.118164
0.806825 0.494407 0.118164
0.819136 0.488060 0.118164
0.828536 0.482847 0.118164
0.836782 0.477863 0.118164
0.842551 0.468696 0.118164
0.843855 0.454894 0.118164
0.843505 0.442560 0.118164
0.842207 0.432950 0.118164
0.842355 0.429113 0.118164
0.036133 0.390952 0.118164
0.036133 0.401395 0.118164
0.036133 0.414280 0.118164
0.036133 0.427570 0.118164
0.036251 0.441209 0.118164
0.039993 0.454838 0.118164
0.068412 0.467646 0.118164
0.103213 0.480411 0.118164
0.146852 0.493663 0.118164
0.204423 0.506710 0.118164
0.270359 0.517887 0.118164
0.335664 0.526362 0.118164
0.404669 0.534136 0.118164
0.472269 0.541099 0.118164
0.534686 0.547546 0.118164
0.585816 0.552322 0.118164
0.627233 0.554726 0.118164
0.662585 0.555868 0.118164
0.697819 0.556807 0.118164
0.731995 0.557433 0.118164
0.759101 0.555291 0.118164
0.781195 0.552301 0.118164
0.802905 0.549025 0.118164
0.822689 0.545501 0.118164
0.836635 0.541494 0.118164
0.846618 0.537570 0.118164
0.855298 0.533836 0.118164
0.861880 0.527240 0.118164
0.863841 0.515609 0.118164
0.863303 0.501366 0.118164
0.861666 0.490537 0.118164
0.861796 0.486796 0.118164
0.036133 0.407598 0.118164
0.036133 0.420007 0.118164
0.036133 0.433982 0.118164
0.036133 0.447949 0.118164
0.036310 0.462032 0.118164
0.040808 0.476106 0.118164
0.073634 0.489134 0.118164
0.109516 0.502116 0.118164
0.155563 0.515587 0.118164
0.217409 0.529896 0.118164
0.285496 0.542191 0.118164
0.350005 0.551802 0.118164
0.418288 0.560989 0.118164
0.487203 0.570216 0.118164
0.548480 0.577940 0.118164
0.595959 0.582630 0.118164
0.636317 0.585420 0.118164
0.672104 0.587362 0.118164
0.708077 0.588986 0.118164
0.740852 0.589313 0.118164
0.769437 0.588483 0.118164
0.792455 0.586788 0.118164
0.814917 0.584820 0.118164
0.834839 0.582071 0.118164
0.850167 0.579507 0.118164
0.860992 0.576881 0.118164
0.870006 0.573985 0.118164
0.877146 0.569287 0.118164
0.880860 0.561837 0.118164
0.881976 0.552257 0.118164
0.880725 0.542012 0.118164
0.880938 0.538747 0.118164
0.036133 0.420426 0.118164
0.036133 0.436466 0.118164
0.036133 0.451982 0.118164
0.036133 0.466727 0.118164
0.036546 0.481226 0.118164
0.043011 0.495661 0.118164
0.078787 0.508990 0.118164
0.117679 0.522195 0.118164
0.167584 0.535708 0.118164
0.232372 0.549859 0.118164
0.300905 0.561395 0.118164
0.366677 0.570896 0.118164
0.433222 0.579882 0.118164
0.500039 0.589387 0.118164
0.559876 0.598615 0.118164
0.606356 0.605307 0.118164
0.644269 0.609616 0.118164
0.679952 0.613096 0.118164
0.717020 0.616322 0.118164
0.750973 0.618076 0.118164
0.779288 0.618276 0.118164
0.803110 0.617657 0.118164
0.826382 0.616725 0.118164
0.846615 0.614321 0.118164
0.861959 0.611178 0.118164
0.873218 0.608910 0.118164
0.882684 0.606450 0.118164
0.889960 0.602064 0.118164
0.894171 0.595397 0.118164
0.896247 0.587866 0.118164
0.896306 0.580116 0.118164
0.896786 0.577696 0.118164
0.036133 0.431517 0.118164
0.036133 0.449065 0.118164
0.036133 0.465775 0.118164
0.036133 0.481840 0.118164
0.036968 0.496986 0.118164
0.049738 0.511564 0.118164
0.083208 0.525597 0.118164
0.126889 0.539640 0.118164
0.182020 0.554118 0.118164
0.249747 0.568034 0.118164
0.315838 0.579206 0.118164
0.382485 0.588904 0.118164
0.449901 0.598051 0.118164
0.514209 0.606930 0.118164
0.570062 0.615536 0.118164
0.615506 0.622490 0.118164
0.652703 0.627406 0.118164
0.686942 0.631411 0.118164
0.724304 0.635864 0.118164
0.759304 0.639276 0.118164
0.788380 0.641005 0.118164
0.812038 0.641542 0.118164
0.836284 0.641994 0.118164
0.857646 0.641586 0.118164
0.873469 0.639246 0.118164
0.884578 0.636500 0.118164
0.894422 0.634430 0.118164
0.902267 0.630946 0.118164
0.906511 0.624453 0.118164
0.908498 0.616883 0.118164
0.908935 0.610063 0.118164
0.909835 0.607939 0.118164
0.036133 0.442781 0.118164
0.036133 0.460503 0.118164
0.036133 0.477623 0.118164
0.036136 0.494126 0.118164
0.037371 0.509495 0.118164
0.057350 0.524034 0.118164
0.090007 0.538131 0.118164
0.136278 0.552514 0.118164
0.195807 0.567814 0.118164
0.266396 0.581617 0.118164
0.331249 0.592702 0.118164
0.397422 0.603045 0.118164
0.465488 0.612924 0.118164
0.529179 0.622308 0.118164
0.580982 0.630551 0.118164
0.623747 0.637412 0.118164
0.660484 0.642732 0.118164
0.695396 0.647159 0.118164
0.731160 0.651162 0.118164
0.765836 0.654790 0.118164
0.795209 0.657206 0.118164
0.819632 0.658627 0.118164
0.843506 0.659747 0.118164
0.865476 0.660454 0.118164
0.882348 0.660135 0.118164
0.893993 0.658496 0.118164
0.903905 0.656611 0.118164
0.912394 0.654482 0.118164
0.917733 0.650251 0.118164
0.919755 0.643375 0.118164
0.920195 0.636630 0.118164
0.921566 0.634542 0.118164
0.036133 0.450430 0.118164
0.036133 0.469102 0.118164
0.036133 0.486426 0.118164
0.036154 0.502876 0.118164
0.037867 0.518802 0.118164
0.063154 0.533778 0.118164
0.099160 0.547977 0.118164
0.147194 0.562159 0.118164
0.207474 0.576932 0.118164
0.277003 0.590003 0.118164
0.342702 0.600986 0.118164
0.408415 0.611332 0.118164
0.474836 0.621937 0.118164
0.539168 0.632675 0.118164
0.589996 0.641723 0.118164
0.630812 0.649197 0.118164
0.666586 0.655224 0.118164
0.702364 0.660574 0.118164
0.738645 0.665348 0.118164
0.771743 0.668838 0.118164
0.800691 0.671455 0.118164
0.825549 0.673253 0.118164
0.849829 0.674765 0.118164
0.871369 0.675408 0.118164
0.888516 0.675246 0.118164
0.900601 0.674359 0.118164
0.910784 0.673052 0.118164
0.919623 0.671509 0.118164
0.925701 0.668886 0.118164
0.928888 0.664657 0.118164
0.930288 0.660045 0.118164
0.931953 0.657734 0.118164
0.036133 0.452908 0.118164
0.036133 0.472901 0.118164
0.036133 0.491474 0.118164
0.036174 0.507943 0.118164
0.038559 0.524114 0.118164
0.067652 0.540508 0.118164
0.106850 0.555091 0.118164
0.156627 0.569248 0.118164
0.218238 0.583538 0.118164
0.283836 0.595978 0.118164
0.349243 0.606832 0.118164
0.415272 0.617102 0.118164
0.480350 0.627641 0.118164
0.542405 0.638481 0.118164
0.592827 0.647712 0.118164
0.633829 0.655631 0.118164
0.669298 0.662648 0.118164
0.705855 0.669458 0.118164
0.743347 0.675600 0.118164
0.777165 0.680089 0.118164
0.804884 0.683131 0.118164
0.830010 0.685554 0.118164
0.854948 0.687811 0.118164
0.876975 0.689203 0.118164
0.893968 0.689368 0.118164
0.906379 0.688795 0.118164
0.916850 0.687799 0.118164
0.925894 0.686572 0.118164
0.932535 0.684755 0.118164
0.936423 0.681789 0.118164
0.938210 0.678508 0.118164
0.940111 0.676279 0.118164
0.036133 0.453315 0.118164
0.036133 0.473544 0.118164
0.036133 0.493601 0.118164
0.036198 0.511773 0.118164
0.039246 0.528491 0.118164
0.072106 0.545093 0.118164
0.112227 0.560186 0.118164
0.162865 0.574512 0.118164
0.225874 0.588485 0.118164
0.289411 0.600526 0.118164
0.351764 0.611404 0.118164
0.417313 0.621675 0.118164
0.482988 0.632275 0.118164
0.543709 0.643190 0.118164
0.592641 0.652678 0.118164
0.633973 0.660707 0.118164
0.669695 0.667858 0.118164
0.706218 0.675113 0.118164
0.744201 0.681873 0.118164
0.778999 0.687325 0.118164
0.807518 0.691285 0.118164
0.833072 0.694581 0.118164
0.858625 0.697671 0.118164
0.881334 0.700016 0.118164
0.898550 0.700776 0.118164
0.911025 0.700577 0.118164
0.921965 0.700315 0.118164
0.931286 0.699535 0.118164
0.938505 0.698844 0.118164
0.943163 0.697646 0.118164
0.945299 0.695407 0.118164
0.947356 0.693382 0.118164
0.036133 0.453701 0.118164
0.036133 0.475063 0.118164
0.036133 0.495677 0.118164
0.036213 0.514898 0.118164
0.039893 0.532465 0.118164
0.076631 0.549098 0.118164
0.118161 0.564160 0.118164
0.169015 0.579060 0.118164
0.233095 0.593004 0.118164
0.295766 0.604651 0.118164
0.356995 0.615489 0.118164
0.419360 0.625936 0.118164
0.485009 0.636600 0.118164
0.545378 0.647559 0.118164
0.593280 0.657299 0.118164
0.633576 0.665688 0.118164
0.669468 0.672911 0.118164
0.706350 0.680261 0.118164
0.744191 0.687411 0.118164
0.779241 0.693161 0.118164
0.808215 0.697207 0.118164
0.834025 0.700620 0.118164
0.859703 0.703841 0.118164
0.882847 0.706523 0.118164
0.900670 0.708096 0.118164
0.913698 0.708635 0.118164
0.924901 0.708883 0.118164
0.934891 0.709246 0.118164
0.942626 0.709829 0.118164
0.947930 0.710034 0.118164
0.950989 0.709500 0.118164
0.953236 0.708020 0.118164
0.036133 0.454714 0.118164
0.036133 0.476464 0.118164
0.036133 0.496954 0.118164
0.036222 0.516346 0.118164
0.040223 0.534805 0.118164
0.079353 0.551844 0.118164
0.122019 0.566887 0.118164
0.173371 0.581852 0.118164
0.237711 0.596093 0.118164
0.299712 0.607636 0.118164
0.361120 0.618456 0.118164
0.422053 0.629015 0.118164
0.485623 0.639849 0.118164
0.545662 0.650862 0.118164
0.593606 0.660643 0.118164
0.633043 0.669299 0.118164
0.668175 0.676822 0.118164
0.705074 0.684290 0.118164
