LUTs/SPK Cube Block1 S32/TheBrim_SPK_Type-Z_Block1_S32.cube
TITLE "TheBrim® Industrial Imaging Burau"
# © Copyright 2022 - TheBrim® d.o.o. Croatia
LUT_3D_SIZE 32
DOMAIN_MIN 0.000000 0.000000 0.000000
DOMAIN_MAX 1.000000 1.000000 1.000000
0.000000 0.000000 0.000000
0.000000 0.000000 0.000000
0.000000 0.000000 0.000000
0.000000 0.000000 0.000000
0.000000 0.000000 0.000000
0.000000 0.000000 0.000000
0.000000 0.000000 0.000000
0.000000 0.000000 0.000000
0.000000 0.000000 0.000000
0.000000 0.000000 0.000000
0.000000 0.000000 0.000000
0.000000 0.000000 0.000000
0.000000 0.000000 0.000000
0.000000 0.000000 0.000000
0.000000 0.000000 0.000000
0.000000 0.000000 0.000000
0.002004 0.002004 0.002004
0.002167 0.002167 0.002167
0.003318 0.003318 0.003318
0.004771 0.004771 0.004771
0.007553 0.007553 0.007553
0.010084 0.010084 0.010084
0.013529 0.013529 0.013529
0.016797 0.016797 0.016797
0.022972 0.022972 0.022972
0.029360 0.029360 0.029360
0.035717 0.035717 0.035717
0.045174 0.045174 0.045174
0.054878 0.054878 0.054878
0.066633 0.066633 0.066633
0.084055 0.084055 0.084055
0.101624 0.101624 0.101624
0.000000 0.000000 0.000000
0.000000 0.000000 0.000000
0.000000 0.000000 0.000000
0.000000 0.000000 0.000000
0.000000 0.000000 0.000000
0.000000 0.000000 0.000000
0.000000 0.000000 0.000000
0.000000 0.000000 0.000000
0.000000 0.000000 0.000000
0.000000 0.000000 0.000000
0.000000 0.000000 0.000000
0.000000 0.000000 0.000000
0.000000 0.000000 0.000000
0.000070 0.000070 0.000070
0.001899 0.001899 0.001899
0.002223 0.002223 0.002223
0.003124 0.003124 0.003124
0.004718 0.004718 0.004718
0.007429 0.007429 0.007429
0.010039 0.010039 0.010039
0.013275 0.013275 0.013275
0.016702 0.016702 0.016702
0.022785 0.022785 0.022785
0.029150 0.029150 0.029150
0.035628 0.035628 0.035628
0.044927 0.044927 0.044927
0.054624 0.054624 0.054624
0.066403 0.066403 0.066403
0.083543 0.083543 0.083543
0.100817 0.100817 0.100817
0.124563 0.124563 0.124563
0.150037 0.150037 0.150037
0.000000 0.000000 0.000000
0.000000 0.000000 0.000000
0.000000 0.000000 0.000000
0.000000 0.000000 0.000000
0.000000 0.000000 0.000000
0.000000 0.000000 0.000000
0.000000 0.000000 0.000000
0.000000 0.000000 0.000000
0.000000 0.000000 0.000000
0.000000 0.000000 0.000000
0.000000 0.000000 0.000000
0.000140 0.000140 0.000140
0.001755 0.001755 0.001755
0.002267 0.002267 0.002267
0.002966 0.002966 0.002966
0.004703 0.004703 0.004703
0.007352 0.007352 0.007352
0.009995 0.009995 0.009995
0.013052 0.013052 0.013052
0.016671 0.016671 0.016671
0.022567 0.022567 0.022567
0.028955 0.028955 0.028955
0.035522 0.035522 0.035522
0.044644 0.044644 0.044644
0.054368 0.054368 0.054368
0.066142 0.066142 0.066142
0.082928 0.082928 0.082928
0.100171 0.100171 0.100171
0.123923 0.123923 0.123923
0.149198 0.149198 0.149198
0.174977 0.174977 0.174977
0.200256 0.200256 0.200256
0.000000 0.000000 0.000000
0.000000 0.000000 0.000000
0.000000 0.000000 0.000000
0.000000 0.000000 0.000000
0.000000 0.000000 0.000000
0.000000 0.000000 0.000000
0.000000 0.000000 0.000000
0.000000 0.000000 0.000000
0.000000 0.000000 0.000000
0.000210 0.000210 0.000210
0.001588 0.001588 0.001588
0.002300 0.002300 0.002300
0.002814 0.002814 0.002814
0.004695 0.004695 0.004695
0.007283 0.007283 0.007283
0.009914 0.009914 0.009914
0.012800 0.012800 0.012800
0.016637 0.016637 0.016637
0.022380 0.022380 0.022380
0.028738 0.028738 0.028738
0.035408 0.035408 0.035408
0.044319 0.044319 0.044319
0.054040 0.054040 0.054040
0.065838 0.065838 0.065838
0.082165 0.082165 0.082165
0.099407 0.099407 0.099407
0.123135 0.123135 0.123135
0.148301 0.148301 0.148301
0.174070 0.174070 0.174070
0.199361 0.199361 0.199361
0.227721 0.227721 0.227721
0.254360 0.254360 0.254360
0.000000 0.000000 0.000000
0.000000 0.000000 0.000000
0.000000 0.000000 0.000000
0.000000 0.000000 0.000000
0.000000 0.000000 0.000000
0.000000 0.000000 0.000000
0.000000 0.000000 0.000000
0.000280 0.000280 0.000280
0.001397 0.001397 0.001397
0.002321 0.002321 0.002321
0.002697 0.002697 0.002697
0.004714 0.004714 0.004714
0.007238 0.007238 0.007238
0.009798 0.009798 0.009798
0.012557 0.012557 0.012557
0.016638 0.016638 0.016638
0.022136 0.022136 0.022136
0.028520 0.028520 0.028520
0.035291 0.035291 0.035291
0.043911 0.043911 0.043911
0.053648 0.053648 0.053648
0.065464 0.065464 0.065464
0.081457 0.081457 0.081457
0.098742 0.098742 0.098742
0.122413 0.122413 0.122413
0.147458 0.147458 0.147458
0.173227 0.173227 0.173227
0.198633 0.198633 0.198633
0.227073 0.227073 0.227073
0.253584 0.253584 0.253584
0.278081 0.278081 0.278081
0.301834 0.301834 0.301834
0.000000 0.000000 0.000000
0.000000 0.000000 0.000000
0.000000 0.000000 0.000000
0.000000 0.000000 0.000000
0.000000 0.000000 0.000000
0.000350 0.000350 0.000350
0.001207 0.001207 0.001207
0.002334 0.002334 0.002334
0.002621 0.002621 0.002621
0.004771 0.004771 0.004771
0.007213 0.007213 0.007213
0.009705 0.009705 0.009705
0.012320 0.012320 0.012320
0.016647 0.016647 0.016647
0.021936 0.021936 0.021936
0.028318 0.028318 0.028318
0.035197 0.035197 0.035197
0.043501 0.043501 0.043501
0.053288 0.053288 0.053288
0.065105 0.065105 0.065105
0.080684 0.080684 0.080684
0.098135 0.098135 0.098135
0.121619 0.121619 0.121619
0.146541 0.146541 0.146541
0.172293 0.172293 0.172293
0.197876 0.197876 0.197876
0.226482 0.226482 0.226482
0.252814 0.252814 0.252814
0.277261 0.277261 0.277261
0.301048 0.301048 0.301048
0.325144 0.325144 0.325144
0.352208 0.352208 0.352208
0.000000 0.000000 0.000000
0.000000 0.000000 0.000000
0.000000 0.000000 0.000000
0.000281 0.000281 0.000281
0.001059 0.001059 0.001059
0.002305 0.002305 0.002305
0.002580 0.002580 0.002580
0.004829 0.004829 0.004829
0.007214 0.007214 0.007214
0.009646 0.009646 0.009646
0.012159 0.012159 0.012159
0.016688 0.016688 0.016688
0.021722 0.021722 0.021722
0.028085 0.028085 0.028085
0.035087 0.035087 0.035087
0.043014 0.043014 0.043014
0.052983 0.052983 0.052983
0.064730 0.064730 0.064730
0.079976 0.079976 0.079976
0.097652 0.097652 0.097652
0.120874 0.120874 0.120874
0.145729 0.145729 0.145729
0.171459 0.171459 0.171459
0.197212 0.197212 0.197212
0.225816 0.225816 0.225816
0.251895 0.251895 0.251895
0.276402 0.276402 0.276402
0.300337 0.300337 0.300337
0.324616 0.324616 0.324616
0.351468 0.351468 0.351468
0.377514 0.377514 0.377514
0.402627 0.402627 0.402627
0.000000 0.000000 0.000000
0.000176 0.000176 0.000176
0.000986 0.000986 0.000986
0.002235 0.002235 0.002235
0.002649 0.002649 0.002649
0.004852 0.004852 0.004852
0.007212 0.007212 0.007212
0.009598 0.009598 0.009598
0.012047 0.012047 0.012047
0.016732 0.016732 0.016732
0.021507 0.021507 0.021507
0.027898 0.027898 0.027898
0.034984 0.034984 0.034984
0.042479 0.042479 0.042479
0.052713 0.052713 0.052713
0.064412 0.064412 0.064412
0.079144 0.079144 0.079144
0.097160 0.097160 0.097160
0.120134 0.120134 0.120134
0.144842 0.144842 0.144842
0.170504 0.170504 0.170504
0.196487 0.196487 0.196487
0.225093 0.225093 0.225093
0.250942 0.250942 0.250942
0.275428 0.275428 0.275428
0.299587 0.299587 0.299587
0.324112 0.324112 0.324112
0.350720 0.350720 0.350720
0.376366 0.376366 0.376366
0.401514 0.401514 0.401514
0.427547 0.427547 0.427547
0.455684 0.455684 0.455684
0.000899 0.000899 0.000899
0.002184 0.002184 0.002184
0.002718 0.002718 0.002718
0.004843 0.004843 0.004843
0.007057 0.007057 0.007057
0.009495 0.009495 0.009495
0.012049 0.012049 0.012049
0.016740 0.016740 0.016740
0.021300 0.021300 0.021300
0.027649 0.027649 0.027649
0.034870 0.034870 0.034870
0.042074 0.042074 0.042074
0.052405 0.052405 0.052405
0.064035 0.064035 0.064035
0.078371 0.078371 0.078371
0.096776 0.096776 0.096776
0.119332 0.119332 0.119332
0.143970 0.143970 0.143970
0.169650 0.169650 0.169650
0.195845 0.195845 0.195845
0.224229 0.224229 0.224229
0.249824 0.249824 0.249824
0.274427 0.274427 0.274427
0.298721 0.298721 0.298721
0.323499 0.323499 0.323499
0.349838 0.349838 0.349838
0.375310 0.375310 0.375310
0.400532 0.400532 0.400532
0.426827 0.426827 0.426827
0.454535 0.454535 0.454535
0.479970 0.479970 0.479970
0.506618 0.506618 0.506618
0.002787 0.002787 0.002787
0.004824 0.004824 0.004824
0.006915 0.006915 0.006915
0.009418 0.009418 0.009418
0.012109 0.012109 0.012109
0.016597 0.016597 0.016597
0.021075 0.021075 0.021075
0.027485 0.027485 0.027485
0.034638 0.034638 0.034638
0.041622 0.041622 0.041622
0.052142 0.052142 0.052142
0.063665 0.063665 0.063665
0.077559 0.077559 0.077559
0.096412 0.096412 0.096412
0.118538 0.118538 0.118538
0.143075 0.143075 0.143075
0.168731 0.168731 0.168731
0.195118 0.195118 0.195118
0.223363 0.223363 0.223363
0.248711 0.248711 0.248711
0.273560 0.273560 0.273560
0.297918 0.297918 0.297918
0.322904 0.322904 0.322904
0.348969 0.348969 0.348969
0.374162 0.374162 0.374162
0.399503 0.399503 0.399503
0.426060 0.426060 0.426060
0.453386 0.453386 0.453386
0.478973 0.478973 0.478973
0.505955 0.505955 0.505955
0.533348 0.533348 0.533348
0.560392 0.560392 0.560392
0.006807 0.006807 0.006807
0.009360 0.009360 0.009360
0.012193 0.012193 0.012193
0.016443 0.016443 0.016443
0.020884 0.020884 0.020884
0.027250 0.027250 0.027250
0.034194 0.034194 0.034194
0.041386 0.041386 0.041386
0.051722 0.051722 0.051722
0.063270 0.063270 0.063270
0.076792 0.076792 0.076792
0.096196 0.096196 0.096196
0.117843 0.117843 0.117843
0.142333 0.142333 0.142333
0.167966 0.167966 0.167966
0.194557 0.194557 0.194557
0.222484 0.222484 0.222484
0.247513 0.247513 0.247513
0.272789 0.272789 0.272789
0.297169 0.297169 0.297169
0.322200 0.322200 0.322200
0.347997 0.347997 0.347997
0.373168 0.373168 0.373168
0.398655 0.398655 0.398655
0.425476 0.425476 0.425476
0.452346 0.452346 0.452346
0.478202 0.478202 0.478202
0.505376 0.505376 0.505376
0.532387 0.532387 0.532387
0.559633 0.559633 0.559633
0.585777 0.585777 0.585777
0.612155 0.612155 0.612155
0.012246 0.012246 0.012246
0.016212 0.016212 0.016212
0.020668 0.020668 0.020668
0.027038 0.027038 0.027038
0.033758 0.033758 0.033758
0.041153 0.041153 0.041153
0.051308 0.051308 0.051308
0.062701 0.062701 0.062701
0.076301 0.076301 0.076301
0.095676 0.095676 0.095676
0.116977 0.116977 0.116977
0.141498 0.141498 0.141498
0.167020 0.167020 0.167020
0.193848 0.193848 0.193848
0.221403 0.221403 0.221403
0.246309 0.246309 0.246309
0.272016 0.272016 0.272016
0.296400 0.296400 0.296400
0.321418 0.321418 0.321418
0.346943 0.346943 0.346943
0.372050 0.372050 0.372050
0.397738 0.397738 0.397738
0.424777 0.424777 0.424777
0.451272 0.451272 0.451272
0.477337 0.477337 0.477337
0.504556 0.504556 0.504556
0.531555 0.531555 0.531555
0.558926 0.558926 0.558926
0.584631 0.584631 0.584631
0.611387 0.611387 0.611387
0.637077 0.637077 0.637077
0.656902 0.656902 0.656902
0.020452 0.020452 0.020452
0.026810 0.026810 0.026810
0.033352 0.033352 0.033352
0.040957 0.040957 0.040957
0.050951 0.050951 0.050951
0.062158 0.062158 0.062158
0.075956 0.075956 0.075956
0.095054 0.095054 0.095054
0.116128 0.116128 0.116128
0.140712 0.140712 0.140712
0.166205 0.166205 0.166205
0.193143 0.193143 0.193143
0.220384 0.220384 0.220384
0.245126 0.245126 0.245126
0.271195 0.271195 0.271195
0.295563 0.295563 0.295563
0.320502 0.320502 0.320502
0.345801 0.345801 0.345801
0.370914 0.370914 0.370914
0.396880 0.396880 0.396880
0.424064 0.424064 0.424064
0.450178 0.450178 0.450178
0.476608 0.476608 0.476608
0.503817 0.503817 0.503817
0.530640 0.530640 0.530640
0.557996 0.557996 0.557996
0.583577 0.583577 0.583577
0.610676 0.610676 0.610676
0.635861 0.635861 0.635861
0.656300 0.656300 0.656300
0.675313 0.675313 0.675313
0.693278 0.693278 0.693278
0.032994 0.032994 0.032994
0.040784 0.040784 0.040784
0.050635 0.050635 0.050635
0.061680 0.061680 0.061680
0.075717 0.075717 0.075717
0.094350 0.094350 0.094350
0.115221 0.115221 0.115221
0.139828 0.139828 0.139828
0.165352 0.165352 0.165352
0.192158 0.192158 0.192158
0.219050 0.219050 0.219050
0.244258 0.244258 0.244258
0.270397 0.270397 0.270397
0.294785 0.294785 0.294785
0.319600 0.319600 0.319600
0.344744 0.344744 0.344744
0.369949 0.369949 0.369949
0.396105 0.396105 0.396105
0.423329 0.423329 0.423329
0.449065 0.449065 0.449065
0.475869 0.475869 0.475869
0.502863 0.502863 0.502863
0.529756 0.529756 0.529756
0.557158 0.557158 0.557158
0.582496 0.582496 0.582496
0.609943 0.609943 0.609943
0.634766 0.634766 0.634766
0.655799 0.655799 0.655799
0.674710 0.674710 0.674710
0.692567 0.692567 0.692567
0.710624 0.710624 0.710624
0.728521 0.728521 0.728521
0.050392 0.050392 0.050392
0.061235 0.061235 0.061235
0.075535 0.075535 0.075535
0.093670 0.093670 0.093670
0.114454 0.114454 0.114454
0.139061 0.139061 0.139061
0.164605 0.164605 0.164605
0.191222 0.191222 0.191222
0.217871 0.217871 0.217871
0.243477 0.243477 0.243477
0.269638 0.269638 0.269638
0.294024 0.294024 0.294024
0.318557 0.318557 0.318557
0.343668 0.343668 0.343668
0.369032 0.369032 0.369032
0.395491 0.395491 0.395491
0.422682 0.422682 0.422682
0.448008 0.448008 0.448008
0.475261 0.475261 0.475261
0.502009 0.502009 0.502009
0.528950 0.528950 0.528950
0.556211 0.556211 0.556211
0.581569 0.581569 0.581569
0.609347 0.609347 0.609347
0.633638 0.633638 0.633638
0.655333 0.655333 0.655333
0.674063 0.674063 0.674063
0.691898 0.691898 0.691898
0.710257 0.710257 0.710257
0.728031 0.728031 0.728031
0.745627 0.745627 0.745627
0.762842 0.762842 0.762842
0.075392 0.075392 0.075392
0.092953 0.092953 0.092953
0.113597 0.113597 0.113597
0.138227 0.138227 0.138227
0.163774 0.163774 0.163774
0.190041 0.190041 0.190041
0.216643 0.216643 0.216643
0.242829 0.242829 0.242829
0.268811 0.268811 0.268811
0.293234 0.293234 0.293234
0.317623 0.317623 0.317623
0.342668 0.342668 0.342668
0.368395 0.368395 0.368395
0.394897 0.394897 0.394897
0.421771 0.421771 0.421771
0.446859 0.446859 0.446859
0.474650 0.474650 0.474650
0.500968 0.500968 0.500968
0.528043 0.528043 0.528043
0.555215 0.555215 0.555215
0.580671 0.580671 0.580671
0.608702 0.608702 0.608702
0.632536 0.632536 0.632536
0.654940 0.654940 0.654940
0.673414 0.673414 0.673414
0.691216 0.691216 0.691216
0.709861 0.709861 0.709861
0.727533 0.727533 0.727533
0.744947 0.744947 0.744947
0.761984 0.761984 0.761984
0.778911 0.778911 0.778911
0.795774 0.795774 0.795774
0.112765 0.112765 0.112765
0.137373 0.137373 0.137373
0.162963 0.162963 0.162963
0.188866 0.188866 0.188866
0.215550 0.215550 0.215550
0.242148 0.242148 0.242148
0.268075 0.268075 0.268075
0.292440 0.292440 0.292440
0.316626 0.316626 0.316626
0.341737 0.341737 0.341737
0.367790 0.367790 0.367790
0.394294 0.394294 0.394294
0.420713 0.420713 0.420713
0.446054 0.446054 0.446054
0.474005 0.474005 0.474005
0.499945 0.499945 0.499945
0.527066 0.527066 0.527066
0.554075 0.554075 0.554075
0.579717 0.579717 0.579717
0.607911 0.607911 0.607911
0.631402 0.631402 0.631402
0.654459 0.654459 0.654459
0.672637 0.672637 0.672637
0.690686 0.690686 0.690686
0.709369 0.709369 0.709369
0.726992 0.726992 0.726992
0.744235 0.744235 0.744235
0.761238 0.761238 0.761238
0.778228 0.778228 0.778228
0.795191 0.795191 0.795191
0.810575 0.810575 0.810575
0.826513 0.826513 0.826513
0.162130 0.162130 0.162130
0.187559 0.187559 0.187559
0.214443 0.214443 0.214443
0.241587 0.241587 0.241587
0.267326 0.267326 0.267326
0.291611 0.291611 0.291611
0.315685 0.315685 0.315685
0.340864 0.340864 0.340864
0.367221 0.367221 0.367221
0.393636 0.393636 0.393636
0.419565 0.419565 0.419565
0.445207 0.445207 0.445207
0.473104 0.473104 0.473104
0.498797 0.498797 0.498797
0.526086 0.526086 0.526086
0.552971 0.552971 0.552971
0.578943 0.578943 0.578943
0.607147 0.607147 0.607147
0.630377 0.630377 0.630377
0.653998 0.653998 0.653998
0.671849 0.671849 0.671849
0.690090 0.690090 0.690090
0.708916 0.708916 0.708916
0.726342 0.726342 0.726342
0.743446 0.743446 0.743446
0.760438 0.760438 0.760438
0.777488 0.777488 0.777488
0.794717 0.794717 0.794717
0.810142 0.810142 0.810142
0.826143 0.826143 0.826143
0.841743 0.841743 0.841743
0.855719 0.855719 0.855719
0.213587 0.213587 0.213587
0.241084 0.241084 0.241084
0.266679 0.266679 0.266679
0.290847 0.290847 0.290847
0.314685 0.314685 0.314685
0.340081 0.340081 0.340081
0.366642 0.366642 0.366642
0.392896 0.392896 0.392896
0.418599 0.418599 0.418599
0.444591 0.444591 0.444591
0.472298 0.472298 0.472298
0.497831 0.497831 0.497831
0.525206 0.525206 0.525206
0.552002 0.552002 0.552002
0.578364 0.578364 0.578364
0.606076 0.606076 0.606076
0.629723 0.629723 0.629723
0.653372 0.653372 0.653372
0.671072 0.671072 0.671072
0.689663 0.689663 0.689663
0.708432 0.708432 0.708432
0.725684 0.725684 0.725684
0.742679 0.742679 0.742679
0.759806 0.759806 0.759806
0.776916 0.776916 0.776916
0.794253 0.794253 0.794253
0.809673 0.809673 0.809673
0.825833 0.825833 0.825833
0.841175 0.841175 0.841175
0.855256 0.855256 0.855256
0.869148 0.869148 0.869148
0.883076 0.883076 0.883076
0.266068 0.266068 0.266068
0.290125 0.290125 0.290125
0.313736 0.313736 0.313736
0.339383 0.339383 0.339383
0.366026 0.366026 0.366026
0.392035 0.392035 0.392035
0.417450 0.417450 0.417450
0.443868 0.443868 0.443868
0.471314 0.471314 0.471314
0.496702 0.496702 0.496702
0.524196 0.524196 0.524196
0.550964 0.550964 0.550964
0.577766 0.577766 0.577766
0.604964 0.604964 0.604964
0.629343 0.629343 0.629343
0.652640 0.652640 0.652640
0.670357 0.670357 0.670357
0.689198 0.689198 0.689198
0.707817 0.707817 0.707817
0.724914 0.724914 0.724914
0.741836 0.741836 0.741836
0.759068 0.759068 0.759068
0.776247 0.776247 0.776247
0.793865 0.793865 0.793865
0.809203 0.809203 0.809203
0.825524 0.825524 0.825524
0.840579 0.840579 0.840579
0.854821 0.854821 0.854821
0.868714 0.868714 0.868714
0.882606 0.882606 0.882606
0.894118 0.894118 0.894118
0.906484 0.906484 0.906484
0.312857 0.312857 0.312857
0.338723 0.338723 0.338723
0.365317 0.365317 0.365317
0.391046 0.391046 0.391046
0.416392 0.416392 0.416392
0.443288 0.443288 0.443288
0.470390 0.470390 0.470390
0.495766 0.495766 0.495766
0.523318 0.523318 0.523318
0.550072 0.550072 0.550072
0.577125 0.577125 0.577125
0.603872 0.603872 0.603872
0.628904 0.628904 0.628904
0.651872 0.651872 0.651872
0.669669 0.669669 0.669669
0.688737 0.688737 0.688737
0.707134 0.707134 0.707134
0.724142 0.724142 0.724142
0.741215 0.741215 0.741215
0.758481 0.758481 0.758481
0.775654 0.775654 0.775654
0.793455 0.793455 0.793455
0.808626 0.808626 0.808626
0.825154 0.825154 0.825154
0.839888 0.839888 0.839888
0.854325 0.854325 0.854325
0.868217 0.868217 0.868217
0.882149 0.882149 0.882149
0.893679 0.893679 0.893679
0.906261 0.906261 0.906261
0.917341 0.917341 0.917341
0.927316 0.927316 0.927316
0.364652 0.364652 0.364652
0.390103 0.390103 0.390103
0.415244 0.415244 0.415244
0.442621 0.442621 0.442621
0.469368 0.469368 0.469368
0.494823 0.494823 0.494823
0.522399 0.522399 0.522399
0.549162 0.549162 0.549162
0.576396 0.576396 0.576396
0.602754 0.602754 0.602754
0.628553 0.628553 0.628553
0.651139 0.651139 0.651139
0.669046 0.669046 0.669046
0.688253 0.688253 0.688253
0.706357 0.706357 0.706357
0.723360 0.723360 0.723360
0.740591 0.740591 0.740591
0.757915 0.757915 0.757915
0.775305 0.775305 0.775305
0.793040 0.793040 0.793040
0.808107 0.808107 0.808107
0.824845 0.824845 0.824845
0.839235 0.839235 0.839235
0.853890 0.853890 0.853890
0.867782 0.867782 0.867782
0.881655 0.881655 0.881655
0.893232 0.893232 0.893232
0.906099 0.906099 0.906099
0.916759 0.916759 0.916759
0.926816 0.926816 0.926816
0.937166 0.937166 0.937166
0.945232 0.945232 0.945232
0.414187 0.414187 0.414187
0.441943 0.441943 0.441943
0.468329 0.468329 0.468329
0.494045 0.494045 0.494045
0.521540 0.521540 0.521540
0.548391 0.548391 0.548391
0.575704 0.575704 0.575704
0.601668 0.601668 0.601668
0.628113 0.628113 0.628113
0.650345 0.650345 0.650345
0.668496 0.668496 0.668496
0.687732 0.687732 0.687732
0.705575 0.705575 0.705575
0.722735 0.722735 0.722735
0.740090 0.740090 0.740090
0.757474 0.757474 0.757474
0.775016 0.775016 0.775016
0.792617 0.792617 0.792617
0.807632 0.807632 0.807632
0.824249 0.824249 0.824249
0.838695 0.838695 0.838695
0.853393 0.853393 0.853393
0.867329 0.867329 0.867329
0.881178 0.881178 0.881178
0.892840 0.892840 0.892840
0.905866 0.905866 0.905866
0.916155 0.916155 0.916155
0.926404 0.926404 0.926404
0.936983 0.936983 0.936983
0.944992 0.944992 0.944992
0.954746 0.954746 0.954746
0.962834 0.962834 0.962834
0.467152 0.467152 0.467152
0.493217 0.493217 0.493217
0.520662 0.520662 0.520662
0.547631 0.547631 0.547631
0.574786 0.574786 0.574786
0.600611 0.600611 0.600611
0.627619 0.627619 0.627619
0.649560 0.649560 0.649560
0.667965 0.667965 0.667965
0.687190 0.687190 0.687190
0.704809 0.704809 0.704809
0.722058 0.722058 0.722058
0.739526 0.739526 0.739526
0.756967 0.756967 0.756967
0.774592 0.774592 0.774592
0.792136 0.792136 0.792136
0.807099 0.807099 0.807099
0.823545 0.823545 0.823545
0.838271 0.838271 0.838271
0.852959 0.852959 0.852959
0.866835 0.866835 0.866835
0.880728 0.880728 0.880728
0.892535 0.892535 0.892535
0.905614 0.905614 0.905614
0.915534 0.915534 0.915534
0.926026 0.926026 0.926026
0.936822 0.936822 0.936822
0.944713 0.944713 0.944713
0.954657 0.954657 0.954657
0.962453 0.962453 0.962453
0.969554 0.969554 0.969554
0.973580 0.973580 0.973580
0.519680 0.519680 0.519680
0.546958 0.546958 0.546958
0.573983 0.573983 0.573983
0.599464 0.599464 0.599464
0.627001 0.627001 0.627001
0.648700 0.648700 0.648700
0.667448 0.667448 0.667448
0.686528 0.686528 0.686528
0.704057 0.704057 0.704057
0.721514 0.721514 0.721514
0.739063 0.739063 0.739063
0.756563 0.756563 0.756563
0.774183 0.774183 0.774183
0.791530 0.791530 0.791530
0.806651 0.806651 0.806651
0.822849 0.822849 0.822849
0.837819 0.837819 0.837819
0.852463 0.852463 0.852463
0.866402 0.866402 0.866402
0.880284 0.880284 0.880284
0.892387 0.892387 0.892387
0.905008 0.905008 0.905008
0.915145 0.915145 0.915145
0.925858 0.925858 0.925858
0.936710 0.936710 0.936710
0.944415 0.944415 0.944415
0.954533 0.954533 0.954533
0.962021 0.962021 0.962021
0.969314 0.969314 0.969314
0.973205 0.973205 0.973205
0.978925 0.978925 0.978925
0.983047 0.983047 0.983047
0.572914 0.572914 0.572914
0.598408 0.598408 0.598408
0.626422 0.626422 0.626422
0.647950 0.647950 0.647950
0.667008 0.667008 0.667008
0.685896 0.685896 0.685896
0.703384 0.703384 0.703384
0.720954 0.720954 0.720954
0.738559 0.738559 0.738559
0.756162 0.756162 0.756162
0.773656 0.773656 0.773656
0.790931 0.790931 0.790931
0.806142 0.806142 0.806142
0.821966 0.821966 0.821966
0.837471 0.837471 0.837471
0.852027 0.852027 0.852027
0.865907 0.865907 0.865907
0.879800 0.879800 0.879800
0.892251 0.892251 0.892251
0.904398 0.904398 0.904398
0.914825 0.914825 0.914825
0.925738 0.925738 0.925738
0.936497 0.936497 0.936497
0.944154 0.944154 0.944154
0.954344 0.954344 0.954344
0.961577 0.961577 0.961577
0.969090 0.969090 0.969090
0.972862 0.972862 0.972862
0.978995 0.978995 0.978995
0.982769 0.982769 0.982769
0.985837 0.985837 0.985837
0.988867 0.988867 0.988867
0.625747 0.625747 0.625747
0.647142 0.647142 0.647142
0.666576 0.666576 0.666576
0.685133 0.685133 0.685133
0.702807 0.702807 0.702807
0.720492 0.720492 0.720492
0.738153 0.738153 0.738153
0.755854 0.755854 0.755854
0.773161 0.773161 0.773161
0.790325 0.790325 0.790325
0.805723 0.805723 0.805723
0.821144 0.821144 0.821144
0.837079 0.837079 0.837079
0.851582 0.851582 0.851582
0.865484 0.865484 0.865484
0.879326 0.879326 0.879326
0.892072 0.892072 0.892072
0.903885 0.903885 0.903885
0.914657 0.914657 0.914657
0.925627 0.925627 0.925627
0.936272 0.936272 0.936272
0.943942 0.943942 0.943942
0.953930 0.953930 0.953930
0.961421 0.961421 0.961421
0.968874 0.968874 0.968874
0.972568 0.972568 0.972568
0.979112 0.979112 0.979112
0.982472 0.982472 0.982472
0.985546 0.985546 0.985546
0.988613 0.988613 0.988613
0.991664 0.991664 0.991664
0.994563 0.994563 0.994563
0.666240 0.666240 0.666240
0.684339 0.684339 0.684339
0.702216 0.702216 0.702216
0.719993 0.719993 0.719993
0.737711 0.737711 0.737711
0.755405 0.755405 0.755405
0.772539 0.772539 0.772539
0.789608 0.789608 0.789608
0.805253 0.805253 0.805253
0.820397 0.820397 0.820397
0.836733 0.836733 0.836733
0.851096 0.851096 0.851096
0.864989 0.864989 0.864989
0.878881 0.878881 0.878881
0.891836 0.891836 0.891836
0.903263 0.903263 0.903263
0.914425 0.914425 0.914425
0.925405 0.925405 0.925405
