LUTs/SPK Cube Block1 S32/TheBrim_SPK_Type-L_Block 1_S32.cube
TITLE "TheBrim® Industrial Imaging Burau"
# © Copyright 2022 - TheBrim® d.o.o. Croatia
LUT_3D_SIZE 32
0.0073548486 0.0089417868 0.0091554131
0.0108102787 0.0120063891 0.0117583069
0.0150798514 0.0146102674 0.0141593879
0.0212622164 0.0161981901 0.0149361213
0.0308557112 0.0170251306 0.0146082984
0.0439440142 0.0190924820 0.0152836332
0.0600536035 0.0215693658 0.0155642023
0.0785061910 0.0234673912 0.0154854461
0.1032514022 0.0244045905 0.0146191274
0.1384229555 0.0236849553 0.0128746767
0.1800170803 0.0208950155 0.0100443742
0.2296295749 0.0102963942 0.0051870830
0.2693896637 0.0000000000 0.0011262143
0.3003497269 0.0000000000 0.0000000000
0.3354011769 0.0000000000 0.0000000000
0.3772739019 0.0000000000 0.0000000000
0.4143858121 0.0000000000 0.0000000000
0.4463608463 0.0000000000 0.0000000000
0.4819153518 0.0000000000 0.0000000000
0.5160143435 0.0000000000 0.0000000000
0.5433398061 0.0000000000 0.0000000000
0.5653767871 0.0000000000 0.0000000000
0.5879857353 0.0000000000 0.0000000000
0.6057039208 0.0000000000 0.0000000000
0.6164698991 0.0000000000 0.0000000000
0.6248200297 0.0000000000 0.0000000000
0.6313075751 0.0000000000 0.0000000000
0.6343770997 0.0000000000 0.0000000000
0.6370813921 0.0000000000 0.0000000000
0.6392914892 0.0000000000 0.0000000000
0.6398211249 0.0000000000 0.0000000000
0.6421149004 0.0000000000 0.0000000000
0.0093385214 0.0198672465 0.0181690650
0.0121205857 0.0188552288 0.0164630079
0.0155169486 0.0195217035 0.0162818686
0.0217012825 0.0197097340 0.0153220269
0.0317722369 0.0198800444 0.0145472624
0.0455988797 0.0215496767 0.0147362773
0.0646972684 0.0235628832 0.0146673656
0.0843774688 0.0254658309 0.0145827027
0.1117659364 0.0258212184 0.0131936394
0.1468370755 0.0246329836 0.0111971687
0.1859454564 0.0226758910 0.0089880561
0.2343086802 0.0135185089 0.0043473446
0.2712483110 0.0035666733 0.0008367851
0.3018057330 0.0000000000 0.0000000000
0.3353814879 0.0000000000 0.0000000000
0.3776489785 0.0000000000 0.0000000000
0.4146073140 0.0000000000 0.0000000000
0.4461590335 0.0000000000 0.0000000000
0.4815097572 0.0000000000 0.0000000000
0.5163362596 0.0000000000 0.0000000000
0.5434392359 0.0000000000 0.0000000000
0.5654584967 0.0000000000 0.0000000000
0.5878853211 0.0000000000 0.0000000000
0.6055857865 0.0000000000 0.0000000000
0.6164098475 0.0000000000 0.0000000000
0.6248997704 0.0000000000 0.0000000000
0.6312514613 0.0000000000 0.0000000000
0.6343702085 0.0000000000 0.0000000000
0.6370213405 0.0000000000 0.0000000000
0.6391979661 0.0000000000 0.0000000000
0.6398772387 0.0000000000 0.0000000000
0.6447798148 0.0000000000 0.0000000000
0.0088945331 0.0286150961 0.0236947999
0.0127063352 0.0270842716 0.0208556373
0.0164206765 0.0264778486 0.0193897868
0.0221147528 0.0262120463 0.0182901528
0.0319661742 0.0259570729 0.0170428508
0.0460871684 0.0270153599 0.0165260129
0.0655301156 0.0282725064 0.0156902123
0.0893489566 0.0297787196 0.0148209403
0.1167059217 0.0297422948 0.0127427600
0.1502580497 0.0305741576 0.0114363908
0.1910449231 0.0277271195 0.0085263477
0.2358011110 0.0197284386 0.0042774484
0.2722573754 0.0120762853 0.0015593736
0.3032843814 0.0029474524 0.0000000000
0.3356374456 0.0000000000 0.0000000000
0.3782248835 0.0000000000 0.0000000000
0.4154519747 0.0000000000 0.0000000000
0.4462830745 0.0000000000 0.0000000000
0.4810313130 0.0000000000 0.0000000000
0.5165863107 0.0000000000 0.0000000000
0.5437276806 0.0000000000 0.0000000000
0.5653285489 0.0000000000 0.0000000000
0.5879630929 0.0000000000 0.0000000000
0.6053948026 0.0000000000 0.0000000000
0.6164068941 0.0000000000 0.0000000000
0.6249096149 0.0000000000 0.0000000000
0.6312701659 0.0000000000 0.0000000000
0.6344617626 0.0000000000 0.0000000000
0.6370203560 0.0000000000 0.0000000000
0.6392540799 0.0000000000 0.0000000000
0.6419061964 0.0000000000 0.0000000000
0.6475569568 0.0000000000 0.0000000000
0.0076639668 0.0388957390 0.0308242087
0.0112188267 0.0382499379 0.0288021422
0.0147795933 0.0380904565 0.0275321978
0.0219533025 0.0376828929 0.0253161940
0.0319819254 0.0375598363 0.0231730398
0.0461393444 0.0370252783 0.0208064147
0.0657309441 0.0376750173 0.0189930522
0.0902073996 0.0384202482 0.0167603128
0.1170977340 0.0389676041 0.0147608887
0.1504578937 0.0396232498 0.0128146250
0.1939401994 0.0367555382 0.0090530300
0.2346355186 0.0324347738 0.0054952168
0.2722849401 0.0257552601 0.0022278172
0.3048969155 0.0155986582 0.0000000000
0.3374508081 0.0044005050 0.0000000000
0.3777986154 0.0000000000 0.0000000000
0.4186002555 0.0000000000 0.0000000000
0.4493565369 0.0000000000 0.0000000000
0.4821516205 0.0000000000 0.0000000000
0.5169289003 0.0000000000 0.0000000000
0.5446392841 0.0000000000 0.0000000000
0.5657380814 0.0000000000 0.0000000000
0.5884966664 0.0000000000 0.0000000000
0.6055985844 0.0000000000 0.0000000000
0.6167327481 0.0000000000 0.0000000000
0.6254087326 0.0000000000 0.0000000000
0.6321925984 0.0000000000 0.0000000000
0.6358508258 0.0000000000 0.0000000000
0.6388159983 0.0000000000 0.0000000000
0.6422921020 0.0000000000 0.0000000000
0.6463844732 0.0000000000 0.0000000000
0.6520726428 0.0000000000 0.0000000000
0.0064560429 0.0508095896 0.0379477108
0.0095836502 0.0504059638 0.0362259024
0.0128215162 0.0501185035 0.0348762173
0.0191771449 0.0500269494 0.0328639954
0.0297511549 0.0497188156 0.0302335369
0.0437284189 0.0495307851 0.0276414721
0.0645397559 0.0498910949 0.0248564544
0.0890644497 0.0510123869 0.0224169798
0.1174472149 0.0528060603 0.0197865214
0.1506065461 0.0529970442 0.0157148236
0.1905359608 0.0516719704 0.0116067012
0.2325415870 0.0485177829 0.0074414804
0.2723873232 0.0424102363 0.0027220126
0.3054708516 0.0336387599 0.0004823820
0.3405734931 0.0199332049 0.0000000000
0.3802390744 0.0044576033 0.0000000000
0.4215329410 0.0000000000 0.0000000000
0.4543634650 0.0000000000 0.0000000000
0.4854771029 0.0000000000 0.0000000000
0.5202721028 0.0000000000 0.0000000000
0.5495251245 0.0000000000 0.0000000000
0.5713474947 0.0000000000 0.0000000000
0.5934553563 0.0000000000 0.0000000000
0.6117110532 0.0000000000 0.0000000000
0.6225410209 0.0000000000 0.0000000000
0.6310988711 0.0000000000 0.0000000000
0.6390079667 0.0000000000 0.0000000000
0.6423442780 0.0000000000 0.0000000000
0.6445789864 0.0000000000 0.0000000000
0.6478207902 0.0000000000 0.0000000000
0.6524162169 0.0000000000 0.0000000000
0.6582353187 0.0000000000 0.0000000000
0.0025339821 0.0635720386 0.0467004826
0.0058210707 0.0631743196 0.0448103328
0.0096899711 0.0625068604 0.0425352619
0.0157059636 0.0624871713 0.0401095696
0.0245522585 0.0628179476 0.0376976597
0.0415301353 0.0637374267 0.0346173062
0.0630640608 0.0646716726 0.0314936367
0.0885781299 0.0666514076 0.0286219873
0.1182712020 0.0679567924 0.0241761974
0.1508221413 0.0691184469 0.0205081254
0.1868836401 0.0688585513 0.0159963772
0.2305923700 0.0660784560 0.0094241688
0.2716066519 0.0619565512 0.0052057876
0.3065655633 0.0548881784 0.0017090105
0.3439846228 0.0426396139 0.0000000000
0.3827139893 0.0284054076 0.0000000000
0.4251478525 0.0103091921 0.0000000000
0.4586261466 0.0001575125 0.0000000000
0.4904377616 0.0000000000 0.0000000000
0.5249197056 0.0000000000 0.0000000000
0.5555332413 0.0000000000 0.0000000000
0.5792329634 0.0000000000 0.0000000000
0.6007265263 0.0000000000 0.0000000000
0.6201842404 0.0000000000 0.0000000000
0.6318500087 0.0000000000 0.0000000000
0.6399658395 0.0000000000 0.0000000000
0.6477036403 0.0000000000 0.0000000000
0.6518048716 0.0000000000 0.0000000000
0.6524683929 0.0000000000 0.0000000000
0.6557840307 0.0000000000 0.0000000000
0.6601727223 0.0000000000 0.0000000000
0.6659750884 0.0000000000 0.0000000000
0.0000000000 0.0799661348 0.0571790006
0.0000246113 0.0797771198 0.0554886948
0.0032841353 0.0795300221 0.0535818093
0.0101733376 0.0792898156 0.0509346151
0.0189487518 0.0794552037 0.0480452455
0.0358833128 0.0800370154 0.0440217859
0.0589008090 0.0813798094 0.0393889500
0.0867106225 0.0827728104 0.0341890691
0.1162028662 0.0846580379 0.0297993931
0.1490560326 0.0858836820 0.0244095128
0.1866316201 0.0858049257 0.0187351255
0.2263542997 0.0855105743 0.0136159698
0.2693000785 0.0818434867 0.0077240184
0.3081288747 0.0760903433 0.0036601963
0.3428278905 0.0692877728 0.0006192210
0.3844426888 0.0567084321 0.0000000000
0.4296369583 0.0399038189 0.0000000000
0.4627913673 0.0254284217 0.0000000000
0.4954574876 0.0068862489 0.0000000000
0.5307781855 0.0000000000 0.0000000000
0.5630485557 0.0000000000 0.0000000000
0.5884169257 0.0000000000 0.0000000000
0.6104194508 0.0000000000 0.0000000000
0.6300445219 0.0000000000 0.0000000000
0.6437983151 0.0000000000 0.0000000000
0.6520549226 0.0000000000 0.0000000000
0.6585670794 0.0000000000 0.0000000000
0.6632186199 0.0000000000 0.0000000000
0.6643586165 0.0000000000 0.0000000000
0.6659298036 0.0000000000 0.0000000000
0.6698646623 0.0000000000 0.0000000000
0.6736567754 0.0000000000 0.0000000000
0.0000000000 0.0988735396 0.0683978273
0.0000000000 0.0984039555 0.0663600095
0.0000000000 0.0978280505 0.0642099641
0.0024867283 0.0973436996 0.0613137033
0.0113930749 0.0970050478 0.0578208640
0.0300996513 0.0974234403 0.0534016544
0.0535877160 0.0990162853 0.0481269551
0.0810559243 0.1010777299 0.0431032913
0.1120051585 0.1020572607 0.0363548658
0.1445364088 0.1028792790 0.0296005336
0.1803163540 0.1038371518 0.0235845411
0.2214704283 0.1039405193 0.0174139896
0.2639033070 0.1033754433 0.0124267505
0.3073275300 0.1006435862 0.0071707558
0.3438192347 0.0942200302 0.0018940876
0.3842182335 0.0854928541 0.0000000000
0.4300848845 0.0745949591 0.0000000000
0.4686715053 0.0607820987 0.0000000000
0.5025475183 0.0449855655 0.0000000000
0.5384608569 0.0242716893 0.0000000000
0.5733518411 0.0039407655 0.0000000000
0.5995747163 0.0000000000 0.0000000000
0.6200917018 0.0000000000 0.0000000000
0.6401125230 0.0000000000 0.0000000000
0.6550122195 0.0000000000 0.0000000000
0.6647563356 0.0000000000 0.0000000000
0.6707388566 0.0000000000 0.0000000000
0.6750172895 0.0000000000 0.0000000000
0.6774577485 0.0000000000 0.0000000000
0.6771072832 0.0000000000 0.0000000000
0.6795969649 0.0000000000 0.0000000000
0.6825641064 0.0000000000 0.0000000000
0.0000000000 0.1180437934 0.0793675874
0.0000000000 0.1171981482 0.0769468174
0.0000000000 0.1164578396 0.0745329386
0.0000000000 0.1160492916 0.0714968854
0.0019334657 0.1150707453 0.0667114593
0.0208910777 0.1149378441 0.0617291425
0.0436782118 0.1154369618 0.0566926808
0.0729853784 0.1176549344 0.0517251309
0.1038597942 0.1210926444 0.0474112577
0.1389496378 0.1221529003 0.0401302431
0.1742659057 0.1232190629 0.0327488143
0.2129578629 0.1241513400 0.0253634478
0.2584130125 0.1239633094 0.0177742994
0.3052020959 0.1244683338 0.0119394463
0.3458157055 0.1206703141 0.0054952168
0.3866547548 0.1135871745 0.0000000000
0.4342294317 0.1053679762 0.0000000000
0.4767656780 0.0953127730 0.0000000000
0.5108513796 0.0836125488 0.0000000000
0.5460352385 0.0718926356 0.0000000000
0.5831875112 0.0537186482 0.0000000000
0.6119532286 0.0305564375 0.0000000000
0.6323619243 0.0104420932 0.0000000000
0.6527814490 0.0013388561 0.0000000000
0.6679902638 0.0000000000 0.0000000000
0.6789147390 0.0000000000 0.0000000000
0.6852910412 0.0000000000 0.0000000000
0.6891481282 0.0000000000 0.0000000000
0.6906444968 0.0000000000 0.0000000000
0.6901906639 0.0000000000 0.0000000000
0.6917618510 0.0000000000 0.0000000000
0.6941629319 0.0000000000 0.0000000000
0.0000000000 0.1395590143 0.0972462388
0.0000000000 0.1388895862 0.0946659874
0.0000000000 0.1378893819 0.0918238715
0.0000000000 0.1365337901 0.0878466813
0.0000000000 0.1351949340 0.0830573173
0.0013427939 0.1349694943 0.0781094564
0.0249037082 0.1354292338 0.0722184895
0.0580433504 0.1378923353 0.0665539468
0.0918947521 0.1397942985 0.0599679561
0.1264598823 0.1423253273 0.0538230003
0.1651272282 0.1433885365 0.0456175843
0.2054415641 0.1454401366 0.0381091611
0.2536305397 0.1478067617 0.0296979944
0.3036200799 0.1481148955 0.0196713404
0.3459249798 0.1470841732 0.0105582587
0.3888569762 0.1435933028 0.0018153314
0.4366108236 0.1380006251 0.0000000000
0.4849435293 0.1311025628 0.0000000000
0.5204197708 0.1220268903 0.0000000000
0.5552231386 0.1129384200 0.0000000000
0.5925053591 0.1014075217 0.0000000000
0.6243622590 0.0838763822 0.0000000000
0.6465577369 0.0682531127 0.0000000000
0.6677274148 0.0537117571 0.0000000000
0.6841618736 0.0378069340 0.0000000000
0.6934108098 0.0202177118 0.0000000000
0.7016585572 0.0138935856 0.0000000000
0.7064016519 0.0071943827 0.0000000000
0.7072157946 0.0013555918 0.0000000000
0.7068919095 0.0000000000 0.0000000000
0.7081323203 0.0000000000 0.0000000000
0.7094682231 0.0000000000 0.0000000000
0.0000000000 0.1649529801 0.1184287145
0.0000000000 0.1643150545 0.1157559246
0.0000000000 0.1637686831 0.1126982135
0.0000000000 0.1624377026 0.1084995213
0.0000000000 0.1611382246 0.1040173067
0.0000000000 0.1594134629 0.0985358722
0.0000000000 0.1594784368 0.0930416399
0.0311382492 0.1606135111 0.0860943549
0.0729853784 0.1632104982 0.0786676413
0.1133400768 0.1654186263 0.0697790149
0.1545748763 0.1662101266 0.0595121543
0.1960351154 0.1673698122 0.0505703675
0.2442024331 0.1713814583 0.0418746939
0.2999618524 0.1740640928 0.0296340050
0.3477678758 0.1739617097 0.0175852844
0.3892566641 0.1724791234 0.0072810146
0.4365566787 0.1697669554 0.0000000000
0.4885899433 0.1651036014 0.0000000000
0.5288338908 0.1593475045 0.0000000000
0.5648451825 0.1527615138 0.0000000000
0.6027643441 0.1425704561 0.0000000000
0.6377842916 0.1322652018 0.0000000000
0.6617183135 0.1228863178 0.0000000000
0.6837296987 0.1122591474 0.0000000000
0.7011968488 0.1021271569 0.0000000000
0.7104507072 0.0874607757 0.0000000000
0.7176263853 0.0746038192 0.0000000000
0.7247646542 0.0697760615 0.0000000000
0.7267798295 0.0561925787 0.0000000000
0.7265465142 0.0415498244 0.0000000000
0.7271686885 0.0399244925 0.0000000000
0.7269412798 0.0388681744 0.0000000000
0.0000000000 0.1945771405 0.1465939156
0.0000000000 0.1930423782 0.1427378131
0.0000000000 0.1921130546 0.1388610371
0.0000000000 0.1911128503 0.1339633833
0.0000000000 0.1895288654 0.1282604469
0.0000000000 0.1883494907 0.1219560097
0.0000000000 0.1871071110 0.1146001767
0.0000000000 0.1873473175 0.1068604070
0.0405466668 0.1888771575 0.0982021427
0.0942505482 0.1922321734 0.0904328394
0.1396072525 0.1950821649 0.0819340564
0.1870273703 0.1962615396 0.0696205180
0.2341403387 0.1981054202 0.0566739762
0.2882823017 0.2015657725 0.0428000797
0.3475138869 0.2031930734 0.0276542699
0.3929070160 0.2024232311 0.0152905244
0.4395513848 0.2020944238 0.0029326856
0.4905150412 0.2001599736 0.0000000000
0.5363728320 0.1956442876 0.0000000000
0.5743372785 0.1905497432 0.0000000000
0.6145787649 0.1836861367 0.0000000000
0.6519997933 0.1763854330 0.0000000000
0.6781104409 0.1713519247 0.0000000000
0.7002025512 0.1633345393 0.0000000000
0.7182928600 0.1518292368 0.0000000000
0.7290903408 0.1436001939 0.0000000000
0.7367356030 0.1351516181 0.0000000000
0.7417346555 0.1248237214 0.0000000000
0.7458004464 0.1197400060 0.0000000000
0.7470457795 0.1125584211 0.0000000000
0.7467218945 0.1079482276 0.0000000000
0.7456921566 0.1050716559 0.0000000000
0.0000000000 0.2309280685 0.1792314867
0.0000000000 0.2272914990 0.1742009318
0.0000000000 0.2239601100 0.1691752991
0.0000000000 0.2211947814 0.1630785815
0.0000000000 0.2199750441 0.1577241415
0.0000000000 0.2182857227 0.1515201185
0.0000000000 0.2172589382 0.1434672928
0.0000000000 0.2167834474 0.1335784621
0.0000000000 0.2170827211 0.1213869959
0.0569250118 0.2206917259 0.1115798748
0.1215760108 0.2256573070 0.1019115617
0.1725943044 0.2288420125 0.0904604041
0.2264104135 0.2312056842 0.0763571300
0.2821540817 0.2348097668 0.0606413219
0.3412261855 0.2369735945 0.0434143784
0.3944870631 0.2378123485 0.0307031210
0.4447542190 0.2374490853 0.0148603184
0.4976670924 0.2371261847 0.0000689117
0.5442760209 0.2356042204 0.0000000000
0.5851770908 0.2299849625 0.0000000000
0.6256194055 0.2250105213 0.0000000000
0.6646785638 0.2196373767 0.0000000000
0.6939985282 0.2146619511 0.0000000000
0.7155432827 0.2069920776 0.0000000000
0.7351191311 0.1991341736 0.0000000000
0.7478618911 0.1904591735 0.0000000000
0.7555494848 0.1842266014 0.0000000000
0.7609718520 0.1749855408 0.0000000000
0.7629191001 0.1635058341 0.0000000000
0.7656568640 0.1608724223 0.0000000000
0.7661175880 0.1581317050 0.0000000000
0.7651577463 0.1556745103 0.0000000000
0.0000000000 0.2718626097 0.2146609667
0.0000000000 0.2682408071 0.2080690692
0.0000000000 0.2625742954 0.2006108531
0.0000000000 0.2568752969 0.1918433145
0.0000000000 0.2531963959 0.1831171228
0.0000000000 0.2514263494 0.1756845025
0.0000000000 0.2502538658 0.1682863380
0.0000000000 0.2494229875 0.1588247600
0.0000000000 0.2496986343 0.1484998166
0.0000708806 0.2515887841 0.1370132187
0.0834766943 0.2577898537 0.1274335064
0.1578058511 0.2630251749 0.1139632356
0.2164044330 0.2683658326 0.1015423918
0.2756330648 0.2717700712 0.0858974643
0.3384155721 0.2766076733 0.0673060689
0.3953986666 0.2787724855 0.0458587753
0.4474703249 0.2775281369 0.0236347482
0.5029280094 0.2769266361 0.0027978155
0.5531971343 0.2751910454 0.0000000000
0.5962403739 0.2746712542 0.0000000000
0.6385974498 0.2715584138 0.0000000000
0.6790397645 0.2663673929 0.0000000000
0.7090163591 0.2601092251 0.0000000000
0.7310720447 0.2524531339 0.0000000000
0.7514443156 0.2452065752 0.0000000000
0.7672093464 0.2410068986 0.0000000000
0.7757012382 0.2316152167 0.0000000000
0.7811659369 0.2242013010 0.0000000000
0.7846883099 0.2161898222 0.0000000000
0.7856776852 0.2085199487 0.0000000000
0.7857771149 0.2043084587 0.0000000000
0.7850653554 0.2025039563 0.0000000000
0.0000000000 0.3051440132 0.2457903558
0.0000000000 0.3082804805 0.2407430651
0.0000000000 0.3037332920 0.2337977490
0.0000000000 0.2962022263 0.2222875243
0.0000000000 0.2901891873 0.2103963162
0.0000000000 0.2882153589 0.2013915244
0.0000000000 0.2866431875 0.1926604105
0.0000000000 0.2861647433 0.1825205443
0.0000000000 0.2876552052 0.1737372544
0.0000000000 0.2910151433 0.1656923043
0.0190324303 0.2951390171 0.1561667368
0.1233342440 0.2999559457 0.1414462107
0.1998941713 0.3039410116 0.1238688019
0.2667779099 0.3101115631 0.1101189465
0.3334342398 0.3158912869 0.0954968657
0.3939574273 0.3197070268 0.0749217975
0.4484035864 0.3199866114 0.0501559127
0.5044617872 0.3188249569 0.0209629427
0.5628063802 0.3180295188 0.0000000000
0.6059401896 0.3161521669 0.0000000000
0.6474476825 0.3154266250 0.0000000000
0.6916545456 0.3135866823 0.0000000000
0.7250028918 0.3076012079 0.0000000000
0.7479751032 0.3015192571 0.0000000000
0.7688839010 0.2939232176 0.0000000000
0.7850761844 0.2886534405 0.0000000000
0.7958264114 0.2834870311 0.0000000000
0.8023149413 0.2738433292 0.0000000000
0.8075010398 0.2692912184 0.0000000000
0.8091322785 0.2627042432 0.0000000000
0.8078072047 0.2539288290 0.0000000000
0.8068552386 0.2516193022 0.0000000000
0.0000000000 0.3434746762 0.2746180938
0.0000000000 0.3464300042 0.2689053128
0.0000000000 0.3422667523 0.2620781311
0.0000000000 0.3346953241 0.2522099740
0.0000000000 0.3281349291 0.2415591767
0.0000000000 0.3257604284 0.2326863016
0.0000000000 0.3244196034 0.2228841028
0.0000000000 0.3237826623 0.2116898875
0.0000000000 0.3252475284 0.2004572784
0.0000000000 0.3296037330 0.1879635851
0.0000000000 0.3355330936 0.1778256878
0.0724626339 0.3420442659 0.1683483585
0.1721434250 0.3484087547 0.1560111932
0.2513072306 0.3536814851 0.1383422303
0.3250841092 0.3593726081 0.1192251370
0.3923862403 0.3645232663 0.0991383575
0.4488554503 0.3647073590 0.0747278603
0.5092531201 0.3662952818 0.0494766402
0.5685703527 0.3656583407 0.0187912394
0.6165850801 0.3625553447 0.0000000000
0.6593457817 0.3602290822 0.0000000000
0.7011377816 0.3592269090 0.0000000000
0.7390628499 0.3554731897 0.0000000000
0.7632794099 0.3497407197 0.0000000000
0.7865528639 0.3452329093 0.0000000000
0.8035435387 0.3375817404 0.0000000000
0.8144571849 0.3312841944 0.0000000000
0.8219242611 0.3243034380 0.0000000000
0.8277423785 0.3173354794 0.0000000000
0.8303245988 0.3117733198 0.0000000000
0.8303167231 0.3049205423 0.0000000000
0.8279481292 0.2993839785 0.0000000000
0.0000000000 0.3837545562 0.3021936075
0.0000000000 0.3880871339 0.2992717509
0.0000000000 0.3833676661 0.2929131688
0.0000000000 0.3745410603 0.2819709734
0.0000000000 0.3669922745 0.2691632395
0.0000000000 0.3628447739 0.2591346166
0.0000000000 0.3616220833 0.2508543822
0.0000000000 0.3606268012 0.2409852406
0.0000000000 0.3615767984 0.2306534061
0.0000000000 0.3657961641 0.2199504328
0.0000000000 0.3730486295 0.2063393853
0.0031295762 0.3813987601 0.1932107197
0.1348602200 0.3902991999 0.1810044866
0.2279274557 0.3985666364 0.1681760793
0.3164504562 0.4068813266 0.1492233896
0.3910001304 0.4119807933 0.1265760478
0.4496065880 0.4146260186 0.1045459580
0.5099510973 0.4154647726 0.0771870239
0.5755363423 0.4180154904 0.0414001875
0.6252462978 0.4163675160 0.0054656832
0.6705163702 0.4112404846 0.0000000000
0.7148630257 0.4088965020 0.0000000000
0.7547451866 0.4084899229 0.0000000000
0.7793072896 0.4025507178 0.0000000000
0.8028829707 0.3967709941 0.0000000000
0.8225247775 0.3901879567 0.0000000000
0.8338213759 0.3820996906 0.0000000000
0.8419076731 0.3755136999 0.0000000000
0.8482603484 0.3689306625 0.0000000000
0.8506141756 0.3604131749 0.0000000000
0.8517846903 0.3546196689 0.0000000000
0.8504891501 0.3514290566 0.0000000000
0.0000000000 0.4149558104 0.3289559630
0.0000000000 0.4179249207 0.3246775301
0.0000000000 0.4171097936 0.3208706503
0.0000000000 0.4111361326 0.3129950261
0.0000000000 0.4056763561 0.3034950544
0.0000000000 0.4007353864 0.2916727580
0.0000000000 0.3995195869 0.2793011368
0.0000000000 0.3995766852 0.2674680114
0.0000000000 0.4003150250 0.2567286134
0.0000000000 0.4046692607 0.2475042885
0.0000000000 0.4135815139 0.2388716199
0.0000000000 0.4220497789 0.2260688083
0.0507643047 0.4317220298 0.2111819097
0.1964712281 0.4422537083 0.1960991049
0.2944508844 0.4508292786 0.1786171881
0.3809153936 0.4583386863 0.1580519644
0.4469397047 0.4613855684 0.1351506336
0.5077547826 0.4639303795 0.1097921081
0.5789395964 0.4680729578 0.0735957393
0.6338218681 0.4685523864 0.0343101568
0.6790102309 0.4673218202 0.0001191188
0.7248719596 0.4614643247 0.0000000000
0.7691014651 0.4613127189 0.0000000000
0.7956383809 0.4583820022 0.0000000000
0.8186450481 0.4510478272 0.0000000000
0.8410118208 0.4446321468 0.0000000000
0.8536531821 0.4376248102 0.0000000000
0.8620377685 0.4296389272 0.0000000000
0.8698306987 0.4238749548 0.0000000000
0.8735253509 0.4171865809 0.0000000000
0.8753751381 0.4115397584 0.0000000000
0.8727742132 0.4047115922 0.0000000000
0.0000000000 0.4393702454 0.3465195894
0.0000000000 0.4417880620 0.3434746762
0.0000000000 0.4436043779 0.3432659721
0.0000000000 0.4408282203 0.3401147380
0.0000000000 0.4363469902 0.3339687978
0.0000000000 0.4319061226 0.3238141648
0.0000000000 0.4307976285 0.3124673592
0.0000000000 0.4330461192 0.3003467736
0.0000000000 0.4360674055 0.2890806932
0.0000000000 0.4425136039 0.2776954939
0.0000000000 0.4535493223 0.2664215379
0.0000000000 0.4642542645 0.2546130238
0.0000000000 0.4750241806 0.2422975165
0.1273399833 0.4873544548 0.2270552303
0.2659529382 0.4990950416 0.2089934706
0.3630682447 0.5077601971 0.1892158093
0.4366659529 0.5115473879 0.1670931809
0.5067575317 0.5140419918 0.1412168332
0.5771144205 0.5165902485 0.1100342836
0.6398624719 0.5183632484 0.0712074562
0.6860864793 0.5177952190 0.0309895968
0.7348720334 0.5176475511 0.0000000000
0.7782942875 0.5113091502 0.0000000000
0.8081862191 0.5081707140 0.0000000000
0.8338656763 0.5049062678 0.0000000000
0.8557530204 0.4993431237 0.0000000000
0.8719118324 0.4940438131 0.0000000000
0.8827526291 0.4876822776 0.0000000000
0.8918794931 0.4832945705 0.0000000000
0.8959423307 0.4756571839 0.0000000000
0.8981415988 0.4697514502 0.0000000000
0.8953733169 0.4613668638 0.0000000000
0.0000000000 0.4631674284 0.3603649367
0.0000000000 0.4654523439 0.3582335959
0.0000000000 0.4661641034 0.3584767558
0.0000000000 0.4643842123 0.3564802851
