LUTs/SPK Cube Block1 S32/TheBrim_SPK_Type-Y_Block1_S32.cube
TITLE "TheBrim® Industrial Imaging Burau"
# © Copyright 2022 - TheBrim® d.o.o. Croatia
LUT_3D_SIZE 5
DOMAIN_MIN 0.000000 0.000000 0.000000
DOMAIN_MAX 0.903226 0.903226 0.903226
0.000000 0.000031 0.000031
0.093717 0.000031 0.000031
0.417879 0.000031 0.000031
0.821889 0.000031 0.000031
0.999523 0.000031 0.000031
0.000000 0.130454 0.000031
0.093717 0.130454 0.000031
0.417879 0.130454 0.000031
0.821889 0.130454 0.000031
0.999523 0.130454 0.000031
0.000000 0.425970 0.000031
0.093717 0.425970 0.000031
0.417879 0.425970 0.000031
0.821889 0.425970 0.000031
0.999523 0.425970 0.000031
0.000000 0.815428 0.000031
0.093717 0.815428 0.000031
0.417879 0.815428 0.000031
0.821889 0.815428 0.000031
0.999523 0.815428 0.000031
0.000000 0.984952 0.000031
0.093717 0.984952 0.000031
0.417879 0.984952 0.000031
0.821889 0.984952 0.000031
0.999523 0.984952 0.000031
0.000000 0.000031 0.126350
0.093717 0.000031 0.126350
0.417879 0.000031 0.126350
0.821889 0.000031 0.126350
0.999523 0.000031 0.126350
0.000000 0.130454 0.126350
0.093717 0.130454 0.126350
0.417879 0.130454 0.126350
0.821889 0.130454 0.126350
0.999523 0.130454 0.126350
0.000000 0.425970 0.126350
0.093717 0.425970 0.126350
0.417879 0.425970 0.126350
0.821889 0.425970 0.126350
0.999523 0.425970 0.126350
0.000000 0.815428 0.126350
0.093717 0.815428 0.126350
0.417879 0.815428 0.126350
0.821889 0.815428 0.126350
0.999523 0.815428 0.126350
0.000000 0.984952 0.126350
0.093717 0.984952 0.126350
0.417879 0.984952 0.126350
0.821889 0.984952 0.126350
0.999523 0.984952 0.126350
0.000000 0.000031 0.406896
0.093717 0.000031 0.406896
0.417879 0.000031 0.406896
0.821889 0.000031 0.406896
0.999523 0.000031 0.406896
0.000000 0.130454 0.406896
0.093717 0.130454 0.406896
0.417879 0.130454 0.406896
0.821889 0.130454 0.406896
0.999523 0.130454 0.406896
0.000000 0.425970 0.406896
0.093717 0.425970 0.406896
0.417879 0.425970 0.406896
0.821889 0.425970 0.406896
0.999523 0.425970 0.406896
0.000000 0.815428 0.406896
0.093717 0.815428 0.406896
0.417879 0.815428 0.406896
0.821889 0.815428 0.406896
0.999523 0.815428 0.406896
0.000000 0.984952 0.406896
0.093717 0.984952 0.406896
0.417879 0.984952 0.406896
0.821889 0.984952 0.406896
0.999523 0.984952 0.406896
0.000000 0.000031 0.721444
0.093717 0.000031 0.721444
0.417879 0.000031 0.721444
0.821889 0.000031 0.721444
0.999523 0.000031 0.721444
0.000000 0.130454 0.721444
0.093717 0.130454 0.721444
0.417879 0.130454 0.721444
0.821889 0.130454 0.721444
0.999523 0.130454 0.721444
0.000000 0.425970 0.721444
0.093717 0.425970 0.721444
0.417879 0.425970 0.721444
0.821889 0.425970 0.721444
0.999523 0.425970 0.721444
0.000000 0.815428 0.721444
0.093717 0.815428 0.721444
0.417879 0.815428 0.721444
0.821889 0.815428 0.721444
0.999523 0.815428 0.721444
0.000000 0.984952 0.721444
0.093717 0.984952 0.721444
0.417879 0.984952 0.721444
0.821889 0.984952 0.721444
0.999523 0.984952 0.721444
0.000000 0.000031 0.956059
0.093717 0.000031 0.956059
0.417879 0.000031 0.956059
0.821889 0.000031 0.956059
0.999523 0.000031 0.956059
0.000000 0.130454 0.956059
0.093717 0.130454 0.956059
0.417879 0.130454 0.956059
0.821889 0.130454 0.956059
0.999523 0.130454 0.956059
0.000000 0.425970 0.956059
0.093717 0.425970 0.956059
0.417879 0.425970 0.956059
0.821889 0.425970 0.956059
0.999523 0.425970 0.956059
0.000000 0.815428 0.956059
0.093717 0.815428 0.956059
0.417879 0.815428 0.956059
0.821889 0.815428 0.956059
0.999523 0.815428 0.956059
0.000000 0.984952 0.956059
0.093717 0.984952 0.956059
0.417879 0.984952 0.956059
0.821889 0.984952 0.956059
0.999523 0.984952 0.956059
