LUTs/SPK Cube Block1 S32/TheBrim_SPK_Type-Z_Block1_S32.cube
TITLE "TheBrim® Industrial Imaging Burau"
# © Copyright 2022 - TheBrim® d.o.o. Croatia
LUT_3D_SIZE 8
DOMAIN_MIN 0.000000 0.000000 0.000000
DOMAIN_MAX 0.903226 0.903226 0.903226
0.000000 0.000000 0.000000
0.000000 0.000000 0.000000
0.000000 0.000000 0.000000
0.000000 0.000000 0.000000
0.002004 0.002004 0.002004
0.007553 0.007553 0.007553
0.022972 0.022972 0.022972
0.054878 0.054878 0.054878
0.000000 0.000000 0.000000
0.000000 0.000000 0.000000
0.001397 0.001397 0.001397
0.007238 0.007238 0.007238
0.022136 0.022136 0.022136
0.053648 0.053648 0.053648
0.122413 0.122413 0.122413
0.227073 0.227073 0.227073
0.000899 0.000899 0.000899
0.007057 0.007057 0.007057
0.021300 0.021300 0.021300
0.052405 0.052405 0.052405
0.119332 0.119332 0.119332
0.224229 0.224229 0.224229
0.323499 0.323499 0.323499
0.426827 0.426827 0.426827
0.020452 0.020452 0.020452
0.050951 0.050951 0.050951
0.116128 0.116128 0.116128
0.220384 0.220384 0.220384
0.320502 0.320502 0.320502
0.424064 0.424064 0.424064
0.530640 0.530640 0.530640
0.635861 0.635861 0.635861
0.112765 0.112765 0.112765
0.215550 0.215550 0.215550
0.316626 0.316626 0.316626
0.420713 0.420713 0.420713
0.527066 0.527066 0.527066
0.631402 0.631402 0.631402
0.709369 0.709369 0.709369
0.778228 0.778228 0.778228
0.312857 0.312857 0.312857
0.416392 0.416392 0.416392
0.523318 0.523318 0.523318
0.628904 0.628904 0.628904
0.707134 0.707134 0.707134
0.775654 0.775654 0.775654
0.839888 0.839888 0.839888
0.893679 0.893679 0.893679
0.519680 0.519680 0.519680
0.627001 0.627001 0.627001
0.704057 0.704057 0.704057
0.774183 0.774183 0.774183
0.837819 0.837819 0.837819
0.892387 0.892387 0.892387
0.936710 0.936710 0.936710
0.969314 0.969314 0.969314
0.701714 0.701714 0.701714
0.771944 0.771944 0.771944
0.836385 0.836385 0.836385
0.891568 0.891568 0.891568
0.935616 0.935616 0.935616
0.968383 0.968383 0.968383
0.985114 0.985114 0.985114
0.995685 0.995685 0.995685
0.000000 0.000000 0.000000
0.000000 0.000000 0.000000
0.000000 0.000000 0.000000
0.000000 0.000000 0.000000
0.002187 0.002187 0.002187
0.011367 0.011367 0.011367
0.032314 0.032314 0.032314
0.074191 0.074191 0.074191
0.000000 0.000000 0.000000
0.000000 0.000000 0.000000
0.002443 0.002443 0.002443
0.011101 0.011101 0.011101
0.031727 0.031727 0.031727
0.072015 0.072015 0.072015
0.159411 0.159411 0.159411
0.263577 0.263577 0.263577
0.002380 0.002380 0.002380
0.010757 0.010757 0.010757
0.030726 0.030726 0.030726
0.070571 0.070571 0.070571
0.155972 0.155972 0.155972
0.261265 0.261265 0.261265
0.360783 0.360783 0.360783
0.465625 0.465625 0.465625
0.029796 0.029796 0.029796
0.068473 0.068473 0.068473
0.152598 0.152598 0.152598
0.258773 0.258773 0.258773
0.358145 0.358145 0.358145
0.463052 0.463052 0.463052
0.570207 0.570207 0.570207
0.664855 0.664855 0.664855
0.149213 0.149213 0.149213
0.254296 0.254296 0.254296
0.354733 0.354733 0.354733
0.459397 0.459397 0.459397
0.567654 0.567654 0.567654
0.661791 0.661791 0.661791
0.734152 0.734152 0.734152
0.802886 0.802886 0.802886
0.350648 0.350648 0.350648
0.455033 0.455033 0.455033
0.563242 0.563242 0.563242
0.659737 0.659737 0.659737
0.732457 0.732457 0.732457
0.799963 0.799963 0.799963
0.860804 0.860804 0.860804
0.911090 0.911090 0.911090
0.558930 0.558930 0.558930
0.657870 0.657870 0.657870
0.730004 0.730004 0.730004
0.798609 0.798609 0.798609
0.858960 0.858960 0.858960
0.910111 0.910111 0.910111
0.948664 0.948664 0.948664
0.976229 0.976229 0.976229
0.727215 0.727215 0.727215
0.797310 0.797310 0.797310
0.857111 0.857111 0.857111
0.908787 0.908787 0.908787
0.947060 0.947060 0.947060
0.975025 0.975025 0.975025
0.990927 0.990927 0.990927
0.996181 0.996181 0.996181
0.000000 0.000000 0.000000
0.000000 0.000000 0.000000
0.000000 0.000000 0.000000
0.000000 0.000000 0.000000
0.004768 0.004768 0.004768
0.016627 0.016627 0.016627
0.044514 0.044514 0.044514
0.100022 0.100022 0.100022
0.000000 0.000000 0.000000
0.000280 0.000280 0.000280
0.004866 0.004866 0.004866
0.016612 0.016612 0.016612
0.043069 0.043069 0.043069
0.097541 0.097541 0.097541
0.197009 0.197009 0.197009
0.300318 0.300318 0.300318
0.004862 0.004862 0.004862
0.016627 0.016627 0.016627
0.041561 0.041561 0.041561
0.096030 0.096030 0.096030
0.194176 0.194176 0.194176
0.297017 0.297017 0.297017
0.398716 0.398716 0.398716
0.505343 0.505343 0.505343
0.040462 0.040462 0.040462
0.093984 0.093984 0.093984
0.191072 0.191072 0.191072
0.293851 0.293851 0.293851
0.395450 0.395450 0.395450
0.502160 0.502160 0.502160
0.609240 0.609240 0.609240
0.691679 0.691679 0.691679
0.187085 0.187085 0.187085
0.290794 0.290794 0.290794
0.392636 0.392636 0.392636
0.498056 0.498056 0.498056
0.606231 0.606231 0.606231
0.689355 0.689355 0.689355
0.760004 0.760004 0.760004
0.825581 0.825581 0.825581
0.389276 0.389276 0.389276
0.494045 0.494045 0.494045
0.601914 0.601914 0.601914
0.687457 0.687457 0.687457
0.757491 0.757491 0.757491
0.824222 0.824222 0.824222
0.881178 0.881178 0.881178
0.926588 0.926588 0.926588
0.597597 0.597597 0.597597
0.685153 0.685153 0.685153
0.755828 0.755828 0.755828
0.821364 0.821364 0.821364
0.879316 0.879316 0.879316
0.925517 0.925517 0.925517
0.961192 0.961192 0.961192
0.982627 0.982627 0.982627
0.753753 0.753753 0.753753
0.818574 0.818574 0.818574
0.877475 0.877475 0.877475
0.924407 0.924407 0.924407
0.960590 0.960590 0.960590
0.981640 0.981640 0.981640
0.993959 0.993959 0.993959
0.999619 0.999619 0.999619
0.000000 0.000000 0.000000
0.000000 0.000000 0.000000
0.000000 0.000000 0.000000
0.002167 0.002167 0.002167
0.008284 0.008284 0.008284
0.025516 0.025516 0.025516
0.058971 0.058971 0.058971
0.135312 0.135312 0.135312
0.000000 0.000000 0.000000
0.002167 0.002167 0.002167
0.007837 0.007837 0.007837
0.024678 0.024678 0.024678
0.057891 0.057891 0.057891
0.132174 0.132174 0.132174
0.237430 0.237430 0.237430
0.337163 0.337163 0.337163
0.007525 0.007525 0.007525
0.023861 0.023861 0.023861
0.056658 0.056658 0.056658
0.129118 0.129118 0.129118
0.233655 0.233655 0.233655
0.333465 0.333465 0.333465
0.437059 0.437059 0.437059
0.545396 0.545396 0.545396
0.054708 0.054708 0.054708
0.125885 0.125885 0.125885
0.231115 0.231115 0.231115
0.330455 0.330455 0.330455
0.433165 0.433165 0.433165
0.541079 0.541079 0.541079
0.644875 0.644875 0.644875
0.718233 0.718233 0.718233
0.228556 0.228556 0.228556
0.327470 0.327470 0.327470
0.430664 0.430664 0.430664
0.537164 0.537164 0.537164
0.640818 0.640818 0.640818
0.715766 0.715766 0.715766
0.785844 0.785844 0.785844
0.847814 0.847814 0.847814
0.427630 0.427630 0.427630
0.534359 0.534359 0.534359
0.637906 0.637906 0.637906
0.713772 0.713772 0.713772
0.783244 0.783244 0.783244
0.846012 0.846012 0.846012
0.899017 0.899017 0.899017
0.940849 0.940849 0.940849
0.635696 0.635696 0.635696
0.711805 0.711805 0.711805
0.780674 0.780674 0.780674
0.844019 0.844019 0.844019
0.897152 0.897152 0.897152
0.939512 0.939512 0.939512
0.970549 0.970549 0.970549
0.987235 0.987235 0.987235
0.778520 0.778520 0.778520
0.842142 0.842142 0.842142
0.895943 0.895943 0.895943
0.939089 0.939089 0.939089
0.970452 0.970452 0.970452
0.986865 0.986865 0.986865
0.995862 0.995862 0.995862
1.000000 1.000000 1.000000
0.000000 0.000000 0.000000
0.000000 0.000000 0.000000
0.000000 0.000000 0.000000
0.002994 0.002994 0.002994
0.012829 0.012829 0.012829
0.034883 0.034883 0.034883
0.081351 0.081351 0.081351
0.173204 0.173204 0.173204
0.000000 0.000000 0.000000
0.002474 0.002474 0.002474
0.012072 0.012072 0.012072
0.034457 0.034457 0.034457
0.078891 0.078891 0.078891
0.169668 0.169668 0.169668
0.274358 0.274358 0.274358
0.375687 0.375687 0.375687
0.011883 0.011883 0.011883
0.033606 0.033606 0.033606
0.076065 0.076065 0.076065
0.166150 0.166150 0.166150
0.271179 0.271179 0.271179
0.371405 0.371405 0.371405
0.476184 0.476184 0.476184
0.584035 0.584035 0.584035
0.074324 0.074324 0.074324
0.162808 0.162808 0.162808
0.267983 0.267983 0.267983
0.367573 0.367573 0.367573
0.473282 0.473282 0.473282
0.579660 0.579660 0.579660
0.672936 0.672936 0.672936
0.744413 0.744413 0.744413
0.264941 0.264941 0.264941
0.365043 0.365043 0.365043
0.470622 0.470622 0.470622
0.576440 0.576440 0.576440
0.669890 0.669890 0.669890
0.741589 0.741589 0.741589
0.808652 0.808652 0.808652
0.868217 0.868217 0.868217
0.466606 0.466606 0.466606
0.573948 0.573948 0.573948
0.667175 0.667175 0.667175
0.739049 0.739049 0.739049
0.806477 0.806477 0.806477
0.866386 0.866386 0.866386
0.915425 0.915425 0.915425
0.954025 0.954025 0.954025
0.665135 0.665135 0.665135
0.736991 0.736991 0.736991
0.804554 0.804554 0.804554
0.864492 0.864492 0.864492
0.914045 0.914045 0.914045
0.953098 0.953098 0.953098
0.978504 0.978504 0.978504
0.991351 0.991351 0.991351
0.802911 0.802911 0.802911
0.862691 0.862691 0.862691
0.913159 0.913159 0.913159
0.951220 0.951220 0.951220
0.977752 0.977752 0.977752
0.991540 0.991540 0.991540
0.998575 0.998575 0.998575
1.000000 1.000000 1.000000
0.000000 0.000000 0.000000
0.000000 0.000000 0.000000
0.000496 0.000496 0.000496
0.005362 0.005362 0.005362
0.018778 0.018778 0.018778
0.047758 0.047758 0.047758
0.109511 0.109511 0.109511
0.213814 0.213814 0.213814
0.000280 0.000280 0.000280
0.004937 0.004937 0.004937
0.018017 0.018017 0.018017
0.047157 0.047157 0.047157
0.106382 0.106382 0.106382
0.209443 0.209443 0.209443
0.310774 0.310774 0.310774
0.413129 0.413129 0.413129
0.017275 0.017275 0.017275
0.046148 0.046148 0.046148
0.103233 0.103233 0.103233
0.204581 0.204581 0.204581
0.307428 0.307428 0.307428
0.409627 0.409627 0.409627
0.516004 0.516004 0.516004
0.622285 0.622285 0.622285
0.100236 0.100236 0.100236
0.201266 0.201266 0.201266
0.304056 0.304056 0.304056
0.405672 0.405672 0.405672
0.513198 0.513198 0.513198
0.618953 0.618953 0.618953
0.699781 0.699781 0.699781
0.768936 0.768936 0.768936
0.300811 0.300811 0.300811
0.401770 0.401770 0.401770
0.509547 0.509547 0.509547
0.616330 0.616330 0.616330
0.696559 0.696559 0.696559
0.766982 0.766982 0.766982
0.831653 0.831653 0.831653
0.887930 0.887930 0.887930
0.505197 0.505197 0.505197
0.613434 0.613434 0.613434
0.694308 0.694308 0.694308
0.764535 0.764535 0.764535
0.829803 0.829803 0.829803
0.886481 0.886481 0.886481
0.931754 0.931754 0.931754
0.965613 0.965613 0.965613
0.692806 0.692806 0.692806
0.761698 0.761698 0.761698
0.828295 0.828295 0.828295
0.884895 0.884895 0.884895
0.929861 0.929861 0.929861
0.964603 0.964603 0.964603
0.983308 0.983308 0.983308
0.995181 0.995181 0.995181
0.826083 0.826083 0.826083
0.883033 0.883033 0.883033
0.928356 0.928356 0.928356
0.963633 0.963633 0.963633
0.982978 0.982978 0.982978
0.995000 0.995000 0.995000
0.999841 0.999841 0.999841
1.000000 1.000000 1.000000
0.000000 0.000000 0.000000
0.000000 0.000000 0.000000
0.002167 0.002167 0.002167
0.009445 0.009445 0.009445
0.028094 0.028094 0.028094
0.063895 0.063895 0.063895
0.145632 0.145632 0.145632
0.251487 0.251487 0.251487
0.002167 0.002167 0.002167
0.009228 0.009228 0.009228
0.027231 0.027231 0.027231
0.062770 0.062770 0.062770
0.142241 0.142241 0.142241
0.247955 0.247955 0.247955
0.347656 0.347656 0.347656
0.452729 0.452729 0.452729
0.026391 0.026391 0.026391
0.061174 0.061174 0.061174
0.138861 0.138861 0.138861
0.243903 0.243903 0.243903
0.344245 0.344245 0.344245
0.448660 0.448660 0.448660
0.555878 0.555878 0.555878
0.654898 0.654898 0.654898
0.135574 0.135574 0.135574
0.240151 0.240151 0.240151
0.340040 0.340040 0.340040
0.444340 0.444340 0.444340
0.552499 0.552499 0.552499
0.652771 0.652771 0.652771
0.725410 0.725410 0.725410
0.794082 0.794082 0.794082
0.336589 0.336589 0.336589
0.440959 0.440959 0.440959
0.548217 0.548217 0.548217
0.650714 0.650714 0.650714
0.723199 0.723199 0.723199
0.792113 0.792113 0.792113
0.853394 0.853394 0.853394
0.905488 0.905488 0.905488
0.544573 0.544573 0.544573
0.647460 0.647460 0.647460
0.720218 0.720218 0.720218
0.790329 0.790329 0.790329
0.851570 0.851570 0.851570
0.904549 0.904549 0.904549
0.943825 0.943825 0.943825
0.973251 0.973251 0.973251
0.718109 0.718109 0.718109
0.787968 0.787968 0.787968
0.849729 0.849729 0.849729
0.902238 0.902238 0.902238
0.942703 0.942703 0.942703
0.972075 0.972075 0.972075
0.988354 0.988354 0.988354
0.996063 0.996063 0.996063
0.847867 0.847867 0.847867
0.899910 0.899910 0.899910
0.941935 0.941935 0.941935
0.972033 0.972033 0.972033
0.988004 0.988004 0.988004
0.996063 0.996063 0.996063
1.000000 1.000000 1.000000
1.000000 1.000000 1.000000
0.000000 0.000000 0.000000
0.000000 0.000000 0.000000
0.003895 0.003895 0.003895
0.014345 0.014345 0.014345
0.038141 0.038141 0.038141
0.086938 0.086938 0.086938
0.183144 0.183144 0.183144
0.287748 0.287748 0.287748
0.003254 0.003254 0.003254
0.014016 0.014016 0.014016
0.037082 0.037082 0.037082
0.085969 0.085969 0.085969
0.180427 0.180427 0.180427
0.284189 0.284189 0.284189
0.384686 0.384686 0.384686
0.491653 0.491653 0.491653
0.036511 0.036511 0.036511
0.083714 0.083714 0.083714
0.177192 0.177192 0.177192
0.280654 0.280654 0.280654
0.382307 0.382307 0.382307
0.487348 0.487348 0.487348
0.595431 0.595431 0.595431
0.682164 0.682164 0.682164
0.173071 0.173071 0.173071
0.277209 0.277209 0.277209
0.378654 0.378654 0.378654
0.482931 0.482931 0.482931
0.591251 0.591251 0.591251
0.680331 0.680331 0.680331
0.750324 0.750324 0.750324
0.817215 0.817215 0.817215
0.374275 0.374275 0.374275
0.480138 0.480138 0.480138
0.587285 0.587285 0.587285
0.678245 0.678245 0.678245
0.748735 0.748735 0.748735
0.815253 0.815253 0.815253
0.873767 0.873767 0.873767
0.921402 0.921402 0.921402
0.584374 0.584374 0.584374
0.674951 0.674951 0.674951
0.746241 0.746241 0.746241
0.812845 0.812845 0.812845
0.871928 0.871928 0.871928
0.920521 0.920521 0.920521
0.957019 0.957019 0.957019
0.979509 0.979509 0.979509
0.743231 0.743231 0.743231
0.810606 0.810606 0.810606
0.870072 0.870072 0.870072
0.918680 0.918680 0.918680
0.956376 0.956376 0.956376
0.978781 0.978781 0.978781
0.991422 0.991422 0.991422
0.999182 0.999182 0.999182
0.868264 0.868264 0.868264
0.916718 0.916718 0.916718
0.955558 0.955558 0.955558
0.979256 0.979256 0.979256
0.991776 0.991776 0.991776
0.999367 0.999367 0.999367
1.000000 1.000000 1.000000
1.000000 1.000000 1.000000
