LUTs/SPK Cube Block1 S32/TheBrim_SPK_Type-S_Block1_S32.cube
TITLE "TheBrim® Industrial Imaging Burau"
# © Copyright 2022 - TheBrim® d.o.o. Croatia
LUT_3D_SIZE 32
DOMAIN_MIN 0.000000 0.000000 0.000000
DOMAIN_MAX 1.000000 1.000000 1.000000
0.000061 0.000061 0.000031
0.000523 0.000061 0.000031
0.003562 0.000061 0.000031
0.011637 0.000061 0.000031
0.023674 0.000061 0.000031
0.040814 0.000061 0.000031
0.062963 0.000061 0.000031
0.089871 0.000061 0.000031
0.120294 0.000061 0.000031
0.155898 0.000061 0.000031
0.201238 0.000061 0.000031
0.251543 0.000061 0.000031
0.305330 0.000061 0.000031
0.361477 0.000061 0.000031
0.414170 0.000061 0.000031
0.472414 0.000061 0.000031
0.535585 0.000061 0.000031
0.591751 0.000061 0.000031
0.649125 0.000061 0.000031
0.706602 0.000061 0.000031
0.762139 0.000061 0.000031
0.817016 0.000061 0.000031
0.871683 0.000061 0.000031
0.918531 0.000061 0.000031
0.949504 0.000061 0.000031
0.974276 0.000061 0.000031
0.988716 0.000061 0.000031
0.994867 0.000061 0.000031
0.998509 0.000061 0.000031
0.999874 0.000061 0.000031
0.999878 0.000061 0.000031
0.999878 0.000061 0.000031
0.000061 0.000804 0.000031
0.000523 0.000804 0.000031
0.003562 0.000804 0.000031
0.011637 0.000804 0.000031
0.023674 0.000804 0.000031
0.040814 0.000804 0.000031
0.062963 0.000804 0.000031
0.089871 0.000804 0.000031
0.120294 0.000804 0.000031
0.155898 0.000804 0.000031
0.201238 0.000804 0.000031
0.251543 0.000804 0.000031
0.305330 0.000804 0.000031
0.361477 0.000804 0.000031
0.414170 0.000804 0.000031
0.472414 0.000804 0.000031
0.535585 0.000804 0.000031
0.591751 0.000804 0.000031
0.649125 0.000804 0.000031
0.706602 0.000804 0.000031
0.762139 0.000804 0.000031
0.817016 0.000804 0.000031
0.871683 0.000804 0.000031
0.918531 0.000804 0.000031
0.949504 0.000804 0.000031
0.974276 0.000804 0.000031
0.988716 0.000804 0.000031
0.994867 0.000804 0.000031
0.998509 0.000804 0.000031
0.999874 0.000804 0.000031
0.999878 0.000804 0.000031
0.999878 0.000804 0.000031
0.000061 0.008045 0.000031
0.000523 0.008045 0.000031
0.003562 0.008045 0.000031
0.011637 0.008045 0.000031
0.023674 0.008045 0.000031
0.040814 0.008045 0.000031
0.062963 0.008045 0.000031
0.089871 0.008045 0.000031
0.120294 0.008045 0.000031
0.155898 0.008045 0.000031
0.201238 0.008045 0.000031
0.251543 0.008045 0.000031
0.305330 0.008045 0.000031
0.361477 0.008045 0.000031
0.414170 0.008045 0.000031
0.472414 0.008045 0.000031
0.535585 0.008045 0.000031
0.591751 0.008045 0.000031
0.649125 0.008045 0.000031
0.706602 0.008045 0.000031
0.762139 0.008045 0.000031
0.817016 0.008045 0.000031
0.871683 0.008045 0.000031
0.918531 0.008045 0.000031
0.949504 0.008045 0.000031
0.974276 0.008045 0.000031
0.988716 0.008045 0.000031
0.994867 0.008045 0.000031
0.998509 0.008045 0.000031
0.999874 0.008045 0.000031
0.999878 0.008045 0.000031
0.999878 0.008045 0.000031
0.000061 0.026325 0.000031
0.000523 0.026325 0.000031
0.003562 0.026325 0.000031
0.011637 0.026325 0.000031
0.023674 0.026325 0.000031
0.040814 0.026325 0.000031
0.062963 0.026325 0.000031
0.089871 0.026325 0.000031
0.120294 0.026325 0.000031
0.155898 0.026325 0.000031
0.201238 0.026325 0.000031
0.251543 0.026325 0.000031
0.305330 0.026325 0.000031
0.361477 0.026325 0.000031
0.414170 0.026325 0.000031
0.472414 0.026325 0.000031
0.535585 0.026325 0.000031
0.591751 0.026325 0.000031
0.649125 0.026325 0.000031
0.706602 0.026325 0.000031
0.762139 0.026325 0.000031
0.817016 0.026325 0.000031
0.871683 0.026325 0.000031
0.918531 0.026325 0.000031
0.949504 0.026325 0.000031
0.974276 0.026325 0.000031
0.988716 0.026325 0.000031
0.994867 0.026325 0.000031
0.998509 0.026325 0.000031
0.999874 0.026325 0.000031
0.999878 0.026325 0.000031
0.999878 0.026325 0.000031
0.000061 0.049025 0.000031
0.000523 0.049025 0.000031
0.003562 0.049025 0.000031
0.011637 0.049025 0.000031
0.023674 0.049025 0.000031
0.040814 0.049025 0.000031
0.062963 0.049025 0.000031
0.089871 0.049025 0.000031
0.120294 0.049025 0.000031
0.155898 0.049025 0.000031
0.201238 0.049025 0.000031
0.251543 0.049025 0.000031
0.305330 0.049025 0.000031
0.361477 0.049025 0.000031
0.414170 0.049025 0.000031
0.472414 0.049025 0.000031
0.535585 0.049025 0.000031
0.591751 0.049025 0.000031
0.649125 0.049025 0.000031
0.706602 0.049025 0.000031
0.762139 0.049025 0.000031
0.817016 0.049025 0.000031
0.871683 0.049025 0.000031
0.918531 0.049025 0.000031
0.949504 0.049025 0.000031
0.974276 0.049025 0.000031
0.988716 0.049025 0.000031
0.994867 0.049025 0.000031
0.998509 0.049025 0.000031
0.999874 0.049025 0.000031
0.999878 0.049025 0.000031
0.999878 0.049025 0.000031
0.000061 0.071680 0.000031
0.000523 0.071680 0.000031
0.003562 0.071680 0.000031
0.011637 0.071680 0.000031
0.023674 0.071680 0.000031
0.040814 0.071680 0.000031
0.062963 0.071680 0.000031
0.089871 0.071680 0.000031
0.120294 0.071680 0.000031
0.155898 0.071680 0.000031
0.201238 0.071680 0.000031
0.251543 0.071680 0.000031
0.305330 0.071680 0.000031
0.361477 0.071680 0.000031
0.414170 0.071680 0.000031
0.472414 0.071680 0.000031
0.535585 0.071680 0.000031
0.591751 0.071680 0.000031
0.649125 0.071680 0.000031
0.706602 0.071680 0.000031
0.762139 0.071680 0.000031
0.817016 0.071680 0.000031
0.871683 0.071680 0.000031
0.918531 0.071680 0.000031
0.949504 0.071680 0.000031
0.974276 0.071680 0.000031
0.988716 0.071680 0.000031
0.994867 0.071680 0.000031
0.998509 0.071680 0.000031
0.999874 0.071680 0.000031
0.999878 0.071680 0.000031
0.999878 0.071680 0.000031
0.000061 0.096344 0.000031
0.000523 0.096344 0.000031
0.003562 0.096344 0.000031
0.011637 0.096344 0.000031
0.023674 0.096344 0.000031
0.040814 0.096344 0.000031
0.062963 0.096344 0.000031
0.089871 0.096344 0.000031
0.120294 0.096344 0.000031
0.155898 0.096344 0.000031
0.201238 0.096344 0.000031
0.251543 0.096344 0.000031
0.305330 0.096344 0.000031
0.361477 0.096344 0.000031
0.414170 0.096344 0.000031
0.472414 0.096344 0.000031
0.535585 0.096344 0.000031
0.591751 0.096344 0.000031
0.649125 0.096344 0.000031
0.706602 0.096344 0.000031
0.762139 0.096344 0.000031
0.817016 0.096344 0.000031
0.871683 0.096344 0.000031
0.918531 0.096344 0.000031
0.949504 0.096344 0.000031
0.974276 0.096344 0.000031
0.988716 0.096344 0.000031
0.994867 0.096344 0.000031
0.998509 0.096344 0.000031
0.999874 0.096344 0.000031
0.999878 0.096344 0.000031
0.999878 0.096344 0.000031
0.000061 0.123867 0.000031
0.000523 0.123867 0.000031
0.003562 0.123867 0.000031
0.011637 0.123867 0.000031
0.023674 0.123867 0.000031
0.040814 0.123867 0.000031
0.062963 0.123867 0.000031
0.089871 0.123867 0.000031
0.120294 0.123867 0.000031
0.155898 0.123867 0.000031
0.201238 0.123867 0.000031
0.251543 0.123867 0.000031
0.305330 0.123867 0.000031
0.361477 0.123867 0.000031
0.414170 0.123867 0.000031
0.472414 0.123867 0.000031
0.535585 0.123867 0.000031
0.591751 0.123867 0.000031
0.649125 0.123867 0.000031
0.706602 0.123867 0.000031
0.762139 0.123867 0.000031
0.817016 0.123867 0.000031
0.871683 0.123867 0.000031
0.918531 0.123867 0.000031
0.949504 0.123867 0.000031
0.974276 0.123867 0.000031
0.988716 0.123867 0.000031
0.994867 0.123867 0.000031
0.998509 0.123867 0.000031
0.999874 0.123867 0.000031
0.999878 0.123867 0.000031
0.999878 0.123867 0.000031
0.000061 0.153284 0.000031
0.000523 0.153284 0.000031
0.003562 0.153284 0.000031
0.011637 0.153284 0.000031
0.023674 0.153284 0.000031
0.040814 0.153284 0.000031
0.062963 0.153284 0.000031
0.089871 0.153284 0.000031
0.120294 0.153284 0.000031
0.155898 0.153284 0.000031
0.201238 0.153284 0.000031
0.251543 0.153284 0.000031
0.305330 0.153284 0.000031
0.361477 0.153284 0.000031
0.414170 0.153284 0.000031
0.472414 0.153284 0.000031
0.535585 0.153284 0.000031
0.591751 0.153284 0.000031
0.649125 0.153284 0.000031
0.706602 0.153284 0.000031
0.762139 0.153284 0.000031
0.817016 0.153284 0.000031
0.871683 0.153284 0.000031
0.918531 0.153284 0.000031
0.949504 0.153284 0.000031
0.974276 0.153284 0.000031
0.988716 0.153284 0.000031
0.994867 0.153284 0.000031
0.998509 0.153284 0.000031
0.999874 0.153284 0.000031
0.999878 0.153284 0.000031
0.999878 0.153284 0.000031
0.000061 0.185935 0.000031
0.000523 0.185935 0.000031
0.003562 0.185935 0.000031
0.011637 0.185935 0.000031
0.023674 0.185935 0.000031
0.040814 0.185935 0.000031
0.062963 0.185935 0.000031
0.089871 0.185935 0.000031
0.120294 0.185935 0.000031
0.155898 0.185935 0.000031
0.201238 0.185935 0.000031
0.251543 0.185935 0.000031
0.305330 0.185935 0.000031
0.361477 0.185935 0.000031
0.414170 0.185935 0.000031
0.472414 0.185935 0.000031
0.535585 0.185935 0.000031
0.591751 0.185935 0.000031
0.649125 0.185935 0.000031
0.706602 0.185935 0.000031
0.762139 0.185935 0.000031
0.817016 0.185935 0.000031
0.871683 0.185935 0.000031
0.918531 0.185935 0.000031
0.949504 0.185935 0.000031
0.974276 0.185935 0.000031
0.988716 0.185935 0.000031
0.994867 0.185935 0.000031
0.998509 0.185935 0.000031
0.999874 0.185935 0.000031
0.999878 0.185935 0.000031
0.999878 0.185935 0.000031
0.000061 0.226436 0.000031
0.000523 0.226436 0.000031
0.003562 0.226436 0.000031
0.011637 0.226436 0.000031
0.023674 0.226436 0.000031
0.040814 0.226436 0.000031
0.062963 0.226436 0.000031
0.089871 0.226436 0.000031
0.120294 0.226436 0.000031
0.155898 0.226436 0.000031
0.201238 0.226436 0.000031
0.251543 0.226436 0.000031
0.305330 0.226436 0.000031
0.361477 0.226436 0.000031
0.414170 0.226436 0.000031
0.472414 0.226436 0.000031
0.535585 0.226436 0.000031
0.591751 0.226436 0.000031
0.649125 0.226436 0.000031
0.706602 0.226436 0.000031
0.762139 0.226436 0.000031
0.817016 0.226436 0.000031
0.871683 0.226436 0.000031
0.918531 0.226436 0.000031
0.949504 0.226436 0.000031
0.974276 0.226436 0.000031
0.988716 0.226436 0.000031
0.994867 0.226436 0.000031
0.998509 0.226436 0.000031
0.999874 0.226436 0.000031
0.999878 0.226436 0.000031
0.999878 0.226436 0.000031
0.000061 0.272515 0.000031
0.000523 0.272515 0.000031
0.003562 0.272515 0.000031
0.011637 0.272515 0.000031
0.023674 0.272515 0.000031
0.040814 0.272515 0.000031
0.062963 0.272515 0.000031
0.089871 0.272515 0.000031
0.120294 0.272515 0.000031
0.155898 0.272515 0.000031
0.201238 0.272515 0.000031
0.251543 0.272515 0.000031
0.305330 0.272515 0.000031
0.361477 0.272515 0.000031
0.414170 0.272515 0.000031
0.472414 0.272515 0.000031
0.535585 0.272515 0.000031
0.591751 0.272515 0.000031
0.649125 0.272515 0.000031
0.706602 0.272515 0.000031
0.762139 0.272515 0.000031
0.817016 0.272515 0.000031
0.871683 0.272515 0.000031
0.918531 0.272515 0.000031
0.949504 0.272515 0.000031
0.974276 0.272515 0.000031
0.988716 0.272515 0.000031
0.994867 0.272515 0.000031
0.998509 0.272515 0.000031
0.999874 0.272515 0.000031
0.999878 0.272515 0.000031
0.999878 0.272515 0.000031
0.000061 0.318154 0.000031
0.000523 0.318154 0.000031
0.003562 0.318154 0.000031
0.011637 0.318154 0.000031
0.023674 0.318154 0.000031
0.040814 0.318154 0.000031
0.062963 0.318154 0.000031
0.089871 0.318154 0.000031
0.120294 0.318154 0.000031
0.155898 0.318154 0.000031
0.201238 0.318154 0.000031
0.251543 0.318154 0.000031
0.305330 0.318154 0.000031
0.361477 0.318154 0.000031
0.414170 0.318154 0.000031
0.472414 0.318154 0.000031
0.535585 0.318154 0.000031
0.591751 0.318154 0.000031
0.649125 0.318154 0.000031
0.706602 0.318154 0.000031
0.762139 0.318154 0.000031
0.817016 0.318154 0.000031
0.871683 0.318154 0.000031
0.918531 0.318154 0.000031
0.949504 0.318154 0.000031
0.974276 0.318154 0.000031
0.988716 0.318154 0.000031
0.994867 0.318154 0.000031
0.998509 0.318154 0.000031
0.999874 0.318154 0.000031
0.999878 0.318154 0.000031
0.999878 0.318154 0.000031
0.000061 0.364718 0.000031
0.000523 0.364718 0.000031
0.003562 0.364718 0.000031
0.011637 0.364718 0.000031
0.023674 0.364718 0.000031
0.040814 0.364718 0.000031
0.062963 0.364718 0.000031
0.089871 0.364718 0.000031
0.120294 0.364718 0.000031
0.155898 0.364718 0.000031
0.201238 0.364718 0.000031
0.251543 0.364718 0.000031
0.305330 0.364718 0.000031
0.361477 0.364718 0.000031
0.414170 0.364718 0.000031
0.472414 0.364718 0.000031
0.535585 0.364718 0.000031
0.591751 0.364718 0.000031
0.649125 0.364718 0.000031
0.706602 0.364718 0.000031
0.762139 0.364718 0.000031
0.817016 0.364718 0.000031
0.871683 0.364718 0.000031
0.918531 0.364718 0.000031
0.949504 0.364718 0.000031
0.974276 0.364718 0.000031
0.988716 0.364718 0.000031
0.994867 0.364718 0.000031
0.998509 0.364718 0.000031
0.999874 0.364718 0.000031
0.999878 0.364718 0.000031
0.999878 0.364718 0.000031
0.000061 0.415301 0.000031
0.000523 0.415301 0.000031
0.003562 0.415301 0.000031
0.011637 0.415301 0.000031
0.023674 0.415301 0.000031
0.040814 0.415301 0.000031
0.062963 0.415301 0.000031
0.089871 0.415301 0.000031
0.120294 0.415301 0.000031
0.155898 0.415301 0.000031
0.201238 0.415301 0.000031
0.251543 0.415301 0.000031
0.305330 0.415301 0.000031
0.361477 0.415301 0.000031
0.414170 0.415301 0.000031
0.472414 0.415301 0.000031
0.535585 0.415301 0.000031
0.591751 0.415301 0.000031
0.649125 0.415301 0.000031
0.706602 0.415301 0.000031
0.762139 0.415301 0.000031
0.817016 0.415301 0.000031
0.871683 0.415301 0.000031
0.918531 0.415301 0.000031
0.949504 0.415301 0.000031
0.974276 0.415301 0.000031
0.988716 0.415301 0.000031
0.994867 0.415301 0.000031
0.998509 0.415301 0.000031
0.999874 0.415301 0.000031
0.999878 0.415301 0.000031
0.999878 0.415301 0.000031
0.000061 0.465641 0.000031
0.000523 0.465641 0.000031
0.003562 0.465641 0.000031
0.011637 0.465641 0.000031
0.023674 0.465641 0.000031
0.040814 0.465641 0.000031
0.062963 0.465641 0.000031
0.089871 0.465641 0.000031
0.120294 0.465641 0.000031
0.155898 0.465641 0.000031
0.201238 0.465641 0.000031
0.251543 0.465641 0.000031
0.305330 0.465641 0.000031
0.361477 0.465641 0.000031
0.414170 0.465641 0.000031
0.472414 0.465641 0.000031
0.535585 0.465641 0.000031
0.591751 0.465641 0.000031
0.649125 0.465641 0.000031
0.706602 0.465641 0.000031
0.762139 0.465641 0.000031
0.817016 0.465641 0.000031
0.871683 0.465641 0.000031
0.918531 0.465641 0.000031
0.949504 0.465641 0.000031
0.974276 0.465641 0.000031
0.988716 0.465641 0.000031
0.994867 0.465641 0.000031
0.998509 0.465641 0.000031
0.999874 0.465641 0.000031
0.999878 0.465641 0.000031
0.999878 0.465641 0.000031
0.000061 0.516770 0.000031
0.000523 0.516770 0.000031
0.003562 0.516770 0.000031
0.011637 0.516770 0.000031
0.023674 0.516770 0.000031
0.040814 0.516770 0.000031
0.062963 0.516770 0.000031
0.089871 0.516770 0.000031
0.120294 0.516770 0.000031
0.155898 0.516770 0.000031
0.201238 0.516770 0.000031
0.251543 0.516770 0.000031
0.305330 0.516770 0.000031
0.361477 0.516770 0.000031
0.414170 0.516770 0.000031
0.472414 0.516770 0.000031
0.535585 0.516770 0.000031
0.591751 0.516770 0.000031
0.649125 0.516770 0.000031
0.706602 0.516770 0.000031
0.762139 0.516770 0.000031
0.817016 0.516770 0.000031
0.871683 0.516770 0.000031
0.918531 0.516770 0.000031
0.949504 0.516770 0.000031
0.974276 0.516770 0.000031
0.988716 0.516770 0.000031
0.994867 0.516770 0.000031
0.998509 0.516770 0.000031
0.999874 0.516770 0.000031
0.999878 0.516770 0.000031
0.999878 0.516770 0.000031
0.000061 0.574362 0.000031
0.000523 0.574362 0.000031
0.003562 0.574362 0.000031
0.011637 0.574362 0.000031
0.023674 0.574362 0.000031
0.040814 0.574362 0.000031
0.062963 0.574362 0.000031
0.089871 0.574362 0.000031
0.120294 0.574362 0.000031
0.155898 0.574362 0.000031
0.201238 0.574362 0.000031
0.251543 0.574362 0.000031
0.305330 0.574362 0.000031
0.361477 0.574362 0.000031
0.414170 0.574362 0.000031
0.472414 0.574362 0.000031
0.535585 0.574362 0.000031
0.591751 0.574362 0.000031
0.649125 0.574362 0.000031
0.706602 0.574362 0.000031
0.762139 0.574362 0.000031
0.817016 0.574362 0.000031
0.871683 0.574362 0.000031
0.918531 0.574362 0.000031
0.949504 0.574362 0.000031
0.974276 0.574362 0.000031
0.988716 0.574362 0.000031
0.994867 0.574362 0.000031
0.998509 0.574362 0.000031
0.999874 0.574362 0.000031
0.999878 0.574362 0.000031
0.999878 0.574362 0.000031
0.000061 0.629110 0.000031
0.000523 0.629110 0.000031
0.003562 0.629110 0.000031
0.011637 0.629110 0.000031
0.023674 0.629110 0.000031
0.040814 0.629110 0.000031
0.062963 0.629110 0.000031
0.089871 0.629110 0.000031
0.120294 0.629110 0.000031
0.155898 0.629110 0.000031
0.201238 0.629110 0.000031
0.251543 0.629110 0.000031
0.305330 0.629110 0.000031
0.361477 0.629110 0.000031
0.414170 0.629110 0.000031
0.472414 0.629110 0.000031
0.535585 0.629110 0.000031
0.591751 0.629110 0.000031
0.649125 0.629110 0.000031
0.706602 0.629110 0.000031
0.762139 0.629110 0.000031
0.817016 0.629110 0.000031
0.871683 0.629110 0.000031
0.918531 0.629110 0.000031
0.949504 0.629110 0.000031
0.974276 0.629110 0.000031
0.988716 0.629110 0.000031
0.994867 0.629110 0.000031
0.998509 0.629110 0.000031
0.999874 0.629110 0.000031
0.999878 0.629110 0.000031
0.999878 0.629110 0.000031
0.000061 0.684724 0.000031
0.000523 0.684724 0.000031
0.003562 0.684724 0.000031
0.011637 0.684724 0.000031
0.023674 0.684724 0.000031
0.040814 0.684724 0.000031
0.062963 0.684724 0.000031
0.089871 0.684724 0.000031
0.120294 0.684724 0.000031
0.155898 0.684724 0.000031
0.201238 0.684724 0.000031
0.251543 0.684724 0.000031
0.305330 0.684724 0.000031
0.361477 0.684724 0.000031
0.414170 0.684724 0.000031
0.472414 0.684724 0.000031
0.535585 0.684724 0.000031
0.591751 0.684724 0.000031
0.649125 0.684724 0.000031
0.706602 0.684724 0.000031
0.762139 0.684724 0.000031
0.817016 0.684724 0.000031
0.871683 0.684724 0.000031
0.918531 0.684724 0.000031
0.949504 0.684724 0.000031
0.974276 0.684724 0.000031
0.988716 0.684724 0.000031
0.994867 0.684724 0.000031
0.998509 0.684724 0.000031
0.999874 0.684724 0.000031
0.999878 0.684724 0.000031
0.999878 0.684724 0.000031
0.000061 0.744253 0.000031
0.000523 0.744253 0.000031
0.003562 0.744253 0.000031
0.011637 0.744253 0.000031
0.023674 0.744253 0.000031
0.040814 0.744253 0.000031
0.062963 0.744253 0.000031
0.089871 0.744253 0.000031
0.120294 0.744253 0.000031
0.155898 0.744253 0.000031
0.201238 0.744253 0.000031
0.251543 0.744253 0.000031
0.305330 0.744253 0.000031
0.361477 0.744253 0.000031
0.414170 0.744253 0.000031
0.472414 0.744253 0.000031
0.535585 0.744253 0.000031
0.591751 0.744253 0.000031
0.649125 0.744253 0.000031
0.706602 0.744253 0.000031
0.762139 0.744253 0.000031
0.817016 0.744253 0.000031
0.871683 0.744253 0.000031
0.918531 0.744253 0.000031
0.949504 0.744253 0.000031
0.974276 0.744253 0.000031
0.988716 0.744253 0.000031
0.994867 0.744253 0.000031
0.998509 0.744253 0.000031
0.999874 0.744253 0.000031
0.999878 0.744253 0.000031
0.999878 0.744253 0.000031
0.000061 0.803467 0.000031
0.000523 0.803467 0.000031
0.003562 0.803467 0.000031
0.011637 0.803467 0.000031
0.023674 0.803467 0.000031
0.040814 0.803467 0.000031
0.062963 0.803467 0.000031
0.089871 0.803467 0.000031
0.120294 0.803467 0.000031
0.155898 0.803467 0.000031
0.201238 0.803467 0.000031
0.251543 0.803467 0.000031
0.305330 0.803467 0.000031
0.361477 0.803467 0.000031
0.414170 0.803467 0.000031
0.472414 0.803467 0.000031
0.535585 0.803467 0.000031
0.591751 0.803467 0.000031
0.649125 0.803467 0.000031
0.706602 0.803467 0.000031
0.762139 0.803467 0.000031
0.817016 0.803467 0.000031
0.871683 0.803467 0.000031
0.918531 0.803467 0.000031
0.949504 0.803467 0.000031
0.974276 0.803467 0.000031
0.988716 0.803467 0.000031
0.994867 0.803467 0.000031
0.998509 0.803467 0.000031
0.999874 0.803467 0.000031
0.999878 0.803467 0.000031
0.999878 0.803467 0.000031
0.000061 0.864699 0.000031
0.000523 0.864699 0.000031
0.003562 0.864699 0.000031
0.011637 0.864699 0.000031
0.023674 0.864699 0.000031
0.040814 0.864699 0.000031
0.062963 0.864699 0.000031
0.089871 0.864699 0.000031
0.120294 0.864699 0.000031
0.155898 0.864699 0.000031
0.201238 0.864699 0.000031
0.251543 0.864699 0.000031
0.305330 0.864699 0.000031
0.361477 0.864699 0.000031
0.414170 0.864699 0.000031
0.472414 0.864699 0.000031
0.535585 0.864699 0.000031
0.591751 0.864699 0.000031
0.649125 0.864699 0.000031
0.706602 0.864699 0.000031
0.762139 0.864699 0.000031
0.817016 0.864699 0.000031
0.871683 0.864699 0.000031
0.918531 0.864699 0.000031
0.949504 0.864699 0.000031
0.974276 0.864699 0.000031
0.988716 0.864699 0.000031
0.994867 0.864699 0.000031
0.998509 0.864699 0.000031
0.999874 0.864699 0.000031
0.999878 0.864699 0.000031
0.999878 0.864699 0.000031
0.000061 0.911848 0.000031
0.000523 0.911848 0.000031
0.003562 0.911848 0.000031
0.011637 0.911848 0.000031
0.023674 0.911848 0.000031
0.040814 0.911848 0.000031
0.062963 0.911848 0.000031
0.089871 0.911848 0.000031
0.120294 0.911848 0.000031
0.155898 0.911848 0.000031
0.201238 0.911848 0.000031
0.251543 0.911848 0.000031
0.305330 0.911848 0.000031
0.361477 0.911848 0.000031
0.414170 0.911848 0.000031
0.472414 0.911848 0.000031
0.535585 0.911848 0.000031
0.591751 0.911848 0.000031
0.649125 0.911848 0.000031
0.706602 0.911848 0.000031
0.762139 0.911848 0.000031
0.817016 0.911848 0.000031
0.871683 0.911848 0.000031
0.918531 0.911848 0.000031
0.949504 0.911848 0.000031
0.974276 0.911848 0.000031
0.988716 0.911848 0.000031
0.994867 0.911848 0.000031
0.998509 0.911848 0.000031
0.999874 0.911848 0.000031
0.999878 0.911848 0.000031
0.999878 0.911848 0.000031
0.000061 0.939762 0.000031
0.000523 0.939762 0.000031
0.003562 0.939762 0.000031
0.011637 0.939762 0.000031
0.023674 0.939762 0.000031
0.040814 0.939762 0.000031
0.062963 0.939762 0.000031
0.089871 0.939762 0.000031
0.120294 0.939762 0.000031
0.155898 0.939762 0.000031
0.201238 0.939762 0.000031
0.251543 0.939762 0.000031
0.305330 0.939762 0.000031
0.361477 0.939762 0.000031
0.414170 0.939762 0.000031
0.472414 0.939762 0.000031
0.535585 0.939762 0.000031
0.591751 0.939762 0.000031
0.649125 0.939762 0.000031
0.706602 0.939762 0.000031
0.762139 0.939762 0.000031
0.817016 0.939762 0.000031
0.871683 0.939762 0.000031
0.918531 0.939762 0.000031
0.949504 0.939762 0.000031
0.974276 0.939762 0.000031
0.988716 0.939762 0.000031
0.994867 0.939762 0.000031
0.998509 0.939762 0.000031
0.999874 0.939762 0.000031
0.999878 0.939762 0.000031
0.999878 0.939762 0.000031
0.000061 0.962952 0.000031
0.000523 0.962952 0.000031
0.003562 0.962952 0.000031
0.011637 0.962952 0.000031
0.023674 0.962952 0.000031
0.040814 0.962952 0.000031
0.062963 0.962952 0.000031
0.089871 0.962952 0.000031
0.120294 0.962952 0.000031
0.155898 0.962952 0.000031
0.201238 0.962952 0.000031
0.251543 0.962952 0.000031
0.305330 0.962952 0.000031
0.361477 0.962952 0.000031
0.414170 0.962952 0.000031
0.472414 0.962952 0.000031
0.535585 0.962952 0.000031
0.591751 0.962952 0.000031
0.649125 0.962952 0.000031
0.706602 0.962952 0.000031
0.762139 0.962952 0.000031
0.817016 0.962952 0.000031
0.871683 0.962952 0.000031
0.918531 0.962952 0.000031
0.949504 0.962952 0.000031
0.974276 0.962952 0.000031
0.988716 0.962952 0.000031
0.994867 0.962952 0.000031
0.998509 0.962952 0.000031
0.999874 0.962952 0.000031
0.999878 0.962952 0.000031
0.999878 0.962952 0.000031
0.000061 0.979598 0.000031
0.000523 0.979598 0.000031
0.003562 0.979598 0.000031
0.011637 0.979598 0.000031
0.023674 0.979598 0.000031
0.040814 0.979598 0.000031
0.062963 0.979598 0.000031
0.089871 0.979598 0.000031
0.120294 0.979598 0.000031
0.155898 0.979598 0.000031
0.201238 0.979598 0.000031
0.251543 0.979598 0.000031
0.305330 0.979598 0.000031
0.361477 0.979598 0.000031
0.414170 0.979598 0.000031
0.472414 0.979598 0.000031
0.535585 0.979598 0.000031
0.591751 0.979598 0.000031
0.649125 0.979598 0.000031
0.706602 0.979598 0.000031
0.762139 0.979598 0.000031
0.817016 0.979598 0.000031
0.871683 0.979598 0.000031
0.918531 0.979598 0.000031
0.949504 0.979598 0.000031
0.974276 0.979598 0.000031
0.988716 0.979598 0.000031
0.994867 0.979598 0.000031
0.998509 0.979598 0.000031
0.999874 0.979598 0.000031
0.999878 0.979598 0.000031
0.999878 0.979598 0.000031
0.000061 0.989352 0.000031
0.000523 0.989352 0.000031
0.003562 0.989352 0.000031
0.011637 0.989352 0.000031
0.023674 0.989352 0.000031
0.040814 0.989352 0.000031
0.062963 0.989352 0.000031
0.089871 0.989352 0.000031
0.120294 0.989352 0.000031
0.155898 0.989352 0.000031
0.201238 0.989352 0.000031
0.251543 0.989352 0.000031
0.305330 0.989352 0.000031
0.361477 0.989352 0.000031
0.414170 0.989352 0.000031
0.472414 0.989352 0.000031
0.535585 0.989352 0.000031
0.591751 0.989352 0.000031
