LUTs/SPK Cube Block1 S32/TheBrim_SPK_Type-I_Block1_S32.cube
TITLE "TheBrim® SPK Block 1"
# © Copyright 2021 - TheBrim® d.o.o. Croatia
LUT_3D_SIZE 8
DOMAIN_MIN 0.000000 0.000000 0.000000
DOMAIN_MAX 0.903226 0.903226 0.903226
0.006195 0.007263 0.008331
0.009311 0.010558 0.012100
0.020216 0.022468 0.024912
0.049564 0.054089 0.057976
0.101128 0.107156 0.112931
0.157585 0.163122 0.173039
0.198622 0.204559 0.217085
0.228278 0.233758 0.248555
0.009917 0.011142 0.012802
0.014805 0.016511 0.018541
0.028470 0.031422 0.034590
0.064504 0.069784 0.073737
0.123276 0.129256 0.136641
0.196507 0.202433 0.214829
0.271806 0.274999 0.293793
0.311668 0.314899 0.332225
0.022357 0.024778 0.027428
0.033699 0.037063 0.040463
0.053407 0.058110 0.062024
0.094950 0.100945 0.106264
0.158167 0.163751 0.173683
0.242755 0.247469 0.263596
0.343256 0.347325 0.361540
0.401459 0.401871 0.413523
0.065890 0.071215 0.075183
0.078326 0.084157 0.088360
0.105635 0.111709 0.117803
0.152865 0.158501 0.168056
0.223834 0.229500 0.243893
0.316705 0.320079 0.336894
0.420020 0.418768 0.429883
0.503395 0.499193 0.500821
0.124586 0.130550 0.138024
0.152960 0.158570 0.168154
0.191199 0.197062 0.209131
0.246646 0.251157 0.267647
0.320793 0.324282 0.340695
0.410714 0.410302 0.421677
0.509545 0.505217 0.505995
0.595704 0.595773 0.584862
0.214564 0.220617 0.234194
0.268206 0.271583 0.290059
0.318096 0.321499 0.338181
0.375059 0.377888 0.390249
0.446596 0.443721 0.452873
0.526640 0.522886 0.521387
0.602757 0.602982 0.590875
0.679428 0.682571 0.655090
0.280284 0.283048 0.302619
0.357281 0.361553 0.374493
0.432957 0.430584 0.441254
0.508741 0.504432 0.505312
0.579496 0.578930 0.570509
0.649919 0.651016 0.630823
0.708909 0.714867 0.678910
0.768130 0.769947 0.726778
0.312158 0.315415 0.332687
0.404397 0.404542 0.416102
0.487219 0.483335 0.487196
0.560234 0.558436 0.552526
0.636792 0.637659 0.619717
0.709811 0.715869 0.679643
0.778359 0.779335 0.735106
0.826338 0.831708 0.776982
0.009250 0.010471 0.012012
0.015644 0.017423 0.019491
0.035899 0.039431 0.042900
0.080277 0.086164 0.090454
0.148986 0.154630 0.163930
0.210118 0.216149 0.229428
0.244192 0.248840 0.265101
0.269083 0.272407 0.290964
0.014596 0.016303 0.018302
0.021628 0.023999 0.026583
0.042359 0.046383 0.050066
0.085834 0.091752 0.096422
0.153798 0.159415 0.169035
0.238476 0.243417 0.259147
0.326270 0.329896 0.345791
0.361565 0.365609 0.378322
0.037547 0.041205 0.044736
0.046534 0.050837 0.054653
0.072661 0.078298 0.082364
0.120018 0.126050 0.133170
0.192709 0.198586 0.210747
0.286109 0.288911 0.308154
0.391243 0.392602 0.404504
0.458274 0.454962 0.462820
0.090607 0.096574 0.101595
0.096908 0.102917 0.108381
0.134657 0.140507 0.148729
0.186583 0.192396 0.204172
0.264170 0.267754 0.285859
0.357512 0.361411 0.374552
0.461916 0.458528 0.465885
0.551537 0.549163 0.544393
0.165681 0.171272 0.181718
0.190890 0.196748 0.208794
0.225087 0.230710 0.245197
0.286756 0.289684 0.308602
0.362456 0.365969 0.378946
0.456088 0.452802 0.460966
0.547360 0.544733 0.540496
0.635500 0.636349 0.618625
0.271110 0.274332 0.293065
0.309952 0.313152 0.330633
0.358906 0.362675 0.375798
0.417381 0.416351 0.427549
0.485408 0.481558 0.485675
0.558314 0.556375 0.550707
0.635872 0.636717 0.618934
0.708142 0.714039 0.678296
0.360525 0.364598 0.377398
0.439149 0.436351 0.446636
0.505298 0.501073 0.502436
0.564237 0.562687 0.556253
0.620822 0.621393 0.606191
0.678233 0.681253 0.654099
0.735027 0.740335 0.700012
0.789957 0.791764 0.744964
0.400769 0.401261 0.412888
0.493835 0.489819 0.492747
0.563175 0.561566 0.555262
0.627962 0.628661 0.612234
0.691043 0.695308 0.664476
0.754214 0.757488 0.715511
0.808861 0.812680 0.761218
0.849014 0.854925 0.800351
0.020327 0.022602 0.025060
0.036129 0.039692 0.043169
0.070404 0.075924 0.079970
0.132817 0.138678 0.146772
0.218779 0.224584 0.238568
0.287487 0.290162 0.309678
0.313196 0.316488 0.333648
0.333251 0.337054 0.352238
0.030149 0.033215 0.036498
0.040329 0.044201 0.047827
0.072138 0.077756 0.081818
0.128014 0.133952 0.141667
0.208270 0.214259 0.227429
0.304716 0.307783 0.325759
0.392591 0.393833 0.405700
0.427665 0.425762 0.436595
0.062985 0.068177 0.072130
0.070543 0.076089 0.080116
0.106332 0.112374 0.118518
0.161544 0.167137 0.177291
0.241803 0.246563 0.262607
0.340760 0.344763 0.359235
0.449323 0.446219 0.455253
0.518886 0.514647 0.514167
0.121835 0.127845 0.135117
0.138352 0.144141 0.152637
0.174071 0.179753 0.190728
0.235695 0.240771 0.256246
0.318963 0.322387 0.338987
0.416389 0.415452 0.426682
0.518281 0.514132 0.513728
0.600798 0.600995 0.589238
0.207852 0.213843 0.226988
0.235041 0.240160 0.255565
0.277519 0.280619 0.299467
0.341023 0.345011 0.359470
0.421402 0.420033 0.431098
0.511317 0.507132 0.507678
0.593241 0.593198 0.582644
0.678106 0.681129 0.654007
0.321472 0.324957 0.341320
0.357322 0.361203 0.374375
0.407669 0.407532 0.419005
0.468255 0.464754 0.471221
0.536002 0.532636 0.529886
0.604840 0.605108 0.592647
0.678226 0.681253 0.654104
0.742924 0.747412 0.706414
0.434032 0.431574 0.442183
0.509507 0.505229 0.506025
0.562214 0.560531 0.554367
0.610066 0.610426 0.597078
0.664040 0.665927 0.642520
0.713497 0.719764 0.682619
0.765680 0.767726 0.724783
0.810395 0.814395 0.762552
0.489131 0.485206 0.488799
0.569069 0.567832 0.560762
0.629743 0.630454 0.613729
0.686639 0.690469 0.660901
0.739335 0.744193 0.703517
0.791650 0.793616 0.746416
0.832548 0.838104 0.783312
0.867315 0.873802 0.818281
0.041739 0.045716 0.049395
0.076341 0.082134 0.086219
0.132894 0.138748 0.146840
0.219133 0.224822 0.238875
0.313272 0.316556 0.333703
0.395316 0.396286 0.408089
0.405849 0.405892 0.417384
0.417655 0.416601 0.427792
0.065634 0.070959 0.074908
0.081180 0.087067 0.091415
0.125375 0.131343 0.138882
0.194227 0.200134 0.212384
0.286805 0.289706 0.308716
0.389446 0.390968 0.402936
0.475139 0.471483 0.477014
0.507032 0.502802 0.503949
0.102002 0.108072 0.113894
0.116512 0.122568 0.129443
0.158360 0.163979 0.173915
0.223990 0.229643 0.244057
0.314857 0.318185 0.335186
0.418603 0.417464 0.428637
0.522947 0.518923 0.517902
0.582876 0.582441 0.573485
0.173330 0.178985 0.189914
0.190565 0.196419 0.208442
0.233893 0.239057 0.254365
0.304192 0.307227 0.325277
0.390715 0.392109 0.404040
0.488458 0.484539 0.488241
0.578904 0.578241 0.569840
0.661351 0.663000 0.640343
0.273495 0.276593 0.295563
0.293641 0.296504 0.315378
0.341934 0.345918 0.360301
0.410161 0.409790 0.421184
0.490735 0.486792 0.490155
0.570087 0.568914 0.561722
0.651708 0.652941 0.632302
0.724930 0.731154 0.691875
0.383430 0.385497 0.397621
0.415671 0.414794 0.426043
0.468801 0.465282 0.471686
0.528630 0.524940 0.523172
0.590265 0.590057 0.579924
0.659814 0.661507 0.639013
0.722813 0.728871 0.690152
0.785073 0.786471 0.740810
0.502258 0.498072 0.499856
0.562570 0.560919 0.554697
0.607757 0.608083 0.595127
0.657417 0.658871 0.637068
0.703262 0.708694 0.674344
0.751560 0.755120 0.713382
0.797055 0.799613 0.751082
0.834597 0.840197 0.785436
0.562705 0.561057 0.554831
0.635445 0.636278 0.618567
0.686131 0.689921 0.660488
0.732775 0.738332 0.698203
0.782183 0.783299 0.738321
0.823328 0.828550 0.774066
0.856976 0.863067 0.808481
0.885192 0.892401 0.835017
0.069210 0.074722 0.078689
0.107992 0.114076 0.120343
0.179753 0.185493 0.196826
0.287341 0.290164 0.309328
0.406783 0.406741 0.418222
0.513388 0.509013 0.509252
0.515036 0.510755 0.510785
0.519406 0.515187 0.514641
0.105758 0.111836 0.117924
0.133438 0.139283 0.147409
0.192633 0.198506 0.210657
0.279827 0.282824 0.301832
0.383102 0.385208 0.397347
0.473946 0.470313 0.476018
0.558406 0.556472 0.550809
0.590394 0.590310 0.580257
0.158388 0.163971 0.173925
0.184814 0.190611 0.202275
0.230509 0.235864 0.250853
0.308627 0.311780 0.329395
0.403514 0.403764 0.415341
0.503679 0.499491 0.501077
0.596667 0.596721 0.585612
0.659896 0.661448 0.639149
0.235520 0.240616 0.256058
0.261120 0.264881 0.282683
0.313871 0.317154 0.334265
0.385802 0.387666 0.399723
0.474689 0.471041 0.476632
0.562398 0.560725 0.554529
0.650401 0.651564 0.631218
0.720551 0.726799 0.688319
0.341302 0.345309 0.359727
0.368684 0.371987 0.384581
0.419491 0.418282 0.429424
0.488962 0.485038 0.488660
0.560007 0.558174 0.552287
0.636661 0.637518 0.619609
0.707580 0.713428 0.677840
0.778144 0.779470 0.735006
0.445761 0.442840 0.452191
0.490518 0.486569 0.489983
0.536664 0.533348 0.530504
0.589477 0.589255 0.579234
0.652378 0.653693 0.632832
0.711474 0.717589 0.680990
0.772964 0.774397 0.730714
0.822048 0.827163 0.772906
0.562899 0.561265 0.555004
0.616804 0.617293 0.602790
0.661407 0.663092 0.640371
0.701143 0.706364 0.672641
0.746649 0.750732 0.709414
0.790800 0.792693 0.745692
0.827663 0.833014 0.778478
0.860233 0.866448 0.811597
0.628839 0.629546 0.612971
0.690865 0.695112 0.664317
0.736358 0.741538 0.701098
0.780361 0.781495 0.736807
0.818088 0.822912 0.769191
0.851201 0.857142 0.802613
0.879560 0.886566 0.829761
0.899827 0.905901 0.849184
0.089709 0.095660 0.100620
0.135880 0.141692 0.150008
0.206749 0.212782 0.225822
0.314068 0.317385 0.334450
0.443722 0.440850 0.450484
0.549354 0.546854 0.542351
0.613484 0.613916 0.599987
0.617354 0.617855 0.603253
0.147251 0.152937 0.162104
0.197919 0.203854 0.216341
0.263273 0.266920 0.284927
0.350683 0.354710 0.368341
0.450534 0.447431 0.456253
0.547241 0.544606 0.540382
0.644682 0.645686 0.626402
0.681569 0.684929 0.656820
0.218361 0.224233 0.238134
0.261189 0.264941 0.282763
0.320512 0.323994 0.340433
0.400275 0.400809 0.412466
0.495422 0.491388 0.494109
0.585046 0.584674 0.575357
0.677157 0.680095 0.653238
0.731123 0.736858 0.696867
0.306525 0.309647 0.327446
0.344633 0.348716 0.362810
0.401668 0.402065 0.413700
0.476810 0.473134 0.478423
0.556838 0.554819 0.549354
0.639749 0.640671 0.622214
0.716030 0.722310 0.684661
0.783549 0.784813 0.739485
0.408951 0.408683 0.420116
0.449662 0.446571 0.455518
0.502898 0.498700 0.500402
0.564228 0.562696 0.556260
0.632123 0.632918 0.615761
0.699936 0.705047 0.671669
0.766697 0.768645 0.725619
0.822676 0.827809 0.773505
0.513874 0.509631 0.509805
0.557278 0.555286 0.549758
0.600253 0.600398 0.588689
0.655684 0.657107 0.635613
0.708921 0.714898 0.678923
0.766036 0.768062 0.725084
0.814566 0.819035 0.766149
0.854980 0.861038 0.806465
0.621666 0.622239 0.606910
0.665252 0.667210 0.643533
0.705706 0.711363 0.676331
0.747352 0.751371 0.709994
0.789402 0.791199 0.744502
0.823639 0.828787 0.774545
0.855734 0.861795 0.807187
0.885806 0.892967 0.835615
0.690057 0.694215 0.663681
0.742457 0.746993 0.706032
0.784311 0.785548 0.740117
0.817802 0.822611 0.768929
0.847348 0.853216 0.798618
0.875307 0.882126 0.825755
0.897543 0.903838 0.846953
0.915144 0.918946 0.863366
0.109254 0.115350 0.121694
0.160556 0.166079 0.176199
0.230920 0.236244 0.251268
0.328566 0.332246 0.347895
0.452131 0.448935 0.457646
0.574117 0.573209 0.565483
0.683857 0.687430 0.658657
0.704715 0.710274 0.675508
0.176097 0.181782 0.192895
0.238095 0.243048 0.258729
0.314330 0.317644 0.334691
0.411342 0.410864 0.422228
0.525445 0.521450 0.520085
0.632745 0.633538 0.616283
0.721243 0.727507 0.688879
0.760030 0.762689 0.720229
0.266533 0.270002 0.288316
0.332872 0.336674 0.351905
0.408643 0.408401 0.419838
0.500190 0.496044 0.498107
0.587972 0.587721 0.577995
0.674067 0.676691 0.650737
0.749413 0.753203 0.711652
0.798497 0.801213 0.752323
0.372228 0.375326 0.387761
0.440813 0.438036 0.447999
0.503427 0.499226 0.500846
0.567841 0.566516 0.559616
0.642605 0.643584 0.624635
0.713415 0.719645 0.682562
0.783390 0.784899 0.739425
0.832807 0.838367 0.783582
0.480752 0.476981 0.481734
0.532214 0.528617 0.526359
0.582228 0.581750 0.572899
0.643093 0.644072 0.625052
0.701753 0.707022 0.673111
0.764297 0.766494 0.723662
0.816829 0.821538 0.768100
0.860624 0.866867 0.811965
0.573250 0.572274 0.564662
0.621833 0.622407 0.607041
0.670065 0.672389 0.647470
0.714531 0.720749 0.683463
0.767674 0.769516 0.726393
0.812030 0.816230 0.763963
0.850051 0.855959 0.801404
0.885827 0.892989 0.835639
0.675051 0.677771 0.651530
0.713997 0.720378 0.683027
0.752635 0.756086 0.714244
0.789708 0.791515 0.744761
0.822305 0.827418 0.773180
0.853435 0.859434 0.804910
0.882252 0.889357 0.832252
0.907506 0.912810 0.856638
0.744543 0.748865 0.707710
0.790298 0.792116 0.745265
0.821527 0.826673 0.772249
0.848400 0.854279 0.799701
0.873412 0.880173 0.824004
0.895699 0.902167 0.845167
0.913001 0.917275 0.861515
0.929456 0.930013 0.875564
0.130217 0.136140 0.144024
0.185608 0.191415 0.203118
0.257934 0.261868 0.279392
0.348820 0.353019 0.366699
0.464064 0.460644 0.467709
0.578608 0.577994 0.569673
0.684501 0.688122 0.659186
0.740205 0.744979 0.704212
0.203078 0.209068 0.221887
0.272219 0.275457 0.294159
0.349471 0.353535 0.367239
0.442250 0.439342 0.449252
0.544505 0.541694 0.537829
0.648656 0.649753 0.629764
0.740734 0.745439 0.704630
0.798769 0.801512 0.752557
0.297762 0.300647 0.319322
0.371076 0.374281 0.386740
0.449263 0.446110 0.455231
0.532548 0.528954 0.526665
0.618630 0.619162 0.604336
0.706131 0.711830 0.676665
0.784672 0.785987 0.740449
0.834941 0.840543 0.785776
0.407389 0.407276 0.418756
0.484318 0.480496 0.484751
0.548634 0.546082 0.541686
0.616521 0.617011 0.602547
0.689520 0.693632 0.663236
0.760928 0.763492 0.720954
0.820982 0.826052 0.771822
0.864818 0.871192 0.815954
0.521141 0.516990 0.516194
0.583965 0.583618 0.574528
0.642630 0.643597 0.624657
0.696589 0.701369 0.668946
0.755610 0.758730 0.716635
0.810159 0.814133 0.762348
0.853757 0.859755 0.805241
0.889577 0.896595 0.839220
0.620533 0.621081 0.605947
0.678684 0.681747 0.654470
0.724498 0.730693 0.691513
0.772309 0.773684 0.730150
0.813667 0.818034 0.765375
0.850328 0.856241 0.801687
0.883685 0.890868 0.833610
0.909128 0.914192 0.858124
0.716365 0.723063 0.684958
0.763456 0.765750 0.722996
0.800470 0.803400 0.754020
0.830715 0.836212 0.781438
0.856419 0.862497 0.807892
0.883434 0.890598 0.833367
0.905921 0.911382 0.855090
0.926455 0.927712 0.873032
0.789448 0.791205 0.744529
0.826062 0.831428 0.776652
0.852968 0.858948 0.804441
0.875272 0.882092 0.825735
0.894039 0.900660 0.843549
0.910961 0.915670 0.859754
0.928025 0.928912 0.874338
0.941252 0.939170 0.885603
