LUTs/SPK Cube Block1 S32/TheBrim_SPK_Type-J_Block 1_S32.cube
TITLE "TheBrim® Industrial Imaging Burau"
# © Copyright 2022 - TheBrim® d.o.o. Croatia
LUT_3D_SIZE 8
DOMAIN_MIN 0.000000 0.000000 0.000000
DOMAIN_MAX 0.903226 0.903226 0.903226
0.0000000000 0.0000000000 0.0000000000
0.0999515157 0.0000000000 0.0000000000
0.2792194272 0.0000000000 0.0000000000
0.4584381161 0.0000000000 0.0000118134
0.6376789551 0.0000000000 0.0000305180
0.8168553125 0.0000000000 0.0000610361
0.9952519831 0.0000000000 0.0000915541
1.0000000000 0.0000000000 0.0000915541
0.0000000000 0.1001119815 0.0102087779
0.0977148384 0.1000814635 0.0077466609
0.2790550235 0.0998786662 0.0018448650
0.4583692043 0.0999170598 0.0001929528
0.6376139812 0.0998904796 0.0000305180
0.8168247944 0.0998638994 0.0000610361
0.9952519831 0.0998294435 0.0000915541
1.0000000000 0.0998294435 0.0000915541
0.0000000000 0.2797155915 0.0298643670
0.0917628354 0.2798681817 0.0255475405
0.2744635346 0.2796240374 0.0198111327
0.4571593116 0.2791967848 0.0143415117
0.6371522727 0.2791199974 0.0102845808
0.8165954169 0.2790973550 0.0070093055
0.9951998070 0.2791209819 0.0032014412
0.9999616063 0.2791278731 0.0030842913
0.0000000000 0.4591823625 0.0479399090
0.0906868283 0.4593310149 0.0430205972
0.2590499536 0.4591479067 0.0384537196
0.4510143558 0.4589382182 0.0321768471
0.6347059070 0.4585532971 0.0265438069
0.8154357312 0.4584194114 0.0218036656
0.9945362857 0.4583465619 0.0179869412
0.9993118673 0.4583465619 0.0178904648
0.0000000000 0.6386712838 0.0660312022
0.0894582309 0.6388051694 0.0607190937
0.2585616649 0.6386634081 0.0572991039
0.4258665032 0.6384615953 0.0516759082
0.6275725603 0.6382430467 0.0451627670
0.8119241873 0.6379152238 0.0390148579
0.9925663952 0.6377557424 0.0336673090
0.9973695415 0.6377557424 0.0335432679
0.0000000000 0.8181872774 0.0706187533
0.0890073514 0.8182177955 0.0657358663
0.2582574689 0.8181262413 0.0657358663
0.4254904422 0.8179510087 0.0657358663
0.6034032541 0.8177600248 0.0644354039
0.8041460239 0.8175572275 0.0583258884
0.9881993616 0.8172481092 0.0520943008
0.9930576373 0.8172412181 0.0519426950
0.0000000000 0.9954931740 0.0706187533
0.0889768334 0.9954862829 0.0657053483
0.2581964328 0.9954793917 0.0657053483
0.4253949502 0.9954587182 0.0657053483
0.5922434946 0.9954242623 0.0657053483
0.7857456124 0.9953966977 0.0657053483
0.9799565364 0.9953691330 0.0657053483
0.9849319620 0.9953622418 0.0657053483
0.0000000000 1.0000000000 0.0706187533
0.0889768334 1.0000000000 0.0657053483
0.2581964328 1.0000000000 0.0657053483
0.4253880591 1.0000000000 0.0657053483
0.5922434946 1.0000000000 0.0657053483
0.7847326103 1.0000000000 0.0657053483
0.9796395425 1.0000000000 0.0657053483
0.9846494240 1.0000000000 0.0657053483
0.0026009249 0.0000000000 0.0798775340
0.0873869417 0.0000000000 0.0799651504
0.2552952498 0.0000000000 0.0814900681
0.4279387769 0.0000000000 0.0833388709
0.6047706594 0.0000000000 0.0851364821
0.7858105863 0.0000000000 0.0870571500
0.9708946463 0.0000000000 0.0889866779
1.0000000000 0.0000000000 0.0909122680
0.0000000000 0.0859752361 0.0877433137
0.0859407802 0.0859407802 0.0859407802
0.2631285425 0.0801315229 0.0750773411
0.4403438694 0.0772126197 0.0712911348
0.6188808246 0.0763866636 0.0704828988
0.7986892008 0.0769103926 0.0710007211
0.9797803193 0.0786558278 0.0727560009
1.0000000000 0.0817932796 0.0756817952
0.0000000000 0.2554557156 0.1083922159
0.0703874069 0.2604144055 0.0975189323
0.2534100222 0.2575171602 0.0871634709
0.4335678793 0.2541365486 0.0795674313
0.6126964907 0.2531835980 0.0746254772
0.7927578713 0.2537821455 0.0716514446
0.9739602330 0.2557372692 0.0690150794
1.0000000000 0.2589830108 0.0716425845
0.0000000000 0.4289734370 0.1280655252
0.0666730656 0.4363361612 0.1131008548
0.2336087341 0.4335344079 0.1028261185
0.4244134506 0.4315812531 0.0948116864
0.6071372844 0.4300760244 0.0884521199
0.7883278327 0.4304491321 0.0840122368
0.9700352188 0.4322841525 0.0818818804
0.9995294315 0.4354964227 0.0844975721
0.0000000000 0.6065259391 0.1479376940
0.0657486642 0.6147608887 0.1309056722
0.2314970823 0.6119817778 0.1207067388
0.3986178280 0.6100542188 0.1135241696
0.5993207274 0.6093503348 0.1064469368
0.7841832855 0.6093916819 0.1011594396
0.9673319108 0.6110790344 0.0976400200
0.9978056542 0.6142726000 0.1000361786
0.0000000000 0.7882923924 0.1579200476
0.0670786603 0.7957092615 0.1400738832
0.2319962000 0.7928464721 0.1326136982
0.3992262199 0.7909356488 0.1310395578
0.5742161908 0.7902967388 0.1276687906
0.7780215940 0.7908913484 0.1218930047
0.9646246650 0.7922754893 0.1176578878
0.9938451997 0.7954414903 0.1199388655
0.0000000000 0.9737229798 0.1598613890
0.0705774063 0.9785300640 0.1435618003
0.2353590915 0.9757125594 0.1360179367
0.4025960026 0.9739956733 0.1345412572
0.5696119040 0.9733774368 0.1341012067
0.7628846443 0.9739917355 0.1348208419
0.9603206364 0.9757932846 0.1366046707
0.9860611296 0.9789543632 0.1394733669
0.0000000000 1.0000000000 0.1617407098
0.0763403943 1.0000000000 0.1492952547
0.2411860690 1.0000000000 0.1417287487
0.4083973843 1.0000000000 0.1402146600
0.5754575861 1.0000000000 0.1397824851
0.7648968662 1.0000000000 0.1404903068
0.9653255955 1.0000000000 0.1423144983
0.9847793718 1.0000000000 0.1452511217
0.0090697657 0.0000000000 0.2130070856
0.0782856735 0.0000000000 0.2083653896
0.2319095681 0.0000000000 0.2130159457
0.3957442096 0.0000000000 0.2195566516
0.5684660007 0.0000000000 0.2267018116
0.7497786211 0.0000000000 0.2341206496
0.9399710079 0.0000000000 0.2418161189
1.0000000000 0.0000000000 0.2495982201
0.0077939146 0.0708697889 0.2093685472
0.0720944484 0.0640179958 0.2312302956
0.2447940893 0.0577440767 0.2246521804
0.4189261094 0.0538033112 0.2203560274
0.5964874716 0.0526081852 0.2191687771
0.7769357423 0.0539972485 0.2205706382
0.9602133310 0.0580020034 0.2243617668
1.0000000000 0.0645722429 0.2305214894
0.0000000000 0.2294051196 0.2343972809
0.0488465902 0.2360137528 0.2404447759
0.2292525294 0.2292525294 0.2292525294
0.4065564572 0.2232276769 0.2182315778
0.5846405639 0.2190604873 0.2101669386
0.7650140161 0.2191284145 0.2063187117
0.9480317092 0.2225257619 0.2059889200
1.0000000000 0.2290320120 0.2117272967
0.0000000000 0.3957077848 0.2596297964
0.0419987350 0.4084298713 0.2523596108
0.2000152590 0.4034396789 0.2384689787
0.3951850403 0.3999596374 0.2269941942
0.5758080513 0.3957924478 0.2208029691
0.7571580810 0.3957678364 0.2156001349
0.9405262394 0.3990677230 0.2148027279
0.9999960622 0.4055808642 0.2201788259
0.0000000000 0.5705136630 0.2855120509
0.0401824191 0.5859567776 0.2692016332
0.1964456324 0.5805698506 0.2551938511
0.3647733174 0.5772689796 0.2430614520
0.5677207697 0.5760334911 0.2356199716
0.7522653495 0.5753453584 0.2320798785
0.9369654728 0.5783154532 0.2297043934
0.9986079834 0.5848482835 0.2347054147
0.0000000000 0.7539743599 0.3062150981
0.0429920481 0.7686545234 0.2834899844
0.1986468693 0.7628767686 0.2723607430
0.3648343535 0.7594735145 0.2640027368
0.5447869521 0.7582754352 0.2577800092
0.7481867606 0.7597019076 0.2528321483
0.9361907082 0.7621522112 0.2511310135
0.9951062840 0.7686368033 0.2564007905
0.0000000000 0.9460135805 0.3140552820
0.0504847201 0.9564733939 0.2911086664
0.2057329622 0.9503205625 0.2793808775
0.3713583237 0.9467095888 0.2713457719
0.5406630783 0.9455449809 0.2704568108
0.7365308368 0.9470049247 0.2719354593
0.9364003967 0.9510342910 0.2757502147
0.9879552172 0.9574863961 0.2814600423
0.0000000000 1.0000000000 0.3219820977
0.0623946328 1.0000000000 0.3033464019
0.2177491958 1.0000000000 0.2913715153
0.3833519149 1.0000000000 0.2833580677
0.5526674985 1.0000000000 0.2824966713
0.7398425367 1.0000000000 0.2839694130
0.9468818681 1.0000000000 0.2877861374
0.9855403540 1.0000000000 0.2940157562
0.0149932196 0.0000000000 0.3337591093
0.0711995806 0.0000000000 0.3153793713
0.2102151768 0.0000000000 0.3213353121
0.3632070526 0.0000000000 0.3338713369
0.5302131095 0.0000000000 0.3491155920
0.7109547472 0.0000000000 0.3656967343
0.9055299188 0.0000000000 0.3830792214
1.0000000000 0.0000000000 0.4008850233
0.0125911542 0.0552691618 0.3090306337
0.0587826746 0.0410132975 0.3772758708
0.2236618207 0.0319563297 0.3679993700
0.3944368560 0.0268676920 0.3625553447
0.5706150616 0.0255327737 0.3608896502
0.7515919836 0.0277625598 0.3632405240
0.9371229853 0.0337017649 0.3694022155
1.0000000000 0.0437431857 0.3795125481
0.0098317324 0.2017597098 0.3337600937
0.0365241917 0.2059928578 0.3732189399
0.1977884263 0.1905714011 0.3621359677
0.3755767049 0.1852336968 0.3522806085
0.5514841860 0.1828660873 0.3449887649
0.7322888287 0.1842423526 0.3428160771
0.9175599347 0.1901421796 0.3478417098
1.0000000000 0.2006620447 0.3576232351
0.0000000000 0.3594553021 0.3667451768
0.0139063834 0.3751770170 0.3826568910
0.1739538341 0.3664527942 0.3714370799
0.3592416758 0.3592416758 0.3592416758
0.5387286281 0.3558699242 0.3507025303
0.7207028010 0.3548569221 0.3452998521
0.9061314196 0.3588912106 0.3455371053
1.0000000000 0.3688046525 0.3537041276
0.0000000000 0.5305163210 0.4023075579
0.0113182564 0.5517893664 0.3993364787
0.1623156304 0.5425886685 0.3862245488
0.3287009896 0.5379912728 0.3718643325
0.5312723809 0.5363403451 0.3626272098
0.7150805898 0.5352820581 0.3610068001
0.9016472360 0.5395713199 0.3594996025
0.9998385497 0.5494542439 0.3670917043
0.0000000000 0.7152804338 0.4389587440
0.0157079325 0.7365200078 0.4208861554
0.1664099705 0.7269265130 0.4092538584
0.3251707411 0.7219638853 0.3950482013
0.5117398484 0.7205698999 0.3847084912
0.7139425621 0.7229739341 0.3808415597
0.9031327756 0.7265445453 0.3832830032
0.9968910973 0.7365318212 0.3911044825
0.0000000000 0.9137323814 0.4577273410
0.0269641684 0.9293487597 0.4331524401
0.1781377594 0.9195150584 0.4213941332
0.3358500875 0.9139814480 0.4097460850
0.5049279257 0.9124407790 0.4046141313
0.7066497341 0.9148369377 0.4070024144
0.9087707381 0.9213805969 0.4122387200
0.9905925669 0.9310351277 0.4203614419
0.0000000000 1.0000000000 0.4763423632
0.0455870663 1.0000000000 0.4530275622
0.1974665101 1.0000000000 0.4409040232
0.3551315845 1.0000000000 0.4289242143
0.5238752009 1.0000000000 0.4237144889
0.7132022534 1.0000000000 0.4261549480
0.9251353008 1.0000000000 0.4324564318
0.9870721629 1.0000000000 0.4426278005
0.0209324247 0.0000000000 0.4547267281
0.0666189207 0.0000000000 0.4099301777
0.1922302045 0.0000000000 0.4122406889
0.3341292636 0.0000000000 0.4299825013
0.4944592523 0.0000000000 0.4547267281
0.6738034589 0.0000000000 0.4831203223
0.8724178412 0.0000000000 0.5137855418
1.0000000000 0.0000000000 0.5458856016
0.0162730085 0.0416896167 0.3915829266
0.0451706426 0.0204785918 0.5222124597
0.2028583594 0.0085184720 0.5090985610
0.3688085903 0.0023902519 0.5014980914
0.5430326568 0.0014727417 0.4994336934
0.7244447070 0.0029976595 0.5028704189
0.9123895874 0.0110298117 0.5118018690
1.0000000000 0.0242136066 0.5261886655
0.0157158081 0.1749205669 0.4105346318
0.0215870859 0.1735679285 0.5031440969
0.1688533829 0.1528461768 0.4887385957
0.3397485215 0.1447726775 0.4785563981
0.5156510803 0.1427269841 0.4742267737
0.6967914215 0.1461843831 0.4762921561
0.8845571315 0.1552423354 0.4846088153
1.0000000000 0.1702503218 0.4986175818
0.0102934408 0.3231083120 0.4512968938
0.0143631696 0.3384529813 0.5076479694
0.1479002848 0.3229084680 0.4927728842
0.3164032024 0.3095258136 0.4824065939
0.4997959721 0.3078138498 0.4752752161
0.6808767539 0.3106136342 0.4720186455
0.8684711691 0.3182460985 0.4761425193
1.0000000000 0.3326515996 0.4881114991
0.0000000000 0.4895665207 0.4991462331
0.0000000000 0.5139952303 0.5240208999
0.1246849135 0.5003955040 0.5090975765
0.3012288435 0.4934994106 0.4987091360
0.4892918583 0.4892918583 0.4892918583
0.6740062562 0.4916683279 0.4864743538
0.8630684909 0.4979461849 0.4880317585
1.0000000000 0.5112628810 0.4984502248
0.0000000000 0.6751472373 0.5509870372
0.0000000000 0.7009851914 0.5514162587
0.1309657238 0.6872451805 0.5356856838
0.2869424612 0.6799267567 0.5228759811
0.4759239707 0.6783614764 0.5118392782
0.6766672327 0.6819261808 0.5085753242
0.8671077016 0.6879707224 0.5147680260
0.9990992255 0.7016664329 0.5245810537
0.0000000000 0.8802058491 0.5907156235
0.0025320132 0.8996182783 0.5724855224
0.1478215285 0.8855799782 0.5583212123
0.3029112737 0.8777043540 0.5478948703
0.4671967946 0.8758476756 0.5412173254
0.6750143361 0.8795255921 0.5423720888
0.8793631573 0.8888966004 0.5472382401
0.9937497077 0.9016659406 0.5584777403
0.0000000000 1.0000000000 0.6249903401
0.0279072744 1.0000000000 0.6007855935
0.1752700478 1.0000000000 0.5862668803
0.3303145081 1.0000000000 0.5751848926
0.4941806521 1.0000000000 0.5679501473
0.6867549229 1.0000000000 0.5692683299
0.9020144370 1.0000000000 0.5784020851
0.9895264043 1.0000000000 0.5932210565
0.0276404876 0.0000000000 0.5914539633
0.0659928086 0.0000000000 0.5054742972
0.1800160958 0.0000000000 0.4959733410
0.3116305742 0.0000000000 0.5157534634
0.4653637431 0.0000000000 0.5496343988
0.6430895089 0.0000000000 0.5915474863
0.8455373514 0.0000000000 0.6381967774
1.0000000000 0.0000000000 0.6881124836
0.0195423770 0.0322339454 0.4653666964
0.0331130620 0.0016962126 0.6673887630
0.1828710096 0.0000000000 0.6500062759
0.3441303219 0.0000000000 0.6399510727
0.5160694729 0.0000000000 0.6372182311
0.6977049939 0.0000000000 0.6418274402
0.8881641674 0.0000354403 0.6537225861
1.0000000000 0.0060356815 0.6728780730
0.0192795281 0.1511322440 0.4715569371
0.0270064999 0.1386257528 0.6333099526
0.1412473512 0.1137948941 0.6162090191
0.3059020420 0.1029511441 0.6060908109
0.4788222004 0.0999475779 0.6033451714
0.6608283680 0.1049840396 0.6077830856
0.8511398735 0.1177701155 0.6190806685
1.0000000000 0.1382162203 0.6379408196
0.0180824332 0.2892086720 0.5181397776
0.0244164039 0.3001685876 0.6310929644
0.1173901166 0.2796555399 0.6119758711
0.2767110409 0.2616508785 0.6002352843
0.4555231506 0.2587615089 0.5946435911
0.6400386890 0.2639180738 0.5958200125
0.8299573978 0.2761705762 0.6030035662
1.0000000000 0.2958104140 0.6187016541
0.0093611638 0.4506274657 0.5794347763
0.0150257065 0.4747849585 0.6463539552
0.1036353389 0.4556806631 0.6270744271
0.2646337712 0.4429123074 0.6147569509
0.4422015323 0.4355220185 0.6086051039
0.6334044601 0.4410251109 0.6081158307
0.8236116136 0.4530413446 0.6131788727
0.9999054925 0.4716425845 0.6282163926
0.0000000000 0.6368461078 0.6490257607
0.0000000000 0.6643477876 0.6770117913
0.0942702373 0.6458115215 0.6576476003
0.2477425262 0.6357523805 0.6452139586
0.4417516373 0.6336338376 0.6389882776
0.6364907203 0.6364907203 0.6364907203
0.8301385372 0.6483120322 0.6430717888
1.0000000000 0.6667409929 0.6573729379
0.0000000000 0.8485438709 0.7148640101
0.0000000000 0.8691908042 0.7110551614
0.1166980461 0.8506141756 0.6934747992
0.2690086804 0.8401661757 0.6826556605
0.4320567439 0.8376912608 0.6782581088
0.6440326149 0.8427375670 0.6773189406
0.8499201362 0.8552283070 0.6838498020
0.9972730651 0.8735942626 0.7031273611
0.0000000000 1.0000000000 0.7696626033
0.0108634391 1.0000000000 0.7487971215
0.1530844144 1.0000000000 0.7307845845
0.3053684685 1.0000000000 0.7189445679
0.4679105231 1.0000000000 0.7133755171
0.6655517736 1.0000000000 0.7152410556
0.8804598380 1.0000000000 0.7273813303
0.9928814202 1.0000000000 0.7473076440
0.0360477164 0.0000000000 0.7642008580
0.0712714457 0.0000000000 0.6200995774
0.1766207173 0.0000000000 0.5882554754
0.2995562578 0.0000000000 0.6042193657
0.4476494953 0.0000000000 0.6449333894
0.6240718454 0.0000000000 0.7000007383
0.8306957376 0.0000000000 0.7642855209
1.0000000000 0.0000000000 0.8344189389
0.0231425217 0.0273500740 0.5464103151
0.0386407657 0.0000000000 0.8154278556
0.1660289872 0.0000000000 0.7935277136
0.3230581049 0.0000000000 0.7808135028
0.4927679620 0.0000000000 0.7773718550
0.6744856848 0.0000000000 0.7831702833
0.8674798249 0.0000000000 0.7981723630
1.0000000000 0.0002126419 0.8224056586
0.0222407628 0.1328283089 0.5285139435
0.0331101086 0.1045705693 0.7723344088
0.1165237979 0.0788487806 0.7504765983
0.2757295412 0.0666021850 0.7377840455
0.4457327653 0.0632737493 0.7343384599
0.6276306431 0.0688300022 0.7401634684
0.8207478397 0.0833122906 0.7550592272
0.9998493787 0.1069883859 0.7789666689
0.0224986894 0.2614402056 0.5768909497
0.0304166451 0.2613772006 0.7321933367
0.0878132099 0.2383203262 0.7333303800
0.2415040473 0.2170000271 0.7192192303
0.4159816104 0.2133959445 0.7137368114
0.5999881866 0.2194926621 0.7173999611
0.7939904065 0.2355087284 0.7303986789
0.9914903880 0.2609725904 0.7529623422
0.0204736696 0.4175852844 0.6508765324
0.0265703872 0.4311264358 0.7474622032
0.0775975408 0.4132074218 0.7462326213
0.2301267237 0.3961832756 0.7316164473
0.4002776158 0.3858504567 0.7260188474
0.5899359367 0.3920475885 0.7290007556
0.7867418789 0.4085991972 0.7405749698
0.9847734651 0.4341398465 0.7602463101
0.0046840275 0.6042626816 0.7396239882
0.0133757633 0.6256381101 0.7965096218
0.0758284787 0.6058968736 0.7798182207
0.2322807069 0.5913200777 0.7648939129
0.4053701913 0.5854291108 0.7586928433
0.5951358176 0.5886630390 0.7607769303
0.7970756823 0.6053770824 0.7712908886
0.9960671102 0.6309354519 0.7894432180
0.0000000000 0.8227246214 0.8348058289
0.0000000000 0.8413061723 0.8520859329
0.0876173037 0.8177610093 0.8301966199
0.2369204340 0.8043704792 0.8173337566
0.4193612377 0.8012034938 0.8111730496
0.6174671500 0.8076782414 0.8130563083
0.8222737419 0.8222737419 0.8222737419
1.0000000000 0.8478901941 0.8434335753
0.0000000000 1.0000000000 0.9143644002
0.0013427939 1.0000000000 0.8997068791
0.1335449907 1.0000000000 0.8775399503
0.2829731466 1.0000000000 0.8641710782
0.4442934950 1.0000000000 0.8595982939
0.6511954951 1.0000000000 0.8641435136
0.8644565696 1.0000000000 0.8800345543
0.9971263816 1.0000000000 0.9051331842
0.0441901274 0.0000000000 0.9294117647
0.0839708897 0.0000000000 0.7726494338
0.1840247885 0.0000000000 0.7058434670
0.3006933010 0.0000000000 0.7102646456
0.4445209036 0.0000000000 0.7533137919
0.6207030471 0.0000000000 0.8198431274
0.8317264599 0.0000000000 0.9015596197
1.0000000000 0.0000000000 0.9294117647
0.0280175331 0.0272860845 0.6518353896
0.0441901274 0.0000000000 0.9294117647
0.1539792822 0.0000000000 0.9291430090
0.3059286222 0.0000000000 0.9179783273
0.4689501055 0.0000000000 0.9052463963
0.6564071895 0.0000000000 0.9266149337
0.8513534999 0.0000000000 0.9294088113
1.0000000000 0.0000000000 0.9294117647
0.0253752612 0.1213741980 0.5959115666
0.0377872449 0.0830868509 0.8741002715
0.0962499723 0.0521061142 0.8891968586
0.2507677503 0.0372477647 0.8737163348
0.4182310856 0.0334182424 0.8694762956
0.5999990155 0.0399146479 0.8765151347
0.7956373964 0.0574910722 0.8948525412
0.9950039009 0.0859712983 0.9243546295
0.0260643783 0.2417294871 0.6377616492
0.0339134223 0.2278014457 0.7994117893
0.0619870692 0.2000260880 0.8594683461
0.2118926848 0.1756549689 0.8436609839
0.3827661653 0.1709689725 0.8392634322
0.5658089620 0.1787028355 0.8463219604
0.7623333506 0.1983948493 0.8646642892
0.9646217116 0.2300647032 0.8937017157
0.0265792472 0.3929503319 0.7220308281
0.0325962241 0.3920436506 0.8283891641
0.0522685489 0.3748078471 0.8697489891
0.1995171258 0.3543056284 0.8524442738
0.3651188604 0.3420698617 0.8467196795
0.5528722648 0.3495457980 0.8520347413
0.7520625521 0.3690271389 0.8690372296
0.9564793006 0.4008446607 0.8966590125
0.0233403968 0.5803365353 0.8303265677
0.0287824531 0.5873547009 0.9006066692
0.0603144835 0.5703610728 0.9058498660
0.2087660620 0.5519567234 0.8881543229
0.3745607494 0.5434697539 0.8816362594
0.5599613110 0.5461769997 0.8861588366
0.7636111706 0.5659635211 0.9019829345
0.9703955286 0.5983717147 0.9285080368
0.0002638334 0.8055754497 0.9542052142
0.0080626703 0.8170827211 0.9936138532
0.0743065144 0.7892807832 0.9663947115
0.2306494683 0.7718333223 0.9482935737
0.4023646562 0.7657720450 0.9412124031
0.5914628234 0.7714749814 0.9450143607
0.7969929882 0.7907997942 0.9599032283
0.9982427513 0.8233320289 0.9786275248
0.0000000000 1.0000000000 1.0000000000
0.0001141966 1.0000000000 1.0000000000
0.1188274180 1.0000000000 1.0000000000
0.2652549610 0.9989810911 0.9990401583
0.4308980427 0.9985056003 0.9985942011
0.6413627783 0.9991228524 0.9991789662
0.8530821994 1.0000000000 1.0000000000
1.0000000000 1.0000000000 1.0000000000
