LUTs/SPK Cube Block1 S32/TheBrim_SPK_Type-H_Block1_S32.cube
TITLE "TheBrim® SPK Block 1"
# © Copyright 2021 - TheBrim® d.o.o. Croatia
LUT_3D_SIZE 5
DOMAIN_MIN 0.000000 0.000000 0.000000
DOMAIN_MAX 0.903226 0.903226 0.903226
0.068330 0.020264 0.046204
0.111911 0.023635 0.043831
0.433113 0.012328 0.017197
0.729884 0.020717 0.015350
0.801357 0.022825 0.015503
0.070575 0.091093 0.071680
0.107085 0.082717 0.050212
0.341504 0.060317 0.021123
0.707654 0.020076 0.015472
0.827057 0.023585 0.015754
0.103494 0.349532 0.215313
0.090167 0.279250 0.155701
0.312519 0.306883 0.028383
0.628516 0.261801 0.015776
0.856289 0.177970 0.020788
0.138266 0.494338 0.263298
0.137539 0.490494 0.237234
0.369783 0.564952 0.077820
0.711682 0.651405 0.069592
0.882930 0.666510 0.078756
0.303253 0.554580 0.187989
0.370433 0.577456 0.166341
0.523320 0.650394 0.073184
0.749324 0.764992 0.085993
0.921413 0.829072 0.098340
0.068751 0.028335 0.140080
0.095949 0.025342 0.108854
0.448718 0.011624 0.066022
0.746184 0.021201 0.015272
0.811133 0.023113 0.015602
0.071319 0.095684 0.158625
0.094064 0.070157 0.098632
0.337294 0.049324 0.047705
0.715134 0.020294 0.015434
0.830238 0.023666 0.015789
0.103230 0.348296 0.215828
0.090156 0.279400 0.157705
0.313800 0.301225 0.041864
0.638782 0.244445 0.015631
0.865745 0.163254 0.020754
0.138344 0.494687 0.263754
0.137258 0.489431 0.238140
0.367633 0.562970 0.076253
0.712686 0.649369 0.069341
0.886749 0.670807 0.079470
0.320016 0.559356 0.182177
0.381934 0.581945 0.161516
0.532650 0.655494 0.070385
0.758561 0.777133 0.087794
0.925379 0.875763 0.101989
0.076393 0.070474 0.320780
0.079613 0.076228 0.355510
0.338041 0.060046 0.314064
0.825484 0.011942 0.251034
0.877677 0.017375 0.170516
0.079319 0.093125 0.357490
0.078640 0.085275 0.351770
0.351097 0.069516 0.285797
0.815282 0.012640 0.227888
0.907627 0.018575 0.164304
0.114229 0.388480 0.496569
0.097564 0.308745 0.402342
0.289677 0.301943 0.317759
0.682543 0.234117 0.224867
0.922228 0.161175 0.163970
0.146131 0.522766 0.447115
0.145608 0.519538 0.438050
0.295240 0.586621 0.385682
0.706571 0.701136 0.329194
0.894411 0.728620 0.260208
0.264714 0.587827 0.356317
0.344665 0.609595 0.349450
0.525519 0.692652 0.349806
0.760643 0.817156 0.379515
0.928194 0.904710 0.386508
0.084549 0.103746 0.457393
0.119051 0.100716 0.451574
0.310814 0.090693 0.422301
0.707087 0.012850 0.375795
0.957505 0.013683 0.318438
0.086933 0.136770 0.486637
0.106433 0.125105 0.476544
0.317820 0.111288 0.438352
0.731601 0.025447 0.393899
0.994690 0.014172 0.346107
0.114896 0.367401 0.653327
0.108729 0.334204 0.634057
0.299850 0.306509 0.582107
0.734730 0.256275 0.505415
0.996896 0.173649 0.446982
0.146932 0.539354 0.672232
0.146534 0.537903 0.667368
0.199521 0.647257 0.701520
0.714178 0.749197 0.638126
0.918431 0.737950 0.593369
0.173751 0.653950 0.623090
0.288180 0.684900 0.610833
0.532740 0.757652 0.605443
0.777867 0.857007 0.624529
0.939720 0.925510 0.630647
0.087575 0.145265 0.495139
0.116325 0.141672 0.489787
0.250793 0.133510 0.463887
0.502466 0.105050 0.419964
0.869137 0.015208 0.389072
0.089364 0.169692 0.516923
0.113126 0.164110 0.509733
0.256681 0.153456 0.479057
0.515254 0.129344 0.435228
0.866515 0.054850 0.409931
0.103478 0.304642 0.618732
0.100890 0.290403 0.609230
0.273952 0.286651 0.576372
0.578784 0.300091 0.538328
0.866101 0.292568 0.516066
0.151184 0.540926 0.776321
0.162767 0.591054 0.821177
0.241806 0.688107 0.868988
0.735193 0.771231 0.761437
0.901882 0.768454 0.731262
0.188352 0.697088 0.837302
0.194671 0.722375 0.851914
0.533657 0.789798 0.817603
0.793052 0.891247 0.784588
0.943177 0.946832 0.806149
