LUTs/SPK Cube Block1 S32/TheBrim_SPK_Type-P_Block 1_S32.cube
TITLE "TheBrim® Industrial Imaging Burau"
# © Copyright 2022 - TheBrim® d.o.o. Croatia
LUT_3D_SIZE 32
0.0000000000 0.0000000000 0.0000000000
0.0000000000 0.0000000000 0.0000000000
0.0000000000 0.0000000000 0.0000000000
0.0096190905 0.0000000000 0.0000000000
0.0441192468 0.0000000000 0.0000000000
0.0763846947 0.0000000000 0.0000000000
0.1077247568 0.0004193770 0.0000000000
0.1401467327 0.0052619014 0.0000000000
0.1842246325 0.0104430777 0.0010021732
0.2419224399 0.0175272017 0.0057521590
0.2992904555 0.0244656266 0.0106261860
0.3604899623 0.0263065537 0.0111371171
0.4124365951 0.0296596008 0.0139723418
0.4504315596 0.0377665714 0.0202186962
0.4882955919 0.0441241691 0.0271886237
0.5265716177 0.0530157488 0.0345365810
0.5673378175 0.0620244784 0.0422054701
0.6150335822 0.0766544348 0.0541803567
0.6704701009 0.0933970274 0.0684559100
0.7258751172 0.1081579161 0.0823937960
0.7841389851 0.1222867859 0.0968721466
0.8499801879 0.1394723824 0.1123999242
0.9171917493 0.1574681837 0.1279345929
0.9884494127 0.1772803008 0.1440038197
1.0000000000 0.1968285846 0.1587971953
1.0000000000 0.2131872405 0.1705830669
1.0000000000 0.2260313991 0.1802789448
1.0000000000 0.2366684141 0.1881358644
1.0000000000 0.2454024813 0.1960538200
1.0000000000 0.2491246982 0.2002210097
1.0000000000 0.2496937121 0.2009248936
1.0000000000 0.2588845655 0.1999237049
0.0000000000 0.0000000000 0.0000000000
0.0000000000 0.0000000000 0.0000000000
0.0000000000 0.0000000000 0.0000000000
0.0078332927 0.0000000000 0.0000000000
0.0442058787 0.0000000000 0.0000000000
0.0792297640 0.0004666307 0.0000000000
0.1174767485 0.0056783251 0.0000000000
0.1516146260 0.0108092942 0.0000000000
0.2016297620 0.0160249264 0.0000000000
0.2573005806 0.0225567722 0.0002047662
0.3075864411 0.0309571098 0.0034377100
0.3648707782 0.0339951319 0.0041908165
0.4109904336 0.0386447035 0.0081739135
0.4490434808 0.0441586249 0.0155169486
0.4861022305 0.0482746230 0.0268371739
0.5263688204 0.0542748642 0.0348161657
0.5673712889 0.0622548404 0.0424505989
0.6143395428 0.0767489423 0.0543221180
0.6693881871 0.0934058875 0.0684529567
0.7262561005 0.1084394697 0.0826999609
0.7838210068 0.1223448687 0.0969696075
0.8497695149 0.1395324340 0.1125239653
0.9166128909 0.1573756451 0.1279158883
0.9875880163 0.1770647056 0.1438974988
1.0000000000 0.1966927301 0.1586741387
1.0000000000 0.2133230950 0.1706815122
1.0000000000 0.2259270471 0.1801893595
1.0000000000 0.2366487250 0.1881329110
1.0000000000 0.2452302020 0.1959041832
1.0000000000 0.2489730924 0.2001491446
1.0000000000 0.2499073384 0.2009052046
1.0000000000 0.2687989919 0.1990524640
0.0000000000 0.0000000000 0.0000000000
0.0000000000 0.0000000000 0.0000000000
0.0000000000 0.0000000000 0.0000000000
0.0053071863 0.0002756468 0.0000000000
0.0393682765 0.0023784385 0.0000000000
0.0752683250 0.0106025591 0.0000000000
0.1145647364 0.0161706254 0.0000000000
0.1577261104 0.0207562076 0.0000000000
0.2097554373 0.0254746909 0.0000000000
0.2590430624 0.0335196411 0.0000000000
0.3112230106 0.0404590504 0.0000000000
0.3638282425 0.0451657204 0.0000797407
0.4046692607 0.0508735790 0.0045373440
0.4449520941 0.0545180241 0.0119601198
0.4812085145 0.0581900339 0.0225971347
0.5231860838 0.0617389870 0.0331632691
0.5666742962 0.0650054022 0.0427134479
0.6137685600 0.0773327230 0.0545140863
0.6679144609 0.0936017937 0.0684568945
0.7265849078 0.1087062564 0.0830149858
0.7843152022 0.1225742462 0.0971940628
0.8488017976 0.1395363718 0.1125023073
0.9166591602 0.1574937795 0.1280428828
0.9859695755 0.1767358983 0.1435913339
1.0000000000 0.1966572898 0.1586800454
1.0000000000 0.2134038202 0.1707612529
1.0000000000 0.2259969433 0.1801243856
1.0000000000 0.2369637500 0.1881978849
1.0000000000 0.2455343980 0.1956787434
1.0000000000 0.2495982201 0.1998951558
1.0000000000 0.2582269509 0.1999640675
1.0000000000 0.2774336294 0.1968797761
0.0000000000 0.0121560260 0.0000000000
0.0000000000 0.0116450948 0.0000000000
0.0000000000 0.0115633852 0.0000000000
0.0042292102 0.0095275364 0.0000000000
0.0334074134 0.0196181799 0.0000000000
0.0681969989 0.0263951545 0.0000000000
0.1058336225 0.0317456567 0.0000000000
0.1512415183 0.0370075581 0.0000000000
0.2007132362 0.0425342774 0.0000000000
0.2528321483 0.0508716101 0.0000000000
0.3083868014 0.0569309185 0.0000000000
0.3541914318 0.0617055156 0.0000000000
0.3955433812 0.0664358124 0.0008151271
0.4370410295 0.0690505197 0.0082251050
0.4745349075 0.0721200442 0.0182527435
0.5165902485 0.0747327825 0.0287558729
0.5607872671 0.0782797668 0.0390571893
0.6096003859 0.0877305158 0.0527745578
0.6640937987 0.1006898555 0.0679302121
0.7245047586 0.1124235511 0.0828515666
0.7848409001 0.1247252761 0.0975090877
0.8462786445 0.1426836682 0.1123487326
0.9155536195 0.1599273474 0.1280556807
0.9835566811 0.1778128899 0.1432251173
1.0000000000 0.1980571820 0.1584546056
1.0000000000 0.2154199800 0.1706569009
1.0000000000 0.2291678665 0.1798438165
1.0000000000 0.2426282927 0.1879753985
1.0000000000 0.2537959278 0.1948311294
1.0000000000 0.2621785453 0.1985011703
1.0000000000 0.2746732231 0.1980207572
1.0000000000 0.2890816776 0.1913707770
0.0000000000 0.0367161600 0.0023006667
0.0000000000 0.0368047608 0.0006753348
0.0001122276 0.0371256925 0.0003859056
0.0091819934 0.0369524288 0.0000315025
0.0265940140 0.0356165260 0.0000000000
0.0585532971 0.0437677971 0.0000000000
0.0958729268 0.0510163247 0.0000000000
0.1385834213 0.0577765636 0.0000000000
0.1883504751 0.0646952995 0.0000000000
0.2424195886 0.0719507183 0.0000000000
0.2945168428 0.0780956741 0.0000000000
0.3411641649 0.0826595983 0.0000000000
0.3861713883 0.0849464827 0.0000000000
0.4257759336 0.0867017624 0.0056556826
0.4668089201 0.0884796846 0.0149695927
0.5093062806 0.0912312308 0.0246733462
0.5527600371 0.0951011156 0.0341408309
0.6031423741 0.1029107815 0.0477794431
0.6558430979 0.1161437991 0.0621711619
0.7154005370 0.1287940204 0.0778249495
0.7785335096 0.1408456944 0.0942318436
0.8400273678 0.1581819122 0.1091039755
0.9067575317 0.1759522737 0.1246238774
0.9773674249 0.1937285420 0.1410258493
1.0000000000 0.2142474964 0.1565142487
1.0000000000 0.2324195148 0.1684861820
1.0000000000 0.2480368776 0.1771040838
1.0000000000 0.2620239862 0.1860458706
1.0000000000 0.2719551483 0.1918541434
1.0000000000 0.2794497892 0.1942335664
1.0000000000 0.2900868041 0.1905546654
1.0000000000 0.3032932415 0.1847473770
0.0000000000 0.0620805922 0.0140176266
0.0000000000 0.0621189859 0.0122859738
0.0002697401 0.0621120947 0.0101772754
0.0105996057 0.0626466527 0.0076157286
0.0272152039 0.0633022985 0.0042863085
0.0503085030 0.0636094478 0.0004282371
0.0874597912 0.0724685406 0.0003544031
0.1293768166 0.0811474784 0.0004174081
0.1788052186 0.0889266263 0.0000000000
0.2288331524 0.0956927719 0.0000000000
0.2781089642 0.1022078820 0.0000000000
0.3286360157 0.1051041428 0.0000000000
0.3723142276 0.1072679706 0.0001427457
0.4134919287 0.1081569317 0.0046200380
0.4575668751 0.1086678628 0.0131581991
0.4993229424 0.1113357305 0.0214226823
0.5440899593 0.1138903861 0.0304087695
0.5942340586 0.1213761669 0.0427764529
0.6475697546 0.1345087702 0.0568698824
0.7052764221 0.1471530849 0.0713718599
0.7668076896 0.1589871947 0.0869990672
0.8327670267 0.1738465287 0.1028093828
0.8968657477 0.1919722778 0.1170258690
0.9668436221 0.2098420691 0.1335154571
1.0000000000 0.2302350135 0.1486720959
1.0000000000 0.2484040786 0.1603358954
1.0000000000 0.2653819555 0.1689990820
1.0000000000 0.2796644000 0.1776130460
1.0000000000 0.2891988275 0.1832460862
1.0000000000 0.2985786959 0.1852327124
1.0000000000 0.3081347815 0.1825372800
1.0000000000 0.3207790961 0.1780767233
0.0000000000 0.0917264107 0.0253654167
0.0000000000 0.0920916427 0.0237243335
0.0001220722 0.0929175988 0.0220753746
0.0112729716 0.0938666115 0.0195246569
0.0286584120 0.0947969196 0.0161893300
0.0500889699 0.0949859346 0.0113290854
0.0768769212 0.0958365020 0.0055375483
0.1188530138 0.1047684443 0.0041022158
0.1642412205 0.1133459836 0.0026570387
0.2146432465 0.1207244590 0.0001417612
0.2650245990 0.1266252704 0.0000000000
0.3099717708 0.1300797161 0.0003189628
0.3559152091 0.1309046877 0.0011340899
0.4004715530 0.1311153607 0.0063841779
0.4421188382 0.1325723511 0.0127535889
0.4883315244 0.1336542650 0.0202767790
0.5337049644 0.1355916686 0.0276818346
0.5810817662 0.1426767770 0.0378571411
0.6372202000 0.1541161212 0.0516355456
0.6955155704 0.1666167057 0.0660469535
0.7549706264 0.1794017971 0.0804455634
0.8203983589 0.1929941400 0.0951276959
0.8891653561 0.2107851751 0.1107686855
0.9542662502 0.2294523734 0.1249556381
0.9997519178 0.2492438170 0.1403436233
1.0000000000 0.2679513779 0.1513251968
1.0000000000 0.2843080649 0.1603506622
1.0000000000 0.3001518519 0.1677655624
1.0000000000 0.3102808891 0.1737677725
1.0000000000 0.3211364526 0.1762102004
1.0000000000 0.3291518691 0.1741664759
1.0000000000 0.3377303928 0.1715704733
0.0000000000 0.1279966135 0.0367811339
0.0000000000 0.1278420544 0.0350150252
0.0000000000 0.1281157323 0.0330018188
0.0063497220 0.1287024663 0.0302089255
0.0251173345 0.1295707539 0.0261982639
0.0488347768 0.1301574879 0.0213380193
0.0756502928 0.1309499726 0.0151359653
0.1067403038 0.1313417849 0.0084259334
0.1501290864 0.1387881875 0.0053514866
0.1970294130 0.1455425198 0.0038885895
0.2445784941 0.1504677382 0.0034495234
0.2918450372 0.1541545148 0.0036523207
0.3366937637 0.1556932149 0.0064521051
0.3817856501 0.1566520722 0.0102117312
0.4266747392 0.1571994280 0.0151507321
0.4738339769 0.1581218605 0.0207079694
0.5196587886 0.1603555844 0.0269100235
0.5687839790 0.1664109550 0.0351006726
0.6251832928 0.1776750665 0.0477075781
0.6843302151 0.1892148249 0.0611985223
0.7454145409 0.2017606942 0.0753264077
0.8086331608 0.2150921571 0.0886194769
0.8774198471 0.2307498825 0.1034660130
0.9464014550 0.2491896721 0.1188362781
0.9974985049 0.2694772801 0.1321007981
1.0000000000 0.2884289853 0.1433885365
1.0000000000 0.3045612170 0.1511027104
1.0000000000 0.3197267158 0.1588001487
1.0000000000 0.3334184885 0.1650022027
1.0000000000 0.3439294935 0.1677183086
1.0000000000 0.3502004592 0.1664503331
1.0000000000 0.3556730336 0.1645109607
0.0000000000 0.1647344315 0.0482234315
0.0000000000 0.1633965598 0.0462446809
0.0000000000 0.1634536581 0.0443545311
0.0000000000 0.1641093038 0.0418559893
0.0136533790 0.1643367125 0.0379270373
0.0419465590 0.1649943271 0.0327606278
0.0687561682 0.1644932405 0.0270005931
0.0995370610 0.1639576981 0.0200168834
0.1331039558 0.1633335548 0.0134751930
0.1788258921 0.1690118799 0.0127880448
0.2259004669 0.1740818130 0.0132340020
0.2714934399 0.1774752225 0.0138266427
0.3180620058 0.1796488948 0.0147805777
0.3645311419 0.1822586798 0.0169955970
0.4116254058 0.1835680023 0.0200917018
0.4585345924 0.1843516269 0.0237578049
0.5072482815 0.1864613098 0.0281494498
0.5566929270 0.1917222267 0.0344647160
0.6130617227 0.2032275292 0.0456234910
0.6722549143 0.2148361993 0.0580699306
0.7350738463 0.2270306190 0.0715264190
0.7985937089 0.2399555027 0.0842770546
0.8639141360 0.2545067029 0.0972590367
0.9346116456 0.2713310051 0.1120937593
0.9955965416 0.2911706869 0.1257067757
1.0000000000 0.3109877263 0.1361488690
1.0000000000 0.3263314112 0.1436346498
1.0000000000 0.3404573277 0.1497481031
1.0000000000 0.3540230903 0.1564226946
1.0000000000 0.3668426376 0.1602236677
1.0000000000 0.3724353153 0.1593140331
1.0000000000 0.3767344216 0.1580952803
0.0000000000 0.2008205416 0.0674409390
0.0000000000 0.1976013802 0.0652022928
0.0000000000 0.1955182776 0.0627283623
0.0000000000 0.1950526313 0.0599640182
0.0035991603 0.1945180733 0.0564150651
0.0296871654 0.1949216991 0.0522399998
0.0605310632 0.1951412321 0.0464907941
0.0903786945 0.1944747574 0.0402523153
0.1229581829 0.1933071961 0.0334891230
0.1574819661 0.1914721757 0.0260653628
0.2041854020 0.1965332487 0.0250139669
0.2531294531 0.2021042683 0.0257513222
0.3005407108 0.2059003192 0.0258084205
0.3479076682 0.2086331608 0.0258596121
0.3944752496 0.2112262101 0.0267702311
0.4429566078 0.2130927330 0.0288365980
0.4918588196 0.2147101893 0.0312376790
0.5425492903 0.2192662379 0.0357484427
0.5997962182 0.2301779153 0.0455289835
0.6595958328 0.2415749280 0.0559651701
0.7216980830 0.2532682610 0.0684598479
0.7860271660 0.2656556334 0.0804593458
0.8522779012 0.2803810818 0.0926055272
0.9203636569 0.2967072507 0.1060364198
0.9906703387 0.3155821686 0.1197035812
1.0000000000 0.3342070354 0.1301732391
1.0000000000 0.3506188518 0.1370063276
1.0000000000 0.3652153368 0.1426452745
1.0000000000 0.3781382517 0.1486937539
1.0000000000 0.3915622531 0.1520576299
1.0000000000 0.3977465870 0.1517819830
1.0000000000 0.3997696380 0.1512365961
0.0000000000 0.2386973718 0.0910018532
0.0000000000 0.2358621470 0.0885033115
0.0000000000 0.2328615342 0.0856936825
0.0000000000 0.2289247066 0.0819734345
0.0000000000 0.2278890620 0.0782974869
0.0122889271 0.2268918111 0.0740446499
0.0404226257 0.2271290643 0.0691145091
0.0761415348 0.2261111398 0.0623906950
0.1114824140 0.2253846135 0.0554237209
0.1474208561 0.2249859100 0.0481771622
0.1847129212 0.2222412550 0.0395159444
0.2313533522 0.2267372519 0.0381593682
0.2814826847 0.2324687375 0.0378758457
0.3315499967 0.2361515762 0.0368933616
0.3787574726 0.2392083029 0.0358518103
0.4266491434 0.2420454965 0.0358084944
0.4756630906 0.2446454369 0.0368598902
0.5268502179 0.2480595200 0.0388642365
0.5845913412 0.2585478826 0.0470164920
0.6447453589 0.2703967592 0.0561728896
0.7067097857 0.2810987480 0.0664555015
0.7716502140 0.2935412498 0.0778279028
0.8382730725 0.3085098581 0.0889699422
0.9074200686 0.3238220404 0.1014577288
0.9758198648 0.3412586724 0.1141719396
1.0000000000 0.3586431284 0.1243994221
1.0000000000 0.3750697116 0.1312413707
1.0000000000 0.3914076940 0.1360218745
1.0000000000 0.4046220070 0.1410416005
1.0000000000 0.4192184920 0.1436513855
1.0000000000 0.4259777464 0.1446870301
1.0000000000 0.4259058814 0.1449006564
0.0000000000 0.2828126807 0.1190459666
0.0000000000 0.2792962145 0.1160424004
0.0000000000 0.2761154468 0.1131215283
0.0000000000 0.2712571711 0.1088086396
0.0000000000 0.2652185363 0.1033636299
0.0000000000 0.2629090095 0.0978565997
0.0178786514 0.2619560589 0.0927738687
0.0565538730 0.2615927958 0.0865609856
0.0945458841 0.2598453917 0.0788674852
0.1341307403 0.2590223889 0.0709810321
0.1724279319 0.2582377799 0.0629951491
0.2132266186 0.2556959221 0.0538269381
0.2600934738 0.2596898481 0.0511856506
0.3109247213 0.2645363103 0.0496213548
0.3627089194 0.2682398226 0.0475786147
0.4115653541 0.2714481550 0.0452395543
0.4606068661 0.2751585585 0.0443131840
0.5100003199 0.2789152312 0.0441950497
0.5696050128 0.2883108509 0.0503577256
0.6300907912 0.3001991056 0.0580492571
0.6924992063 0.3121198473 0.0668729096
0.7584605124 0.3243654585 0.0770117913
0.8243174664 0.3383821007 0.0868513993
0.8917288718 0.3530159949 0.0975543726
0.9617333264 0.3690812838 0.1096326267
1.0000000000 0.3863259475 0.1193649294
1.0000000000 0.4018635696 0.1255177608
1.0000000000 0.4175183416 0.1303701297
1.0000000000 0.4321916139 0.1339545232
1.0000000000 0.4485768501 0.1373626996
1.0000000000 0.4549324788 0.1382516606
1.0000000000 0.4537028970 0.1386109860
0.0000000000 0.3287236320 0.1478865024
0.0000000000 0.3252731242 0.1448612783
0.0000000000 0.3213215297 0.1412621180
0.0000000000 0.3161944984 0.1365515103
0.0000000000 0.3106293854 0.1311941169
0.0000000000 0.3037017895 0.1245884371
0.0008505674 0.3001370851 0.1177149861
0.0254825666 0.2994381234 0.1111880625
0.0710273013 0.2978147604 0.1028576210
0.1159469084 0.2966629504 0.0948333444
0.1593849137 0.2958675123 0.0863867374
0.2005232368 0.2942658072 0.0772293554
0.2445479761 0.2917810478 0.0678297979
0.2924839473 0.2954018660 0.0639067526
0.3444099066 0.2998555315 0.0606856223
0.3960474211 0.3039291981 0.0574280672
0.4464573227 0.3073895505 0.0542207193
0.4971207210 0.3113253937 0.0521336789
0.5530396218 0.3210074892 0.0555900934
0.6158949786 0.3319122754 0.0619142197
0.6786154653 0.3439285090 0.0688024375
0.7434919041 0.3559979031 0.0769241750
0.8105114972 0.3688834088 0.0855440457
0.8767386056 0.3828350770 0.0950577997
0.9455302141 0.3989751844 0.1058611872
0.9982988652 0.4160574133 0.1157519867
1.0000000000 0.4310998555 0.1209833701
1.0000000000 0.4460281012 0.1249221667
1.0000000000 0.4597356251 0.1280261471
1.0000000000 0.4772716869 0.1315770691
1.0000000000 0.4840949308 0.1323223001
1.0000000000 0.4827147277 0.1325615222
0.0000000000 0.3739927200 0.1756451244
0.0000000000 0.3720838656 0.1717122345
0.0000000000 0.3674027914 0.1680303802
0.0000000000 0.3620483514 0.1632420007
0.0000000000 0.3557675411 0.1573116557
0.0000000000 0.3493341406 0.1508674262
0.0000000000 0.3422559233 0.1436376032
0.0141849836 0.3393261911 0.1355158657
0.0436851030 0.3383171268 0.1270111760
0.0914212302 0.3368355250 0.1180556068
0.1411036211 0.3362596200 0.1097970304
0.1888436861 0.3344836667 0.0999692358
0.2338873343 0.3336193169 0.0902694202
0.2779918143 0.3308736774 0.0805026617
0.3270589220 0.3340849632 0.0752958897
0.3808740466 0.3385937581 0.0710263169
0.4320331170 0.3415589306 0.0662861756
0.4832030164 0.3453165878 0.0619860848
0.5394699213 0.3536342314 0.0631871174
0.6000856474 0.3657882885 0.0673424937
0.6646106365 0.3773969585 0.0724813385
0.7292232420 0.3889288413 0.0791116296
0.7943989545 0.4011872503 0.0857842522
0.8615721223 0.4135293379 0.0936372340
0.9290140457 0.4282390350 0.1028280874
0.9945953529 0.4462053028 0.1120917904
1.0000000000 0.4619535978 0.1178626540
1.0000000000 0.4768276986 0.1207904173
1.0000000000 0.4910436925 0.1233234150
1.0000000000 0.5059788293 0.1264618512
1.0000000000 0.5150988022 0.1267059956
1.0000000000 0.5142236234 0.1269983781
0.0000000000 0.4129987177 0.2003499731
0.0000000000 0.4200444481 0.1965903469
0.0000000000 0.4160200041 0.1929498397
0.0000000000 0.4091977446 0.1878001659
0.0000000000 0.4015081820 0.1811905483
0.0000000000 0.3947026583 0.1744273560
0.0000000000 0.3876362545 0.1669691399
0.0131326034 0.3819707273 0.1588897339
0.0370449674 0.3811782426 0.1507719342
0.0709121203 0.3801366913 0.1414649153
0.1130053628 0.3797694903 0.1325644755
0.1698732763 0.3776194449 0.1229365249
0.2197358220 0.3754201769 0.1124747426
0.2674050064 0.3735113224 0.1018357588
0.3132155435 0.3720818966 0.0919863063
0.3637652375 0.3747792979 0.0852359119
0.4173578757 0.3784217741 0.0791460854
0.4679380877 0.3810384503 0.0733368281
0.5264160741 0.3893314826 0.0731675022
0.5867551690 0.3999399484 0.0750615898
0.6492078845 0.4118990837 0.0783368651
0.7143835970 0.4232370292 0.0832069542
0.7789873424 0.4348663728 0.0887051243
0.8465592136 0.4483021877 0.0948786292
0.9135325374 0.4601559866 0.1016329615
0.9799447230 0.4767066108 0.1095784818
1.0000000000 0.4932729864 0.1148029740
1.0000000000 0.5083169053 0.1182200105
1.0000000000 0.5237127661 0.1208061686
1.0000000000 0.5370402912 0.1216970986
1.0000000000 0.5470856499 0.1221361646
1.0000000000 0.5461769997 0.1223182884
0.0000000000 0.4602731365 0.2216013605
0.0000000000 0.4661434299 0.2177806983
0.0000000000 0.4627884140 0.2143567707
0.0000000000 0.4569653743 0.2098322246
0.0000000000 0.4499737889 0.2041430706
0.0000000000 0.4424200809 0.1978376489
0.0000000000 0.4348368392 0.1900575167
0.0120644718 0.4283187757 0.1820765560
0.0365783366 0.4262868647 0.1738366842
0.0616425107 0.4258704411 0.1652079534
0.0976567557 0.4244331396 0.1548081916
0.1444015387 0.4234378576 0.1444812794
0.2034263888 0.4202531521 0.1340884088
0.2533883643 0.4176817608 0.1227671990
0.3032617390 0.4157000569 0.1118505994
0.3498805120 0.4147510441 0.1012687138
0.4019423258 0.4163054955 0.0932208104
0.4554069852 0.4202206651 0.0857675165
0.5113839687 0.4273687786 0.0838547243
0.5743057760 0.4369022217 0.0849563272
0.6379634620 0.4488121344 0.0866712444
0.6987691876 0.4594747451 0.0891628950
0.7636613777 0.4700723819 0.0932641263
0.8306051679 0.4827895461 0.0977679989
0.8972516533 0.4955278760 0.1023998504
0.9643381891 0.5095071090 0.1083508689
1.0000000000 0.5262930175 0.1133725638
1.0000000000 0.5402043232 0.1154556664
1.0000000000 0.5560077476 0.1183332226
1.0000000000 0.5684965187 0.1183785074
1.0000000000 0.5808208862 0.1177071105
1.0000000000 0.5775416731 0.1182347773
0.0000000000 0.5108435040 0.2422384493
0.0000000000 0.5168402996 0.2378625556
0.0000000000 0.5105058366 0.2341068673
0.0000000000 0.5044356992 0.2295104561
0.0000000000 0.4984462870 0.2244562743
0.0000000000 0.4921418498 0.2190565494
0.0000000000 0.4846796959 0.2125463616
0.0096131838 0.4764634510 0.2043360234
0.0357031579 0.4722460542 0.1956009717
0.0611276417 0.4717410298 0.1867664902
0.0883005141 0.4706413958 0.1769721671
0.1233204616 0.4694167362 0.1658724592
0.1790444407 0.4672745664 0.1547117152
0.2372088788 0.4634174795 0.1431207653
0.2894528164 0.4612093513 0.1316686233
0.3405272238 0.4590474925 0.1198394357
0.3886285831 0.4582441788 0.1086038733
0.4411068205 0.4596155219 0.0997625007
0.4979786718 0.4677116636 0.0960461905
0.5587120401 0.4774026191 0.0960609573
0.6241102390 0.4862439918 0.0965354637
0.6873711905 0.4978270661 0.0975553570
0.7504893962 0.5085526818 0.0995400143
0.8156454197 0.5193309657 0.1020474162
0.8815791611 0.5315618101 0.1053049712
0.9482945582 0.5434884585 0.1088578622
0.9985626986 0.5591166503 0.1125584211
1.0000000000 0.5738312697 0.1136934955
1.0000000000 0.5889249035 0.1151898641
1.0000000000 0.6009519661 0.1150943721
1.0000000000 0.6163153400 0.1143895038
1.0000000000 0.6145512002 0.1145795032
0.0000000000 0.5631420787 0.2685873345
0.0000000000 0.5722364558 0.2647056362
0.0000000000 0.5695498835 0.2599093811
0.0000000000 0.5596118302 0.2542507451
0.0000000000 0.5517706618 0.2485478087
0.0000000000 0.5447839987 0.2422207291
0.0000000000 0.5375275954 0.2352114236
0.0068675443 0.5296411423 0.2273594263
0.0333276727 0.5218088340 0.2186667060
0.0611237039 0.5192069246 0.2083309337
0.0878506191 0.5178365660 0.1984056783
0.1152686203 0.5166591602 0.1878966423
0.1466126202 0.5161393690 0.1762860033
0.2125670351 0.5128217623 0.1641240706
0.2717809001 0.5083041074 0.1516175794
0.3242118838 0.5058902286 0.1397440914
0.3769106387 0.5037332920 0.1271391549
0.4274504882 0.5023442288 0.1151583616
0.4852580621 0.5085285627 0.1098196728
0.5462281913 0.5182903989 0.1077631504
0.6083836020 0.5276604228 0.1073831516
0.6742435094 0.5356433524 0.1066999412
0.7376304708 0.5470748209 0.1072148101
0.8009721474 0.5574499713 0.1079885902
0.8655690015 0.5684945498 0.1089740277
0.9335779699 0.5814588117 0.1110108610
0.9960592345 0.5944161824 0.1132248958
1.0000000000 0.6081719446 0.1133824083
1.0000000000 0.6223244413 0.1129413734
1.0000000000 0.6367328957 0.1124274889
1.0000000000 0.6546538786 0.1111043840
1.0000000000 0.6513116606 0.1114410670
0.0000000000 0.6216628888 0.2956568394
0.0000000000 0.6300208950 0.2921472643
0.0000000000 0.6337322829 0.2882921463
0.0000000000 0.6244331396 0.2829987424
0.0000000000 0.6139191813 0.2766460670
0.0000000000 0.6026983857 0.2693374877
0.0000000000 0.5930153058 0.2615947647
0.0107216779 0.5851652774 0.2533991932
0.0367968852 0.5778064910 0.2449850732
0.0624340109 0.5742092996 0.2353965008
0.0912637177 0.5716743331 0.2245891754
0.1179955552 0.5695361011 0.2136745448
0.1465279572 0.5682828924 0.2022775321
0.1772990055 0.5679186448 0.1903932151
0.2526736514 0.5636864812 0.1775392120
0.3130521243 0.5603944703 0.1653497146
0.3660216038 0.5577561362 0.1526236904
0.4206144464 0.5550872841 0.1392193780
0.4723612352 0.5523573958 0.1265110739
0.5336134102 0.5602202221 0.1217886527
0.5956319819 0.5692417497 0.1189337389
0.6606078505 0.5790370573 0.1170130711
0.7243452772 0.5862462068 0.1155777386
0.7871592870 0.5966193883 0.1153483610
0.8534494003 0.6082251050 0.1142211623
0.9149619632 0.6185973021 0.1138372256
0.9822444052 0.6325696439 0.1147911606
1.0000000000 0.6472389784 0.1144466020
1.0000000000 0.6622597627 0.1120740702
1.0000000000 0.6743872395 0.1096660981
1.0000000000 0.6915452713 0.1072010278
1.0000000000 0.6886568861 0.1074825813
0.0000000000 0.6824735367 0.3182746476
0.0000000000 0.6900361048 0.3146745029
0.0000000000 0.6905746006 0.3107357064
0.0000000000 0.6837257609 0.3063824551
