LUTs/SPK Cube Block1 S32/TheBrim_SPK_Type-O_Block1_S32.cube
TITLE "TheBrim® SPK Block 1"
# © Copyright 2021 - TheBrim® d.o.o. Croatia
LUT_3D_SIZE 8
DOMAIN_MIN 0.000000 0.000000 0.000000
DOMAIN_MAX 0.903226 0.903226 0.903226
0.001770 0.000977 0.001221
0.008038 0.004174 0.004140
0.024081 0.006083 0.005074
0.147256 0.004150 0.001613
0.351951 0.000000 0.000000
0.518432 0.000000 0.000000
0.601450 0.000000 0.000000
0.623581 0.000000 0.000000
0.006607 0.012239 0.008718
0.009993 0.011957 0.007733
0.035475 0.013723 0.006632
0.161410 0.018306 0.002466
0.367363 0.000000 0.000000
0.527823 0.000000 0.000000
0.608235 0.000000 0.000000
0.632342 0.000000 0.000000
0.000000 0.063718 0.031971
0.004476 0.063686 0.027301
0.055353 0.071562 0.020934
0.199381 0.089759 0.011320
0.418277 0.086586 0.000000
0.586484 0.031937 0.000000
0.667032 0.000000 0.000000
0.688198 0.000000 0.000000
0.000000 0.204665 0.146536
0.000000 0.197929 0.131085
0.000000 0.205996 0.107227
0.235977 0.235953 0.071300
0.486832 0.256519 0.002555
0.674030 0.249837 0.000000
0.760057 0.226376 0.000000
0.779112 0.194146 0.000000
0.000000 0.384781 0.286514
0.000000 0.373572 0.268047
0.000000 0.384423 0.236519
0.186858 0.438707 0.196479
0.532897 0.479676 0.109339
0.756548 0.483430 0.000000
0.857561 0.466146 0.000000
0.883124 0.435994 0.000000
0.000000 0.490560 0.379262
0.000000 0.488935 0.372935
0.000000 0.514442 0.351127
0.000000 0.599821 0.319678
0.524001 0.671718 0.235483
0.795852 0.694304 0.075983
0.926027 0.687847 0.000000
0.962928 0.663519 0.000000
0.000000 0.525521 0.386185
0.000000 0.539242 0.383514
0.000000 0.585524 0.381479
0.000000 0.662736 0.369681
0.499256 0.746599 0.322467
0.797982 0.789770 0.197728
0.944808 0.794027 0.000000
0.992540 0.777490 0.000000
0.000000 0.606201 0.380522
0.000000 0.621316 0.378508
0.000000 0.659158 0.370644
0.354725 0.719856 0.348070
0.626017 0.771880 0.292961
0.823302 0.803997 0.200679
0.944861 0.817543 0.004505
0.998691 0.813703 0.000000
0.005573 0.004884 0.008138
0.007256 0.004884 0.007932
0.025111 0.006091 0.008058
0.157495 0.003003 0.005904
0.360496 0.000000 0.000000
0.523448 0.000000 0.000000
0.603463 0.000000 0.000000
0.624107 0.000000 0.000000
0.005005 0.011871 0.013133
0.007930 0.010244 0.010590
0.039838 0.012431 0.009701
0.172237 0.015271 0.007626
0.373869 0.000000 0.000000
0.528682 0.000000 0.000000
0.604854 0.000000 0.000000
0.629982 0.000000 0.000000
0.000000 0.073184 0.047665
0.000000 0.064992 0.037442
0.052607 0.071550 0.029594
0.208211 0.087581 0.018125
0.422937 0.080779 0.000000
0.587684 0.016562 0.000000
0.664353 0.000000 0.000000
0.684627 0.000000 0.000000
0.000000 0.208904 0.152944
0.000000 0.197666 0.134522
0.000000 0.202950 0.106808
0.239215 0.232809 0.067316
0.490007 0.251562 0.000458
0.674904 0.242669 0.000000
0.758065 0.217672 0.000000
0.775835 0.185109 0.000000
0.000000 0.384057 0.286942
0.000000 0.372547 0.268291
0.000000 0.383661 0.236461
0.189519 0.436641 0.194501
0.535221 0.476360 0.104238
0.758474 0.479101 0.000000
0.856569 0.459518 0.000000
0.880999 0.429891 0.000000
0.000000 0.490762 0.379658
0.000000 0.489117 0.373321
0.000000 0.514362 0.350362
0.000000 0.599798 0.318759
0.528131 0.670089 0.232455
0.797868 0.692053 0.068526
0.926248 0.684803 0.000000
0.962828 0.662000 0.000000
0.000000 0.527696 0.385678
0.000000 0.540758 0.383348
0.000000 0.587950 0.381337
0.000000 0.664870 0.369103
0.502706 0.747254 0.321765
0.801861 0.790073 0.194692
0.946226 0.793958 0.000000
0.992744 0.777411 0.000000
0.000000 0.609760 0.380045
0.000000 0.624946 0.377981
0.000000 0.662365 0.369835
0.364391 0.721625 0.346866
0.629922 0.772584 0.291861
0.827676 0.804634 0.197675
0.944730 0.822071 0.058141
0.997464 0.823364 0.000000
0.003537 0.007136 0.040083
0.006105 0.005647 0.039614
0.032254 0.006934 0.037042
0.162592 0.005902 0.040948
0.373643 0.000000 0.036687
0.536368 0.000000 0.026780
0.614968 0.000000 0.013825
0.634214 0.000000 0.001260
0.000000 0.017255 0.064820
0.003795 0.013964 0.056558
0.038882 0.015801 0.050195
0.177738 0.017550 0.048469
0.386707 0.000000 0.036317
0.542459 0.000000 0.021628
0.615782 0.000000 0.009291
0.640267 0.000000 0.001173
0.000000 0.087020 0.117258
0.000000 0.077561 0.100684
0.043393 0.082451 0.090928
0.210919 0.097086 0.081523
0.433628 0.087829 0.066915
0.599936 0.018745 0.045795
0.674759 0.000000 0.026904
0.693402 0.000000 0.007563
0.000000 0.219865 0.205461
0.000000 0.209467 0.190032
0.000000 0.215801 0.171470
0.236392 0.247252 0.152550
0.498625 0.265382 0.120308
0.682712 0.251646 0.082995
0.765778 0.222666 0.051606
0.786165 0.193778 0.011725
0.000000 0.384559 0.295575
0.000000 0.376698 0.284894
0.000000 0.386238 0.256451
0.181369 0.442777 0.234619
0.537728 0.487767 0.189795
0.763589 0.493057 0.127225
0.861868 0.474873 0.058367
0.887401 0.445143 0.002189
0.000000 0.490726 0.380587
0.000000 0.489885 0.376653
0.000000 0.513490 0.351063
0.000000 0.598269 0.321690
0.530250 0.671705 0.252544
0.799053 0.699756 0.167423
0.926064 0.701944 0.074781
0.964420 0.686784 0.000000
0.000000 0.532854 0.386414
0.000000 0.547535 0.385005
0.000000 0.595862 0.385015
0.003213 0.673068 0.376684
0.508085 0.753335 0.345519
0.804404 0.799144 0.257938
0.944303 0.810821 0.161487
0.990108 0.803216 0.013727
0.000000 0.618153 0.378940
0.000000 0.633471 0.376621
0.000000 0.670398 0.367730
0.388901 0.726556 0.345280
0.635598 0.779393 0.322562
0.828844 0.820370 0.308264
0.939736 0.843708 0.293020
0.992259 0.845880 0.200097
0.000000 0.013534 0.127446
0.002036 0.013003 0.135671
0.038785 0.014680 0.139445
0.169218 0.015438 0.149625
0.379204 0.000000 0.151031
0.550921 0.000000 0.140390
0.625531 0.000000 0.121233
0.642801 0.000000 0.094920
0.000000 0.029106 0.157014
0.000000 0.020603 0.161854
0.035222 0.021043 0.163289
0.184273 0.018680 0.158292
0.394942 0.000000 0.147348
0.554454 0.000000 0.133620
0.629309 0.000000 0.117645
0.652540 0.000000 0.099462
0.000000 0.100955 0.233325
0.000000 0.093079 0.216302
0.019686 0.095896 0.206415
0.215400 0.108854 0.202022
0.444962 0.097750 0.191508
0.612144 0.027858 0.174554
0.685335 0.000000 0.154453
0.706140 0.000000 0.130840
0.000000 0.237758 0.309586
0.000000 0.226658 0.294623
0.000000 0.235710 0.283282
0.228169 0.266557 0.275310
0.505894 0.282540 0.253499
0.692847 0.267408 0.230256
0.773884 0.236386 0.202681
0.795246 0.208070 0.173120
0.000000 0.406189 0.400126
0.000000 0.398169 0.389086
0.000000 0.413868 0.377183
0.139237 0.470783 0.372090
0.537963 0.512472 0.343002
0.767243 0.515177 0.297346
0.863509 0.492177 0.253412
0.891119 0.464168 0.210251
0.000000 0.508857 0.470467
0.000000 0.508088 0.467595
0.000000 0.534927 0.454120
0.000000 0.627158 0.452212
0.519806 0.703897 0.425431
0.797918 0.731275 0.375853
0.922722 0.727935 0.317455
0.962195 0.711379 0.249720
0.000000 0.553433 0.482603
0.000000 0.568926 0.484763
0.000000 0.620047 0.495733
0.000000 0.697005 0.501224
0.489369 0.778544 0.488711
0.797431 0.826363 0.440032
0.937343 0.836608 0.379437
0.983737 0.829004 0.309941
0.000000 0.639888 0.456218
0.000000 0.655410 0.459380
0.000000 0.693465 0.466844
0.370489 0.752034 0.472670
0.633528 0.806632 0.471924
0.824938 0.844067 0.459979
0.935185 0.864465 0.438034
0.984924 0.868022 0.385198
0.000000 0.026886 0.232991
0.000000 0.025020 0.244611
0.046435 0.027207 0.258449
0.189544 0.023229 0.272457
0.385840 0.000000 0.273630
0.560693 0.000000 0.259619
0.631557 0.000000 0.224974
0.647031 0.000000 0.189848
0.000000 0.049540 0.265688
0.000000 0.033591 0.266825
0.036206 0.032458 0.280278
0.195657 0.025638 0.289588
0.408253 0.000000 0.281048
0.569281 0.000000 0.258180
0.641936 0.000000 0.232654
0.663697 0.000000 0.208871
0.000000 0.109971 0.328467
0.000000 0.101215 0.329111
0.000000 0.103040 0.330517
0.218826 0.114410 0.339815
0.459028 0.100832 0.334606
0.623953 0.027650 0.315004
0.698701 0.000000 0.292238
0.716912 0.000000 0.257893
0.000000 0.250873 0.414425
0.000000 0.243062 0.403352
0.000000 0.253952 0.403875
0.225174 0.283062 0.411246
0.508334 0.298762 0.403706
0.698044 0.282653 0.383700
0.780240 0.252590 0.357306
0.801853 0.222601 0.321210
0.000000 0.420857 0.488725
0.000000 0.412946 0.479669
0.000000 0.437352 0.485087
0.109469 0.493047 0.494360
0.540538 0.531349 0.478797
0.765692 0.535036 0.451051
0.863365 0.513811 0.419009
0.890926 0.481165 0.381223
0.000000 0.521114 0.537540
0.000000 0.520594 0.533387
0.000000 0.559705 0.540246
0.000000 0.651743 0.562226
0.516862 0.723903 0.552415
0.794290 0.749561 0.513538
0.917863 0.750882 0.475898
0.956279 0.733366 0.430316
0.000000 0.568722 0.550136
0.000000 0.584395 0.555508
0.000000 0.631674 0.571706
0.000000 0.715468 0.594592
0.487448 0.799273 0.601620
0.797320 0.846565 0.572346
0.930479 0.855757 0.521663
0.976138 0.849112 0.467716
0.000000 0.669074 0.561268
0.000000 0.685119 0.565193
0.000000 0.722495 0.573039
0.376046 0.776985 0.582599
0.638989 0.828273 0.587574
0.825230 0.863866 0.581818
0.930114 0.882927 0.564499
0.977989 0.885143 0.514001
0.000000 0.044256 0.318958
0.000000 0.033079 0.317670
0.069094 0.035915 0.330989
0.213778 0.027066 0.335010
0.388447 0.000000 0.328136
0.546998 0.000000 0.314048
0.645760 0.000000 0.302290
0.683854 0.000000 0.285685
0.000000 0.068128 0.350940
0.000000 0.059517 0.348976
0.064148 0.052957 0.350995
0.218915 0.057444 0.360769
0.410330 0.021337 0.352947
0.568901 0.000000 0.338732
0.662894 0.000000 0.321546
0.697658 0.000000 0.302128
0.000000 0.124995 0.399775
0.000000 0.120114 0.399796
0.004198 0.124417 0.411676
0.241835 0.129538 0.421657
0.464899 0.120659 0.415752
0.625374 0.070522 0.392243
0.706925 0.011975 0.367291
0.734821 0.000835 0.344920
0.000000 0.259133 0.486679
0.000000 0.256435 0.484481
0.000000 0.268693 0.497984
0.233935 0.300118 0.521591
0.530036 0.312563 0.525931
0.709602 0.292056 0.504654
0.786114 0.262228 0.468672
0.806093 0.233033 0.432357
0.000000 0.426386 0.553617
0.000000 0.427795 0.552489
0.000000 0.455563 0.568111
0.091199 0.509193 0.590973
0.547670 0.548628 0.597734
0.769693 0.551993 0.583951
0.864363 0.530500 0.555007
0.890549 0.497215 0.516641
0.000000 0.530367 0.597514
0.000000 0.536326 0.598340
0.000000 0.582810 0.617131
0.000000 0.673490 0.644726
0.528722 0.740551 0.649402
0.799470 0.768899 0.634826
0.912624 0.767551 0.610818
0.949605 0.750777 0.580075
0.000000 0.579752 0.613998
0.000000 0.596969 0.621128
0.000000 0.651448 0.644761
0.000000 0.733554 0.675251
0.498743 0.814793 0.686470
0.798564 0.860754 0.671717
0.923515 0.871164 0.644448
0.967579 0.868618 0.614701
0.000000 0.688084 0.632339
0.000000 0.703657 0.637712
0.000000 0.743531 0.650423
0.377003 0.794085 0.663552
0.643708 0.844071 0.672289
0.824064 0.878415 0.674464
0.925941 0.897278 0.667509
0.969849 0.901090 0.640391
0.000000 0.103580 0.388297
0.000000 0.104813 0.391932
0.068473 0.108745 0.400583
0.214122 0.112804 0.406862
0.375843 0.105302 0.402804
0.525301 0.067452 0.385854
0.634867 0.002292 0.367394
0.700654 0.000000 0.351567
0.000000 0.120000 0.401884
0.000000 0.121665 0.406005
0.062939 0.128565 0.417572
0.219123 0.133174 0.424310
0.385657 0.129727 0.421784
0.538530 0.101086 0.404338
0.648729 0.045618 0.382406
0.713414 0.011916 0.368021
0.000000 0.165699 0.436579
0.000000 0.167961 0.440612
0.018976 0.177911 0.453367
0.226061 0.189384 0.465073
0.413299 0.190894 0.465073
0.572405 0.177151 0.450711
0.686301 0.150142 0.427021
0.748914 0.138921 0.408779
0.000000 0.266867 0.507494
0.000000 0.269728 0.510708
0.000000 0.283796 0.523443
0.248655 0.306486 0.538149
0.482474 0.317424 0.539148
0.663500 0.319460 0.531862
0.770055 0.316571 0.515753
0.816356 0.309820 0.492639
0.000000 0.433988 0.595955
0.000000 0.441643 0.603328
0.000000 0.474290 0.628917
0.204480 0.530516 0.659984
0.577613 0.561717 0.660547
0.777557 0.558873 0.638113
0.862206 0.543980 0.611223
0.891306 0.525811 0.585494
0.000000 0.537188 0.633346
0.000000 0.553016 0.641410
0.000000 0.605439 0.670311
0.000000 0.693685 0.709851
0.552546 0.756074 0.726505
0.806863 0.782783 0.722981
0.911584 0.779372 0.702574
0.945260 0.759783 0.673691
0.000000 0.590556 0.654104
0.000000 0.606373 0.662776
0.000000 0.660915 0.691493
0.000000 0.746689 0.729611
0.533974 0.829956 0.750120
0.803692 0.871016 0.749802
0.921328 0.881856 0.734369
0.961548 0.880537 0.714485
0.000000 0.711557 0.695603
0.000000 0.728126 0.702373
0.000000 0.761720 0.715031
0.395162 0.810318 0.731044
0.648192 0.857045 0.744195
0.825064 0.890168 0.750433
0.921944 0.908086 0.750972
0.963291 0.911942 0.734727
0.000000 0.148551 0.425567
0.000000 0.150790 0.429656
0.041683 0.157651 0.439134
0.196759 0.166134 0.448782
0.351985 0.166049 0.450271
0.500441 0.153546 0.438827
0.611174 0.123198 0.417280
0.690207 0.086243 0.396196
0.000000 0.163823 0.437446
0.000000 0.166116 0.441413
0.033808 0.174403 0.451222
0.199463 0.182883 0.460285
0.358078 0.182866 0.461351
0.510071 0.172778 0.451251
0.622723 0.148052 0.430946
0.700677 0.119935 0.409166
0.000000 0.202786 0.465501
0.000000 0.205229 0.469230
0.007858 0.212570 0.477551
0.207368 0.223913 0.487520
0.373710 0.229015 0.490339
0.531146 0.223791 0.482830
0.652392 0.208736 0.466443
0.736890 0.209262 0.454725
0.000000 0.281167 0.519446
0.000000 0.284843 0.523026
0.000000 0.294922 0.531070
0.221969 0.310289 0.540559
0.408748 0.325686 0.545996
0.591252 0.341000 0.547060
0.733200 0.360648 0.546697
0.810239 0.367083 0.533459
0.000000 0.426380 0.603386
0.000000 0.436806 0.611089
0.000000 0.463855 0.627894
0.290864 0.506689 0.646703
0.548089 0.543030 0.653122
0.723839 0.563023 0.647114
0.829953 0.571170 0.633843
0.885499 0.578675 0.619322
0.000000 0.568639 0.670403
0.000000 0.589185 0.682481
0.000000 0.645292 0.711645
0.219751 0.714490 0.737728
0.612518 0.762324 0.745714
0.819149 0.782108 0.738959
0.903762 0.782465 0.722280
0.937289 0.777538 0.701471
0.000000 0.606076 0.690315
0.000000 0.625035 0.701814
0.000000 0.680809 0.733435
0.000000 0.770898 0.774119
0.579885 0.843172 0.793953
0.817958 0.878551 0.794047
0.922716 0.886891 0.778925
0.958044 0.884619 0.760584
0.000000 0.728318 0.737866
0.000000 0.744911 0.745183
0.079808 0.782082 0.760281
0.427119 0.824273 0.775381
0.661726 0.867426 0.789388
0.829082 0.898358 0.799747
0.921005 0.914985 0.803920
0.960437 0.918258 0.790687
