LUTs/SPK Cube Block1 S32/TheBrim_SPK_Type-O_Block1_S32.cube
TITLE "TheBrim® SPK Block 1"
# © Copyright 2021 - TheBrim® d.o.o. Croatia
LUT_3D_SIZE 32
DOMAIN_MIN 0.000000 0.000000 0.000000
DOMAIN_MAX 1.000000 1.000000 1.000000
0.001770 0.000977 0.001221
0.004217 0.002495 0.002614
0.005948 0.003558 0.003562
0.006777 0.003973 0.004034
0.008038 0.004174 0.004140
0.010120 0.004582 0.004440
0.012662 0.004985 0.004632
0.016400 0.005464 0.004917
0.024081 0.006083 0.005074
0.041612 0.006711 0.004987
0.069316 0.007090 0.004511
0.105300 0.006365 0.003320
0.147256 0.004150 0.001613
0.196723 0.001418 0.000053
0.249029 0.000000 0.000000
0.296428 0.000000 0.000000
0.351951 0.000000 0.000000
0.403777 0.000000 0.000000
0.444107 0.000000 0.000000
0.483174 0.000000 0.000000
0.518432 0.000000 0.000000
0.545574 0.000000 0.000000
0.567784 0.000000 0.000000
0.588208 0.000000 0.000000
0.601450 0.000000 0.000000
0.610622 0.000000 0.000000
0.617621 0.000000 0.000000
0.621552 0.000000 0.000000
0.623581 0.000000 0.000000
0.623303 0.000000 0.000000
0.623405 0.000000 0.000000
0.625818 0.000000 0.000000
0.005656 0.004458 0.004232
0.005813 0.004207 0.003982
0.006316 0.004393 0.004138
0.007020 0.004475 0.004221
0.008259 0.004554 0.004231
0.010463 0.004867 0.004435
0.013451 0.005297 0.004543
0.017898 0.005909 0.004810
0.027709 0.006530 0.004893
0.046950 0.007131 0.004699
0.074308 0.007882 0.004307
0.109307 0.006893 0.003099
0.150008 0.005227 0.001432
0.198765 0.001931 0.000000
0.249621 0.000000 0.000000
0.297652 0.000000 0.000000
0.352612 0.000000 0.000000
0.403665 0.000000 0.000000
0.443700 0.000000 0.000000
0.483675 0.000000 0.000000
0.518385 0.000000 0.000000
0.545624 0.000000 0.000000
0.567674 0.000000 0.000000
0.588018 0.000000 0.000000
0.601383 0.000000 0.000000
0.610667 0.000000 0.000000
0.617548 0.000000 0.000000
0.621549 0.000000 0.000000
0.623524 0.000000 0.000000
0.623270 0.000000 0.000000
0.623498 0.000000 0.000000
0.628344 0.000000 0.000000
0.006236 0.006598 0.005537
0.006458 0.006264 0.005227
0.006807 0.006018 0.005012
0.007365 0.006011 0.004976
0.008676 0.005904 0.004882
0.011003 0.006140 0.004907
0.014128 0.006328 0.004859
0.019563 0.006843 0.005006
0.030494 0.007432 0.004886
0.050782 0.008536 0.004841
0.079063 0.009277 0.004250
0.113346 0.008925 0.003074
0.152940 0.008091 0.001605
0.203129 0.004293 0.000000
0.253125 0.000000 0.000000
0.301072 0.000000 0.000000
0.354272 0.000000 0.000000
0.403853 0.000000 0.000000
0.443290 0.000000 0.000000
0.484010 0.000000 0.000000
0.518694 0.000000 0.000000
0.545476 0.000000 0.000000
0.567702 0.000000 0.000000
0.587698 0.000000 0.000000
0.601380 0.000000 0.000000
0.610731 0.000000 0.000000
0.617513 0.000000 0.000000
0.621677 0.000000 0.000000
0.623564 0.000000 0.000000
0.623403 0.000000 0.000000
0.625638 0.000000 0.000000
0.631841 0.000000 0.000000
0.006479 0.008822 0.006974
0.006788 0.008638 0.006697
0.007081 0.008517 0.006539
0.007808 0.008303 0.006321
0.009358 0.008329 0.006161
0.011814 0.008299 0.005967
0.015031 0.008418 0.005861
0.020836 0.008806 0.005710
0.032416 0.009624 0.005550
0.053928 0.010943 0.005316
0.083851 0.011889 0.004482
0.116520 0.012374 0.003386
0.156079 0.012037 0.002010
0.207831 0.008998 0.000106
0.258675 0.001188 0.000000
0.306309 0.000000 0.000000
0.359895 0.000000 0.000000
0.408372 0.000000 0.000000
0.445924 0.000000 0.000000
0.485165 0.000000 0.000000
0.520080 0.000000 0.000000
0.546376 0.000000 0.000000
0.568496 0.000000 0.000000
0.587852 0.000000 0.000000
0.601835 0.000000 0.000000
0.611430 0.000000 0.000000
0.618525 0.000000 0.000000
0.623355 0.000000 0.000000
0.625821 0.000000 0.000000
0.626701 0.000000 0.000000
0.630535 0.000000 0.000000
0.637168 0.000000 0.000000
0.006607 0.012239 0.008718
0.006890 0.012110 0.008496
0.007249 0.012036 0.008296
0.007959 0.011923 0.008046
0.009993 0.011957 0.007733
0.012740 0.011978 0.007439
0.016270 0.012064 0.007164
0.022592 0.012536 0.006899
0.035475 0.013723 0.006632
0.057760 0.015237 0.006053
0.087727 0.017101 0.005422
0.120982 0.018462 0.004359
0.161410 0.018306 0.002466
0.212791 0.016215 0.000514
0.265862 0.008028 0.000000
0.314406 0.000000 0.000000
0.367363 0.000000 0.000000
0.416466 0.000000 0.000000
0.453711 0.000000 0.000000
0.492370 0.000000 0.000000
0.527823 0.000000 0.000000
0.553743 0.000000 0.000000
0.575187 0.000000 0.000000
0.594592 0.000000 0.000000
0.608235 0.000000 0.000000
0.618141 0.000000 0.000000
0.625781 0.000000 0.000000
0.630432 0.000000 0.000000
0.632342 0.000000 0.000000
0.633062 0.000000 0.000000
0.637806 0.000000 0.000000
0.644987 0.000000 0.000000
0.006126 0.017528 0.011746
0.006414 0.017445 0.011506
0.006951 0.017246 0.011169
0.007651 0.017176 0.010853
0.009981 0.017634 0.010584
0.013527 0.018167 0.010186
0.018014 0.018572 0.009771
0.025358 0.019519 0.009485
0.039970 0.020889 0.008767
0.063590 0.023473 0.008238
0.093354 0.026409 0.007253
0.128310 0.028080 0.005333
0.168947 0.029401 0.003557
0.221126 0.027889 0.001005
0.276092 0.020858 0.000000
0.323705 0.011438 0.000000
0.377320 0.000000 0.000000
0.426880 0.000000 0.000000
0.464696 0.000000 0.000000
0.502764 0.000000 0.000000
0.537818 0.000000 0.000000
0.563955 0.000000 0.000000
0.585455 0.000000 0.000000
0.604961 0.000000 0.000000
0.618595 0.000000 0.000000
0.627979 0.000000 0.000000
0.635966 0.000000 0.000000
0.640502 0.000000 0.000000
0.641690 0.000000 0.000000
0.642845 0.000000 0.000000
0.647523 0.000000 0.000000
0.654962 0.000000 0.000000
0.004855 0.026200 0.015720
0.005359 0.026148 0.015367
0.005945 0.026139 0.015039
0.007024 0.026242 0.014586
0.009897 0.026767 0.014106
0.013754 0.027362 0.013549
0.019219 0.028297 0.012880
0.028271 0.029674 0.012233
0.044774 0.032396 0.011608
0.069812 0.035674 0.010402
0.101369 0.039572 0.008792
0.135630 0.043412 0.007278
0.178101 0.045519 0.004941
0.232500 0.044989 0.002062
0.285617 0.042109 0.000000
0.335712 0.032865 0.000000
0.389345 0.017501 0.000000
0.438447 0.003005 0.000000
0.477328 0.000000 0.000000
0.515457 0.000000 0.000000
0.550814 0.000000 0.000000
0.577576 0.000000 0.000000
0.599239 0.000000 0.000000
0.619332 0.000000 0.000000
0.633041 0.000000 0.000000
0.642230 0.000000 0.000000
0.649285 0.000000 0.000000
0.654423 0.000000 0.000000
0.655145 0.000000 0.000000
0.655829 0.000000 0.000000
0.660365 0.000000 0.000000
0.665819 0.000000 0.000000
0.001701 0.041741 0.022395
0.002300 0.041528 0.021823
0.003031 0.041346 0.021332
0.005296 0.041419 0.020525
0.008666 0.041965 0.019660
0.013466 0.042730 0.018625
0.020504 0.044132 0.017604
0.031704 0.046203 0.016645
0.050352 0.049136 0.015506
0.076434 0.053305 0.014105
0.107533 0.057589 0.012275
0.143909 0.062348 0.010087
0.187805 0.065890 0.007794
0.242514 0.067986 0.003852
0.296960 0.066783 0.000050
0.347834 0.061531 0.000000
0.402328 0.051539 0.000000
0.453134 0.037199 0.000000
0.492544 0.020201 0.000000
0.531119 0.002872 0.000000
0.567184 0.000000 0.000000
0.593806 0.000000 0.000000
0.614809 0.000000 0.000000
0.634770 0.000000 0.000000
0.649244 0.000000 0.000000
0.658591 0.000000 0.000000
0.665334 0.000000 0.000000
0.669322 0.000000 0.000000
0.671610 0.000000 0.000000
0.671273 0.000000 0.000000
0.674735 0.000000 0.000000
0.678583 0.000000 0.000000
0.000000 0.063718 0.031971
0.000000 0.063192 0.031158
0.000000 0.062854 0.030271
0.000747 0.063263 0.028953
0.004476 0.063686 0.027301
0.011054 0.064458 0.025476
0.019559 0.065506 0.023909
0.033801 0.067539 0.022188
0.055353 0.071562 0.020934
0.084131 0.075752 0.019258
0.117467 0.080822 0.017213
0.153848 0.085709 0.014651
0.199381 0.089759 0.011320
0.255338 0.094309 0.006758
0.311674 0.095264 0.001232
0.361581 0.092605 0.000000
0.418277 0.086586 0.000000
0.470107 0.077995 0.000000
0.510133 0.067558 0.000000
0.549350 0.052016 0.000000
0.586484 0.031937 0.000000
0.612749 0.012327 0.000000
0.633330 0.003835 0.000000
0.653064 0.000000 0.000000
0.667032 0.000000 0.000000
0.677261 0.000000 0.000000
0.683150 0.000000 0.000000
0.686952 0.000000 0.000000
0.688198 0.000000 0.000000
0.688158 0.000000 0.000000
0.690673 0.000000 0.000000
0.693741 0.000000 0.000000
0.000000 0.090820 0.049951
0.000000 0.090310 0.048836
0.000000 0.090185 0.047584
0.000000 0.090199 0.045687
0.000000 0.090253 0.043547
0.002116 0.091232 0.041445
0.013628 0.092807 0.038817
0.032262 0.094665 0.036095
0.057320 0.098251 0.033460
0.088393 0.103167 0.030764
0.124755 0.108650 0.027312
0.166088 0.114437 0.023179
0.213424 0.120089 0.017862
0.270538 0.125208 0.010866
0.327152 0.128647 0.003524
0.378621 0.128277 0.000000
0.434714 0.125089 0.000000
0.488800 0.120584 0.000000
0.529533 0.113862 0.000000
0.569094 0.104482 0.000000
0.606372 0.092167 0.000000
0.633332 0.078019 0.000000
0.654550 0.064078 0.000000
0.674688 0.050335 0.000000
0.687998 0.035365 0.000000
0.696859 0.023468 0.000000
0.704095 0.013804 0.000000
0.707772 0.007788 0.000000
0.708150 0.001931 0.000000
0.708153 0.000000 0.000000
0.709887 0.000000 0.000000
0.711369 0.000372 0.000000
0.000000 0.122919 0.076180
0.000000 0.122156 0.074538
0.000000 0.121867 0.072811
0.000000 0.121926 0.070529
0.000000 0.122053 0.067762
0.000000 0.122237 0.064666
0.000000 0.123356 0.061498
0.017788 0.125203 0.057480
0.052357 0.129369 0.053354
0.089916 0.135202 0.048989
0.128916 0.140274 0.043222
0.172535 0.146333 0.037213
0.224294 0.153640 0.029833
0.285330 0.159852 0.019866
0.343070 0.164056 0.009882
0.394796 0.166108 0.001134
0.451512 0.166075 0.000000
0.506734 0.163208 0.000000
0.549286 0.159352 0.000000
0.589761 0.153692 0.000000
0.627374 0.144970 0.000000
0.655740 0.136683 0.000000
0.677654 0.128758 0.000000
0.697910 0.119177 0.000000
0.711101 0.110066 0.000000
0.719010 0.098152 0.000000
0.725842 0.089081 0.000000
0.731043 0.081804 0.000000
0.731631 0.067727 0.000000
0.732160 0.059454 0.000000
0.732476 0.057767 0.000000
0.732180 0.056907 0.000000
0.000000 0.162169 0.109824
0.000000 0.161024 0.107339
0.000000 0.159798 0.104852
0.000000 0.159050 0.101497
0.000000 0.158933 0.097695
0.000000 0.159162 0.093098
0.000000 0.160001 0.088605
0.000000 0.162158 0.083792
0.027310 0.165426 0.078194
0.080131 0.171695 0.071845
0.128403 0.178537 0.065166
0.177538 0.184059 0.056415
0.230018 0.191098 0.046923
0.292827 0.198363 0.034004
0.357244 0.203577 0.019456
0.410980 0.205909 0.005921
0.468693 0.208097 0.000000
0.524593 0.208056 0.000000
0.568923 0.204525 0.000000
0.610588 0.201162 0.000000
0.650332 0.196202 0.000000
0.679741 0.189912 0.000000
0.701555 0.183726 0.000000
0.721542 0.176795 0.000000
0.734896 0.168683 0.000000
0.743161 0.161368 0.000000
0.749412 0.152853 0.000000
0.753396 0.144191 0.000000
0.755908 0.139080 0.000000
0.756903 0.133713 0.000000
0.756078 0.129667 0.000000
0.754881 0.126483 0.000000
0.000000 0.204665 0.146536
0.000000 0.202685 0.143661
0.000000 0.200849 0.140392
0.000000 0.198714 0.135762
0.000000 0.197929 0.131085
0.000000 0.198480 0.126170
0.000000 0.199557 0.119976
0.000000 0.201790 0.114013
0.000000 0.205996 0.107227
0.048144 0.212705 0.100317
0.119150 0.221222 0.092085
0.175832 0.228898 0.083138
0.235977 0.235953 0.071300
0.301240 0.244469 0.057111
0.368878 0.251269 0.039550
0.426750 0.254717 0.021814
0.486832 0.256519 0.002555
0.544891 0.257499 0.000000
0.589468 0.256935 0.000000
0.632823 0.253271 0.000000
0.674030 0.249837 0.000000
0.703958 0.244906 0.000000
0.725839 0.238262 0.000000
0.745611 0.231889 0.000000
0.760057 0.226376 0.000000
0.768260 0.217940 0.000000
0.774259 0.210475 0.000000
0.777651 0.201403 0.000000
0.779112 0.194146 0.000000
0.781041 0.191914 0.000000
0.779201 0.185687 0.000000
0.777927 0.182734 0.000000
0.000000 0.250719 0.182503
0.000000 0.248921 0.180117
0.000000 0.246051 0.176716
0.000000 0.242458 0.171244
0.000000 0.239621 0.165355
0.000000 0.239841 0.160221
0.000000 0.240914 0.154710
0.000000 0.242991 0.147536
0.000000 0.247955 0.140203
0.001905 0.255675 0.132401
0.090246 0.265538 0.123985
0.169639 0.275247 0.113138
0.237371 0.284731 0.100848
0.307924 0.292694 0.084661
0.378244 0.301029 0.064935
0.439809 0.305325 0.041595
0.501598 0.307514 0.016035
0.563625 0.309895 0.000000
0.609188 0.308542 0.000000
0.653608 0.308640 0.000000
0.697547 0.306270 0.000000
0.727950 0.301539 0.000000
0.750521 0.296681 0.000000
0.770256 0.288863 0.000000
0.784813 0.283210 0.000000
0.794343 0.277496 0.000000
0.800437 0.268723 0.000000
0.804563 0.262133 0.000000
0.806202 0.255483 0.000000
0.805970 0.248347 0.000000
0.804238 0.242055 0.000000
0.803172 0.239666 0.000000
0.000000 0.295720 0.217369
0.000000 0.295639 0.216618
0.000000 0.293294 0.213436
0.000000 0.288861 0.207183
0.000000 0.284838 0.198989
0.000000 0.284720 0.192555
0.000000 0.286205 0.186380
0.000000 0.289058 0.179323
0.000000 0.294593 0.172507
0.000000 0.303713 0.164831
0.032131 0.314209 0.156778
0.144984 0.325243 0.146095
0.228164 0.335277 0.132875
0.309166 0.345403 0.116687
0.384541 0.354130 0.096899
0.448444 0.359945 0.073950
0.515255 0.363614 0.046024
0.577926 0.364932 0.014749
0.628250 0.364403 0.000000
0.672655 0.363060 0.000000
0.717341 0.362361 0.000000
0.750106 0.358037 0.000000
0.773038 0.353275 0.000000
0.794831 0.347993 0.000000
0.808971 0.339811 0.000000
0.818387 0.334167 0.000000
0.825617 0.327054 0.000000
0.829931 0.319538 0.000000
0.832416 0.314578 0.000000
0.832270 0.307380 0.000000
0.829528 0.298386 0.000000
0.828404 0.295876 0.000000
0.000000 0.338699 0.251649
0.000000 0.338499 0.250808
0.000000 0.336878 0.248367
0.000000 0.332318 0.242103
0.000000 0.328430 0.233479
0.000000 0.327639 0.225671
0.000000 0.329614 0.217961
0.000000 0.333275 0.210905
0.000000 0.339919 0.203925
0.000000 0.350893 0.197215
0.000000 0.363596 0.188549
0.105836 0.376488 0.178333
0.212507 0.388446 0.165200
0.304472 0.401149 0.148900
0.389960 0.411572 0.128097
0.456307 0.418195 0.105806
0.525935 0.423140 0.075601
0.595584 0.427604 0.036092
0.645687 0.426938 0.001536
0.692422 0.424158 0.000000
0.739316 0.423850 0.000000
0.772659 0.420880 0.000000
0.795336 0.414423 0.000000
0.817878 0.408603 0.000000
0.833973 0.402282 0.000000
0.843072 0.394066 0.000000
0.850671 0.387499 0.000000
0.854920 0.379125 0.000000
0.857196 0.372357 0.000000
0.856749 0.364171 0.000000
0.854618 0.355674 0.000000
0.851835 0.349143 0.000000
0.000000 0.384781 0.286514
0.000000 0.384621 0.285682
0.000000 0.383392 0.283659
0.000000 0.377932 0.276962
0.000000 0.373572 0.268047
0.000000 0.371982 0.259957
0.000000 0.374009 0.252583
0.000000 0.377372 0.244236
0.000000 0.384423 0.236519
0.000000 0.396486 0.229461
0.000000 0.410527 0.220816
0.034134 0.424917 0.209626
0.186858 0.438707 0.196479
0.293391 0.452314 0.180322
0.388157 0.465527 0.160780
0.462210 0.472843 0.137208
0.532897 0.479676 0.109339
0.605411 0.484949 0.071641
0.660146 0.487089 0.030342
0.708166 0.486869 0.000000
0.756548 0.483430 0.000000
0.793314 0.481911 0.000000
0.817539 0.478027 0.000000
0.840520 0.472112 0.000000
0.857561 0.466146 0.000000
0.867790 0.458304 0.000000
0.876013 0.451989 0.000000
0.881245 0.444664 0.000000
0.883124 0.435994 0.000000
0.882211 0.425550 0.000000
0.880573 0.417240 0.000000
0.878875 0.413064 0.000000
0.000000 0.418885 0.316426
0.000000 0.418743 0.315557
0.000000 0.418396 0.314386
0.000000 0.415816 0.310023
0.000000 0.412668 0.302646
0.000000 0.411552 0.293749
0.000000 0.415625 0.286211
0.000000 0.421155 0.278014
0.000000 0.429106 0.269578
0.000000 0.442659 0.260902
0.000000 0.458541 0.252321
0.000000 0.474204 0.241451
0.129279 0.490598 0.227991
0.274203 0.507443 0.211188
0.379386 0.520911 0.191120
0.458808 0.529690 0.168766
0.536428 0.536010 0.142221
0.612287 0.542372 0.110239
0.671696 0.545689 0.071496
0.721776 0.546195 0.020114
0.770757 0.545564 0.000000
0.809748 0.539759 0.000000
0.835404 0.536708 0.000000
0.859240 0.531591 0.000000
0.877555 0.525501 0.000000
0.889461 0.519198 0.000000
0.897646 0.511626 0.000000
0.903381 0.504099 0.000000
0.905584 0.494523 0.000000
0.906347 0.486761 0.000000
0.906366 0.481558 0.000000
0.903736 0.474775 0.000000
0.000000 0.447527 0.342574
0.000000 0.447476 0.341963
0.000000 0.447389 0.341248
0.000000 0.446575 0.339438
0.000000 0.443617 0.334062
0.000000 0.442232 0.325444
0.000000 0.446611 0.317169
0.000000 0.453611 0.309293
0.000000 0.462538 0.301838
0.000000 0.476792 0.294200
0.000000 0.495812 0.284664
0.000000 0.513883 0.273721
0.039695 0.532015 0.259804
0.238591 0.552014 0.242829
0.369095 0.571191 0.221536
0.455130 0.582640 0.199604
0.534029 0.591871 0.173546
0.616588 0.599425 0.139406
0.678373 0.602362 0.097976
0.733039 0.605832 0.045989
0.784590 0.607116 0.000000
0.826813 0.605970 0.000000
0.852118 0.597725 0.000000
0.876998 0.592964 0.000000
0.897558 0.587554 0.000000
0.908565 0.579556 0.000000
0.917779 0.571828 0.000000
0.924798 0.564849 0.000000
0.928261 0.557334 0.000000
0.928475 0.546933 0.000000
0.928577 0.540744 0.000000
0.925482 0.531629 0.000000
0.000000 0.474146 0.362609
0.000000 0.474057 0.362017
0.000000 0.473988 0.361376
0.000000 0.473774 0.360350
0.000000 0.472044 0.356609
0.000000 0.470491 0.349825
0.000000 0.473997 0.342515
0.000000 0.481832 0.335772
0.000000 0.491814 0.329379
0.000000 0.507072 0.323216
0.000000 0.526641 0.315931
0.000000 0.546862 0.304863
0.000000 0.566856 0.290941
0.194106 0.586878 0.274882
0.343647 0.607720 0.255064
0.446531 0.622258 0.230822
0.528999 0.633112 0.205826
0.611569 0.642869 0.175741
0.683458 0.649010 0.137447
0.736577 0.650674 0.087991
0.791787 0.653778 0.026108
0.835716 0.653821 0.000000
0.865195 0.651094 0.000000
0.891428 0.646924 0.000000
0.913178 0.642602 0.000000
0.926983 0.638187 0.000000
0.937463 0.634095 0.000000
0.945729 0.628149 0.000000
0.949713 0.620908 0.000000
0.950351 0.610856 0.000000
0.949530 0.601214 0.000000
0.947053 0.592019 0.000000
0.000000 0.490560 0.379262
0.000000 0.490404 0.378609
0.000000 0.490214 0.377869
0.000000 0.489924 0.376587
0.000000 0.488935 0.372935
0.000000 0.489004 0.366667
0.000000 0.493556 0.361415
0.000000 0.502404 0.356688
0.000000 0.514442 0.351127
0.000000 0.533256 0.346146
0.000000 0.556079 0.340432
0.000000 0.577807 0.332004
0.000000 0.599821 0.319678
0.130972 0.622413 0.303641
0.322449 0.643380 0.284428
0.430779 0.658886 0.262055
0.524001 0.671718 0.235483
0.609123 0.682796 0.206070
0.680897 0.689823 0.171545
0.743271 0.692706 0.128130
0.795852 0.694304 0.075983
0.841520 0.694851 0.004253
0.873026 0.691945 0.000000
0.904306 0.691537 0.000000
0.926027 0.687847 0.000000
0.939654 0.682518 0.000000
0.950167 0.676858 0.000000
0.958850 0.671704 0.000000
0.962928 0.663519 0.000000
0.964805 0.656143 0.000000
0.964999 0.648463 0.000000
0.963650 0.641018 0.000000
0.000000 0.503739 0.393932
0.000000 0.503657 0.393418
0.000000 0.503513 0.392813
0.000000 0.503305 0.391805
0.000000 0.502434 0.388811
0.000000 0.502521 0.381862
0.000000 0.508217 0.376085
0.000000 0.517168 0.372223
0.000000 0.528340 0.368328
0.000000 0.546825 0.364443
0.000000 0.572314 0.360415
0.000000 0.596471 0.353120
0.000000 0.619455 0.342662
0.057207 0.642921 0.329432
0.301568 0.668469 0.310544
0.419251 0.687071 0.290147
0.515138 0.701927 0.265094
0.606963 0.715291 0.234774
0.680159 0.723818 0.200927
0.744029 0.729905 0.160970
0.806524 0.733742 0.100184
0.851234 0.735330 0.023951
0.881572 0.733738 0.000000
0.911964 0.732082 0.000000
0.936242 0.729844 0.000000
0.949974 0.723626 0.000000
0.960772 0.717284 0.000000
0.969026 0.709739 0.000000
0.973910 0.702268 0.000000
0.976357 0.694526 0.000000
0.976885 0.687046 0.000000
0.976403 0.680381 0.000000
0.000000 0.509868 0.400060
0.000000 0.509956 0.399748
0.000000 0.509980 0.398992
0.000000 0.509724 0.397317
0.000000 0.509962 0.394205
0.000000 0.511427 0.389134
0.000000 0.518141 0.385481
0.000000 0.529049 0.382495
0.000000 0.541857 0.380077
0.000000 0.558069 0.378492
0.000000 0.581881 0.376182
0.000000 0.608616 0.370596
0.000000 0.633422 0.360984
0.037831 0.657564 0.349022
0.262221 0.682729 0.334731
0.406445 0.705064 0.314416
0.508892 0.722191 0.291377
0.606329 0.737203 0.261962
0.682488 0.746612 0.228335
0.744218 0.752951 0.191209
0.806344 0.759008 0.139990
0.855678 0.760865 0.060743
0.886850 0.760719 0.000000
0.916221 0.760547 0.000000
0.941108 0.759111 0.000000
0.956949 0.755069 0.000000
0.968434 0.749755 0.000000
0.977345 0.742964 0.000000
0.982850 0.736227 0.000000
0.986419 0.730217 0.000000
0.987609 0.723318 0.000000
0.987828 0.716928 0.000000
0.000000 0.511331 0.394921
0.000000 0.511727 0.393953
0.000000 0.512212 0.392675
0.000000 0.513739 0.390318
0.000000 0.518475 0.388073
0.000000 0.525633 0.386162
0.000000 0.534002 0.384487
0.000000 0.544302 0.383068
0.000000 0.559240 0.382022
0.000000 0.579870 0.381617
0.000000 0.600911 0.380464
0.000000 0.623265 0.377193
0.000000 0.647423 0.371361
0.046712 0.673166 0.363174
0.256837 0.699941 0.351983
0.392018 0.720343 0.334769
0.500888 0.738038 0.310714
0.599160 0.753697 0.282704
0.678981 0.764370 0.251029
0.741901 0.770876 0.216111
0.803062 0.776698 0.175479
0.855151 0.779960 0.111752
0.887265 0.779663 0.032631
0.917942 0.779307 0.000000
0.942977 0.777876 0.000000
0.959578 0.774988 0.000000
0.972543 0.770331 0.000000
0.981936 0.764656 0.000000
0.988490 0.758839 0.000000
0.992396 0.753828 0.000000
0.994517 0.748517 0.000000
0.995753 0.743203 0.000000
0.000000 0.525521 0.386185
0.000000 0.527973 0.385654
0.000000 0.530846 0.385081
0.000000 0.534659 0.384402
0.000000 0.539242 0.383514
0.000000 0.546240 0.382889
0.000000 0.555835 0.382121
0.000000 0.569612 0.381855
0.000000 0.585524 0.381479
0.000000 0.602676 0.380560
0.000000 0.623065 0.378245
0.000000 0.642894 0.374471
0.000000 0.662736 0.369681
0.111693 0.686490 0.362861
0.303454 0.711282 0.353034
0.411104 0.730202 0.339741
0.499256 0.746599 0.322467
0.593630 0.764228 0.299659
0.672158 0.775926 0.270618
0.735676 0.783500 0.237249
0.797982 0.789770 0.197728
0.853105 0.794410 0.149460
0.887457 0.795101 0.080854
0.917832 0.795266 0.003312
0.944808 0.794027 0.000000
0.962402 0.791919 0.000000
0.975035 0.788311 0.000000
0.985812 0.782834 0.000000
0.992540 0.777490 0.000000
0.996764 0.771791 0.000000
0.999456 0.767324 0.000000
0.999862 0.762283 0.000000
0.000000 0.543749 0.383098
0.000000 0.546291 0.382875
0.000000 0.549242 0.382581
0.000000 0.553833 0.382223
0.000000 0.561269 0.382076
0.000000 0.570405 0.381872
0.000000 0.581376 0.381696
0.000000 0.593927 0.381139
0.000000 0.609086 0.380064
0.000000 0.625776 0.377786
0.000000 0.642855 0.374466
0.000000 0.662243 0.369797
0.091992 0.683458 0.363845
0.250627 0.703238 0.356926
0.361089 0.721028 0.347214
0.448247 0.737564 0.333692
0.529485 0.753522 0.317398
0.609386 0.768839 0.297798
0.680522 0.781306 0.274428
0.738372 0.790143 0.247376
0.795835 0.798800 0.215808
0.850218 0.804384 0.171983
0.886879 0.805411 0.116532
0.918116 0.806175 0.035834
0.944772 0.806077 0.000000
0.963228 0.803620 0.000000
0.977078 0.800725 0.000000
0.988290 0.796900 0.000000
0.996070 0.792161 0.000000
0.999709 0.786703 0.000000
1.000000 0.781574 0.000000
1.000000 0.777685 0.000000
0.000000 0.564933 0.382040
0.000000 0.567603 0.381963
0.000000 0.570770 0.381875
0.000000 0.575781 0.381795
0.000000 0.582974 0.381687
0.000000 0.591717 0.381271
0.000000 0.602419 0.380703
0.000000 0.615219 0.379304
0.000000 0.628547 0.377416
0.000000 0.642983 0.374479
0.000000 0.660147 0.370349
0.041811 0.678335 0.365426
0.214174 0.698176 0.358757
0.341315 0.717420 0.349672
0.412973 0.730734 0.339863
0.482635 0.744329 0.327124
0.562389 0.759945 0.310015
0.635567 0.773575 0.290224
0.695329 0.783791 0.268567
0.748928 0.792397 0.243476
0.804519 0.801195 0.212895
0.852552 0.808031 0.177980
0.885751 0.811344 0.134643
0.917785 0.814171 0.070494
0.946004 0.814254 0.000774
0.964992 0.812494 0.000000
0.979850 0.809510 0.000000
0.989857 0.805901 0.000000
0.997423 0.801385 0.000000
0.999990 0.796709 0.000000
1.000000 0.791676 0.000000
1.000000 0.787582 0.000000
0.000000 0.585331 0.381603
0.000000 0.588301 0.381458
0.000000 0.591565 0.381287
0.000000 0.596209 0.381056
0.000000 0.602350 0.380664
0.000000 0.610078 0.380038
0.000000 0.619040 0.378834
0.000000 0.629994 0.377203
0.000000 0.643066 0.374452
0.000000 0.657854 0.370958
0.006369 0.673308 0.366934
0.161930 0.691187 0.361293
0.298697 0.710237 0.353837
0.380465 0.724589 0.344799
0.455308 0.738946 0.332427
0.520130 0.751701 0.319395
0.585578 0.764500 0.304331
0.650457 0.776178 0.285330
