LUTs/SPK Cube Block1 S32/TheBrim_SPK_Type-M_Block1_S32.cube
TITLE "TheBrim® SPK Block 1"
# © Copyright 2021 - TheBrim® d.o.o. Croatia
LUT_3D_SIZE 32
DOMAIN_MIN 0.000000 0.000000 0.000000
DOMAIN_MAX 1.000000 1.000000 1.000000
0.011200 0.001984 0.018219
0.017571 0.002227 0.018312
0.024892 0.002188 0.018441
0.031621 0.002575 0.018417
0.039430 0.002583 0.018567
0.047775 0.002831 0.018510
0.056903 0.003276 0.018507
0.068105 0.003566 0.018579
0.082450 0.004212 0.018433
0.102629 0.004644 0.018249
0.127168 0.004911 0.017917
0.153919 0.004920 0.017379
0.183159 0.004453 0.016655
0.217996 0.003207 0.015839
0.255931 0.001966 0.015872
0.291721 0.002581 0.015898
0.326264 0.002791 0.015977
0.363389 0.003227 0.015961
0.403066 0.003590 0.016065
0.434614 0.004005 0.016090
0.463339 0.004423 0.016171
0.491463 0.004978 0.016287
0.518659 0.005654 0.016500
0.540808 0.006632 0.016829
0.558442 0.007692 0.017509
0.574519 0.009167 0.018571
0.589800 0.010726 0.019943
0.601512 0.012814 0.021417
0.612603 0.014734 0.023142
0.622063 0.016808 0.024844
0.630301 0.018826 0.026405
0.637385 0.020722 0.027955
0.011513 0.009335 0.018530
0.017857 0.009435 0.018841
0.024549 0.009731 0.019003
0.031685 0.009775 0.019172
0.039608 0.009855 0.019190
0.047889 0.010425 0.019069
0.057345 0.010589 0.018943
0.068582 0.010894 0.018860
0.083572 0.011481 0.018742
0.103754 0.011931 0.018438
0.127844 0.012337 0.018066
0.154599 0.012396 0.017595
0.184473 0.011995 0.016810
0.219262 0.010625 0.015859
0.256525 0.008659 0.015891
0.294509 0.008886 0.015945
0.329716 0.009131 0.015963
0.366853 0.009619 0.016008
0.407121 0.009975 0.016036
0.438848 0.010157 0.016133
0.466343 0.010642 0.016224
0.495694 0.011003 0.016271
0.523412 0.011555 0.016504
0.544930 0.012307 0.016876
0.562875 0.013128 0.017608
0.578440 0.014434 0.018559
0.594147 0.015899 0.019939
0.607362 0.017598 0.021596
0.618612 0.019479 0.023342
0.627834 0.021345 0.025130
0.635771 0.023169 0.026755
0.643206 0.024995 0.028397
0.011798 0.016882 0.019120
0.017802 0.017075 0.019563
0.024427 0.017230 0.019783
0.031661 0.017298 0.019924
0.039338 0.017564 0.019851
0.048268 0.017630 0.019659
0.057828 0.017830 0.019423
0.069098 0.018301 0.019310
0.084149 0.018834 0.018996
0.104888 0.019336 0.018832
0.129203 0.019813 0.018469
0.156035 0.019906 0.017907
0.185845 0.019386 0.017056
0.221647 0.018190 0.016120
0.261044 0.015157 0.016180
0.298921 0.015146 0.016226
0.335170 0.015277 0.016197
0.375233 0.015518 0.016225
0.415953 0.015744 0.016143
0.446758 0.015922 0.016236
0.476163 0.016243 0.016251
0.505934 0.016560 0.016368
0.532690 0.016914 0.016588
0.554114 0.017559 0.017045
0.571370 0.018312 0.017806
0.588084 0.019465 0.018888
0.602960 0.020869 0.020358
0.615951 0.022370 0.022174
0.626202 0.024091 0.023944
0.634945 0.025821 0.025671
0.642959 0.027519 0.027513
0.649754 0.029075 0.029077
0.012387 0.025017 0.019586
0.018217 0.025255 0.020221
0.024222 0.025530 0.020783
0.031106 0.025661 0.021204
0.039128 0.025695 0.021109
0.048155 0.025867 0.020897
0.057782 0.026215 0.020605
0.069596 0.026558 0.020297
0.085133 0.027139 0.020031
0.106296 0.027811 0.019688
0.130650 0.028579 0.019160
0.157809 0.028803 0.018555
0.187638 0.028641 0.017698
0.223335 0.028011 0.016862
0.262992 0.024269 0.016932
0.301553 0.021904 0.016929
0.338091 0.022045 0.016939
0.377981 0.022209 0.016910
0.419164 0.022323 0.017024
0.450901 0.022476 0.017065
0.480916 0.022709 0.017032
0.511704 0.022913 0.017110
0.538385 0.023228 0.017257
0.560005 0.023607 0.017628
0.577741 0.024271 0.018318
0.595095 0.025143 0.019354
0.609782 0.026259 0.020842
0.621918 0.027683 0.022586
0.632008 0.029158 0.024410
0.640849 0.030652 0.026286
0.648777 0.032161 0.028054
0.655627 0.033520 0.029703
0.012706 0.033650 0.020086
0.018080 0.034026 0.021100
0.024287 0.034109 0.021819
0.030753 0.034434 0.022755
0.038229 0.034666 0.022954
0.047292 0.034868 0.022744
0.057596 0.035040 0.022347
0.069242 0.035502 0.021761
0.085267 0.036166 0.021252
0.106857 0.037073 0.020763
0.131778 0.037984 0.020153
0.159062 0.038711 0.019422
0.189284 0.038854 0.018456
0.224807 0.038529 0.017551
0.264771 0.035577 0.017696
0.304014 0.030447 0.017698
0.340819 0.028984 0.017715
0.381012 0.029109 0.017794
0.422546 0.029212 0.017822
0.454710 0.029390 0.017802
0.485209 0.029479 0.017887
0.516093 0.029667 0.017991
0.543108 0.029853 0.018131
0.564773 0.030174 0.018392
0.582382 0.030632 0.018951
0.599695 0.031303 0.019882
0.614554 0.032202 0.021130
0.627184 0.033263 0.022878
0.637353 0.034551 0.024592
0.646250 0.035849 0.026496
0.654240 0.037173 0.028207
0.661143 0.038344 0.029866
0.012670 0.043607 0.020777
0.017980 0.044029 0.021989
0.024100 0.044042 0.022756
0.030409 0.044408 0.024051
0.037645 0.044809 0.024926
0.046760 0.045287 0.025036
0.057013 0.045603 0.024370
0.069314 0.046160 0.023661
0.086071 0.046916 0.022926
0.108014 0.048251 0.022077
0.133532 0.049546 0.021216
0.161486 0.050612 0.020348
0.191906 0.051407 0.019149
0.227593 0.051379 0.018385
0.268062 0.049194 0.018420
0.307846 0.044580 0.018456
0.344828 0.038787 0.018527
0.385016 0.036033 0.018604
0.426924 0.036140 0.018611
0.459654 0.036271 0.018692
0.490120 0.036368 0.018741
0.521059 0.036517 0.018808
0.548398 0.036671 0.018921
0.570339 0.036905 0.019191
0.587937 0.037248 0.019597
0.605351 0.037720 0.020284
0.620344 0.038356 0.021482
0.633242 0.039227 0.023048
0.643523 0.040263 0.024764
0.652483 0.041364 0.026528
0.660417 0.042439 0.028328
0.667263 0.043479 0.029938
0.012623 0.055163 0.021178
0.017598 0.055783 0.022738
0.023769 0.055771 0.023724
0.030075 0.056043 0.025181
0.036996 0.056472 0.026389
0.045997 0.057425 0.027043
0.056370 0.058181 0.026867
0.069092 0.058756 0.026039
0.086499 0.059874 0.024953
0.109062 0.061538 0.023771
0.135453 0.063458 0.022594
0.163925 0.065336 0.021165
0.195180 0.066783 0.019819
0.231113 0.067223 0.019200
0.272037 0.066023 0.019196
0.312661 0.062769 0.019309
0.350075 0.057685 0.019309
0.390239 0.049528 0.019330
0.432820 0.043111 0.019439
0.466380 0.043217 0.019524
0.497047 0.043310 0.019596
0.528186 0.043409 0.019692
0.555907 0.043571 0.019687
0.578158 0.043737 0.019938
0.595661 0.043970 0.020246
0.612983 0.044292 0.020869
0.628047 0.044847 0.021802
0.640969 0.045463 0.023229
0.651283 0.046235 0.024862
0.660182 0.047139 0.026536
0.668102 0.048022 0.028223
0.674944 0.048878 0.029859
0.012152 0.068970 0.021811
0.016756 0.069999 0.023302
0.022913 0.069845 0.024620
0.029434 0.069875 0.026170
0.036283 0.070403 0.027745
0.045169 0.071713 0.028757
0.055471 0.072898 0.029272
0.068063 0.074120 0.028924
0.085770 0.075538 0.027539
0.109095 0.077668 0.025830
0.136352 0.080459 0.023994
0.166335 0.083113 0.022236
0.198255 0.085376 0.020599
0.234997 0.086776 0.020102
0.276612 0.086814 0.020089
0.318475 0.085286 0.020139
0.356318 0.081698 0.020165
0.396816 0.074983 0.020197
0.439934 0.064640 0.020294
0.474371 0.054353 0.020354
0.505296 0.050306 0.020400
0.536506 0.050412 0.020467
0.564839 0.050536 0.020564
0.587657 0.050646 0.020710
0.605213 0.050831 0.020963
0.622369 0.051082 0.021430
0.637391 0.051436 0.022212
0.650361 0.051928 0.023340
0.660596 0.052521 0.024894
0.669452 0.053194 0.026411
0.677253 0.053911 0.027995
0.684016 0.054597 0.029479
0.010973 0.086128 0.022235
0.015246 0.087663 0.023931
0.021502 0.087225 0.025119
0.028271 0.087030 0.026784
0.034935 0.087698 0.028770
0.043886 0.089249 0.030276
0.054294 0.090730 0.031157
0.066834 0.092571 0.031193
0.083968 0.094874 0.030431
0.108029 0.097221 0.028431
0.136679 0.100245 0.026070
0.167592 0.103582 0.023519
0.201214 0.106248 0.021667
0.238909 0.108414 0.021257
0.281579 0.109951 0.021064
0.324828 0.110147 0.021016
0.363443 0.108425 0.021015
0.404111 0.104660 0.021076
0.448101 0.097546 0.021118
0.483441 0.088436 0.021204
0.514757 0.077736 0.021267
0.546138 0.065019 0.021325
0.574976 0.058986 0.021420
0.598370 0.057607 0.021564
0.616077 0.057739 0.021752
0.633256 0.057931 0.022073
0.648357 0.058185 0.022687
0.661318 0.058540 0.023649
0.671410 0.058959 0.024927
0.680191 0.059451 0.026283
0.687805 0.059984 0.027611
0.694338 0.060465 0.028920
0.008608 0.106208 0.022440
0.012426 0.108286 0.024123
0.019248 0.107412 0.025409
0.025954 0.107287 0.027070
0.032671 0.107871 0.029456
0.041820 0.109581 0.031196
0.052264 0.111435 0.032518
0.064873 0.113532 0.032937
0.081821 0.116126 0.032523
0.105142 0.119556 0.031215
0.135011 0.123013 0.028388
0.168113 0.126488 0.025272
0.203153 0.129778 0.023504
0.242534 0.132751 0.022711
0.286576 0.135582 0.022221
0.331711 0.137082 0.021952
0.371417 0.136832 0.021877
0.412657 0.135047 0.021916
0.457270 0.131115 0.021998
0.493560 0.125704 0.022031
0.525498 0.118905 0.022106
0.556995 0.109996 0.022232
0.586566 0.098877 0.022279
0.610517 0.087420 0.022376
0.628327 0.077652 0.022551
0.645493 0.070509 0.022795
0.660755 0.068543 0.023248
0.673852 0.066784 0.023993
0.683824 0.065836 0.024941
0.692374 0.065895 0.026099
0.699844 0.066305 0.027166
0.706150 0.066661 0.028101
0.007446 0.127966 0.022412
0.010965 0.130471 0.023953
0.017126 0.129658 0.025285
0.023171 0.129142 0.026961
0.029398 0.129687 0.029343
0.038438 0.131571 0.031410
0.049005 0.133736 0.033005
0.061822 0.136019 0.033990
0.078434 0.138896 0.034098
0.102203 0.142638 0.032892
0.132230 0.147195 0.030505
0.166062 0.151655 0.027395
0.203600 0.155865 0.025891
0.244865 0.159746 0.024591
0.291034 0.163808 0.023732
0.338623 0.166608 0.023240
0.380023 0.167621 0.022958
0.422104 0.167343 0.022860
0.467565 0.165637 0.022924
0.505108 0.162374 0.022924
0.537631 0.158104 0.023006
0.569371 0.152679 0.023141
0.599470 0.145982 0.023181
0.624228 0.138778 0.023296
0.642166 0.132171 0.023355
0.659405 0.125582 0.023598
0.674778 0.118902 0.023857
0.688006 0.112912 0.024350
0.697857 0.108470 0.025037
0.706334 0.104837 0.025884
0.713490 0.101458 0.026701
0.719643 0.099259 0.027439
0.007446 0.151152 0.021717
0.010556 0.154716 0.023367
0.016750 0.153575 0.024451
0.023136 0.152499 0.026220
0.028808 0.153142 0.028683
0.034270 0.155032 0.030756
0.044585 0.157234 0.032642
0.057345 0.159803 0.034299
0.073755 0.162866 0.035439
0.098318 0.167053 0.034883
0.128159 0.172665 0.032389
0.162625 0.178475 0.030220
0.201952 0.183633 0.028781
0.244891 0.188529 0.027282
0.293510 0.193504 0.025882
0.344336 0.197584 0.024872
0.388044 0.199675 0.024245
0.431293 0.200553 0.023948
0.477785 0.200436 0.023925
0.516906 0.198937 0.023874
0.550327 0.196333 0.023947
0.582359 0.192966 0.024027
0.613302 0.188834 0.024119
0.638923 0.184190 0.024157
0.657243 0.180057 0.024266
0.674657 0.175919 0.024406
0.690333 0.171541 0.024618
0.703830 0.167444 0.024933
0.713633 0.164439 0.025404
0.722030 0.161540 0.025925
0.728908 0.159335 0.026433
0.734944 0.157478 0.026974
0.007446 0.176474 0.020313
0.009850 0.181117 0.021834
0.016364 0.179725 0.022883
0.022950 0.178339 0.024561
0.028818 0.178793 0.027056
0.034230 0.180845 0.029119
0.039723 0.183225 0.031105
0.049807 0.186122 0.033358
0.065607 0.189718 0.035090
0.090088 0.194560 0.035169
0.122558 0.200638 0.033674
0.158659 0.207312 0.032699
0.197912 0.214073 0.031820
0.242124 0.219806 0.030227
0.292831 0.225387 0.028550
0.347729 0.230703 0.027125
0.394825 0.233524 0.025934
0.439869 0.235241 0.025271
0.487539 0.236240 0.025005
0.528663 0.235943 0.024859
0.562971 0.234349 0.024935
0.595489 0.232208 0.024939
0.626997 0.229480 0.025058
0.653731 0.226287 0.025121
0.672338 0.223073 0.025247
0.689845 0.219859 0.025344
0.705748 0.216696 0.025479
0.719633 0.213562 0.025708
0.729530 0.211208 0.025935
0.737945 0.208790 0.026232
0.744916 0.207079 0.026608
0.750875 0.205459 0.026856
0.007446 0.203135 0.019036
0.009217 0.208706 0.020600
0.015876 0.207037 0.021389
0.022759 0.205435 0.022613
0.028693 0.205710 0.024843
0.034265 0.207830 0.026841
0.039758 0.210457 0.028856
0.045199 0.213872 0.031129
0.054712 0.218011 0.033193
0.079388 0.223388 0.034267
0.114268 0.230389 0.034860
0.152559 0.238074 0.035032
0.193576 0.245958 0.034522
0.237906 0.253804 0.033361
0.289283 0.260823 0.031653
0.347597 0.266993 0.029818
0.399957 0.270983 0.028340
0.447669 0.273503 0.027188
0.497201 0.275558 0.026393
0.540747 0.276131 0.026012
0.576404 0.275441 0.025977
0.609297 0.274104 0.025901
0.641517 0.272172 0.026045
0.669233 0.269632 0.026175
0.688233 0.267021 0.026151
0.705785 0.264219 0.026341
0.721915 0.261549 0.026402
0.736148 0.258911 0.026581
0.746165 0.256629 0.026748
0.754722 0.254579 0.026849
0.761554 0.252754 0.027091
0.767483 0.251118 0.027223
0.007446 0.230186 0.019526
0.008613 0.237351 0.021191
0.015145 0.235510 0.021801
0.022511 0.233098 0.022837
0.028688 0.233133 0.024645
0.034239 0.235465 0.026619
0.039781 0.238478 0.028752
0.045180 0.242251 0.030899
0.050604 0.246852 0.032964
0.065936 0.252788 0.034780
0.103330 0.260421 0.036215
0.144447 0.268954 0.036989
0.186734 0.277836 0.037050
0.232270 0.286626 0.036330
0.282558 0.295464 0.034993
0.341847 0.303917 0.033170
0.401358 0.309764 0.031102
0.452649 0.313054 0.029539
0.504627 0.315788 0.028341
0.551824 0.317680 0.027604
0.589527 0.317884 0.027158
0.623169 0.317282 0.027134
0.656300 0.316323 0.027128
0.685301 0.314805 0.027198
0.704758 0.312619 0.027258
0.722606 0.310494 0.027284
0.739106 0.308287 0.027487
0.753598 0.306178 0.027513
0.764050 0.304129 0.027714
0.772760 0.302184 0.027800
0.779611 0.300454 0.027884
0.785532 0.298736 0.027934
0.007446 0.259744 0.020002
0.007747 0.268556 0.021914
0.014548 0.266550 0.022410
0.022135 0.263536 0.023201
0.028516 0.263258 0.024821
0.034267 0.265538 0.026823
0.039761 0.268705 0.028921
0.045202 0.272905 0.031131
0.050621 0.277761 0.033249
0.056075 0.284214 0.035305
0.088573 0.292586 0.037091
0.133892 0.302128 0.038448
0.178561 0.312016 0.039151
0.225505 0.321993 0.039030
0.276178 0.331762 0.038136
0.334876 0.341832 0.036594
0.398264 0.350374 0.034670
0.453528 0.354411 0.032432
0.508785 0.357689 0.030742
0.560793 0.360065 0.029548
0.601015 0.360709 0.028817
0.635899 0.360618 0.028374
0.670093 0.360248 0.028309
0.700228 0.359339 0.028325
0.720428 0.357591 0.028306
0.738518 0.355764 0.028449
0.755373 0.354068 0.028530
0.770133 0.352242 0.028621
0.781063 0.350328 0.028734
0.790017 0.348591 0.028814
0.797011 0.347147 0.028889
0.803082 0.345749 0.028953
0.007446 0.289677 0.020573
0.007519 0.299014 0.022538
0.013564 0.297831 0.023008
0.021815 0.294512 0.023587
0.028379 0.294175 0.025099
0.034154 0.296727 0.027019
0.039772 0.300033 0.029114
0.045240 0.304355 0.031345
0.050651 0.309507 0.033564
0.056091 0.316464 0.035672
0.068962 0.325606 0.037642
0.119385 0.335930 0.039381
0.168776 0.346982 0.040692
0.217204 0.358405 0.041306
0.268084 0.369645 0.041109
0.326759 0.381289 0.039997
0.392786 0.392442 0.038283
0.450837 0.399163 0.036126
0.509139 0.403334 0.033851
0.566999 0.406890 0.031991
0.611700 0.407946 0.030777
0.648291 0.407740 0.030051
0.683878 0.407660 0.029629
0.715222 0.407029 0.029522
0.736466 0.405347 0.029484
0.754673 0.403620 0.029532
0.771820 0.401920 0.029591
0.786795 0.400065 0.029774
0.798203 0.398389 0.029798
0.807382 0.396594 0.029912
0.814393 0.395075 0.029947
0.820496 0.393660 0.030053
0.007446 0.318154 0.021083
0.007472 0.327853 0.023103
0.012543 0.327710 0.023581
0.021425 0.323530 0.024051
0.028192 0.322903 0.025324
0.034159 0.325523 0.027196
0.039770 0.329277 0.029305
0.045268 0.334163 0.031495
0.050679 0.339897 0.033734
0.056097 0.347316 0.035936
0.061503 0.357319 0.038061
0.100262 0.368562 0.040021
0.158152 0.380439 0.041719
0.208835 0.392794 0.042928
0.259462 0.405119 0.043482
0.317129 0.417829 0.043132
0.383451 0.430677 0.041863
0.445390 0.440299 0.039925
0.503824 0.447023 0.037673
0.567427 0.451905 0.035172
0.618338 0.454216 0.033307
0.658074 0.454727 0.032099
0.696020 0.455455 0.031263
0.729108 0.455615 0.030899
0.752154 0.454688 0.030724
0.770872 0.453549 0.030744
0.788582 0.452442 0.030796
0.804156 0.451412 0.030855
0.816175 0.450095 0.030920
0.825572 0.448478 0.031013
0.832712 0.446735 0.031091
0.838844 0.445183 0.031213
0.007446 0.347549 0.021855
0.007451 0.356924 0.023701
0.011571 0.358309 0.024339
0.020675 0.353958 0.024555
0.027961 0.352701 0.025641
0.034066 0.355397 0.027450
0.039760 0.359513 0.029501
0.045272 0.364658 0.031683
0.050691 0.370682 0.033918
0.056148 0.378694 0.036157
0.061557 0.389279 0.038319
0.078821 0.401347 0.040427
0.144956 0.414020 0.042379
0.199757 0.427511 0.044064
0.251727 0.441143 0.045250
0.307584 0.454986 0.045659
0.372251 0.469037 0.045151
0.438026 0.480947 0.043753
0.497510 0.489086 0.041665
0.560690 0.496318 0.039208
0.619281 0.499260 0.036616
0.663598 0.500045 0.034692
0.704132 0.500845 0.033382
0.739769 0.501218 0.032562
0.765213 0.500600 0.032199
0.784483 0.499559 0.031997
0.802676 0.498642 0.031969
0.818499 0.497652 0.031989
0.831149 0.496511 0.032017
0.840748 0.495178 0.032138
0.848337 0.493862 0.032179
0.854641 0.492644 0.032315
0.007446 0.374404 0.022516
0.007446 0.382163 0.024339
0.010337 0.384773 0.025049
0.020077 0.381281 0.025099
0.027680 0.380504 0.026002
0.033895 0.383459 0.027729
0.039723 0.387951 0.029670
0.045283 0.393609 0.031888
0.050720 0.400128 0.034134
0.056170 0.408701 0.036307
0.061567 0.419978 0.038546
0.067694 0.432718 0.040727
0.128252 0.446028 0.042836
0.190073 0.460205 0.044767
0.244341 0.474667 0.046370
0.299335 0.489339 0.047478
0.361586 0.504751 0.047844
0.429145 0.519392 0.047201
0.489299 0.529619 0.045628
0.552422 0.538698 0.043303
0.615156 0.546439 0.040848
0.666218 0.548338 0.038130
0.709218 0.548286 0.036062
0.748307 0.548392 0.034712
0.777264 0.547672 0.033958
0.797159 0.546311 0.033475
0.815892 0.545217 0.033249
0.832135 0.544150 0.033219
0.845383 0.542895 0.033248
0.855175 0.541668 0.033282
0.862977 0.540346 0.033338
0.869384 0.539247 0.033381
0.007446 0.395796 0.023269
0.007446 0.402802 0.024938
0.009019 0.406477 0.025864
0.019170 0.402957 0.025741
0.027388 0.401874 0.026363
0.033771 0.405162 0.027948
0.039628 0.410238 0.029926
0.045263 0.416377 0.032089
0.050746 0.423350 0.034309
0.056170 0.432488 0.036553
0.061596 0.444419 0.038764
0.067012 0.457861 0.040975
0.110490 0.472101 0.043115
0.180602 0.486956 0.045215
0.238459 0.501874 0.047097
0.293015 0.517087 0.048692
0.353130 0.533002 0.049761
0.419279 0.549155 0.049990
0.478885 0.561185 0.049174
0.540558 0.571550 0.047416
0.606990 0.581042 0.044977
0.661573 0.586879 0.042368
0.707896 0.588949 0.039603
0.751547 0.590498 0.037466
0.785783 0.591076 0.036050
0.807402 0.590451 0.035232
0.827403 0.590261 0.034768
0.844731 0.590201 0.034530
0.858940 0.589806 0.034449
0.869320 0.589292 0.034443
0.877489 0.588242 0.034491
0.884081 0.587301 0.034524
0.007446 0.416405 0.024094
0.007446 0.422789 0.025632
0.007885 0.427072 0.026745
0.018334 0.423633 0.026377
0.026945 0.422461 0.026803
0.033542 0.425616 0.028272
0.039559 0.430897 0.030155
0.045203 0.437267 0.032262
0.050684 0.444456 0.034505
0.056179 0.453831 0.036747
0.061628 0.466163 0.038980
0.067034 0.480077 0.041183
0.090706 0.494742 0.043373
0.170623 0.510084 0.045525
0.233382 0.525439 0.047593
0.288830 0.541360 0.049443
0.347652 0.558038 0.051016
0.411556 0.575341 0.051967
0.469204 0.588783 0.052104
0.528362 0.599905 0.051089
0.594616 0.610582 0.049147
0.654233 0.617931 0.046610
0.701189 0.621690 0.043937
0.747997 0.624182 0.041145
0.788537 0.625651 0.038923
0.812547 0.625136 0.037397
0.833779 0.624994 0.036544
0.852303 0.625115 0.036080
0.867742 0.625167 0.035783
0.878463 0.624772 0.035715
0.887227 0.624388 0.035590
0.894022 0.623754 0.035610
0.007446 0.433686 0.025005
0.007446 0.439036 0.026518
0.007677 0.443153 0.027777
0.017446 0.440967 0.027242
0.026587 0.440845 0.027402
0.033448 0.444283 0.028645
0.039490 0.450047 0.030458
0.045162 0.456621 0.032492
0.050720 0.464075 0.034702
0.056200 0.473761 0.036966
0.061618 0.486362 0.039208
0.067055 0.500719 0.041410
0.080211 0.515832 0.043609
0.160236 0.531551 0.045789
0.228643 0.547325 0.047924
0.285562 0.563535 0.049956
0.344114 0.580828 0.051806
0.406819 0.598729 0.053315
0.462435 0.613098 0.054169
0.518379 0.625302 0.054084
0.580861 0.636590 0.052933
0.643001 0.645738 0.050876
0.694132 0.651050 0.048167
0.740586 0.654792 0.045447
0.785044 0.657145 0.042696
0.814890 0.657079 0.040364
0.837443 0.656332 0.038866
0.857206 0.655972 0.037887
0.874096 0.655778 0.037371
0.885272 0.655159 0.037045
0.894458 0.654600 0.036857
0.901471 0.654053 0.036758
0.007446 0.447279 0.026126
0.007446 0.451295 0.027567
0.007630 0.455167 0.028930
0.016628 0.453722 0.028335
0.026257 0.453440 0.028181
0.033294 0.457056 0.029161
0.039446 0.463265 0.030831
0.045176 0.470158 0.032812
0.050727 0.477960 0.034943
0.056171 0.488030 0.037183
0.061650 0.501260 0.039426
0.067086 0.516098 0.041631
0.074084 0.531852 0.043862
0.152071 0.548235 0.046062
0.224502 0.564382 0.048212
0.283329 0.580857 0.050299
0.342010 0.598427 0.052353
0.403885 0.616645 0.054129
0.458016 0.631678 0.055558
0.510505 0.644509 0.056277
0.568405 0.656507 0.055999
0.630461 0.667101 0.054712
0.684471 0.674205 0.052478
0.731423 0.678768 0.049731
0.777085 0.682880 0.046997
0.813456 0.684683 0.044197
0.838051 0.684219 0.041896
0.859658 0.683782 0.040299
0.878041 0.683646 0.039263
0.890709 0.683236 0.038595
0.900617 0.682648 0.038202
0.907950 0.682171 0.037892
0.007446 0.458714 0.027352
0.007446 0.462580 0.028826
0.007746 0.466723 0.030246
0.016291 0.465939 0.029803
0.026213 0.465174 0.029248
0.033342 0.468782 0.029926
0.039556 0.474998 0.031377
0.045250 0.481984 0.033226
0.050789 0.489829 0.035299
0.056226 0.500015 0.037447
0.061635 0.513261 0.039665
0.067075 0.528377 0.041869
0.072501 0.544288 0.044104
0.144789 0.560841 0.046280
0.220974 0.577242 0.048457
0.281517 0.593975 0.050630
0.340818 0.611600 0.052695
0.402536 0.630013 0.054678
0.455453 0.645283 0.056448
0.505473 0.658587 0.057753
0.559090 0.671141 0.058321
0.618602 0.682980 0.057864
0.673334 0.691542 0.056371
0.719896 0.696852 0.054009
0.767050 0.701447 0.051227
0.808436 0.705000 0.048523
0.834551 0.705395 0.045826
0.858206 0.705191 0.043419
0.878476 0.705398 0.041724
0.893396 0.705384 0.040518
0.904512 0.705067 0.039711
0.912517 0.704713 0.039061
0.007446 0.469381 0.028906
0.007458 0.472975 0.030327
0.008795 0.476485 0.031779
0.016479 0.476628 0.031585
0.026476 0.475918 0.030586
0.033659 0.479592 0.030948
0.039723 0.485687 0.032139
0.045439 0.492720 0.033820
0.050859 0.500463 0.035756
0.056268 0.510658 0.037803
0.061673 0.524091 0.039952
0.067099 0.539367 0.042142
0.072520 0.555502 0.044318
0.138873 0.572337 0.046525
0.217828 0.589015 0.048722
0.279848 0.605964 0.050879
0.340070 0.624028 0.053022
0.402098 0.642723 0.055081
0.454226 0.658128 0.057058
0.502764 0.671805 0.058717
0.553198 0.684570 0.059862
0.609546 0.696999 0.060250
0.662878 0.706208 0.059624
0.708943 0.711793 0.057907
0.755315 0.716605 0.055458
0.799493 0.720464 0.052636
0.829344 0.721743 0.049994
0.853670 0.721975 0.047243
0.875734 0.721852 0.044774
0.893457 0.721817 0.042900
0.905801 0.721563 0.041437
0.914928 0.721225 0.040263
0.007446 0.478439 0.030624
0.008317 0.481762 0.032046
0.010608 0.484866 0.033505
0.017125 0.485905 0.033655
0.026902 0.485390 0.032287
0.034130 0.489102 0.032229
0.040142 0.495247 0.033178
0.045706 0.502144 0.034601
0.051155 0.509913 0.036356
0.056417 0.520095 0.038287
0.061771 0.533553 0.040314
0.067126 0.548790 0.042402
0.072532 0.565008 0.044572
0.132426 0.581970 0.046772
0.214470 0.598766 0.048944
0.278347 0.615925 0.051146
0.338959 0.634004 0.053282
0.401732 0.652821 0.055430
0.453795 0.668292 0.057479
0.501222 0.682017 0.059337
0.549686 0.695098 0.060917
0.603118 0.707894 0.061913
0.654122 0.718085 0.062070
0.699604 0.724971 0.061183
0.743609 0.729834 0.059341
0.788018 0.733857 0.056719
0.823638 0.736343 0.054010
0.848699 0.736951 0.051306
0.871533 0.737366 0.048421
0.892494 0.737090 0.045650
0.905930 0.736085 0.043415
0.916486 0.735517 0.041640
0.007978 0.486268 0.032422
0.010306 0.489243 0.033845
0.012708 0.492142 0.035332
0.017994 0.493840 0.035808
0.027716 0.493463 0.034217
0.034911 0.497341 0.033782
0.040768 0.503405 0.034487
0.046205 0.510179 0.035604
0.051503 0.517917 0.037138
0.056695 0.528073 0.038876
0.061918 0.541432 0.040750
0.067209 0.556569 0.042769
0.072562 0.572795 0.044863
0.127993 0.589718 0.047029
0.211742 0.606641 0.049204
0.276954 0.623870 0.051375
0.338103 0.642095 0.053561
0.401325 0.661011 0.055749
