LUTs/SPK Cube Block1 S32/TheBrim_SPK_Type-X_Block1_S32.cube
TITLE "TheBrim® SPK Block 1"
# © Copyright 2021 - TheBrim® d.o.o. Croatia
LUT_3D_SIZE 32
DOMAIN_MIN 0.000000 0.000000 0.000000
DOMAIN_MAX 1.000000 1.000000 1.000000
0.000000 0.000000 0.000000
0.007559 0.007119 0.006901
0.018456 0.017318 0.016821
0.027633 0.027398 0.026548
0.036466 0.037802 0.036319
0.046709 0.050685 0.047877
0.058107 0.067584 0.062835
0.072838 0.090674 0.084697
0.095774 0.119791 0.114769
0.128024 0.154365 0.150623
0.166121 0.194419 0.191590
0.212721 0.239582 0.236238
0.268640 0.291560 0.287563
0.334878 0.348066 0.344120
0.401126 0.407591 0.397936
0.464756 0.469812 0.449417
0.534618 0.532499 0.504200
0.599074 0.595859 0.557788
0.653838 0.655121 0.602023
0.708016 0.704780 0.641499
0.758467 0.751172 0.681885
0.795558 0.790995 0.718114
0.828288 0.819567 0.745445
0.858675 0.844921 0.770215
0.881630 0.866106 0.794706
0.900172 0.882678 0.815693
0.917260 0.897126 0.832448
0.931798 0.910015 0.847156
0.943453 0.920728 0.861587
0.954073 0.930655 0.874857
0.963894 0.939616 0.884971
0.972717 0.947753 0.894072
0.000012 0.000011 0.000011
0.009299 0.008738 0.008489
0.019650 0.018547 0.018017
0.028075 0.027872 0.027020
0.036595 0.037987 0.036502
0.046859 0.050896 0.048031
0.058262 0.067826 0.063046
0.073010 0.090885 0.084954
0.095984 0.120009 0.114987
0.128271 0.154591 0.150893
0.166317 0.194606 0.191796
0.213019 0.239871 0.236487
0.268889 0.291776 0.287791
0.335068 0.348224 0.344279
0.401264 0.407726 0.398056
0.464976 0.470030 0.449605
0.534836 0.532670 0.504372
0.599163 0.595979 0.557876
0.653984 0.655234 0.602134
0.708091 0.704873 0.641572
0.758562 0.751266 0.681948
0.795650 0.791097 0.718216
0.828350 0.819621 0.745477
0.858745 0.844983 0.770284
0.881669 0.866113 0.794750
0.900203 0.882728 0.815718
0.917295 0.897126 0.832479
0.931802 0.910015 0.847160
0.943484 0.920758 0.861645
0.954102 0.930686 0.874857
0.963895 0.939617 0.885001
0.972717 0.947753 0.894072
0.000750 0.000718 0.000687
0.010515 0.009835 0.009554
0.019986 0.018885 0.018354
0.028231 0.028087 0.027206
0.036779 0.038199 0.036659
0.047014 0.051115 0.048244
0.058413 0.068045 0.063289
0.073198 0.091189 0.085238
0.096234 0.120281 0.115267
0.128507 0.154858 0.151169
0.166588 0.194864 0.192039
0.213275 0.240095 0.236731
0.269200 0.292039 0.288061
0.335370 0.348477 0.344520
0.401548 0.408010 0.398289
0.465191 0.470247 0.449776
0.535130 0.532916 0.504588
0.599368 0.596185 0.558063
0.654125 0.655390 0.602230
0.708266 0.704981 0.641686
0.758705 0.751402 0.682065
0.795714 0.791161 0.718280
0.828414 0.819683 0.745519
0.858809 0.845045 0.770318
0.881722 0.866190 0.794807
0.900235 0.882758 0.815758
0.917297 0.897133 0.832485
0.931810 0.910021 0.847192
0.943484 0.920761 0.861645
0.954102 0.930686 0.874888
0.963925 0.939619 0.885002
0.972717 0.947753 0.894072
0.001323 0.001256 0.001195
0.011139 0.010427 0.010116
0.020328 0.019288 0.018727
0.028478 0.028394 0.027485
0.036997 0.038454 0.036935
0.047230 0.051422 0.048494
0.058623 0.068411 0.063598
0.073473 0.091508 0.085603
0.096576 0.120646 0.115639
0.128821 0.155232 0.151545
0.167007 0.195253 0.192435
0.213649 0.240477 0.237106
0.269592 0.292386 0.288420
0.335818 0.348832 0.344886
0.401852 0.408317 0.398533
0.465544 0.470599 0.450079
0.535490 0.533218 0.504857
0.599652 0.596498 0.558302
0.654386 0.655669 0.602443
0.708528 0.705213 0.641874
0.758887 0.751577 0.682226
0.795838 0.791298 0.718404
0.828529 0.819766 0.745604
0.858933 0.845138 0.770431
0.881786 0.866231 0.794869
0.900294 0.882797 0.815818
0.917382 0.897195 0.832570
0.931863 0.910050 0.847224
0.943517 0.920789 0.861654
0.954135 0.930716 0.874893
0.963930 0.939646 0.885005
0.972717 0.947753 0.894072
0.002173 0.002016 0.001982
0.011918 0.011173 0.010860
0.020851 0.019816 0.019255
0.028790 0.028767 0.027828
0.037310 0.038851 0.037277
0.047482 0.051797 0.048833
0.058878 0.068824 0.063980
0.073841 0.092051 0.086129
0.097064 0.121150 0.116158
0.129293 0.155730 0.152070
0.167504 0.195747 0.192922
0.214157 0.240973 0.237579
0.270221 0.292930 0.288986
0.336448 0.349335 0.345389
0.402355 0.408817 0.398956
0.466007 0.471022 0.450426
0.535908 0.533583 0.505190
0.600011 0.596892 0.558629
0.654659 0.655968 0.602649
0.708781 0.705419 0.642049
0.759128 0.751813 0.682426
0.795976 0.791457 0.718552
0.828666 0.819845 0.745728
0.859034 0.845230 0.770505
0.881855 0.866303 0.794961
0.900342 0.882853 0.815888
0.917421 0.897247 0.832609
0.931901 0.910107 0.847263
0.943551 0.920823 0.861713
0.954163 0.930722 0.874924
0.963986 0.939682 0.885037
0.972717 0.947753 0.894072
0.003206 0.003018 0.002922
0.012774 0.011967 0.011598
0.021358 0.020412 0.019822
0.029228 0.029271 0.028301
0.037710 0.039346 0.037688
0.047823 0.052291 0.049265
0.059218 0.069399 0.064493
0.074277 0.092672 0.086755
0.097654 0.121767 0.116810
0.129883 0.156390 0.152740
0.168190 0.196401 0.193604
0.214817 0.241613 0.238193
0.270982 0.293604 0.289662
0.337201 0.349982 0.346006
0.402953 0.409406 0.399448
0.466643 0.471632 0.450942
0.536598 0.534139 0.505699
0.600455 0.597410 0.559016
0.655024 0.656368 0.602920
0.709163 0.705744 0.642335
0.759470 0.752138 0.682714
0.796167 0.791680 0.718763
0.828826 0.820001 0.745835
0.859181 0.845363 0.770629
0.881959 0.866404 0.795065
0.900431 0.882946 0.815997
0.917488 0.897293 0.832676
0.931960 0.910146 0.847339
0.943583 0.920858 0.861752
0.954193 0.930754 0.874981
0.963992 0.939713 0.885099
0.972717 0.947753 0.894072
0.004414 0.004158 0.004030
0.014009 0.013110 0.012714
0.022044 0.021166 0.020540
0.029753 0.029885 0.028885
0.038235 0.039968 0.038274
0.048282 0.052907 0.049819
0.059651 0.070116 0.065147
0.074803 0.093389 0.087497
0.098415 0.122590 0.117638
0.130593 0.157184 0.153583
0.168982 0.197168 0.194364
0.215666 0.242435 0.238980
0.271862 0.294359 0.290436
0.338115 0.350724 0.346748
0.403723 0.410177 0.400054
0.467303 0.472254 0.451466
0.537308 0.534765 0.506264
0.600996 0.597991 0.559510
0.655533 0.656895 0.603291
0.709613 0.706127 0.642669
0.759806 0.752449 0.683004
0.796405 0.791954 0.719012
0.829080 0.820187 0.746043
0.859378 0.845527 0.770812
0.882083 0.866528 0.795226
0.900544 0.883038 0.816120
0.917601 0.897387 0.832790
0.932005 0.910202 0.847410
0.943645 0.920920 0.861837
0.954254 0.930816 0.875020
0.964053 0.939745 0.885123
0.972717 0.947753 0.894072
0.005917 0.005543 0.005384
0.015236 0.014272 0.013865
0.022853 0.022062 0.021411
0.030350 0.030578 0.029547
0.038795 0.040656 0.038896
0.048758 0.053631 0.050450
0.060149 0.070931 0.065900
0.075452 0.094310 0.088448
0.099241 0.123471 0.118576
0.131477 0.158160 0.154569
0.169946 0.198104 0.195304
0.216687 0.243423 0.239964
0.272992 0.295383 0.291442
0.339208 0.351643 0.347636
0.404599 0.411071 0.400785
0.468318 0.473220 0.452270
0.538225 0.535521 0.506966
0.601667 0.598755 0.560113
0.656067 0.657437 0.603689
0.710140 0.706573 0.643047
0.760266 0.752909 0.683395
0.796694 0.792279 0.719321
0.829360 0.820389 0.746230
0.859580 0.845719 0.770991
0.882254 0.866676 0.795405
0.900674 0.883161 0.816263
0.917680 0.897473 0.832868
0.932091 0.910270 0.847498
0.943707 0.920972 0.861923
0.954301 0.930871 0.875084
0.964108 0.939799 0.885192
0.972717 0.947753 0.894072
0.007615 0.007164 0.006920
0.016629 0.015601 0.015146
0.023729 0.023032 0.022349
0.031039 0.031411 0.030322
0.039481 0.041466 0.039640
0.049349 0.054492 0.051194
0.060741 0.071921 0.066798
0.076235 0.095380 0.089566
0.100285 0.124554 0.119714
0.132518 0.159301 0.155750
0.171044 0.199169 0.196363
0.217907 0.244628 0.241084
0.274276 0.296512 0.292607
0.340547 0.352747 0.348723
0.405697 0.412145 0.401678
0.469296 0.474175 0.453062
0.539318 0.536466 0.507788
0.602502 0.599684 0.560856
0.656745 0.658170 0.604195
0.710775 0.707104 0.643497
0.760788 0.753420 0.683823
0.797019 0.792649 0.719666
0.829678 0.820644 0.746470
0.859851 0.845952 0.771215
0.882440 0.866868 0.795622
0.900811 0.883267 0.816418
0.917786 0.897574 0.832970
0.932169 0.910348 0.847607
0.943777 0.921024 0.862010
0.954377 0.930919 0.875146
0.964156 0.939846 0.885253
0.972717 0.947753 0.894072
0.009679 0.009073 0.008789
0.018115 0.016985 0.016514
0.024723 0.024129 0.023385
0.031818 0.032303 0.031199
0.040223 0.042397 0.040456
0.050027 0.055461 0.052030
0.061398 0.073007 0.067819
0.077101 0.096588 0.090789
0.101467 0.125789 0.121019
0.133649 0.160579 0.157060
0.172363 0.200427 0.197630
0.219187 0.245857 0.242321
0.275862 0.297894 0.293988
0.342083 0.354000 0.349963
0.406895 0.413313 0.402628
0.470430 0.475287 0.453980
0.540509 0.537470 0.508712
0.603315 0.600598 0.561570
0.657501 0.658958 0.604744
0.711559 0.707753 0.644045
0.761383 0.753996 0.684336
0.797409 0.793098 0.720067
0.830041 0.820928 0.746762
0.860186 0.846232 0.771488
0.882640 0.867055 0.795863
0.900967 0.883397 0.816571
0.917933 0.897698 0.833130
0.932289 0.910441 0.847753
0.943865 0.921118 0.862118
0.954448 0.931004 0.875221
0.964240 0.939930 0.885316
0.972717 0.947753 0.894072
0.011819 0.011067 0.010742
0.019598 0.018469 0.017938
0.025789 0.025315 0.024538
0.032677 0.033317 0.032155
0.041069 0.043444 0.041396
0.050781 0.056505 0.052970
0.062168 0.074255 0.068947
0.078097 0.097982 0.092235
0.102804 0.127199 0.122482
0.134984 0.162018 0.158573
0.173808 0.201841 0.199053
0.220692 0.247319 0.243712
0.277511 0.299345 0.295470
0.343868 0.355486 0.351421
0.408284 0.414706 0.403773
0.471844 0.476630 0.455121
0.541925 0.538648 0.509807
0.604352 0.601738 0.562483
0.658337 0.659856 0.605384
0.712372 0.708443 0.644654
0.762108 0.754680 0.684946
0.797844 0.793585 0.720532
0.830439 0.821253 0.747057
0.860550 0.846535 0.771785
0.882874 0.867247 0.796123
0.901163 0.883568 0.816747
0.918082 0.897821 0.833281
0.932391 0.910539 0.847865
0.943967 0.921211 0.862253
0.954541 0.931075 0.875316
0.964302 0.939993 0.885409
0.972717 0.947753 0.894072
0.013979 0.013103 0.012726
0.020971 0.020005 0.019410
0.026913 0.026573 0.025755
0.033630 0.034438 0.033191
0.041986 0.044575 0.042430
0.051648 0.057780 0.054095
0.063021 0.075659 0.070235
0.079167 0.099509 0.093781
0.104305 0.128782 0.124098
0.136449 0.163659 0.160264
0.175485 0.203456 0.200659
0.222405 0.249011 0.245342
0.279395 0.300975 0.297138
0.345754 0.357005 0.352935
0.409812 0.416219 0.405008
0.473340 0.478078 0.456305
0.543480 0.539976 0.511011
0.605463 0.602992 0.563490
0.659340 0.660917 0.606146
0.713337 0.709233 0.645307
0.762863 0.755415 0.685579
0.798340 0.794164 0.721069
0.830936 0.821614 0.747431
0.860901 0.846842 0.772116
0.883105 0.867472 0.796389
0.901380 0.883734 0.816956
0.918263 0.897981 0.833461
0.932519 0.910683 0.848036
0.944091 0.921319 0.862391
0.954616 0.931158 0.875412
0.964405 0.940066 0.885501
0.972717 0.947753 0.894072
0.016100 0.015088 0.014649
0.022436 0.021595 0.020951
0.028136 0.027982 0.027075
0.034643 0.035618 0.034330
0.042998 0.045855 0.043574
0.052566 0.059133 0.055274
0.064028 0.077256 0.071737
0.080470 0.101248 0.095575
0.105965 0.130546 0.125928
0.138081 0.165475 0.162135
0.177318 0.205239 0.202462
0.224350 0.250883 0.247153
0.281539 0.302878 0.299064
0.347911 0.358819 0.354703
0.411493 0.417911 0.406393
0.475039 0.479719 0.457689
0.545214 0.541432 0.512321
0.606740 0.604399 0.564636
0.660401 0.662044 0.606934
0.714368 0.710108 0.646070
0.763753 0.756263 0.686342
0.798867 0.794763 0.721616
0.831421 0.822009 0.747792
0.861258 0.847156 0.772487
0.883384 0.867720 0.796687
0.901604 0.883940 0.817179
0.918454 0.898127 0.833632
0.932662 0.910807 0.848218
0.944215 0.921448 0.862535
0.954740 0.931265 0.875538
0.964499 0.940159 0.885594
0.972717 0.947753 0.894072
0.018253 0.017098 0.016615
0.023921 0.023248 0.022560
0.029393 0.029447 0.028494
0.035754 0.036951 0.035554
0.044101 0.047210 0.044801
0.053586 0.060626 0.056609
0.065152 0.079015 0.073395
0.081960 0.103150 0.097546
0.107847 0.132538 0.127999
0.139972 0.167492 0.164224
0.179346 0.207198 0.204403
0.226421 0.252904 0.249111
0.283861 0.304921 0.301120
0.350355 0.360819 0.356672
0.413408 0.419812 0.407954
0.476923 0.481523 0.459199
0.547122 0.543076 0.513795
0.608136 0.605982 0.565882
0.661630 0.663335 0.607846
0.715513 0.711081 0.646906
0.764601 0.757134 0.687085
0.799479 0.795346 0.722180
0.831948 0.822465 0.748260
0.861654 0.847520 0.772884
0.883683 0.867982 0.797017
0.901858 0.884162 0.817470
0.918650 0.898318 0.833823
0.932845 0.910949 0.848419
0.944355 0.921583 0.862718
0.954864 0.931373 0.875664
0.964606 0.940270 0.885717
0.972717 0.947753 0.894072
0.020175 0.019104 0.018555
0.025467 0.024953 0.024203
0.030708 0.030992 0.029945
0.037106 0.038614 0.037047
0.045289 0.048679 0.046111
0.054695 0.062254 0.058031
0.066323 0.080893 0.075159
0.083558 0.105241 0.099705
0.109867 0.134705 0.130268
0.142060 0.169701 0.166503
0.181681 0.209463 0.206649
0.228904 0.255221 0.251396
0.286447 0.307142 0.303380
0.352852 0.362956 0.358702
0.415568 0.421925 0.409695
0.479039 0.483521 0.460900
0.549169 0.544879 0.515394
0.609655 0.607641 0.567190
0.662976 0.664635 0.608812
0.716690 0.712142 0.647838
0.765436 0.758009 0.687907
0.800194 0.795972 0.722780
0.832563 0.822961 0.748725
0.862081 0.847906 0.773325
0.883996 0.868281 0.797391
0.902112 0.884380 0.817716
0.918871 0.898509 0.834064
0.933012 0.911126 0.848623
0.944486 0.921710 0.862891
0.955004 0.931498 0.875792
0.964732 0.940377 0.885838
0.972717 0.947753 0.894072
0.021974 0.021072 0.020478
0.027029 0.026690 0.025876
0.032046 0.032594 0.031456
0.038535 0.040337 0.038600
0.046581 0.050487 0.047686
0.055870 0.064000 0.059576
0.067610 0.082928 0.077080
0.085287 0.107471 0.101980
0.112042 0.137021 0.132677
0.144352 0.172145 0.168988
0.184195 0.211878 0.209047
0.231555 0.257715 0.253843
0.289365 0.309665 0.305898
0.355514 0.365326 0.360873
0.417878 0.424193 0.411587
0.481436 0.485667 0.462759
0.551265 0.546910 0.517126
0.611288 0.609423 0.568530
0.664429 0.666000 0.609884
0.717997 0.713346 0.648870
0.766335 0.758961 0.688766
0.800901 0.796612 0.723371
0.833232 0.823520 0.749276
0.862538 0.848347 0.773844
0.884344 0.868588 0.797790
0.902442 0.884649 0.818016
0.919128 0.898741 0.834327
0.933202 0.911285 0.848856
0.944669 0.921880 0.863111
0.955131 0.931625 0.875948
0.964872 0.940516 0.885979
0.972717 0.947753 0.894072
0.023773 0.023057 0.022384
0.028591 0.028530 0.027609
0.033470 0.034258 0.033034
0.040028 0.042152 0.040247
0.047966 0.052483 0.049449
0.057199 0.066082 0.061456
0.068991 0.085098 0.079117
0.087150 0.109861 0.104477
0.114423 0.139581 0.135314
0.146811 0.174756 0.171674
0.186891 0.214505 0.211635
0.234484 0.260442 0.256551
0.292534 0.312382 0.308623
0.358442 0.367924 0.363235
0.420388 0.426677 0.413604
0.483922 0.487935 0.464728
0.553451 0.549018 0.518949
0.613022 0.611306 0.569930
0.666023 0.667484 0.611056
0.719370 0.714602 0.649956
0.767297 0.759992 0.689698
0.801677 0.797311 0.724045
0.833901 0.824069 0.749803
0.863034 0.848797 0.774348
0.884728 0.868934 0.798236
0.902773 0.884918 0.818368
0.919417 0.898993 0.834595
0.933396 0.911475 0.849103
0.944855 0.922011 0.863327
0.955301 0.931780 0.876107
0.965025 0.940641 0.886133
0.972717 0.947753 0.894072
0.025571 0.025072 0.024306
0.030201 0.030404 0.029376
0.034926 0.035969 0.034645
0.041559 0.044044 0.041936
0.049438 0.054576 0.051267
0.058718 0.068566 0.063737
0.070643 0.087594 0.081541
0.089113 0.112429 0.107098
0.116909 0.142216 0.138073
0.149442 0.177538 0.174513
0.189769 0.217290 0.214405
0.237588 0.263350 0.259410
0.295937 0.315280 0.311531
0.361591 0.370713 0.365800
0.423146 0.429376 0.415849
0.486692 0.490433 0.466911
0.555810 0.551318 0.520889
0.614923 0.613370 0.571490
0.667685 0.669026 0.612265
0.720935 0.716026 0.651198
0.768382 0.761136 0.690720
0.802515 0.798051 0.724766
0.834673 0.824731 0.750448
0.863595 0.849295 0.774916
0.885144 0.869304 0.798684
0.903135 0.885226 0.818719
0.919680 0.899246 0.834900
0.933620 0.911686 0.849388
0.945044 0.922197 0.863583
0.955455 0.931936 0.876284
0.965168 0.940797 0.886275
0.972717 0.947753 0.894072
0.027370 0.027092 0.026263
0.031829 0.032310 0.031201
0.036652 0.038026 0.036542
0.043174 0.046020 0.043732
0.050933 0.056731 0.053148
0.060316 0.071197 0.066142
0.072753 0.090546 0.084586
0.091458 0.115256 0.110038
0.119614 0.145114 0.141070
0.152237 0.180497 0.177547
0.192857 0.220282 0.217357
0.240946 0.266498 0.262490
0.299568 0.318395 0.314659
0.364958 0.373698 0.368545
0.426108 0.432252 0.418227
0.489661 0.493131 0.469260
0.558387 0.553790 0.522989
0.616928 0.615525 0.573128
0.669596 0.670789 0.613675
0.722572 0.717501 0.652495
0.769527 0.762369 0.691847
0.803472 0.798910 0.725556
0.835470 0.825370 0.751086
0.864186 0.849843 0.775544
0.885585 0.869721 0.799201
0.903530 0.885559 0.819109
0.920000 0.899522 0.835215
0.933889 0.911911 0.849685
0.945254 0.922413 0.863866
0.955660 0.932093 0.876472
0.965354 0.940953 0.886461
0.972717 0.947753 0.894072
0.029199 0.029201 0.028248
0.033477 0.034237 0.033022
0.038476 0.040268 0.038552
0.044839 0.048068 0.045566
0.052529 0.059045 0.055198
0.061981 0.073921 0.068643
0.074975 0.093630 0.087751
0.094550 0.118484 0.113403
0.122497 0.148235 0.144325
0.155187 0.183631 0.180756
0.196148 0.223471 0.220516
0.244497 0.269807 0.265760
0.303441 0.321719 0.317979
0.368512 0.376856 0.371410
0.429217 0.435317 0.420757
0.492817 0.495971 0.471719
0.561193 0.556523 0.525314
0.619132 0.617922 0.574918
0.671580 0.672637 0.615109
0.724291 0.719099 0.653871
0.770761 0.763654 0.693034
0.804461 0.799782 0.726398
0.836361 0.826110 0.751805
0.864807 0.850423 0.776191
0.886070 0.870146 0.799742
0.903932 0.885907 0.819517
0.920346 0.899806 0.835554
0.934130 0.912137 0.849996
0.945452 0.922602 0.864099
0.955848 0.932281 0.876692
0.965529 0.941108 0.886647
0.972717 0.947753 0.894072
0.030987 0.031329 0.030263
0.035168 0.036260 0.034919
0.040333 0.042526 0.040593
0.046608 0.050544 0.047739
0.054177 0.061465 0.057339
0.063710 0.076773 0.071245
0.077322 0.096890 0.091112
0.097765 0.121898 0.116934
0.125753 0.151824 0.148023
0.158531 0.187065 0.184244
0.199650 0.226859 0.223876
0.248258 0.273321 0.269246
0.307513 0.325207 0.321462
0.372384 0.380292 0.374559
0.432554 0.438588 0.423452
0.496185 0.499024 0.474363
0.564132 0.559344 0.527741
0.621393 0.620366 0.576761
0.673687 0.674582 0.616651
0.726150 0.720778 0.655326
0.772019 0.765010 0.694247
0.805543 0.800735 0.727308
0.837258 0.826863 0.752529
0.865506 0.851043 0.776903
0.886602 0.870614 0.800342
0.904377 0.886291 0.819955
0.920701 0.900132 0.835911
0.934409 0.912393 0.850341
0.945700 0.922842 0.864400
0.956065 0.932469 0.876913
0.965697 0.941266 0.886814
0.972717 0.947753 0.894072
0.032796 0.033439 0.032248
0.037149 0.038664 0.037086
0.042241 0.044854 0.042681
0.048470 0.053210 0.050076
0.055927 0.064049 0.059594
0.065648 0.079864 0.074163
0.079728 0.100290 0.094577
0.101168 0.125474 0.120689
0.129155 0.155599 0.151927
0.162387 0.190785 0.187976
0.203523 0.230620 0.227554
0.252247 0.277075 0.272922
0.311879 0.328928 0.325230
0.376412 0.383873 0.377834
0.436111 0.442082 0.426330
0.499751 0.502244 0.477167
0.567248 0.562353 0.530287
0.623828 0.623026 0.578761
0.675895 0.676653 0.618277
0.728133 0.722569 0.656888
0.773445 0.766512 0.695630
0.806630 0.801721 0.728255
0.838271 0.827719 0.753375
0.866213 0.851721 0.777675
0.887123 0.871097 0.800929
0.904884 0.886695 0.820450
0.921082 0.900472 0.836287
0.934712 0.912671 0.850710
0.945922 0.923038 0.864693
0.956232 0.932616 0.877084
0.965833 0.941400 0.886970
0.972717 0.947753 0.894072
0.034573 0.035527 0.034254
0.039213 0.041143 0.039338
0.044141 0.047202 0.044797
0.050362 0.055909 0.052452
0.057912 0.067255 0.062526
0.067626 0.083033 0.077122
0.082424 0.103873 0.098280
0.104685 0.129185 0.124537
0.132725 0.159524 0.155993
0.166445 0.194716 0.191917
0.207768 0.234750 0.231549
0.256876 0.281224 0.277072
0.316464 0.332858 0.329165
0.380676 0.387664 0.381294
0.439865 0.445742 0.429360
0.503519 0.505666 0.480139
0.570596 0.565584 0.533066
0.626451 0.625864 0.580920
0.678266 0.678874 0.620010
0.730225 0.724495 0.658552
0.774914 0.768076 0.697035
0.807819 0.802806 0.729278
0.839329 0.828587 0.754212
0.866952 0.852376 0.778435
0.887705 0.871625 0.801614
0.905307 0.887083 0.820869
0.921438 0.900770 0.836621
0.934908 0.912879 0.850960
0.946111 0.923209 0.864922
0.956360 0.932761 0.877236
0.965978 0.941524 0.887124
0.972717 0.947753 0.894072
0.036651 0.038030 0.036536
0.041229 0.043631 0.041578
0.046160 0.049907 0.047195
0.052323 0.058716 0.054909
0.060050 0.070749 0.065727
0.069877 0.086492 0.080433
0.085330 0.107648 0.102169
0.108412 0.133134 0.128643
0.136473 0.163675 0.160284
0.170705 0.198833 0.196020
0.212204 0.239079 0.235746
0.261906 0.285629 0.281552
0.321623 0.337134 0.333379
0.385085 0.391674 0.384878
0.443750 0.449557 0.432520
0.507547 0.509295 0.483291
0.574120 0.568999 0.535967
0.629222 0.628866 0.583146
0.680809 0.681240 0.621862
0.732445 0.726530 0.660322
0.776459 0.769708 0.698525
0.809082 0.803918 0.730357
0.840362 0.829414 0.755059
0.867628 0.852990 0.779119
0.888155 0.872022 0.802109
0.905683 0.887397 0.821271
0.921709 0.901028 0.836915
0.935124 0.913046 0.851211
0.946272 0.923363 0.865142
0.956537 0.932889 0.877393
0.966111 0.941649 0.887271
0.972717 0.947753 0.894072
0.038822 0.040666 0.038923
0.043330 0.046173 0.043871
0.048293 0.052962 0.049857
0.054303 0.061592 0.057448
0.062178 0.074264 0.068964
0.072757 0.090559 0.084584
0.088254 0.111482 0.106125
0.112302 0.137276 0.132954
0.140388 0.168009 0.164765
0.175127 0.203100 0.200316
0.216891 0.243634 0.240153
0.267194 0.290289 0.286281
0.326971 0.341552 0.337708
0.389482 0.396021 0.388458
0.447943 0.453639 0.435908
0.511709 0.513057 0.486581
0.577727 0.572466 0.538928
0.632085 0.631971 0.585517
0.683308 0.683575 0.623676
0.734487 0.728356 0.661915
0.777775 0.771116 0.699790
0.810018 0.804766 0.731154
0.841175 0.830112 0.755728
0.868214 0.853513 0.779733
0.888555 0.872390 0.802571
0.906030 0.887682 0.821599
0.921996 0.901251 0.837220
0.935348 0.913260 0.851481
0.946482 0.923544 0.865361
0.956693 0.933043 0.877581
0.966289 0.941796 0.887427
0.972717 0.947753 0.894072
0.040993 0.043332 0.041311
0.045489 0.048925 0.046322
0.050445 0.056028 0.052549
0.056453 0.064839 0.060332
0.064398 0.077922 0.072313
0.075789 0.094765 0.088919
0.091944 0.115763 0.110560
0.116355 0.141602 0.137429
0.144655 0.172552 0.169418
0.179760 0.207586 0.204796
0.221805 0.248415 0.244768
0.272685 0.295108 0.291173
0.332302 0.345945 0.342044
0.393572 0.400075 0.391791
0.451847 0.457375 0.439035
0.515435 0.516241 0.489450
0.580606 0.575300 0.541325
0.634190 0.634271 0.587226
0.685167 0.685304 0.625043
0.736093 0.729831 0.663185
0.778937 0.772313 0.700865
0.810852 0.805538 0.731877
0.841908 0.830711 0.756299
0.868732 0.854019 0.780300
0.888950 0.872731 0.803028
0.906377 0.887966 0.821959
0.922286 0.901534 0.837487
0.935597 0.913457 0.851758
0.946675 0.923733 0.865636
0.956850 0.933198 0.877745
0.966415 0.941952 0.887583
0.972717 0.947753 0.894072
0.042857 0.045605 0.043361
0.047358 0.051605 0.048681
0.052232 0.058593 0.054800
0.058439 0.068121 0.063335
0.066346 0.081031 0.075225
0.078330 0.098297 0.092563
0.095469 0.119474 0.114432
0.119585 0.145039 0.141015
0.147966 0.176088 0.173031
0.183300 0.211035 0.208227
0.225220 0.251741 0.247985
0.276409 0.298369 0.294481
0.336167 0.349135 0.345172
0.396662 0.403159 0.394312
0.454806 0.460227 0.441432
0.518538 0.518871 0.491836
0.582894 0.577822 0.543357
0.636149 0.636385 0.588811
0.686946 0.686974 0.626337
0.737709 0.731299 0.664456
0.780044 0.773480 0.701926
0.811797 0.806385 0.732678
0.842709 0.831370 0.756950
0.869371 0.854577 0.780942
0.889424 0.873151 0.803541
0.906780 0.888320 0.822351
0.922626 0.901818 0.837826
0.935824 0.913703 0.852068
0.946890 0.923920 0.865859
0.957038 0.933354 0.877933
0.966576 0.942108 0.887743
0.972717 0.947753 0.894072
0.044287 0.047323 0.044924
0.048788 0.053667 0.050491
0.053601 0.060561 0.056513
0.059987 0.070659 0.065646
0.067828 0.083420 0.077454
0.080306 0.101074 0.095407
0.098343 0.122501 0.117583
0.122386 0.148092 0.144166
0.150781 0.179067 0.176124
0.186474 0.214098 0.211272
0.228431 0.254840 0.251006
0.280049 0.301565 0.297723
0.339924 0.352215 0.348220
0.399678 0.406145 0.396757
0.457827 0.463150 0.443850
0.521653 0.521520 0.494230
0.585098 0.580269 0.545322
0.638058 0.638400 0.590215
