LUTs/SPK Cube Block1 S32/TheBrim_SPK_Type-A_Block1_S32.cube
TITLE "TheBrim® Industrial Imaging Burau"
# © Copyright 2022 - TheBrim® d.o.o. Croatia
LUT_3D_SIZE 32
DOMAIN_MIN 0.000000 0.000000 0.000000
DOMAIN_MAX 1.000000 1.000000 1.000000
0.004913 0.003448 0.003296
0.005963 0.004841 0.004991
0.006614 0.005560 0.005615
0.007432 0.005774 0.005710
0.009764 0.006248 0.005910
0.013497 0.007393 0.006480
0.019201 0.008146 0.006586
0.031784 0.009240 0.006919
0.055956 0.011041 0.007508
0.089198 0.011707 0.006941
0.120852 0.008919 0.005127
0.154997 0.008072 0.004039
0.191837 0.005409 0.001868
0.236742 0.000018 0.000622
0.286821 0.000000 0.000000
0.339008 0.000000 0.000000
0.398569 0.000000 0.000000
0.447474 0.000000 0.000000
0.491681 0.000000 0.000000
0.535266 0.000000 0.000000
0.565991 0.000000 0.000000
0.591879 0.000000 0.000000
0.611561 0.000000 0.000000
0.624100 0.000000 0.000000
0.635308 0.000000 0.000000
0.645801 0.000000 0.000000
0.656791 0.000000 0.000000
0.665805 0.000000 0.000000
0.670849 0.000000 0.000000
0.675165 0.000000 0.000000
0.678629 0.000000 0.002008
0.681183 0.000000 0.006104
0.006045 0.006346 0.006033
0.006204 0.006161 0.005815
0.006676 0.006397 0.005985
0.007452 0.006320 0.005756
0.009756 0.006893 0.006086
0.013672 0.007929 0.006481
0.020591 0.008737 0.006489
0.033466 0.009935 0.006820
0.058223 0.011913 0.007427
0.091515 0.012968 0.006880
0.124512 0.012219 0.005558
0.160889 0.011893 0.004043
0.196910 0.008898 0.002113
0.239058 0.002831 0.001056
0.284309 0.000000 0.000000
0.333233 0.000000 0.000000
0.393080 0.000000 0.000000
0.443705 0.000000 0.000000
0.487716 0.000000 0.000000
0.531441 0.000000 0.000000
0.566343 0.000000 0.000000
0.592653 0.000000 0.000000
0.614175 0.000000 0.000000
0.631050 0.000000 0.000000
0.643119 0.000000 0.000000
0.654634 0.000000 0.000000
0.666139 0.000000 0.000000
0.675519 0.000000 0.000000
0.680726 0.000000 0.000000
0.685052 0.000000 0.000000
0.688769 0.000000 0.001998
0.691670 0.000000 0.006590
0.006167 0.008364 0.007398
0.006387 0.008219 0.007219
0.006829 0.008158 0.007032
0.007660 0.008323 0.006974
0.010003 0.008665 0.006988
0.013885 0.009333 0.007063
0.020590 0.010296 0.007390
0.034491 0.012161 0.007756
0.061122 0.014980 0.008173
0.094950 0.016867 0.007500
0.127181 0.017341 0.006330
0.162659 0.017567 0.004755
0.203771 0.015943 0.003147
0.246946 0.009414 0.001692
0.289798 0.002250 0.000167
0.339647 0.000000 0.000000
0.398180 0.000000 0.000000
0.446286 0.000000 0.000000
0.490080 0.000000 0.000000
0.537380 0.000000 0.000000
0.575125 0.000000 0.000000
0.602564 0.000000 0.000000
0.624956 0.000000 0.000000
0.642757 0.000000 0.000000
0.657140 0.000000 0.000000
0.666758 0.000000 0.000000
0.678255 0.000000 0.000000
0.686360 0.000000 0.000000
0.691280 0.000000 0.000000
0.695842 0.000000 0.000000
0.699132 0.000000 0.000000
0.701857 0.000000 0.002398
0.006116 0.010706 0.008910
0.006372 0.010864 0.008911
0.006750 0.011081 0.008970
0.007565 0.011242 0.008907
0.009947 0.011995 0.009025
0.013835 0.012640 0.009005
0.019903 0.013973 0.009366
0.034152 0.016224 0.009550
0.060095 0.019574 0.009723
0.095858 0.023108 0.009004
0.130243 0.026092 0.008234
0.164525 0.026982 0.006673
0.208375 0.025173 0.004542
0.254116 0.020109 0.002499
0.297916 0.014573 0.000530
0.348440 0.004274 0.000000
0.408561 0.000000 0.000000
0.456749 0.000000 0.000000
0.499487 0.000000 0.000000
0.548013 0.000000 0.000000
0.587550 0.000000 0.000000
0.618747 0.000000 0.000000
0.640965 0.000000 0.000000
0.657474 0.000000 0.000000
0.672856 0.000000 0.000000
0.682348 0.000000 0.000000
0.691445 0.000000 0.000000
0.698265 0.000000 0.000000
0.702120 0.000000 0.000000
0.705863 0.000000 0.000000
0.709473 0.000000 0.000000
0.712592 0.000815 0.000000
0.005771 0.014534 0.011548
0.006074 0.014740 0.011546
0.006448 0.014911 0.011541
0.007106 0.015143 0.011482
0.009290 0.015757 0.011365
0.013290 0.017083 0.011330
0.019465 0.018879 0.011493
0.032566 0.021685 0.011604
0.058427 0.026389 0.011952
0.090990 0.031301 0.011684
0.127762 0.035033 0.010240
0.165442 0.037337 0.008179
0.209409 0.038122 0.006444
0.260814 0.034808 0.003728
0.306549 0.029799 0.001640
0.355806 0.024230 0.000000
0.416117 0.012904 0.000000
0.466362 0.002953 0.000000
0.510776 0.000150 0.000000
0.560775 0.000000 0.000000
0.600669 0.000000 0.000000
0.633398 0.000000 0.000000
0.658530 0.000000 0.000000
0.674229 0.000000 0.000000
0.686921 0.000000 0.000000
0.697811 0.000000 0.000000
0.704136 0.000000 0.000000
0.710208 0.000752 0.000000
0.714628 0.002942 0.000000
0.718809 0.012480 0.000000
0.722728 0.026700 0.000000
0.726402 0.039735 0.000000
0.005059 0.019590 0.014399
0.005359 0.019793 0.014395
0.005648 0.020034 0.014347
0.006316 0.020370 0.014332
0.007802 0.021384 0.014584
0.012115 0.023054 0.014566
0.018310 0.024639 0.014087
0.030253 0.028927 0.014869
0.054623 0.034863 0.014943
0.088774 0.041233 0.014135
0.122760 0.047117 0.012883
0.162493 0.050441 0.010980
0.209737 0.052937 0.008410
0.261071 0.053634 0.005820
0.311386 0.051215 0.002741
0.363075 0.046832 0.000047
0.424114 0.043962 0.000000
0.476119 0.036047 0.000000
0.523310 0.025158 0.000000
0.573834 0.016505 0.000000
0.614391 0.008914 0.000000
0.645579 0.003534 0.000000
0.674018 0.011422 0.000000
0.690949 0.011666 0.000000
0.702616 0.017121 0.000000
0.712362 0.019764 0.000000
0.718559 0.017944 0.000000
0.724403 0.037190 0.000000
0.729186 0.053169 0.000000
0.733888 0.068374 0.000000
0.738679 0.083935 0.000000
0.743319 0.098520 0.000000
0.003427 0.027104 0.019317
0.003657 0.027597 0.019262
0.003905 0.028297 0.019538
0.004590 0.029347 0.019728
0.006510 0.030720 0.019800
0.010212 0.032734 0.019779
0.016249 0.034522 0.018934
0.027222 0.037150 0.017732
0.048827 0.043152 0.017772
0.080697 0.050554 0.017049
0.118869 0.058111 0.015464
0.156692 0.064151 0.014032
0.205229 0.068616 0.011890
0.259167 0.071423 0.008435
0.313505 0.072709 0.004517
0.367111 0.072961 0.001018
0.429355 0.072189 0.000000
0.483727 0.070516 0.000000
0.534134 0.066677 0.000000
0.587475 0.065103 0.000000
0.627989 0.063645 0.000000
0.659970 0.061473 0.000000
0.687662 0.063186 0.000000
0.707128 0.078903 0.000000
0.719391 0.080833 0.000000
0.728417 0.082090 0.000000
0.735386 0.081775 0.000000
0.742607 0.099373 0.000000
0.748179 0.115985 0.000000
0.752717 0.127260 0.000000
0.757150 0.137759 0.000000
0.760960 0.146602 0.000000
0.000614 0.039066 0.025068
0.000851 0.039226 0.024882
0.001299 0.039519 0.024775
0.001987 0.040392 0.024901
0.004098 0.042100 0.024925
0.008055 0.044734 0.025115
0.013952 0.048086 0.025257
0.023684 0.049950 0.023534
0.042934 0.053415 0.020798
0.073705 0.060657 0.019948
0.109806 0.068960 0.020051
0.150759 0.076756 0.018711
0.199643 0.083837 0.015778
0.258291 0.090378 0.011723
0.315679 0.094789 0.007420
0.371155 0.098437 0.004100
0.435027 0.100795 0.000000
0.492167 0.100875 0.000000
0.542960 0.104927 0.000000
0.597839 0.105525 0.000000
0.641896 0.107617 0.000000
0.674177 0.114495 0.000000
0.702591 0.116679 0.000000
0.721697 0.121232 0.000000
0.737101 0.135472 0.000000
0.747026 0.138043 0.000000
0.755735 0.142467 0.000000
0.762224 0.152729 0.000000
0.766413 0.162261 0.000000
0.769934 0.170042 0.000000
0.773452 0.177815 0.000000
0.776877 0.185238 0.000000
0.000000 0.053412 0.031945
0.000000 0.053428 0.031792
0.000000 0.053796 0.031882
0.000000 0.054789 0.032189
0.000000 0.056306 0.032746
0.003683 0.058980 0.032969
0.009629 0.061861 0.032911
0.019041 0.065236 0.032093
0.035578 0.067826 0.030046
0.063808 0.072920 0.027893
0.101704 0.081815 0.027007
0.144287 0.091462 0.025835
0.194584 0.100860 0.022554
0.253913 0.111022 0.018829
0.317219 0.119213 0.014277
0.375044 0.124454 0.008165
0.441276 0.130372 0.000960
0.501771 0.134002 0.000000
0.551979 0.138475 0.000000
0.606253 0.143693 0.000000
0.654365 0.147777 0.000000
0.688497 0.155331 0.000000
0.717613 0.161677 0.000000
0.737481 0.165235 0.000000
0.750959 0.170388 0.000000
0.763735 0.180537 0.000000
0.772661 0.185149 0.000000
0.778476 0.192163 0.000000
0.782363 0.200483 0.000000
0.785384 0.207134 0.000000
0.788451 0.213751 0.000000
0.791476 0.220344 0.000000
0.000000 0.070018 0.043702
0.000000 0.070019 0.043319
0.000000 0.070259 0.042957
0.000000 0.070798 0.042764
0.000000 0.071854 0.042820
0.000000 0.074808 0.043436
0.002319 0.078495 0.043540
0.011281 0.081855 0.042965
0.027513 0.085210 0.041126
0.051437 0.088060 0.038152
0.088883 0.095240 0.035855
0.134427 0.106507 0.034196
0.187101 0.118707 0.032096
0.250581 0.131635 0.027747
0.315256 0.142638 0.020862
0.375742 0.151111 0.012966
0.443573 0.159008 0.003677
0.510634 0.167213 0.000000
0.562999 0.174106 0.000000
0.617751 0.179429 0.000000
0.668301 0.189169 0.000000
0.702835 0.196588 0.000000
0.731663 0.199747 0.000000
0.753724 0.207777 0.000000
0.767957 0.213549 0.000000
0.777691 0.214804 0.000000
0.788741 0.224311 0.000000
0.795647 0.232930 0.000000
0.799255 0.240191 0.000000
0.802398 0.246996 0.000000
0.805483 0.253818 0.000000
0.808782 0.261070 0.000000
0.000000 0.089565 0.060383
0.000000 0.089720 0.060217
0.000000 0.090056 0.060251
0.000000 0.090543 0.060274
0.000000 0.091248 0.060076
0.000000 0.093225 0.060116
0.000000 0.096716 0.060068
0.000000 0.100367 0.059319
0.013355 0.104810 0.058626
0.040920 0.109327 0.055790
0.075991 0.112735 0.050472
0.119395 0.122469 0.046730
0.173276 0.136316 0.045515
0.242644 0.152513 0.040428
0.315005 0.166018 0.030886
0.377907 0.178319 0.022143
0.443756 0.189109 0.015341
0.517424 0.199871 0.005545
0.573499 0.208999 0.000000
0.629978 0.217615 0.000000
0.682787 0.228720 0.000000
0.717218 0.237887 0.000000
0.747511 0.243500 0.000000
0.771398 0.250504 0.000000
0.786105 0.258575 0.000000
0.796752 0.261315 0.000000
0.805961 0.265129 0.000000
0.813814 0.275653 0.000000
0.818134 0.283659 0.000000
0.821282 0.289953 0.000000
0.823890 0.295647 0.000000
0.826433 0.301144 0.000000
0.000000 0.112358 0.081984
0.000000 0.112569 0.081838
0.000000 0.112809 0.081545
0.000000 0.112903 0.080532
0.000000 0.112927 0.079369
0.000000 0.113919 0.077930
0.000000 0.117005 0.077355
0.000000 0.121255 0.076788
0.000000 0.126274 0.076276
0.020610 0.134103 0.076483
0.061671 0.140160 0.073210
0.107227 0.145117 0.066723
0.160150 0.157299 0.063290
0.224635 0.173914 0.059276
0.307838 0.192162 0.050444
0.381484 0.207663 0.041253
0.449810 0.221509 0.029381
0.523192 0.235819 0.014431
0.584756 0.246563 0.002988
0.641112 0.257929 0.000000
0.694147 0.268346 0.000000
0.731334 0.278554 0.000000
0.762191 0.285801 0.000000
0.789397 0.297285 0.000000
0.805185 0.302842 0.000000
0.816142 0.307902 0.000000
0.825775 0.312632 0.000000
0.831922 0.317862 0.000000
0.834758 0.321771 0.000000
0.837572 0.327060 0.000000
0.840620 0.333829 0.000000
0.843507 0.340470 0.000000
0.000000 0.137860 0.102180
0.000000 0.138126 0.102173
0.000000 0.138377 0.102003
0.000000 0.138749 0.101472
0.000000 0.139123 0.100371
0.000000 0.139737 0.100139
0.000000 0.141765 0.100881
0.000000 0.147032 0.101688
0.000000 0.152614 0.100884
0.000000 0.160943 0.100137
0.038398 0.172917 0.099370
0.094998 0.179062 0.092184
0.149864 0.185042 0.083087
0.212679 0.199351 0.075469
0.295223 0.220002 0.068483
0.381239 0.240416 0.059900
0.454742 0.256347 0.043141
0.531571 0.271683 0.025130
0.594739 0.287254 0.013870
0.654338 0.301166 0.002800
0.707905 0.310373 0.000000
0.745093 0.319745 0.000000
0.776276 0.327171 0.000000
0.802782 0.337033 0.000000
0.820899 0.346298 0.000000
0.832829 0.349009 0.000000
0.843627 0.356803 0.000000
0.849687 0.362002 0.000000
0.852532 0.364680 0.000000
0.854186 0.366901 0.000000
0.856440 0.372228 0.000000
0.858635 0.377541 0.000000
0.000000 0.170452 0.131162
0.000000 0.170701 0.131087
0.000000 0.171130 0.131163
0.000000 0.171644 0.131110
0.000000 0.172115 0.130507
0.000000 0.172492 0.129424
0.000000 0.172855 0.128090
0.000000 0.176720 0.126538
0.000000 0.184000 0.125807
0.000000 0.191067 0.123594
0.000000 0.204696 0.125989
0.077271 0.219928 0.125170
0.144869 0.228687 0.116843
0.204366 0.235452 0.104870
0.283558 0.253988 0.094978
0.375652 0.276880 0.084590
0.453129 0.292983 0.070163
0.539122 0.310863 0.052775
0.602777 0.324155 0.032167
0.662224 0.340005 0.010502
0.720491 0.353283 0.000000
0.759216 0.362823 0.000000
0.792549 0.373592 0.000000
0.818721 0.380786 0.000000
0.835950 0.387927 0.000000
0.848562 0.393709 0.000000
0.860098 0.399951 0.000000
0.866079 0.404141 0.000000
0.869516 0.407211 0.000000
0.871317 0.408995 0.000000
0.873845 0.414994 0.000000
0.876215 0.420918 0.000000
0.000000 0.204860 0.158312
0.000000 0.205015 0.157865
0.000000 0.205378 0.157797
0.000000 0.205977 0.157794
0.000000 0.206369 0.156662
0.000000 0.206717 0.155446
0.000000 0.207386 0.154944
0.000000 0.209542 0.154559
0.000000 0.218025 0.156047
0.000000 0.227134 0.156056
0.000000 0.238734 0.155171
0.021419 0.256227 0.153519
0.128453 0.270042 0.146691
0.201805 0.280465 0.137403
0.274250 0.291594 0.127430
0.365891 0.312526 0.114640
0.453339 0.333179 0.099527
0.539641 0.351579 0.081784
0.613560 0.367655 0.057819
0.674533 0.382573 0.031486
0.731259 0.397852 0.011081
0.773980 0.410798 0.000000
0.807383 0.421236 0.000000
0.835359 0.430251 0.000000
0.852364 0.433703 0.000000
0.866898 0.442441 0.000000
0.877826 0.449414 0.000000
0.883874 0.451523 0.000000
0.887493 0.453342 0.000000
0.890978 0.458685 0.000000
0.894068 0.466572 0.000000
0.896880 0.474079 0.000000
0.000000 0.244478 0.190591
0.000000 0.244308 0.189877
0.000000 0.244458 0.189688
0.000000 0.245368 0.190062
0.000000 0.246116 0.189607
0.000000 0.246456 0.188177
0.000000 0.246377 0.185790
0.000000 0.246412 0.182879
0.000000 0.252484 0.182411
0.000000 0.265080 0.182839
0.000000 0.279312 0.182942
0.000000 0.297908 0.183864
0.089592 0.318373 0.183175
0.193837 0.331191 0.173333
0.276556 0.342249 0.159396
0.360741 0.354361 0.141620
0.447489 0.372665 0.123016
0.543374 0.396568 0.105169
0.620435 0.414992 0.081278
0.684716 0.429866 0.055178
0.747516 0.447247 0.034043
0.790170 0.462517 0.010854
0.820904 0.469578 0.000000
0.850636 0.479212 0.000000
0.869229 0.483959 0.000000
0.882501 0.489162 0.000000
0.893492 0.495237 0.000000
0.900753 0.499121 0.000000
0.905121 0.501899 0.000000
0.910308 0.510956 0.000000
0.912144 0.515152 0.000000
0.914172 0.520808 0.000000
0.000000 0.285695 0.218734
0.000000 0.285620 0.217984
0.000000 0.285629 0.217286
0.000000 0.286639 0.218354
0.000000 0.287475 0.219132
0.000000 0.287895 0.218910
0.000000 0.287881 0.217543
0.000000 0.287912 0.215205
0.000000 0.290766 0.213463
0.000000 0.303691 0.214630
0.000000 0.321274 0.215264
0.000000 0.342164 0.214098
0.029847 0.364928 0.211523
0.175285 0.384267 0.206652
0.280810 0.399032 0.193717
0.373062 0.411929 0.177330
0.445067 0.421492 0.158970
0.539790 0.441408 0.135507
0.626094 0.461964 0.108456
0.692419 0.478865 0.082966
0.755918 0.491926 0.056302
0.802546 0.507473 0.026559
0.833338 0.516924 0.000434
0.862584 0.525141 0.000000
0.884795 0.533559 0.000000
0.898234 0.537754 0.000000
0.908974 0.541211 0.000000
0.915653 0.542911 0.000000
0.921540 0.549290 0.000000
0.927063 0.559838 0.000000
0.929244 0.564520 0.000000
0.930255 0.567565 0.000000
0.000000 0.327260 0.255733
0.000000 0.327076 0.254882
0.000000 0.327057 0.254062
0.000000 0.328014 0.254435
0.000000 0.328761 0.254165
0.000000 0.329141 0.252421
0.000000 0.329028 0.249601
0.000000 0.328626 0.245535
0.000000 0.328404 0.241376
0.000000 0.338489 0.241881
0.000000 0.358569 0.245782
0.000000 0.381872 0.247471
0.000000 0.409152 0.246632
0.138519 0.436038 0.242902
0.269149 0.451133 0.225993
0.374163 0.465045 0.206432
0.456446 0.475834 0.189273
0.536222 0.485949 0.167008
0.630033 0.507325 0.142455
0.698175 0.524961 0.116391
0.762817 0.539680 0.074046
0.811960 0.548469 0.029807
0.844254 0.559440 0.001352
0.873958 0.569569 0.000000
0.895381 0.577297 0.000000
0.911202 0.584104 0.000000
0.927553 0.596615 0.000000
0.936174 0.603790 0.000000
0.938066 0.600511 0.000000
0.941677 0.605692 0.000000
0.943648 0.608984 0.000000
0.944667 0.612048 0.000000
0.000000 0.366703 0.284459
0.000000 0.366649 0.283904
0.000000 0.366600 0.283577
0.000000 0.366998 0.283712
0.000000 0.368338 0.284612
0.000000 0.369341 0.284019
0.000000 0.369899 0.282541
0.000000 0.370247 0.279849
0.000000 0.370075 0.276186
0.000000 0.375736 0.273295
0.000000 0.396271 0.273928
0.000000 0.420953 0.274579
0.000000 0.449928 0.276557
0.054518 0.481944 0.276138
0.249046 0.509484 0.269431
0.369018 0.524962 0.249385
0.460972 0.535994 0.222395
0.549045 0.544262 0.193231
0.626996 0.551653 0.168778
0.702957 0.571620 0.144829
0.768622 0.588087 0.110741
0.823515 0.602667 0.063764
0.854998 0.606245 0.017201
0.885551 0.615383 0.001772
0.910040 0.626546 0.000000
0.926379 0.636533 0.000000
0.941126 0.644786 0.000000
0.948942 0.648115 0.000000
0.952427 0.648382 0.000000
0.954868 0.649808 0.000000
0.956407 0.650441 0.000000
0.957281 0.652529 0.000000
0.000000 0.402308 0.308052
0.000000 0.402130 0.307205
0.000000 0.402061 0.306686
0.000000 0.402256 0.306359
0.000000 0.402716 0.306851
0.000000 0.403840 0.307503
0.000000 0.404511 0.306366
0.000000 0.405872 0.304997
0.000000 0.407113 0.303355
0.000000 0.411441 0.303113
0.000000 0.428901 0.305789
0.000000 0.457268 0.308940
0.000000 0.489859 0.308891
0.000000 0.520263 0.304097
0.210398 0.554577 0.299617
0.366305 0.577253 0.282495
0.457595 0.590894 0.264290
0.548736 0.602730 0.237377
0.644151 0.611562 0.194606
0.701385 0.613955 0.164754
0.773158 0.631316 0.136121
0.827186 0.643719 0.103533
0.864882 0.651475 0.045402
0.897260 0.659876 0.001323
0.921320 0.668203 0.000000
0.937607 0.676020 0.000000
0.950013 0.680294 0.000000
0.956832 0.679456 0.000000
0.960697 0.678931 0.000000
0.963112 0.679296 0.000000
0.964796 0.678989 0.000000
0.965592 0.680085 0.000000
0.000000 0.429134 0.330929
0.000000 0.428845 0.330134
0.000000 0.428571 0.329167
0.000000 0.428436 0.328099
0.000000 0.429407 0.328629
0.000000 0.431193 0.329055
0.000000 0.432734 0.328355
0.000000 0.434332 0.327208
0.000000 0.436405 0.325661
0.000000 0.439979 0.324625
0.000000 0.451603 0.326628
0.000000 0.482736 0.332724
0.000000 0.520922 0.336998
0.000000 0.555763 0.335301
0.150523 0.587382 0.329349
0.352488 0.615164 0.311816
0.462888 0.632466 0.293083
0.554426 0.646485 0.273161
0.645970 0.657701 0.240402
0.718575 0.661426 0.193335
0.768885 0.663264 0.157681
0.829170 0.677428 0.131519
0.870704 0.686837 0.085364
0.911453 0.700946 0.016211
0.932514 0.705758 0.000000
0.945719 0.708335 0.000000
0.956064 0.708043 0.000000
0.963626 0.709439 0.000000
0.968010 0.707777 0.000000
0.970400 0.707654 0.000000
0.972034 0.705507 0.000000
0.973326 0.707321 0.000000
0.000000 0.453538 0.350218
0.000000 0.453432 0.349862
0.000000 0.453189 0.349175
0.000000 0.453204 0.348678
0.000000 0.454181 0.349269
0.000000 0.455707 0.349066
0.000000 0.456891 0.347808
0.000000 0.457891 0.345858
0.000000 0.460214 0.343751
0.000000 0.463895 0.340533
0.000000 0.476178 0.340932
0.000000 0.505882 0.347481
0.000000 0.544232 0.355930
0.000000 0.581617 0.361008
0.082693 0.618469 0.359695
0.336744 0.653793 0.351414
0.462405 0.671937 0.323265
0.566990 0.686260 0.296044
0.654497 0.697793 0.267954
0.729935 0.709158 0.238055
0.798026 0.714282 0.195534
0.840441 0.717343 0.163694
0.879314 0.726309 0.122979
0.915410 0.733044 0.051291
0.939435 0.738825 0.000000
0.952284 0.738700 0.000000
0.962391 0.736895 0.000000
0.969356 0.735196 0.000000
0.974538 0.735005 0.000000
0.977443 0.734704 0.000000
0.979165 0.730589 0.000000
0.980781 0.733048 0.000000
0.000000 0.464370 0.357824
0.000000 0.464646 0.357743
0.000000 0.465342 0.357925
0.000000 0.466649 0.358128
0.000000 0.468471 0.358487
0.000000 0.470341 0.358314
0.000000 0.472837 0.358016
0.000000 0.476152 0.357249
0.000000 0.480878 0.357221
0.000000 0.485163 0.356049
0.000000 0.493276 0.353914
0.000000 0.525062 0.360961
0.000000 0.567118 0.371469
0.000000 0.603957 0.378018
0.072287 0.644040 0.380600
0.343174 0.687754 0.377866
0.480334 0.712730 0.358954
0.588534 0.730106 0.333718
0.675703 0.741254 0.307094
0.744755 0.749018 0.276457
0.811923 0.755368 0.234627
0.854312 0.753206 0.191273
0.883133 0.753462 0.155192
0.917126 0.759101 0.100062
0.941472 0.762010 0.040631
0.956419 0.763164 0.001849
0.966914 0.760966 0.000000
0.974476 0.759131 0.000000
0.979519 0.757513 0.000000
0.983030 0.757927 0.000000
0.985536 0.757286 0.000000
0.987640 0.759092 0.000000
0.000000 0.470250 0.359609
0.000000 0.471124 0.359662
0.000000 0.471967 0.359626
0.000000 0.473201 0.359701
0.000000 0.475473 0.359821
0.000000 0.477926 0.359677
0.000000 0.480976 0.359764
0.000000 0.484730 0.360248
0.000000 0.489673 0.360455
0.000000 0.498663 0.360888
0.000000 0.523443 0.366944
0.000000 0.559588 0.377983
0.000000 0.600127 0.389179
0.000000 0.638361 0.396139
0.121038 0.674517 0.397960
0.349846 0.707426 0.392691
0.474912 0.727958 0.374604
0.585976 0.747551 0.354611
0.674574 0.762011 0.334695
0.747457 0.770040 0.301005
0.812068 0.775532 0.257666
0.859383 0.776384 0.208874
0.888323 0.775537 0.171423
0.916927 0.775752 0.126136
0.941816 0.777900 0.067660
0.957088 0.779079 0.007791
0.968849 0.776280 0.000000
0.976956 0.775204 0.000000
0.983116 0.773799 0.000000
0.987002 0.773902 0.000000
0.990374 0.777311 0.000000
0.992994 0.779409 0.000000
0.000000 0.477878 0.359721
0.000000 0.478623 0.359720
0.000000 0.479685 0.359763
0.000000 0.481231 0.359721
0.000000 0.482960 0.359997
0.000000 0.485395 0.360336
0.000000 0.488613 0.360474
0.000000 0.492876 0.360217
0.000000 0.503379 0.361816
0.000000 0.526462 0.368139
0.000000 0.561964 0.379864
0.000000 0.596157 0.390006
0.000000 0.627005 0.397041
0.030971 0.660882 0.401440
0.243890 0.695753 0.403296
0.391244 0.721930 0.400876
0.489937 0.740982 0.388712
0.598809 0.764963 0.373637
0.679253 0.778462 0.352088
0.744610 0.785141 0.320416
0.810280 0.790852 0.280950
0.859764 0.793136 0.232698
0.890843 0.794571 0.205041
0.917663 0.793423 0.157750
0.940603 0.790669 0.096505
0.957793 0.791514 0.026694
0.969443 0.790010 0.000000
0.979741 0.790172 0.000000
0.986599 0.791335 0.000000
0.990327 0.790591 0.000000
0.993618 0.791289 0.000000
0.995611 0.792186 0.000000
0.000000 0.484561 0.360215
0.000000 0.485442 0.360329
0.000000 0.486470 0.360484
0.000000 0.488044 0.360576
0.000000 0.490185 0.360396
0.000000 0.493077 0.360181
0.000000 0.498785 0.360919
0.000000 0.513058 0.364266
0.000000 0.536514 0.371193
0.000000 0.567322 0.381513
0.000000 0.596124 0.390000
0.000000 0.626383 0.396914
0.000000 0.656690 0.401160
0.155915 0.683758 0.402846
0.327753 0.710049 0.404037
0.435797 0.730640 0.397130
0.529282 0.750316 0.385152
0.621596 0.772564 0.374922
0.696463 0.786130 0.355075
0.753675 0.794221 0.331573
0.812177 0.803910 0.303577
0.859900 0.808561 0.267827
0.893392 0.808432 0.225677
0.920793 0.807120 0.172363
0.941609 0.805148 0.111857
0.957153 0.802915 0.046333
0.970683 0.802170 0.000000
0.981472 0.802998 0.000000
0.989605 0.804787 0.000000
0.993121 0.802918 0.000000
0.995889 0.799481 0.000000
0.997559 0.797923 0.000000
0.000000 0.491198 0.360135
0.000000 0.492141 0.360111
0.000000 0.493160 0.360174
0.000000 0.494769 0.360166
0.000000 0.499702 0.361099
0.000000 0.509506 0.363173
0.000000 0.525783 0.367801
0.000000 0.547739 0.375138
0.000000 0.571979 0.383098
0.000000 0.596248 0.390035
0.000000 0.623451 0.396503
0.000000 0.649435 0.400504
0.103383 0.677036 0.402512
0.298005 0.704587 0.404008
0.394920 0.722787 0.401357
0.474587 0.738492 0.392248
0.568435 0.759494 0.380334
0.650938 0.778735 0.368934
0.710550 0.788033 0.349684
0.765679 0.796625 0.327827
0.821807 0.806820 0.300796
0.862505 0.813672 0.279269
0.894270 0.816849 0.251211
0.923953 0.819090 0.203332
0.946318 0.819440 0.156971
0.961960 0.817671 0.082208
0.974778 0.815980 0.005973
0.982915 0.815994 0.000000
0.990065 0.813527 0.000000
0.994740 0.810158 0.000000
0.997558 0.807644 0.000000
0.999282 0.806453 0.000000
0.000000 0.501480 0.361216
0.000000 0.504906 0.361993
0.000000 0.509157 0.363095
0.000000 0.515402 0.364631
0.000000 0.525573 0.367749
0.000000 0.538018 0.371669
0.000000 0.554887 0.377580
0.000000 0.574535 0.383934
0.000000 0.596333 0.390085
0.000000 0.620224 0.395980
0.000000 0.642146 0.399451
0.041951 0.667495 0.402158
0.234107 0.693806 0.403270
0.354528 0.715217 0.404005
0.443755 0.732117 0.395928
0.518067 0.747865 0.386581
0.593866 0.765795 0.377829
0.666509 0.781597 0.365127
