LUTs/SPK Cube Block1 S32/TheBrim_SPK_Type-G_Block1_S32.cube
TITLE "TheBrim® SPK Block 1"
# © Copyright 2021 - TheBrim® d.o.o. Croatia
LUT_3D_SIZE 32
DOMAIN_MIN 0.000000 0.000000 0.000000
DOMAIN_MAX 1.000000 1.000000 1.000000
0.067048 0.020356 0.045258
0.067622 0.023063 0.048925
0.069807 0.024575 0.049040
0.073735 0.025189 0.047982
0.080937 0.025580 0.046892
0.091128 0.026927 0.046199
0.103199 0.029114 0.045872
0.120303 0.031088 0.044849
0.150174 0.033046 0.041985
0.197877 0.034189 0.036528
0.247335 0.034851 0.031305
0.311317 0.028331 0.023403
0.393231 0.014552 0.018539
0.463242 0.012940 0.016769
0.524014 0.014699 0.016441
0.585552 0.016511 0.016101
0.645252 0.018247 0.015791
0.689430 0.019541 0.015575
0.723007 0.020517 0.015389
0.752382 0.021380 0.015252
0.783231 0.022299 0.015296
0.812005 0.023137 0.015616
0.831055 0.023694 0.015791
0.845970 0.024131 0.015945
0.853554 0.024363 0.016039
0.857318 0.024470 0.016077
0.860858 0.024588 0.016109
0.864914 0.024712 0.016144
0.869778 0.024863 0.016202
0.872844 0.024929 0.016234
0.873253 0.024964 0.016236
0.878721 0.025116 0.016297
0.067512 0.028213 0.052374
0.068436 0.027394 0.050534
0.070331 0.027097 0.049010
0.074486 0.026306 0.046083
0.081883 0.026925 0.045547
0.093288 0.028681 0.045345
0.107703 0.030540 0.044633
0.127561 0.032214 0.043134
0.160659 0.034138 0.039735
0.205901 0.036011 0.034772
0.255447 0.037465 0.029467
0.320300 0.029657 0.021978
0.397698 0.015793 0.018388
0.461902 0.012908 0.016782
0.522174 0.014651 0.016458
0.585831 0.016526 0.016101
0.645641 0.018263 0.015791
0.689228 0.019540 0.015575
0.722592 0.020499 0.015389
0.752811 0.021381 0.015252
0.783082 0.022279 0.015296
0.811916 0.023137 0.015616
0.830955 0.023694 0.015791
0.845945 0.024131 0.015945
0.853495 0.024356 0.016039
0.857448 0.024494 0.016077
0.860873 0.024588 0.016109
0.864906 0.024712 0.016144
0.869694 0.024862 0.016202
0.872718 0.024929 0.016234
0.873359 0.024966 0.016237
0.885356 0.025302 0.016389
0.067933 0.035123 0.054718
0.069585 0.033926 0.052613
0.071257 0.032734 0.050662
0.074370 0.031874 0.048890
0.080047 0.031507 0.047252
0.093306 0.032894 0.046088
0.109575 0.034162 0.044398
0.134455 0.035601 0.042027
0.165615 0.038419 0.038682
0.209507 0.042224 0.034276
0.261560 0.042696 0.028241
0.324271 0.035751 0.021668
0.390862 0.027366 0.018821
0.458384 0.016578 0.016871
0.521043 0.014622 0.016460
0.583071 0.016431 0.016118
0.644922 0.018239 0.015793
0.689071 0.019525 0.015575
0.722109 0.020499 0.015389
0.753025 0.021399 0.015252
0.783424 0.022292 0.015296
0.811701 0.023127 0.015616
0.831025 0.023694 0.015791
0.845878 0.024131 0.015945
0.853535 0.024356 0.016039
0.857587 0.024494 0.016077
0.860988 0.024590 0.016109
0.864993 0.024714 0.016146
0.869730 0.024840 0.016204
0.873065 0.024937 0.016236
0.878340 0.025094 0.016300
0.892138 0.025492 0.016453
0.067883 0.046023 0.060143
0.069862 0.044759 0.057360
0.071663 0.043925 0.055244
0.075416 0.041382 0.052193
0.080153 0.040526 0.050091
0.093196 0.040736 0.047375
0.109643 0.042012 0.045398
0.131874 0.044094 0.043424
0.162520 0.047050 0.040241
0.207154 0.052175 0.035041
0.263059 0.052813 0.028031
0.316741 0.049230 0.022166
0.375927 0.043375 0.019599
0.444198 0.030975 0.017114
0.513997 0.019741 0.016492
0.577780 0.016285 0.016150
0.639171 0.018064 0.015824
0.688442 0.019503 0.015572
0.722620 0.020508 0.015389
0.753276 0.021405 0.015249
0.784269 0.022316 0.015316
0.812474 0.023145 0.015619
0.832126 0.023736 0.015815
0.846954 0.024171 0.015951
0.854462 0.024402 0.016045
0.859168 0.024542 0.016089
0.863299 0.024669 0.016145
0.868676 0.024824 0.016207
0.874202 0.024976 0.016269
0.880774 0.025187 0.016331
0.889551 0.025435 0.016423
0.902433 0.025811 0.016556
0.068746 0.058013 0.065190
0.070486 0.057743 0.063179
0.072132 0.057304 0.061097
0.076313 0.056870 0.058227
0.081417 0.055135 0.054607
0.091722 0.054815 0.050603
0.108727 0.055588 0.047414
0.130425 0.058059 0.045187
0.161529 0.061139 0.041758
0.200439 0.065634 0.037086
0.255085 0.068081 0.030061
0.308228 0.068229 0.023339
0.364415 0.064679 0.020331
0.426360 0.058003 0.017959
0.494811 0.043325 0.016523
0.566200 0.028267 0.016192
0.634545 0.018015 0.015852
0.690438 0.019567 0.015558
0.728058 0.020664 0.015358
0.759280 0.021579 0.015218
0.789811 0.022478 0.015365
0.819387 0.023350 0.015675
0.840527 0.023966 0.015885
0.859092 0.024532 0.016098
0.867257 0.024783 0.016183
0.872360 0.024922 0.016242
0.877887 0.025085 0.016304
0.885311 0.025297 0.016369
0.888094 0.025386 0.016400
0.894288 0.025567 0.016459
0.903405 0.025861 0.016597
0.914510 0.026484 0.016973
0.068754 0.071731 0.071728
0.070116 0.071414 0.069990
0.072085 0.071140 0.067669
0.076687 0.071432 0.064180
0.082205 0.071007 0.060429
0.093560 0.071016 0.055827
0.107834 0.072230 0.051215
0.130995 0.075207 0.048081
0.162507 0.077740 0.043808
0.199697 0.081732 0.039498
0.248650 0.085638 0.032620
0.302955 0.087127 0.024617
0.360371 0.085964 0.020781
0.419085 0.082456 0.018568
0.476777 0.075009 0.016750
0.545316 0.062481 0.016218
0.619669 0.042832 0.015871
0.686466 0.027228 0.015558
0.735024 0.022342 0.015328
0.768555 0.021856 0.015220
0.800626 0.022786 0.015489
0.831283 0.023701 0.015799
0.855724 0.024431 0.016062
0.875269 0.025006 0.016262
0.887768 0.025382 0.016401
0.890941 0.025475 0.016438
0.898275 0.025705 0.016525
0.903828 0.025895 0.016617
0.906722 0.025983 0.016663
0.911101 0.026266 0.016836
0.918169 0.026743 0.017139
0.927046 0.027342 0.017526
0.070306 0.089557 0.079536
0.070241 0.088522 0.077610
0.073131 0.088346 0.074827
0.077637 0.088757 0.071261
0.084721 0.088731 0.066792
0.096709 0.088665 0.061394
0.111237 0.090034 0.056238
0.132501 0.093123 0.051374
0.162635 0.097361 0.047979
0.201570 0.100485 0.042297
0.248393 0.104627 0.034655
0.300663 0.108636 0.027333
0.356664 0.110149 0.021266
0.416301 0.108119 0.019031
0.466629 0.105581 0.017305
0.528758 0.098643 0.016230
0.598680 0.085927 0.015882
0.661229 0.074847 0.015589
0.719242 0.061508 0.015328
0.764530 0.045986 0.015309
0.806722 0.033746 0.015625
0.844329 0.027176 0.015966
0.873113 0.026566 0.016254
0.893560 0.026409 0.016474
0.908677 0.026131 0.016754
0.914520 0.026493 0.016972
0.918371 0.026742 0.017152
0.923399 0.027091 0.017359
0.925646 0.027240 0.017463
0.927928 0.027384 0.017554
0.933034 0.027815 0.017786
0.936576 0.030337 0.018129
0.072900 0.116532 0.092510
0.072761 0.114716 0.089699
0.073181 0.112992 0.086471
0.078704 0.111565 0.080892
0.088476 0.111604 0.075100
0.102220 0.111925 0.068962
0.118425 0.113866 0.062899
0.137008 0.116531 0.056009
0.164021 0.119279 0.049940
0.202762 0.123761 0.044506
0.246761 0.127781 0.037179
0.296647 0.131695 0.029806
0.352962 0.135179 0.022852
0.409893 0.136973 0.019691
0.460494 0.136021 0.017963
0.512665 0.131878 0.016407
0.573645 0.126813 0.015920
0.639810 0.119286 0.015603
0.699243 0.109263 0.015328
0.741950 0.101715 0.015514
0.785197 0.091304 0.015893
0.826263 0.080867 0.016214
0.863742 0.068297 0.016502
0.889313 0.058625 0.017086
0.907532 0.051056 0.018016
0.916655 0.052475 0.018787
0.922168 0.050610 0.018939
0.928582 0.045291 0.018891
0.931455 0.044857 0.019027
0.933448 0.042458 0.018934
0.931017 0.050640 0.019417
0.927193 0.061715 0.020016
0.076080 0.149118 0.105734
0.075838 0.146303 0.102661
0.075570 0.143269 0.099413
0.077387 0.140208 0.094654
0.089428 0.139149 0.087343
0.105103 0.140036 0.079494
0.123001 0.142614 0.072614
0.142571 0.145615 0.065090
0.163895 0.147922 0.057343
0.201349 0.150181 0.049241
0.249316 0.155692 0.040485
0.296229 0.159801 0.033384
0.348404 0.161561 0.025484
0.403810 0.165217 0.020305
0.456206 0.167879 0.018588
0.504866 0.165398 0.016937
0.554875 0.162121 0.015958
0.619767 0.158569 0.015616
0.681016 0.151663 0.015410
0.728243 0.144714 0.015719
0.768135 0.140673 0.016103
0.810316 0.131092 0.016462
0.846283 0.122274 0.017146
0.870371 0.112548 0.018388
0.886906 0.107944 0.019443
0.899277 0.106878 0.020403
0.903506 0.108442 0.020837
0.909580 0.102938 0.021030
0.913672 0.097084 0.021037
0.916950 0.091131 0.020982
0.915631 0.096855 0.021197
0.912989 0.105654 0.021476
0.079451 0.184526 0.125731
0.079109 0.180811 0.122301
0.078832 0.177631 0.119102
0.078485 0.173423 0.114186
0.085059 0.170085 0.106829
0.100103 0.171182 0.099870
0.124585 0.174566 0.090665
0.146781 0.177408 0.082272
0.169796 0.180424 0.073343
0.196710 0.180882 0.063779
0.245625 0.185962 0.051583
0.298301 0.191734 0.040183
0.350284 0.194349 0.031548
0.402102 0.196883 0.022612
0.453515 0.202342 0.019209
0.504377 0.203069 0.017518
0.546934 0.199610 0.016173
0.605590 0.197582 0.015603
0.667995 0.193037 0.015536
0.719553 0.186806 0.015965
0.757305 0.181873 0.016328
0.797904 0.176558 0.016742
0.834062 0.168838 0.018506
0.856139 0.164134 0.020029
0.873322 0.158828 0.021149
0.886953 0.154661 0.022029
0.894880 0.154242 0.022656
0.899106 0.153378 0.022963
0.902105 0.147985 0.022903
0.904987 0.143269 0.022872
0.904906 0.146907 0.023084
0.904194 0.150698 0.023215
0.084270 0.235414 0.159631
0.083364 0.226461 0.153503
0.082513 0.217342 0.147700
0.081914 0.210615 0.141163
0.081500 0.205289 0.133432
0.093929 0.200424 0.121792
0.116990 0.204224 0.111969
0.145608 0.209460 0.101475
0.174130 0.212664 0.090818
0.203340 0.215759 0.079929
0.241480 0.218546 0.065752
0.295256 0.224031 0.052115
0.349539 0.229813 0.039957
0.404020 0.233692 0.028290
0.453705 0.238119 0.019729
0.504088 0.241158 0.018112
0.547023 0.240550 0.016685
0.592200 0.237642 0.015654
0.654868 0.236184 0.015679
0.711561 0.232376 0.016244
0.750946 0.225651 0.016597
0.787759 0.220261 0.017692
0.820732 0.217134 0.020042
0.846237 0.211869 0.021843
0.863250 0.205949 0.022904
0.877189 0.200102 0.023733
0.888780 0.197288 0.024533
0.892256 0.198308 0.024876
0.894733 0.195763 0.024938
0.897450 0.192730 0.025006
0.897929 0.193886 0.025103
0.897995 0.193498 0.025076
0.091703 0.290022 0.199623
0.090796 0.285201 0.192870
0.089942 0.279901 0.184323
0.088114 0.266891 0.173928
0.085940 0.250580 0.163875
0.084755 0.239386 0.153318
0.105911 0.236555 0.139976
0.139563 0.242339 0.126656
0.171089 0.248255 0.114840
0.205820 0.252040 0.101116
0.242673 0.256827 0.085912
0.291379 0.260585 0.068706
0.346173 0.265607 0.051291
0.399073 0.269824 0.036546
0.452282 0.275528 0.021339
0.503624 0.278452 0.019189
0.547895 0.280934 0.017777
0.586229 0.281065 0.016527
0.641380 0.279070 0.016287
0.701774 0.277069 0.016766
0.743171 0.273298 0.017417
0.778281 0.268411 0.019531
0.809502 0.265749 0.021895
0.835784 0.261396 0.023784
0.854432 0.253529 0.024817
0.868636 0.247356 0.025644
0.880780 0.243929 0.026440
0.887328 0.239314 0.026730
0.889748 0.237893 0.026854
0.892144 0.236616 0.026976
0.892752 0.236416 0.027014
0.893018 0.234417 0.026917
0.100062 0.333530 0.232588
0.100119 0.333772 0.231764
0.099600 0.331075 0.228289
0.098390 0.324498 0.218074
0.096446 0.313912 0.202775
0.092825 0.295010 0.187899
0.089835 0.278316 0.172339
0.120740 0.277431 0.154377
0.168981 0.285163 0.138529
0.207822 0.293852 0.126602
0.251619 0.300450 0.110429
0.292017 0.305031 0.093280
0.344915 0.307569 0.074302
0.399393 0.311777 0.054440
0.449228 0.317794 0.034804
0.501544 0.322460 0.022138
0.548545 0.323342 0.020559
0.588440 0.324229 0.019359
0.631815 0.325888 0.019078
0.691492 0.323811 0.019402
0.732517 0.320340 0.021005
0.766929 0.315608 0.023201
0.798948 0.311222 0.025303
0.826523 0.306766 0.027026
0.845583 0.300987 0.027917
0.861120 0.294968 0.028568
0.873447 0.290368 0.029138
0.882165 0.284131 0.029278
0.885617 0.277822 0.028974
0.887686 0.278623 0.029189
0.888300 0.277887 0.029195
0.888566 0.275694 0.029035
0.107709 0.370766 0.257076
0.107728 0.370836 0.256465
0.107792 0.371094 0.255781
0.107641 0.370312 0.253660
0.106423 0.364204 0.240459
0.104299 0.353767 0.221927
0.099839 0.331013 0.206234
0.098842 0.319227 0.193460
0.154317 0.322261 0.170103
0.207950 0.332432 0.150471
0.255451 0.342365 0.133251
0.304347 0.350059 0.113760
0.345664 0.355445 0.096635
0.400464 0.357868 0.076834
0.450156 0.365946 0.051339
0.500784 0.371707 0.029438
0.547966 0.371723 0.024416
0.590037 0.371915 0.023252
0.633689 0.372187 0.022862
0.679354 0.373618 0.023567
0.720240 0.370821 0.025991
0.755431 0.366016 0.028303
0.788073 0.360529 0.030309
0.816718 0.352783 0.031720
0.836282 0.347505 0.032681
0.851814 0.343901 0.033540
0.865559 0.338668 0.034028
0.875089 0.331539 0.033961
0.879008 0.326776 0.033717
0.881708 0.322806 0.033455
0.882762 0.319793 0.033194
0.883026 0.318173 0.033007
0.115858 0.404654 0.282817
0.115873 0.404697 0.281718
0.115905 0.404819 0.281089
0.115950 0.404919 0.279215
0.115555 0.402988 0.269447
0.114356 0.397533 0.252035
0.110664 0.382044 0.232616
0.106415 0.363019 0.215884
0.134343 0.364632 0.200572
0.203889 0.373136 0.175207
0.255988 0.384591 0.160590
0.307714 0.393452 0.143075
0.352409 0.399264 0.124029
0.396075 0.403830 0.101234
0.452167 0.411449 0.074309
0.505647 0.419985 0.046149
0.556673 0.423632 0.031860
0.597917 0.422823 0.030686
0.643282 0.423267 0.030337
0.685633 0.423887 0.030913
0.719645 0.421681 0.032627
0.753496 0.418226 0.034884
0.786210 0.413439 0.036914
0.814244 0.407269 0.038391
0.832173 0.399321 0.038791
0.846370 0.393901 0.039252
0.859424 0.389582 0.039778
0.868688 0.381185 0.039448
0.872738 0.376187 0.039152
0.874678 0.372491 0.038854
0.876240 0.364205 0.037969
0.876534 0.361918 0.037716
0.123095 0.434366 0.305152
0.123079 0.434275 0.304191
0.123048 0.434162 0.303893
0.123024 0.434001 0.302391
0.123028 0.434009 0.301265
0.122458 0.431268 0.281941
0.122554 0.430932 0.260691
0.118456 0.413796 0.243006
0.118977 0.415584 0.232499
0.184598 0.417764 0.207759
0.259594 0.429354 0.182577
0.316847 0.438529 0.165119
0.363268 0.444926 0.146866
0.406275 0.449802 0.125675
0.456993 0.456783 0.102800
0.509602 0.463975 0.079102
0.561964 0.469923 0.048823
0.608073 0.473409 0.039038
0.653725 0.475015 0.038868
0.696622 0.473955 0.039776
0.728447 0.472943 0.040905
0.758024 0.469708 0.042233
0.790329 0.466037 0.044329
0.820053 0.461148 0.046111
0.839926 0.456223 0.047060
0.854227 0.449515 0.047334
0.866589 0.442523 0.047406
0.874745 0.435480 0.047125
0.878846 0.428617 0.046539
0.879734 0.423244 0.045892
0.878483 0.414945 0.044661
0.877487 0.409282 0.043840
0.130481 0.463318 0.326613
0.130387 0.463114 0.325010
0.130305 0.462872 0.323406
0.130123 0.462297 0.321103
0.129889 0.461539 0.317849
0.129677 0.460907 0.304707
0.130000 0.461750 0.285008
0.130164 0.461811 0.266807
0.131506 0.466829 0.256767
0.157418 0.473049 0.243901
0.250816 0.474539 0.213264
0.323449 0.484741 0.189278
0.373216 0.492374 0.169004
0.417818 0.497938 0.146182
0.466478 0.506048 0.124327
0.520907 0.512694 0.103901
0.569214 0.518621 0.078421
0.614588 0.523702 0.047622
0.663178 0.526769 0.047696
0.706456 0.527124 0.049123
0.740103 0.522455 0.049715
0.765815 0.519660 0.050297
0.795724 0.517453 0.051705
0.824360 0.512472 0.053362
0.844118 0.505903 0.054100
0.859907 0.499359 0.054507
0.872827 0.492527 0.054653
0.881962 0.485731 0.054468
0.886907 0.479757 0.054083
0.887901 0.471634 0.053062
0.887188 0.463483 0.051912
0.886613 0.460213 0.051426
0.137413 0.489325 0.350173
0.137381 0.489250 0.349666
0.137305 0.489076 0.348332
0.137238 0.488877 0.347407
0.137028 0.488262 0.344846
0.136660 0.487229 0.340087
0.137389 0.491704 0.316673
0.137922 0.493860 0.289894
0.139524 0.499866 0.277569
0.153332 0.509483 0.263010
0.239570 0.514086 0.238022
0.319280 0.522862 0.213456
0.375485 0.533834 0.197421
0.424671 0.543108 0.176691
0.473864 0.551506 0.149771
0.527267 0.562850 0.119641
0.579925 0.569291 0.087198
0.621934 0.573742 0.059911
0.671457 0.578589 0.056546
0.716013 0.580510 0.058478
0.751018 0.578948 0.059655
0.777868 0.573290 0.059820
0.804404 0.570508 0.060428
0.828329 0.566078 0.060906
0.846862 0.559210 0.061491
0.864140 0.553438 0.062118
0.878521 0.546818 0.062415
0.888214 0.538631 0.062098
0.893182 0.530435 0.061397
0.895590 0.524089 0.060746
0.896101 0.520754 0.060337
0.895201 0.514340 0.059408
0.142692 0.508967 0.368008
0.142674 0.508934 0.367736
0.142629 0.508833 0.366855
0.142612 0.508782 0.366283
0.142505 0.508491 0.364678
0.142508 0.508825 0.361594
0.144291 0.517999 0.341104
0.145531 0.524603 0.317072
0.146952 0.530555 0.300437
0.149736 0.541407 0.289363
0.235248 0.548530 0.259681
0.319460 0.556144 0.232526
0.378490 0.567668 0.215641
0.431509 0.579218 0.197337
0.486198 0.590685 0.173898
0.534147 0.602314 0.149401
0.584606 0.612965 0.117710
0.630721 0.619851 0.076393
0.675944 0.622949 0.063959
0.723255 0.627424 0.066524
0.761169 0.628130 0.068211
0.789243 0.626032 0.069038
0.815062 0.620564 0.069234
0.838390 0.614602 0.069243
0.853270 0.609140 0.068995
0.865604 0.603371 0.068968
0.881238 0.597960 0.069501
0.893766 0.594698 0.070036
0.900385 0.591722 0.070152
0.903041 0.581368 0.068972
0.903452 0.576735 0.068388
0.902560 0.568450 0.067236
0.146991 0.525166 0.379695
0.146940 0.525048 0.379065
0.146909 0.524991 0.378306
0.146850 0.524893 0.377446
0.146838 0.524883 0.376376
0.146904 0.525334 0.374330
0.148769 0.534299 0.360117
0.152561 0.551565 0.338835
0.154816 0.562037 0.318979
0.158078 0.575379 0.310143
0.219486 0.585658 0.287660
0.321836 0.592699 0.257279
0.384862 0.604162 0.235892
0.439277 0.615251 0.213821
0.495914 0.630424 0.190972
0.547049 0.643875 0.169634
0.588453 0.653300 0.150814
0.632265 0.662382 0.122610
0.685695 0.674041 0.073169
0.729634 0.673814 0.073408
0.768508 0.675811 0.075277
0.798775 0.675119 0.076461
0.825773 0.673258 0.077338
0.851262 0.669609 0.077917
0.865805 0.659799 0.077166
0.876594 0.653897 0.076797
0.887795 0.651580 0.076912
0.898433 0.647593 0.077011
0.905453 0.643789 0.077124
0.909122 0.637236 0.076598
0.909189 0.627271 0.075398
0.908267 0.617996 0.074215
0.151617 0.542536 0.393821
0.151543 0.542295 0.392626
0.151421 0.541999 0.391320
0.151303 0.541711 0.389494
0.151173 0.541340 0.387196
0.151484 0.542945 0.383504
0.152677 0.548539 0.375586
0.156860 0.567608 0.352250
0.160498 0.584395 0.331598
0.164662 0.601650 0.322731
0.229683 0.616645 0.302483
0.334889 0.631575 0.275788
0.397756 0.648263 0.259185
0.451083 0.662143 0.238655
0.508447 0.678278 0.213000
0.562505 0.695636 0.190781
0.608231 0.707843 0.170714
0.643456 0.714065 0.147237
0.692462 0.725714 0.102077
0.742781 0.729629 0.081288
0.777605 0.726442 0.082330
0.804906 0.724482 0.083202
0.836379 0.724000 0.084450
0.864455 0.724389 0.085676
0.882268 0.719692 0.085735
0.892707 0.711587 0.085061
0.902558 0.706646 0.084726
0.911573 0.702163 0.084412
0.915308 0.693946 0.083479
0.917004 0.684925 0.082425
0.915504 0.671144 0.080712
0.913958 0.659083 0.079366
0.155701 0.558426 0.406138
0.155662 0.558327 0.405445
0.155680 0.558378 0.404812
0.155618 0.558207 0.403456
0.155569 0.558036 0.401570
0.155533 0.558052 0.399028
0.158556 0.571240 0.386339
0.163299 0.592254 0.367070
0.166500 0.606615 0.350136
0.171060 0.625269 0.343096
0.250892 0.644211 0.323082
0.340807 0.661052 0.300548
0.408350 0.682241 0.285360
0.462795 0.700217 0.269177
0.523338 0.719438 0.244601
0.580445 0.739465 0.217911
0.624893 0.754219 0.193167
0.660607 0.764200 0.159457
0.705166 0.776444 0.118938
0.753785 0.787316 0.088951
0.793117 0.788233 0.090183
0.822341 0.784947 0.091081
0.849579 0.784907 0.092229
0.876926 0.783858 0.093256
0.896097 0.775899 0.093304
0.908499 0.769727 0.092947
0.917725 0.762036 0.092287
0.924823 0.752630 0.091337
0.927997 0.743476 0.090310
0.929342 0.733302 0.089042
0.927065 0.717492 0.086914
0.923422 0.702406 0.084852
0.157583 0.565851 0.410628
0.157676 0.566255 0.410477
0.157720 0.566503 0.410076
0.157878 0.567114 0.409742
0.158103 0.568066 0.409401
0.159029 0.571861 0.407163
0.163446 0.590004 0.397432
0.168874 0.612715 0.385752
0.173705 0.633187 0.368740
0.183472 0.652499 0.364533
0.280617 0.669468 0.342393
0.367587 0.689439 0.320619
0.423453 0.709486 0.306889
0.483353 0.731173 0.290816
0.539969 0.751402 0.270932
0.597510 0.771620 0.246701
0.642565 0.787841 0.223648
0.679628 0.799684 0.196783
0.721757 0.811095 0.160728
0.767425 0.823580 0.120141
0.802451 0.832548 0.094663
0.831681 0.830219 0.095176
0.860884 0.829013 0.096341
0.886579 0.829983 0.097420
0.904910 0.824058 0.097543
0.917997 0.814647 0.097157
0.928470 0.810032 0.097051
0.935998 0.798710 0.096349
0.939062 0.788497 0.095559
0.940161 0.776682 0.094557
0.937793 0.758971 0.092495
0.934716 0.744367 0.090640
0.158537 0.569725 0.410652
0.158637 0.570127 0.410572
0.159239 0.572624 0.409493
0.160926 0.579540 0.406026
0.163613 0.590480 0.401650
0.167690 0.607033 0.396073
0.171368 0.622612 0.384190
0.175567 0.639863 0.374637
0.195830 0.659659 0.368490
0.285986 0.678109 0.351512
0.358066 0.696505 0.338735
0.411891 0.717261 0.328680
0.461214 0.739308 0.318234
0.512718 0.762397 0.306988
0.563101 0.782133 0.292024
0.606074 0.797253 0.272148
0.647503 0.810454 0.248932
0.685119 0.823042 0.232786
0.726246 0.835609 0.209167
0.773747 0.848135 0.170849
0.808241 0.859457 0.119905
0.838085 0.862856 0.097937
0.866505 0.860738 0.098966
0.891199 0.857673 0.099691
0.909322 0.853617 0.099915
0.922933 0.846296 0.099666
0.933922 0.839799 0.099457
0.942021 0.829258 0.098837
0.946283 0.819696 0.098200
0.947270 0.808477 0.097373
0.947020 0.797940 0.096565
0.945280 0.785257 0.095453
0.167657 0.606844 0.396938
0.168677 0.611290 0.392650
0.169904 0.616577 0.388046
0.171583 0.623633 0.382838
0.173588 0.631866 0.377841
0.176339 0.642953 0.373704
0.181453 0.656134 0.371351
0.243057 0.669022 0.359201
0.308529 0.682641 0.347880
0.364789 0.698661 0.338014
0.413483 0.719017 0.330236
0.454050 0.738153 0.322799
0.494894 0.756745 0.314901
0.539905 0.776432 0.306459
0.585225 0.794505 0.294680
0.625184 0.811754 0.281553
0.659281 0.825777 0.267184
0.700450 0.844646 0.256098
0.736669 0.857302 0.237631
0.778169 0.868162 0.207248
0.810237 0.874763 0.170901
0.841160 0.887514 0.104220
0.870903 0.887871 0.101203
0.895375 0.887364 0.102070
0.913402 0.882921 0.102234
0.927971 0.875855 0.102050
0.938871 0.869206 0.101800
0.947907 0.857447 0.101120
0.952382 0.847906 0.100508
0.953443 0.836391 0.099658
0.954005 0.828712 0.099084
0.953516 0.820228 0.098419
0.175350 0.639128 0.373910
0.176367 0.643203 0.372763
0.177416 0.647283 0.372323
0.179090 0.653768 0.372015
0.186460 0.662140 0.369949
0.244980 0.669803 0.358711
0.293727 0.679170 0.350127
0.338760 0.689951 0.342801
0.381966 0.704971 0.334928
0.419155 0.721717 0.329533
0.453846 0.738069 0.322833
0.493947 0.756334 0.315085
0.534419 0.774069 0.307569
0.569554 0.788474 0.300302
0.605673 0.802934 0.287317
0.640040 0.818640 0.277448
0.674076 0.833454 0.265176
0.711278 0.851929 0.258177
0.749102 0.867347 0.245739
0.786338 0.878915 0.224225
0.814923 0.888366 0.200310
0.843705 0.899679 0.148133
0.874590 0.909127 0.102973
0.899161 0.909741 0.103895
0.916807 0.907076 0.104155
0.930738 0.898889 0.103881
0.943188 0.893022 0.103724
0.952852 0.882034 0.103106
0.958569 0.874792 0.102680
0.960079 0.869438 0.102308
0.960349 0.857924 0.101442
0.960292 0.849932 0.100833
0.209475 0.665020 0.365381
0.231958 0.667010 0.360976
0.245628 0.670041 0.358548
0.270170 0.674550 0.353769
0.299934 0.680446 0.349081
0.331310 0.687903 0.344203
0.365011 0.698308 0.338036
0.396689 0.711264 0.332825
0.424993 0.724366 0.328678
0.454041 0.738181 0.322760
0.489887 0.754547 0.315830
0.525205 0.769970 0.309081
0.560956 0.785219 0.302377
0.597876 0.799533 0.289917
0.626395 0.812437 0.281623
0.654066 0.824644 0.272222
0.688800 0.840569 0.262417
0.724490 0.858279 0.254703
0.758276 0.870293 0.241528
0.793101 0.881626 0.222941
0.820196 0.891163 0.197676
0.847580 0.904659 0.156853
0.875404 0.920200 0.115758
0.901414 0.927672 0.105338
0.920542 0.924590 0.105593
0.935654 0.917862 0.105434
0.949140 0.911697 0.105285
0.957277 0.903024 0.104804
0.962221 0.896744 0.104464
0.964610 0.892127 0.104152
0.965533 0.875740 0.102911
0.965425 0.867411 0.102300
0.308630 0.682365 0.347702
0.318997 0.684846 0.346040
0.331055 0.687641 0.344221
0.345534 0.691917 0.341824
0.365218 0.698223 0.338001
0.385379 0.706057 0.334191
0.405021 0.715086 0.331602
0.428083 0.725778 0.328239
0.454146 0.738292 0.322785
0.485393 0.752587 0.316556
0.515618 0.765718 0.311133
0.548829 0.780287 0.304680
0.582520 0.793414 0.296021
0.613709 0.806396 0.284365
0.642864 0.819926 0.276738
0.670043 0.831500 0.265785
0.699350 0.845859 0.260869
0.732136 0.861435 0.252297
