LUTs/SPK Cube Block1 S32/TheBrim_SPK_Type-E_Block 1_S32.cube
TITLE "TheBrim® Industrial Imaging Burau"
# © Copyright 2022 - TheBrim® d.o.o. Croatia
LUT_3D_SIZE 32
0.0077821012 0.0134279393 0.0119020371
0.0145285578 0.0180528996 0.0158703672
0.0251202879 0.0232045423 0.0195039833
0.0386427346 0.0262189374 0.0203299394
0.0554325810 0.0277852022 0.0195955375
0.0718788532 0.0309216695 0.0207266740
0.0900951720 0.0339232668 0.0208674508
0.1114154712 0.0367122222 0.0204441360
0.1423578142 0.0383158962 0.0182616036
0.1843270156 0.0362948141 0.0139053990
0.2255047168 0.0303250910 0.0084554670
0.2789053867 0.0154342545 0.0011616546
0.3312595830 0.0000000000 0.0000000000
0.3640123352 0.0000000000 0.0000000000
0.3931816783 0.0000000000 0.0000000000
0.4220291054 0.0000000000 0.0000000000
0.4554276587 0.0000000000 0.0000000000
0.4876320705 0.0000000000 0.0000000000
0.5177942346 0.0000000000 0.0000000000
0.5397347391 0.0000000000 0.0000000000
0.5602566469 0.0000000000 0.0000000000
0.5827208805 0.0000000000 0.0000000000
0.6053948026 0.0000000000 0.0000000000
0.6218164635 0.0000000000 0.0000000000
0.6332745123 0.0000000000 0.0000000000
0.6386063099 0.0000000000 0.0000000000
0.6421749521 0.0000000000 0.0000000000
0.6445602818 0.0000000000 0.0000000000
0.6462190851 0.0000000000 0.0000000000
0.6460330235 0.0000000000 0.0000000000
0.6462614166 0.0000000000 0.0000000000
0.6502021820 0.0000000000 0.0000000000
0.0126423458 0.0298269578 0.0236022613
0.0172751817 0.0283591383 0.0210239788
0.0261775904 0.0296221915 0.0203309239
0.0404984286 0.0304835879 0.0182773549
0.0573690001 0.0314513053 0.0171245604
0.0744039752 0.0334192269 0.0175970978
0.0954574876 0.0356381840 0.0173500001
0.1183489738 0.0385748074 0.0169847681
0.1544823377 0.0392097796 0.0137567466
0.1938663654 0.0366374038 0.0090589367
0.2312588447 0.0329220781 0.0055503462
0.2815614409 0.0209944452 0.0000000000
0.3279153961 0.0082762966 0.0000000000
0.3615758140 0.0000000000 0.0000000000
0.3906132404 0.0000000000 0.0000000000
0.4214551692 0.0000000000 0.0000000000
0.4554463633 0.0000000000 0.0000000000
0.4872097402 0.0000000000 0.0000000000
0.5173118526 0.0000000000 0.0000000000
0.5399956192 0.0000000000 0.0000000000
0.5602448335 0.0000000000 0.0000000000
0.5828124346 0.0000000000 0.0000000000
0.6052431968 0.0000000000 0.0000000000
0.6216825779 0.0000000000 0.0000000000
0.6332213518 0.0000000000 0.0000000000
0.6387362577 0.0000000000 0.0000000000
0.6421592008 0.0000000000 0.0000000000
0.6445839086 0.0000000000 0.0000000000
0.6461285154 0.0000000000 0.0000000000
0.6459395004 0.0000000000 0.0000000000
0.6463441106 0.0000000000 0.0000000000
0.6545111329 0.0000000000 0.0000000000
0.0146801635 0.0441980030 0.0281789834
0.0199017024 0.0418107044 0.0253939658
0.0294676324 0.0407189460 0.0229495689
0.0418067666 0.0408784274 0.0212602475
0.0583967690 0.0406618478 0.0194655897
0.0757615359 0.0417860931 0.0187607213
0.0961151022 0.0417102902 0.0172751817
0.1224344539 0.0433553112 0.0157020258
0.1594744990 0.0433750003 0.0109343198
0.1958707118 0.0428837582 0.0083973843
0.2343510116 0.0384281239 0.0037527349
0.2788473040 0.0304245208 0.0000000000
0.3203104965 0.0222338716 0.0000000000
0.3566240152 0.0098484681 0.0000000000
0.3869628886 0.0002520200 0.0000000000
0.4177240923 0.0000000000 0.0000000000
0.4539923262 0.0000000000 0.0000000000
0.4866869956 0.0000000000 0.0000000000
0.5166493157 0.0000000000 0.0000000000
0.5401797119 0.0000000000 0.0000000000
0.5604771644 0.0000000000 0.0000000000
0.5825860104 0.0000000000 0.0000000000
0.6053544400 0.0000000000 0.0000000000
0.6214581226 0.0000000000 0.0000000000
0.6332183984 0.0000000000 0.0000000000
0.6388573454 0.0000000000 0.0000000000
0.6422251592 0.0000000000 0.0000000000
0.6447985194 0.0000000000 0.0000000000
0.6462417275 0.0000000000 0.0000000000
0.6461905360 0.0000000000 0.0000000000
0.6498527012 0.0000000000 0.0000000000
0.6590228811 0.0000000000 0.0000000000
0.0155031662 0.0573896736 0.0319208894
0.0218459971 0.0563619046 0.0302266457
0.0313321864 0.0558381756 0.0288454581
0.0431328249 0.0543910297 0.0267239618
0.0595800816 0.0549324788 0.0244931913
0.0767587869 0.0546971946 0.0221265662
0.0968652555 0.0544638792 0.0200011321
0.1216370469 0.0542354861 0.0170093794
0.1544774154 0.0552829441 0.0132792869
0.1939579196 0.0553922184 0.0094596091
0.2347940155 0.0510812986 0.0031945501
0.2704499196 0.0460261323 0.0000000000
0.3104748263 0.0401243364 0.0000000000
0.3489590640 0.0292835397 0.0000000000
0.3816616090 0.0174878235 0.0000000000
0.4128136406 0.0034258965 0.0000000000
0.4471710512 0.0000000000 0.0000000000
0.4819429165 0.0000000000 0.0000000000
0.5137412414 0.0000000000 0.0000000000
0.5395890401 0.0000000000 0.0000000000
0.5609782510 0.0000000000 0.0000000000
0.5822611409 0.0000000000 0.0000000000
0.6053721602 0.0000000000 0.0000000000
0.6215349099 0.0000000000 0.0000000000
0.6335816616 0.0000000000 0.0000000000
0.6399146479 0.0000000000 0.0000000000
0.6436949475 0.0000000000 0.0000000000
0.6474801694 0.0000000000 0.0000000000
0.6499668978 0.0000000000 0.0000000000
0.6516109343 0.0000000000 0.0000000000
0.6572626791 0.0000000000 0.0000000000
0.6656718769 0.0000000000 0.0000000000
0.0175675642 0.0703775623 0.0370636720
0.0257464000 0.0701117600 0.0348949219
0.0340522302 0.0697898439 0.0333788643
0.0442856194 0.0691558561 0.0315261237
0.0590002387 0.0687364792 0.0289950950
0.0771732416 0.0691292759 0.0261962950
0.0974539584 0.0690908822 0.0232114334
0.1218418132 0.0691519183 0.0207778656
0.1511145239 0.0698154397 0.0172997930
0.1907279292 0.0692769439 0.0109175841
0.2298806105 0.0672647219 0.0055385327
0.2654528361 0.0638358720 0.0011419655
0.3018431422 0.0574782744 0.0000000000
0.3385711157 0.0508696412 0.0000000000
0.3750943229 0.0399924197 0.0000000000
0.4095216297 0.0267269152 0.0000000000
0.4411471831 0.0121442125 0.0000000000
0.4777117374 0.0002874603 0.0000000000
0.5095957098 0.0000000000 0.0000000000
0.5389973838 0.0000000000 0.0000000000
0.5621704236 0.0000000000 0.0000000000
0.5837358516 0.0000000000 0.0000000000
0.6061104999 0.0000000000 0.0000000000
0.6252157798 0.0000000000 0.0000000000
0.6389193659 0.0000000000 0.0000000000
0.6478995464 0.0000000000 0.0000000000
0.6525304134 0.0000000000 0.0000000000
0.6564278630 0.0000000000 0.0000000000
0.6587895658 0.0000000000 0.0000000000
0.6604552603 0.0000000000 0.0000000000
0.6662989735 0.0000000000 0.0000000000
0.6738733550 0.0000000000 0.0000000000
0.0193435175 0.0843105260 0.0423885784
0.0277231817 0.0840604749 0.0403458383
0.0354934694 0.0833300108 0.0380077624
0.0458095526 0.0828348309 0.0352335738
0.0604198200 0.0830996488 0.0326523380
0.0773908057 0.0834481452 0.0298771649
0.0990930727 0.0843754999 0.0262612689
0.1236502534 0.0853865332 0.0235392563
0.1549322327 0.0851394355 0.0186790117
0.1892620786 0.0858571017 0.0137006328
0.2265925374 0.0856001595 0.0077407541
0.2644152226 0.0821466983 0.0008220183
0.2984930485 0.0784166058 0.0000000000
0.3329321687 0.0727806122 0.0000000000
0.3708060455 0.0638939547 0.0000000000
0.4063969758 0.0537235705 0.0000000000
0.4383227874 0.0399638706 0.0000000000
0.4732600408 0.0230302941 0.0000000000
0.5070986447 0.0103259278 0.0000000000
0.5394984704 0.0013733120 0.0000000000
0.5640389154 0.0000000000 0.0000000000
0.5881058385 0.0000000000 0.0000000000
0.6109028173 0.0000000000 0.0000000000
0.6318155529 0.0000000000 0.0000000000
0.6470056631 0.0000000000 0.0000000000
0.6574369273 0.0000000000 0.0000000000
0.6629321441 0.0000000000 0.0000000000
0.6668335315 0.0000000000 0.0000000000
0.6692700527 0.0000000000 0.0000000000
0.6714338804 0.0000000000 0.0000000000
0.6766258857 0.0000000000 0.0000000000
0.6836666937 0.0000000000 0.0000000000
0.0206429955 0.1006898555 0.0465803794
0.0288631783 0.1004978871 0.0447660324
0.0379801977 0.1001592353 0.0428010642
0.0494480910 0.0999180443 0.0402257351
0.0643290830 0.1000479921 0.0372044487
0.0806749410 0.0999111531 0.0331987094
0.0990802748 0.1004319288 0.0292540061
0.1244614427 0.1017304223 0.0255977476
0.1550080356 0.1034236815 0.0214069310
0.1894107310 0.1041679280 0.0148238937
0.2250439927 0.1037505199 0.0081906492
0.2588146693 0.1026321813 0.0039004029
0.2943386568 0.0990231765 0.0000000000
0.3304798962 0.0937278037 0.0000000000
0.3652192746 0.0886696840 0.0000000000
0.4054745433 0.0801098650 0.0000000000
0.4396439233 0.0707368877 0.0000000000
0.4723011836 0.0610577456 0.0000000000
0.5078556890 0.0474594959 0.0000000000
0.5420856130 0.0331691758 0.0000000000
0.5687642900 0.0204392137 0.0000000000
0.5930901242 0.0063556287 0.0000000000
0.6179347652 0.0010513958 0.0000000000
0.6403891543 0.0000767873 0.0000000000
0.6565223705 0.0000000000 0.0000000000
0.6684293298 0.0000000000 0.0000000000
0.6750773411 0.0000000000 0.0000000000
0.6799110054 0.0000000000 0.0000000000
0.6822884595 0.0000000000 0.0000000000
0.6842396454 0.0000000000 0.0000000000
0.6883064208 0.0000000000 0.0000000000
0.6926173406 0.0000000000 0.0000000000
0.0187892704 0.1222031074 0.0504532176
0.0274376903 0.1220377193 0.0485758656
0.0364720157 0.1213830581 0.0464199135
0.0504542020 0.1212058565 0.0436693518
0.0665844648 0.1216774095 0.0400258911
0.0833447776 0.1218890669 0.0362396848
0.1038282917 0.1225742462 0.0305337950
0.1242507697 0.1215110369 0.0270517847
0.1543888146 0.1222946616 0.0223795706
0.1861423470 0.1233303061 0.0167583439
0.2204131257 0.1235222745 0.0111321948
0.2539052021 0.1214677210 0.0058033506
0.2879682612 0.1195440998 0.0017690621
0.3235729738 0.1169165947 0.0000000000
0.3616841038 0.1129000263 0.0000000000
0.4005837806 0.1063288024 0.0000000000
0.4390375003 0.0996286151 0.0000000000
0.4728741352 0.0929500858 0.0000000000
0.5093372908 0.0838813045 0.0000000000
0.5444837405 0.0727540320 0.0000000000
0.5751120431 0.0618108521 0.0000000000
0.5992882405 0.0516158566 0.0000000000
0.6246822063 0.0375775564 0.0000000000
0.6487904764 0.0273864987 0.0000000000
0.6659583527 0.0243721036 0.0000000000
0.6788920966 0.0164246143 0.0000000000
0.6875434698 0.0088147924 0.0000000000
0.6915639759 0.0061134533 0.0000000000
0.6954309074 0.0059096715 0.0000000000
0.6963887802 0.0041829409 0.0000000000
0.6991737978 0.0104755646 0.0000000000
0.7020267427 0.0214728894 0.0000000000
0.0130666450 0.1441869279 0.0541242429
0.0206508711 0.1437478619 0.0524418127
0.0287755619 0.1441022650 0.0508814546
0.0455014188 0.1448327291 0.0483376280
0.0638161829 0.1452895153 0.0448585710
0.0825857643 0.1459943837 0.0406205007
0.1035447692 0.1463517401 0.0356066815
0.1252175026 0.1450315886 0.0304373186
0.1503564951 0.1431837703 0.0260407514
0.1816296143 0.1436474477 0.0209777095
0.2173455701 0.1447677552 0.0146033762
0.2497665616 0.1436789502 0.0093040655
0.2824947024 0.1405769387 0.0045107638
0.3186891024 0.1391179793 0.0000177202
0.3578624571 0.1365790750 0.0000000000
0.3976697997 0.1323035955 0.0000000000
0.4378748613 0.1261438729 0.0000000000
0.4732521652 0.1214421252 0.0000000000
0.5095794663 0.1161260789 0.0000000000
0.5467332157 0.1089129916 0.0000000000
0.5810955485 0.0999938472 0.0000000000
0.6063674422 0.0930760958 0.0000000000
0.6313341554 0.0844641007 0.0000000000
0.6564032516 0.0732639786 0.0000000000
0.6756561995 0.0664446725 0.0000000000
0.6896413392 0.0642385133 0.0000000000
0.6992486162 0.0566897275 0.0000000000
0.7042624355 0.0548212356 0.0000000000
0.7072797840 0.0506422325 0.0000000000
0.7084453764 0.0473098591 0.0000000000
0.7106111730 0.0536251252 0.0000000000
0.7127868142 0.0613786772 0.0000000000
0.0024690082 0.1649913737 0.0645879941
0.0106990355 0.1636594088 0.0623247366
0.0201556912 0.1629427270 0.0601579555
0.0367417558 0.1641457286 0.0578169262
0.0562073455 0.1656312682 0.0550673489
0.0768119473 0.1669612642 0.0514406239
0.1016388682 0.1680579449 0.0465754571
0.1241099929 0.1685068555 0.0411393075
0.1495453058 0.1669563420 0.0364296842
0.1755880261 0.1652827718 0.0311402181
0.2121801451 0.1667190888 0.0232232469
0.2488972896 0.1678502253 0.0155258087
0.2824641844 0.1658281588 0.0092932366
0.3168028904 0.1627409141 0.0031581253
0.3530494663 0.1614325760 0.0000000000
0.3956861268 0.1596349648 0.0000000000
0.4370617031 0.1552738379 0.0000000000
0.4739009197 0.1504706916 0.0000000000
0.5092752703 0.1465535530 0.0000000000
0.5480395849 0.1414954334 0.0000000000
0.5849555889 0.1350462816 0.0000000000
0.6127791847 0.1278755258 0.0000000000
0.6384773465 0.1222503612 0.0000000000
0.6641991352 0.1165149378 0.0000000000
0.6861032150 0.1098403463 0.0000000000
0.7000233808 0.1062402016 0.0000000000
0.7107716389 0.1042998447 0.0000000000
0.7185547245 0.0999525001 0.0000000000
0.7215779798 0.0970434415 0.0000000000
0.7225378215 0.0932720019 0.0000000000
0.7242389563 0.0956622539 0.0000000000
0.7254104554 0.0986894469 0.0000000000
0.0000000000 0.1905054428 0.0808954585
0.0000000000 0.1880462791 0.0776753126
0.0043414378 0.1857465969 0.0742405560
0.0241092546 0.1840011617 0.0699611387
0.0444204894 0.1857446280 0.0669772616
0.0656679391 0.1885168477 0.0638555611
0.0911258943 0.1907446649 0.0593083725
0.1191207850 0.1908962706 0.0536733634
0.1474060893 0.1912103112 0.0470745748
0.1763194747 0.1902987077 0.0414257833
0.2085632646 0.1903567904 0.0334832163
0.2462825823 0.1922912406 0.0246753151
0.2838709677 0.1932363155 0.0156882434
0.3210960900 0.1914012950 0.0076659357
0.3560874883 0.1894747205 0.0009204636
0.3981974665 0.1888308882 0.0000000000
0.4407406040 0.1868413086 0.0000000000
0.4805922469 0.1824053633 0.0000000000
0.5142246079 0.1783612303 0.0000000000
0.5533182220 0.1749510850 0.0000000000
0.5911468139 0.1696832769 0.0000000000
0.6227792586 0.1639065065 0.0000000000
0.6477823965 0.1591102514 0.0000000000
0.6743380169 0.1543632189 0.0000000000
0.6979294492 0.1500079987 0.0000000000
0.7124265044 0.1443090001 0.0000000000
0.7232407209 0.1412316000 0.0000000000
0.7335902756 0.1400916034 0.0000000000
0.7377682942 0.1380764280 0.0000000000
0.7395639365 0.1375093831 0.0000000000
0.7405946589 0.1377968434 0.0000000000
0.7404400997 0.1372908345 0.0000000000
0.0000000000 0.2278142436 0.1032464800
0.0000000000 0.2222442083 0.0992289272
0.0000000000 0.2175257250 0.0950233438
0.0000000000 0.2127718013 0.0893656923
0.0194498384 0.2087444040 0.0830838975
0.0514357017 0.2106217559 0.0782394042
0.0806247339 0.2142022116 0.0741883800
0.1091689494 0.2174174352 0.0683141488
0.1408653834 0.2174725645 0.0607161404
0.1744923299 0.2177206467 0.0523660098
0.2086203629 0.2190260314 0.0434596633
0.2456013408 0.2193932324 0.0336712468
0.2827831471 0.2206986171 0.0227959943
0.3214111150 0.2206415188 0.0132349865
0.3607941583 0.2193745278 0.0033166222
0.4024256923 0.2181961375 0.0000000000
0.4459739563 0.2182266555 0.0000000000
0.4875759567 0.2160303408 0.0000000000
0.5234735441 0.2119606120 0.0000000000
0.5609054014 0.2087286528 0.0000000000
0.6001555436 0.2057053975 0.0000000000
0.6353487548 0.2013373794 0.0000000000
0.6601107017 0.1971377028 0.0000000000
0.6849395915 0.1927125865 0.0000000000
0.7100756306 0.1890533746 0.0000000000
0.7261478107 0.1856353537 0.0000000000
0.7374001088 0.1808627254 0.0000000000
0.7474149494 0.1774555335 0.0000000000
0.7547727513 0.1775805590 0.0000000000
0.7573067334 0.1785354785 0.0000000000
0.7576887012 0.1772596273 0.0000000000
0.7568784963 0.1753419128 0.0000000000
0.0000000000 0.2807020135 0.1287792536
0.0000000000 0.2734751438 0.1237024294
0.0000000000 0.2650177078 0.1183538961
0.0000000000 0.2533056702 0.1112205495
0.0000000000 0.2441886507 0.1034571529
0.0136474723 0.2385743151 0.0957419946
0.0577923149 0.2410443078 0.0898835146
0.0979826096 0.2455983875 0.0846737892
0.1319669125 0.2492871330 0.0773543809
0.1689872686 0.2503621557 0.0682796929
0.2095634689 0.2515907530 0.0580620550
0.2477661530 0.2522739634 0.0455998641
0.2852580621 0.2510827753 0.0318244130
0.3235513158 0.2516704937 0.0187833637
0.3640339932 0.2511743294 0.0060524172
0.4083983688 0.2511526714 0.0000000000
0.4522577200 0.2502597725 0.0000000000
0.4961736772 0.2496179092 0.0000000000
0.5322460050 0.2480851158 0.0000000000
0.5710364075 0.2449791665 0.0000000000
0.6097578984 0.2423034232 0.0000000000
0.6465764415 0.2395115144 0.0000000000
0.6731606110 0.2362047367 0.0000000000
0.6978595530 0.2327886847 0.0000000000
0.7223999980 0.2301739775 0.0000000000
0.7414865733 0.2263523308 0.0000000000
0.7532655537 0.2225247775 0.0000000000
0.7628610174 0.2178624079 0.0000000000
0.7712337904 0.2150399811 0.0000000000
0.7749058002 0.2178240143 0.0000000000
0.7748093238 0.2152506540 0.0000000000
0.7739243005 0.2132512300 0.0000000000
0.0000000000 0.3254286678 0.1569483925
0.0000000000 0.3220323048 0.1480666573
0.0000000000 0.3147522747 0.1408397877
0.0000000000 0.3018716913 0.1324955638
0.0000000000 0.2875272263 0.1234208758
0.0000000000 0.2749980926 0.1140124583
0.0211214397 0.2721313654 0.1062254348
0.0786085741 0.2760347217 0.0993844707
0.1258701949 0.2809786448 0.0915078621
0.1649086797 0.2854854707 0.0831813584
0.2067587622 0.2885038037 0.0717400453
0.2534671205 0.2902137986 0.0577155275
0.2934260688 0.2905209479 0.0438751024
0.3290071545 0.2884860835 0.0281346830
0.3694199357 0.2885973267 0.0128037961
0.4156203162 0.2889556676 0.0000000000
0.4609543780 0.2878589869 0.0000000000
0.5046655690 0.2866599232 0.0000000000
0.5418158728 0.2845482714 0.0000000000
0.5801002665 0.2841830394 0.0000000000
0.6212129938 0.2819237197 0.0000000000
0.6587196696 0.2785421235 0.0000000000
0.6858689152 0.2760475195 0.0000000000
0.7110266122 0.2720191378 0.0000000000
0.7355020833 0.2691927731 0.0000000000
0.7567180305 0.2666105528 0.0000000000
0.7699943640 0.2626284404 0.0000000000
0.7800160958 0.2598266870 0.0000000000
0.7890415611 0.2567286134 0.0000000000
0.7921012411 0.2553562859 0.0000000000
0.7925334160 0.2535055142 0.0000000000
0.7918748170 0.2519865031 0.0000000000
0.0000000000 0.3577876387 0.1802927271
0.0000000000 0.3618711499 0.1707523928
0.0000000000 0.3590979457 0.1623924177
0.0000000000 0.3489639862 0.1520783034
0.0000000000 0.3307575120 0.1409224817
0.0000000000 0.3150269371 0.1304351036
0.0024867283 0.3093141562 0.1221588070
0.0635848365 0.3115695381 0.1140223028
0.1172266974 0.3169515428 0.1072532038
0.1632744877 0.3230325091 0.0980800705
0.2054720821 0.3275649308 0.0881321727
0.2540991393 0.3302898968 0.0744994672
0.2983394739 0.3308539884 0.0582618990
0.3381852101 0.3300418146 0.0410969760
0.3768584627 0.3293753399 0.0235422097
0.4219021109 0.3302180317 0.0029139810
0.4706512403 0.3301609335 0.0000000000
0.5139361631 0.3279646188 0.0000000000
0.5538045418 0.3258795473 0.0000000000
0.5912639639 0.3244008988 0.0000000000
0.6327232186 0.3237649422 0.0000000000
0.6723838776 0.3208834481 0.0000000000
0.6999564380 0.3171700913 0.0000000000
0.7267591560 0.3152828949 0.0000000000
0.7511578398 0.3109778818 0.0000000000
0.7725450818 0.3084104283 0.0000000000
0.7869387695 0.3052139093 0.0000000000
0.7979420009 0.3021995142 0.0000000000
0.8077569976 0.3004954260 0.0000000000
0.8111129980 0.2969484417 0.0000000000
0.8109062628 0.2931799556 0.0000000000
0.8101679231 0.2915014631 0.0000000000
0.0000000000 0.3922818883 0.1948852743
0.0000000000 0.3962187159 0.1862368545
0.0000000000 0.3955837437 0.1787963585
0.0000000000 0.3924649965 0.1691752991
0.0000000000 0.3793560201 0.1586367295
0.0000000000 0.3626990749 0.1486189355
0.0000000000 0.3553658843 0.1393837816
0.0264620973 0.3546058865 0.1313358781
0.1003600637 0.3571900757 0.1237742945
0.1561096385 0.3635132175 0.1154733865
0.2093921741 0.3684404049 0.1045400512
0.2577091286 0.3714223131 0.0899169860
0.3039262448 0.3725554186 0.0724075045
0.3466426460 0.3721508084 0.0529350236
0.3884090501 0.3717048511 0.0310949333
0.4311185601 0.3722925696 0.0089289889
0.4802713153 0.3731037589 0.0000000000
0.5278927537 0.3731086812 0.0000000000
0.5667117054 0.3709291022 0.0000000000
0.6054469786 0.3688253260 0.0000000000
0.6485020317 0.3687239274 0.0000000000
0.6864753382 0.3666949697 0.0000000000
0.7161191877 0.3629028566 0.0000000000
0.7424414927 0.3599298085 0.0000000000
0.7686476323 0.3579638558 0.0000000000
0.7906885511 0.3540152147 0.0000000000
0.8057191799 0.3516958434 0.0000000000
0.8164526712 0.3479933156 0.0000000000
0.8268248683 0.3460844611 0.0000000000
0.8311466171 0.3419162870 0.0000000000
0.8311348036 0.3379814283 0.0000000000
0.8288508726 0.3326683353 0.0000000000
0.0000000000 0.4228678593 0.2110106149
0.0000000000 0.4272024060 0.2021584133
0.0000000000 0.4263183672 0.1941951727
0.0000000000 0.4249125683 0.1845111083
0.0000000000 0.4230381697 0.1767221160
0.0000000000 0.4154519747 0.1672802270
0.0000000000 0.4102629228 0.1579338300
0.0000000000 0.4091800245 0.1489536495
0.0712163163 0.4056753717 0.1394221753
0.1487154119 0.4073499263 0.1310641691
0.2081675145 0.4130558160 0.1201249271
0.2643216996 0.4154687104 0.1052705154
0.3104866397 0.4163429047 0.0884225863
0.3543863535 0.4155238398 0.0671830123
0.3985508851 0.4153377781 0.0413135557
0.4452936993 0.4146112518 0.0147490752
0.4910904540 0.4146821324 0.0000000000
0.5383289402 0.4144537393 0.0000000000
0.5789612544 0.4141269009 0.0000000000
0.6176748696 0.4138049848 0.0000000000
0.6611404396 0.4122859738 0.0000000000
0.7018820281 0.4124208438 0.0000000000
0.7328883606 0.4108614702 0.0000000000
0.7589054851 0.4077811167 0.0000000000
0.7850702776 0.4056389469 0.0000000000
0.8087768909 0.4022632575 0.0000000000
0.8242278812 0.3999054925 0.0000000000
0.8355628733 0.3971293350 0.0000000000
0.8457568844 0.3942537477 0.0000000000
0.8510926198 0.3895332954 0.0000000000
0.8530103343 0.3873291051 0.0000000000
0.8516655715 0.3842123268 0.0000000000
0.0000000000 0.4520598449 0.2353905940
0.0000000000 0.4575363571 0.2241629073
0.0000000000 0.4583485308 0.2136528868
0.0000000000 0.4571986897 0.2023779463
0.0000000000 0.4555763111 0.1927480268
0.0000000000 0.4536615500 0.1846676364
0.0000000000 0.4534548148 0.1765212876
0.0000000000 0.4559887969 0.1673333875
0.0273431828 0.4576190511 0.1573116557
0.1383264791 0.4553183844 0.1462582171
0.2041578374 0.4581309667 0.1348090284
0.2650354280 0.4615785212 0.1213692757
0.3157406655 0.4635533340 0.1037288619
0.3629953952 0.4640908453 0.0793725096
0.4076659357 0.4626259792 0.0529182879
0.4563166198 0.4626328704 0.0257306487
0.5052636242 0.4612290404 0.0001023831
0.5497417041 0.4592886835 0.0000000000
0.5915327195 0.4588063015 0.0000000000
0.6312298033 0.4587334520 0.0000000000
0.6742011779 0.4594097712 0.0000000000
0.7146257725 0.4566907119 0.0000000000
0.7471412715 0.4562162056 0.0000000000
0.7732794838 0.4542187504 0.0000000000
0.7994176960 0.4515823852 0.0000000000
0.8240683998 0.4481614109 0.0000000000
0.8398649330 0.4449402806 0.0000000000
0.8518289907 0.4419278544 0.0000000000
0.8620653332 0.4379418041 0.0000000000
0.8695875388 0.4359561623 0.0000000000
0.8741957634 0.4368913927 0.0000000000
0.8720644226 0.4315261237 0.0000000000
0.0000000000 0.4802722997 0.2527189362
0.0000000000 0.4846147220 0.2436058545
0.0000000000 0.4879234686 0.2345104930
0.0000000000 0.4887760049 0.2240890733
0.0000000000 0.4878250233 0.2108531024
0.0000000000 0.4860589146 0.1994176960
0.0000000000 0.4868218657 0.1908893795
0.0000000000 0.4912144951 0.1817231374
0.0135933274 0.4943804960 0.1719514566
0.1265484831 0.4951562450 0.1608064639
0.2092986511 0.4972078451 0.1476541715
0.2671716911 0.5012313046 0.1340569063
0.3193732972 0.5054811883 0.1164361816
0.3695016453 0.5088667223 0.0957134454
0.4193070927 0.5105324168 0.0678051866
0.4698941959 0.5126854156 0.0337903657
0.5182431451 0.5123900797 0.0038669315
0.5659536766 0.5102548011 0.0000000000
0.6035647044 0.5060009795 0.0000000000
0.6453754089 0.5066074026 0.0000000000
0.6887848650 0.5069647590 0.0000000000
0.7306388854 0.5070956913 0.0000000000
0.7615014878 0.5022374156 0.0000000000
0.7880265901 0.5009645179 0.0000000000
0.8162282159 0.4996965424 0.0000000000
0.8383439531 0.4948244843 0.0000000000
0.8551475818 0.4911386922 0.0000000000
0.8692754672 0.4898027894 0.0000000000
0.8809323755 0.4882542448 0.0000000000
0.8884988814 0.4854849785 0.0000000000
0.8938296945 0.4852516631 0.0000000000
0.8911342622 0.4778820478 0.0000000000
0.0000000000 0.5067427649 0.2618133133
0.0000000000 0.5102247752 0.2529611116
0.0000000000 0.5132175124 0.2452114974
0.0000000000 0.5157898882 0.2368948383
