LUTs/SPK Cube Block1 S32/TheBrim_SPK_Type-J_Block 1_S32.cube
TITLE "TheBrim® Industrial Imaging Burau"
# © Copyright 2022 - TheBrim® d.o.o. Croatia
LUT_3D_SIZE 32
0.0000000000 0.0000000000 0.0000000000
0.0000000000 0.0000000000 0.0000000000
0.0103042698 0.0000000000 0.0000000000
0.0551451207 0.0000000000 0.0000000000
0.0999515157 0.0000000000 0.0000000000
0.1447352683 0.0000000000 0.0000000000
0.1895574145 0.0000000000 0.0000000000
0.2344100788 0.0000000000 0.0000000000
0.2792194272 0.0000000000 0.0000000000
0.3240071176 0.0000000000 0.0000000000
0.3688272949 0.0000000000 0.0000000000
0.4136474723 0.0000000000 0.0000000000
0.4584381161 0.0000000000 0.0000118134
0.5032597701 0.0000000000 0.0000305180
0.5480297403 0.0000000000 0.0000305180
0.5929001248 0.0000000000 0.0000305180
0.6376789551 0.0000000000 0.0000305180
0.6824745211 0.0000000000 0.0000305180
0.7272366157 0.0000000000 0.0000305180
0.7720646687 0.0000000000 0.0000492227
0.8168553125 0.0000000000 0.0000610361
0.8616548163 0.0000000000 0.0000610361
0.9064434912 0.0000000000 0.0000610361
0.9512449639 0.0000000000 0.0000610361
0.9952519831 0.0000000000 0.0000915541
1.0000000000 0.0000000000 0.0000915541
1.0000000000 0.0000000000 0.0000915541
1.0000000000 0.0000000000 0.0000915541
1.0000000000 0.0000000000 0.0000915541
1.0000000000 0.0000000000 0.0000915541
1.0000000000 0.0000000000 0.0000915541
1.0000000000 0.0000000000 0.0000915541
0.0000000000 0.0000000000 0.0000000000
0.0000000000 0.0000000000 0.0000000000
0.0103042698 0.0000000000 0.0000000000
0.0551451207 0.0000000000 0.0000000000
0.0999515157 0.0000000000 0.0000000000
0.1447352683 0.0000000000 0.0000000000
0.1895574145 0.0000000000 0.0000000000
0.2344100788 0.0000000000 0.0000000000
0.2792194272 0.0000000000 0.0000000000
0.3240071176 0.0000000000 0.0000000000
0.3688272949 0.0000000000 0.0000000000
0.4136474723 0.0000000000 0.0000000000
0.4584381161 0.0000000000 0.0000118134
0.5032597701 0.0000000000 0.0000305180
0.5480297403 0.0000000000 0.0000305180
0.5929001248 0.0000000000 0.0000305180
0.6376789551 0.0000000000 0.0000305180
0.6824745211 0.0000000000 0.0000305180
0.7272366157 0.0000000000 0.0000305180
0.7720646687 0.0000000000 0.0000492227
0.8168553125 0.0000000000 0.0000610361
0.8616548163 0.0000000000 0.0000610361
0.9064434912 0.0000000000 0.0000610361
0.9512449639 0.0000000000 0.0000610361
0.9952519831 0.0000000000 0.0000915541
1.0000000000 0.0000000000 0.0000915541
1.0000000000 0.0000000000 0.0000915541
1.0000000000 0.0000000000 0.0000915541
1.0000000000 0.0000000000 0.0000915541
1.0000000000 0.0000000000 0.0000915541
1.0000000000 0.0000000000 0.0000915541
1.0000000000 0.0000000000 0.0000915541
0.0000000000 0.0103387257 0.0011665768
0.0000000000 0.0103387257 0.0011665768
0.0100168095 0.0103367568 0.0008505674
0.0549885927 0.0103062387 0.0004725375
0.0999554535 0.0103042698 0.0000000000
0.1447372372 0.0103042698 0.0000000000
0.1895820259 0.0103023009 0.0000000000
0.2344120477 0.0103023009 0.0000000000
0.2792213961 0.0103023009 0.0000000000
0.3240287756 0.0103003320 0.0000000000
0.3688272949 0.0102717829 0.0000000000
0.4136494412 0.0102717829 0.0000000000
0.4584499295 0.0102698140 0.0000118134
0.5032597701 0.0102698140 0.0000305180
0.5480297403 0.0102678451 0.0000305180
0.5929001248 0.0102678451 0.0000305180
0.6376769862 0.0102678451 0.0000305180
0.6824577854 0.0102678451 0.0000305180
0.7272366157 0.0102678451 0.0000305180
0.7720646687 0.0102658762 0.0000492227
0.8168553125 0.0102658762 0.0000610361
0.8616548163 0.0102658762 0.0000610361
0.9064434912 0.0102353581 0.0000610361
0.9512449639 0.0102333892 0.0000610361
0.9952519831 0.0102333892 0.0000915541
1.0000000000 0.0102333892 0.0000915541
1.0000000000 0.0102333892 0.0000915541
1.0000000000 0.0102333892 0.0000915541
1.0000000000 0.0102333892 0.0000915541
1.0000000000 0.0102333892 0.0000915541
1.0000000000 0.0102333892 0.0000915541
1.0000000000 0.0102333892 0.0000915541
0.0000000000 0.0552396282 0.0056025222
0.0000000000 0.0552396282 0.0056025222
0.0094999717 0.0552681773 0.0053593623
0.0536723790 0.0552366748 0.0044320075
0.0994455068 0.0551441362 0.0025832047
0.1446634032 0.0551146026 0.0004528484
0.1896007305 0.0550840846 0.0001092743
0.2344317368 0.0550840846 0.0000679273
0.2792469919 0.0550840846 0.0000147668
0.3240258222 0.0550781779 0.0000000000
0.3688548596 0.0550565199 0.0000000000
0.4136750370 0.0550565199 0.0000000000
0.4584656807 0.0550565199 0.0000000000
0.5032469722 0.0550437220 0.0000305180
0.5479962689 0.0550260019 0.0000305180
0.5928666534 0.0550260019 0.0000305180
0.6376454837 0.0550260019 0.0000305180
0.6824410497 0.0550260019 0.0000305180
0.7272336624 0.0550260019 0.0000305180
0.7720646687 0.0550230485 0.0000492227
0.8168553125 0.0549954838 0.0000610361
0.8616548163 0.0549954838 0.0000610361
0.9064434912 0.0549767792 0.0000610361
0.9512449639 0.0549649658 0.0000610361
0.9952519831 0.0549374011 0.0000915541
1.0000000000 0.0549374011 0.0000915541
1.0000000000 0.0549374011 0.0000915541
1.0000000000 0.0549374011 0.0000915541
1.0000000000 0.0549374011 0.0000915541
1.0000000000 0.0549374011 0.0000915541
1.0000000000 0.0549374011 0.0000915541
1.0000000000 0.0549374011 0.0000915541
0.0000000000 0.1001119815 0.0102087779
0.0000000000 0.1001119815 0.0102087779
0.0093660861 0.1001730176 0.0097667585
0.0515105201 0.1001434840 0.0089181600
0.0977148384 0.1000814635 0.0077466609
0.1437330951 0.0999840026 0.0060957331
0.1890720792 0.0998904796 0.0044969814
0.2341285253 0.0998599616 0.0030370376
0.2790550235 0.0998786662 0.0018448650
0.3238948900 0.0998865418 0.0009431060
0.3687239274 0.0998904796 0.0004833664
0.4135785606 0.0998934330 0.0003416052
0.4583692043 0.0999170598 0.0001929528
0.5031642781 0.0998944174 0.0000797407
0.5479608286 0.0998944174 0.0000305180
0.5928351509 0.0998944174 0.0000305180
0.6376139812 0.0998904796 0.0000305180
0.6824095472 0.0998904796 0.0000305180
0.7272060977 0.0998904796 0.0000305180
0.7720341507 0.0998638994 0.0000492227
0.8168247944 0.0998638994 0.0000610361
0.8616410340 0.0998599616 0.0000610361
0.9064434912 0.0998599616 0.0000610361
0.9512449639 0.0998333813 0.0000610361
0.9952519831 0.0998294435 0.0000915541
1.0000000000 0.0998294435 0.0000915541
1.0000000000 0.0998294435 0.0000915541
1.0000000000 0.0998294435 0.0000915541
1.0000000000 0.0998294435 0.0000915541
1.0000000000 0.0998294435 0.0000915541
1.0000000000 0.0998294435 0.0000915541
1.0000000000 0.0998294435 0.0000915541
0.0000000000 0.1450148529 0.0159776726
0.0000000000 0.1450148529 0.0159776726
0.0091888845 0.1450847491 0.0153259647
0.0508007295 0.1450827802 0.0139437927
0.0939660413 0.1450463554 0.0125350404
0.1418833079 0.1449587391 0.0109225063
0.1880295434 0.1448297758 0.0091839623
0.2335309623 0.1447096725 0.0076718424
0.2786573045 0.1446486364 0.0064501362
0.3235946318 0.1446437141 0.0054213828
0.3685221145 0.1446181184 0.0044910747
0.4134299082 0.1446387919 0.0036277094
0.4582500855 0.1446506053 0.0028155357
0.5030668173 0.1446614343 0.0020978694
0.5478722278 0.1446742322 0.0013821720
0.5927731303 0.1446693099 0.0008052826
0.6375519607 0.1446998280 0.0004242993
0.6823642624 0.1447047502 0.0000797407
0.7271706574 0.1446791545 0.0000502071
0.7720036326 0.1446791545 0.0000305180
0.8168198722 0.1446742322 0.0000610361
0.8616193760 0.1446742322 0.0000610361
0.9064129731 0.1446742322 0.0000610361
0.9512144459 0.1446486364 0.0000610361
0.9952519831 0.1446437141 0.0000915541
1.0000000000 0.1446437141 0.0000915541
1.0000000000 0.1446437141 0.0000915541
1.0000000000 0.1446437141 0.0000915541
1.0000000000 0.1446437141 0.0000915541
1.0000000000 0.1446437141 0.0000915541
1.0000000000 0.1446437141 0.0000915541
1.0000000000 0.1446437141 0.0000915541
0.0000000000 0.1899236311 0.0207926324
0.0000000000 0.1899236311 0.0207926324
0.0089713204 0.1899964806 0.0200129456
0.0503045652 0.1900545633 0.0183147641
0.0925060975 0.1900112474 0.0170448197
0.1373981399 0.1899305222 0.0155248242
0.1860803264 0.1898872063 0.0139191813
0.2323515876 0.1897080358 0.0121402747
0.2779120736 0.1895859637 0.0106645796
0.3231230788 0.1895022852 0.0094320444
0.3681785404 0.1894904717 0.0083442238
0.4131513080 0.1894658604 0.0073696153
0.4580659928 0.1894599537 0.0064698253
0.5029496674 0.1894353424 0.0056261490
0.5477737825 0.1894432180 0.0048208665
0.5926589338 0.1894599537 0.0040047549
0.6374840334 0.1894845650 0.0031699387
0.6822963351 0.1894766894 0.0022504596
0.7271204503 0.1894904717 0.0013693742
0.7719672079 0.1895150831 0.0005207757
0.8167637583 0.1895150831 0.0002264242
0.8615878735 0.1895209898 0.0000964764
0.9063824551 0.1894963784 0.0000610361
0.9512006635 0.1894963784 0.0000610361
0.9952450919 0.1894904717 0.0000846630
1.0000000000 0.1894904717 0.0000915541
1.0000000000 0.1894904717 0.0000915541
1.0000000000 0.1894904717 0.0000915541
1.0000000000 0.1894904717 0.0000915541
1.0000000000 0.1894904717 0.0000915541
1.0000000000 0.1894904717 0.0000915541
1.0000000000 0.1894904717 0.0000915541
0.0000000000 0.2348137046 0.0253447431
0.0000000000 0.2348137046 0.0253447431
0.0087832899 0.2349151032 0.0244154195
0.0496646707 0.2350273309 0.0223766173
0.0921152696 0.2349623570 0.0213183303
0.1342459213 0.2349052587 0.0199312360
0.1811393567 0.2348156735 0.0184082871
0.2303127853 0.2347831865 0.0168341467
0.2766096422 0.2345912182 0.0152068459
0.3222213198 0.2344976951 0.0138207360
0.3675524283 0.2344071255 0.0124868022
0.4127132264 0.2343490427 0.0112601737
0.4577489989 0.2343254159 0.0102412648
0.5026710672 0.2343126180 0.0092715786
0.5475581873 0.2342948978 0.0083757263
0.5925280015 0.2342880067 0.0075320501
0.6373599923 0.2342791466 0.0067425188
0.6821959209 0.2342880067 0.0059126249
0.7270269273 0.2342811155 0.0050955289
0.7718864827 0.2343116335 0.0042055833
0.8167086290 0.2342988356 0.0032457416
0.8615258530 0.2343185247 0.0021992681
0.9063450459 0.2343264003 0.0012285974
0.9511465186 0.2343421516 0.0005946096
0.9952382007 0.2343490427 0.0000984453
1.0000000000 0.2343490427 0.0001053365
1.0000000000 0.2343490427 0.0001053365
1.0000000000 0.2343490427 0.0001053365
1.0000000000 0.2343490427 0.0001053365
1.0000000000 0.2343490427 0.0001053365
1.0000000000 0.2343490427 0.0001053365
1.0000000000 0.2343490427 0.0001053365
0.0000000000 0.2797155915 0.0298643670
0.0000000000 0.2797155915 0.0298643670
0.0087163471 0.2797618608 0.0288877896
0.0491114081 0.2799262645 0.0264985221
0.0917628354 0.2798681817 0.0255475405
0.1339486165 0.2798022234 0.0243622590
0.1762938789 0.2797480785 0.0229328332
0.2258817623 0.2796791668 0.0213842886
0.2744635346 0.2796240374 0.0198111327
0.3207928785 0.2794606182 0.0182940906
0.3665482862 0.2793375616 0.0169217631
0.4119650421 0.2792469919 0.0155632179
0.4571593116 0.2791967848 0.0143415117
0.5022585814 0.2791662667 0.0131906861
0.5472224888 0.2791524844 0.0121186167
0.5922494013 0.2791357487 0.0111233347
0.6371522727 0.2791199974 0.0102845808
0.6820325017 0.2791052306 0.0094241688
0.7268644925 0.2790973550 0.0086287308
0.7717545660 0.2790973550 0.0078244326
0.8165954169 0.2790973550 0.0070093055
0.8614461123 0.2790973550 0.0061695671
0.9062525073 0.2791111374 0.0052766682
0.9510844981 0.2791199974 0.0042931996
0.9951998070 0.2791209819 0.0032014412
0.9999616063 0.2791278731 0.0030842913
0.9999616063 0.2791278731 0.0030842913
0.9999616063 0.2791278731 0.0030842913
0.9999616063 0.2791278731 0.0030842913
0.9999616063 0.2791278731 0.0030842913
0.9999616063 0.2791278731 0.0030842913
0.9999616063 0.2791278731 0.0030842913
0.0000000000 0.3245564424 0.0343948198
0.0000000000 0.3245564424 0.0343948198
0.0087074870 0.3246253541 0.0334261180
0.0486920311 0.3247612086 0.0306499605
0.0914881730 0.3247090326 0.0299057140
0.1337359746 0.3246735923 0.0288041111
0.1757278184 0.3246204318 0.0274977419
0.2188035450 0.3245278932 0.0260407514
0.2703780546 0.3244875307 0.0244863001
0.3185906570 0.3244343702 0.0229348021
0.3649820214 0.3242788266 0.0214167756
0.4108427656 0.3241469099 0.0199922720
0.4563156353 0.3240839049 0.0186524315
0.5015822621 0.3240208999 0.0173578757
0.5467145111 0.3239765996 0.0161755477
0.5918201798 0.3239618328 0.0150867426
0.6368096831 0.3239372214 0.0140609426
0.6817617771 0.3239155635 0.0131286655
0.7266695708 0.3239067034 0.0121855596
0.7715596443 0.3238968589 0.0112956140
0.8164319977 0.3238850454 0.0105050982
0.8612915531 0.3238761853 0.0096919400
0.9061333885 0.3238761853 0.0089339112
0.9509752238 0.3238761853 0.0081148463
0.9950984084 0.3238850454 0.0072721545
0.9998602077 0.3238850454 0.0071756781
0.9998602077 0.3238850454 0.0071756781
0.9998602077 0.3238850454 0.0071756781
0.9998602077 0.3238850454 0.0071756781
0.9998602077 0.3238850454 0.0071756781
0.9998602077 0.3238850454 0.0071756781
0.9998602077 0.3238850454 0.0071756781
0.0000000000 0.3694169823 0.0388967235
0.0000000000 0.3694169823 0.0388967235
0.0086858290 0.3694839251 0.0379408196
0.0482913587 0.3696069817 0.0348329014
0.0912135106 0.3695754792 0.0340975150
0.1335233328 0.3695439767 0.0331061708
0.1755456946 0.3694927852 0.0319720809
0.2174646889 0.3694199357 0.0306223958
0.2619284943 0.3693785886 0.0291467007
0.3147453835 0.3693254282 0.0276178452
0.3627374685 0.3692545476 0.0260663472
0.4091741177 0.3691108174 0.0245276471
0.4550791623 0.3690163099 0.0230932991
0.5006440784 0.3689129424 0.0217288472
0.5459436844 0.3688676575 0.0204195247
0.5912482126 0.3688066214 0.0191781294
0.6363105654 0.3687761034 0.0180519151
0.6813473224 0.3687662589 0.0169778769
0.7263358412 0.3687377097 0.0159825949
0.7713105777 0.3687239274 0.0150503179
0.8161947445 0.3687150673 0.0141495433
0.8610867869 0.3687052228 0.0132920848
0.9059680004 0.3687052228 0.0124237972
0.9508413382 0.3686845493 0.0115958722
0.9949674761 0.3686747047 0.0107925585
0.9997361666 0.3686747047 0.0107236468
0.9997361666 0.3686747047 0.0107236468
0.9997361666 0.3686747047 0.0107236468
0.9997361666 0.3686747047 0.0107236468
0.9997361666 0.3686747047 0.0107236468
0.9997361666 0.3686747047 0.0107236468
0.9997361666 0.3686747047 0.0107236468
0.0000000000 0.4143296982 0.0434025650
0.0000000000 0.4143296982 0.0434025650
0.0086838601 0.4143444650 0.0425175417
0.0478936397 0.4145128065 0.0391782771
0.0909585373 0.4144783506 0.0385620095
0.1333106909 0.4144409414 0.0376454837
0.1753862132 0.4143848276 0.0365005648
0.2173406478 0.4143296982 0.0351459575
0.2591739947 0.4142913046 0.0336850292
0.3077528137 0.4142204240 0.0321768471
0.3590457697 0.4141475744 0.0307031210
0.4069059380 0.4141052430 0.0291978923
0.4533455406 0.4139812019 0.0276483632
0.4993032534 0.4138699587 0.0261943261
0.5449100087 0.4137803735 0.0248190452
0.5903838628 0.4137193374 0.0234890492
0.6356490130 0.4136838971 0.0222072914
0.6807714174 0.4136277832 0.0210436679
0.7258672416 0.4136100631 0.0199213914
0.7709158120 0.4135972652 0.0188650733
0.8158925174 0.4135775761 0.0178934182
0.8608072023 0.4135667471 0.0169424366
0.9057199182 0.4135559182 0.0160741490
0.9506139295 0.4135362291 0.0151960169
0.9947912590 0.4135254001 0.0143789209
0.9995599495 0.4135254001 0.0142893357
0.9995599495 0.4135254001 0.0142893357
0.9995599495 0.4135254001 0.0142893357
0.9995599495 0.4135254001 0.0142893357
0.9995599495 0.4135254001 0.0142893357
0.9995599495 0.4135254001 0.0142893357
0.9995599495 0.4135254001 0.0142893357
0.0000000000 0.4591823625 0.0479399090
0.0000000000 0.4591823625 0.0479399090
0.0086838601 0.4592187873 0.0470726059
0.0474594959 0.4593438128 0.0435384195
0.0906868283 0.4593310149 0.0430205972
0.1331049402 0.4592995124 0.0421660920
0.1752306696 0.4592493053 0.0411432453
0.2171929799 0.4592059894 0.0399146479
0.2590499536 0.4591479067 0.0384537196
0.3008655803 0.4591006529 0.0369248641
0.3529608655 0.4590297723 0.0353339880
0.4033333579 0.4589697207 0.0337509875
0.4510143558 0.4589382182 0.0321768471
0.4975174556 0.4588023637 0.0307316701
0.5434992875 0.4586921049 0.0293051977
0.5892674931 0.4586300844 0.0279003832
0.6347059070 0.4585532971 0.0265438069
0.6800409532 0.4585060433 0.0252610646
0.7252175026 0.4584499295 0.0240324673
0.7703851919 0.4584312249 0.0228973929
0.8154357312 0.4584194114 0.0218036656
0.8604232656 0.4583987379 0.0207896790
0.9053783130 0.4583583754 0.0197963659
0.9503343449 0.4583465619 0.0188670422
0.9945362857 0.4583465619 0.0179869412
0.9993118673 0.4583465619 0.0178904648
0.9993118673 0.4583465619 0.0178904648
0.9993118673 0.4583465619 0.0178904648
0.9993118673 0.4583465619 0.0178904648
0.9993118673 0.4583465619 0.0178904648
0.9993118673 0.4583465619 0.0178904648
0.9993118673 0.4583465619 0.0178904648
0.0000000000 0.5040355191 0.0524792219
0.0000000000 0.5040355191 0.0524792219
0.0086818912 0.5040699749 0.0516798460
0.0472468541 0.5042087828 0.0482421361
0.0903846012 0.5041881093 0.0474614648
0.1328854072 0.5041575912 0.0466807936
0.1750574059 0.5041270732 0.0456924027
0.2170689388 0.5040896640 0.0445474839
0.2589337882 0.5040050010 0.0432096122
0.3007503993 0.5039656229 0.0417545906
0.3429253514 0.5039036024 0.0402405019
0.3978529080 0.5038543797 0.0386082788
0.4475500656 0.5038100793 0.0369484910
0.4951537839 0.5037480588 0.0353517081
0.5416544225 0.5036240177 0.0337706766
0.5877986892 0.5035304947 0.0322802147
0.6334950297 0.5034527229 0.0309374208
0.6790368112 0.5033907023 0.0296369583
0.7243915465 0.5033336041 0.0283128690
0.7696734323 0.5032843814 0.0270842716
0.8148293082 0.5032528789 0.0258812700
0.8599438370 0.5032420499 0.0247649003
0.9049412158 0.5032026718 0.0236967688
0.9499415481 0.5031682159 0.0226788444
0.9942015717 0.5031504958 0.0217209716
0.9989771533 0.5031504958 0.0216244952
0.9989771533 0.5031504958 0.0216244952
0.9989771533 0.5031504958 0.0216244952
0.9989771533 0.5031504958 0.0216244952
0.9989771533 0.5031504958 0.0216244952
0.9989771533 0.5031504958 0.0216244952
0.9989771533 0.5031504958 0.0216244952
0.0000000000 0.5488980279 0.0569427319
0.0000000000 0.5488980279 0.0569427319
0.0086818912 0.5489137791 0.0562162056
0.0471808957 0.5490230534 0.0529054900
0.0900951720 0.5490260068 0.0518531098
0.1326727654 0.5490013955 0.0511807283
0.1748949712 0.5489531573 0.0503232698
0.2169143797 0.5489049191 0.0492669517
0.2588097471 0.5488596342 0.0480157119
0.3006480162 0.5488113960 0.0465705348
0.3424380471 0.5487661112 0.0450436482
0.3882535065 0.5487178730 0.0434655700
0.4424840703 0.5486253344 0.0418589426
0.4917298562 0.5485800496 0.0402808644
0.5392720462 0.5485318114 0.0386447035
0.5858740835 0.5484382883 0.0369937758
0.6319898011 0.5483309830 0.0354462156
0.6777668668 0.5482679780 0.0339882407
0.7233509797 0.5482049730 0.0325844107
0.7687726578 0.5481468902 0.0313144663
0.8140673415 0.5480848697 0.0301045735
0.8592872068 0.5480533672 0.0288956652
0.9043781087 0.5480435227 0.0277418863
0.9494552283 0.5480041445 0.0266343766
0.9937782569 0.5479588597 0.0255898719
0.9985607297 0.5479519685 0.0254796132
0.9985607297 0.5479519685 0.0254796132
0.9985607297 0.5479519685 0.0254796132
0.9985607297 0.5479519685 0.0254796132
0.9985607297 0.5479519685 0.0254796132
0.9985607297 0.5479519685 0.0254796132
0.9985607297 0.5479519685 0.0254796132
0.0000000000 0.5938304329 0.0615204385
0.0000000000 0.5938304329 0.0615204385
0.0086818912 0.5938629198 0.0608126167
0.0471454554 0.5939554584 0.0575747507
0.0897762092 0.5939525051 0.0562378635
0.1324345277 0.5939219870 0.0556304560
0.1747148163 0.5939003291 0.0548182823
0.2167667117 0.5938609509 0.0537875600
0.2586857060 0.5938225573 0.0526544545
0.3005328352 0.5937753035 0.0513500543
0.3423445241 0.5936985162 0.0499491776
0.3841256950 0.5936630759 0.0484232754
0.4331878804 0.5935892419 0.0467880989
0.4870059584 0.5935429726 0.0451342179
0.5358786366 0.5934957189 0.0435010103
0.5834602047 0.5934494496 0.0418746939
0.6300169572 0.5933411597 0.0403231959
0.6761651617 0.5932466522 0.0387293665
0.7220052324 0.5931688805 0.0371995265
0.7676415213 0.5931058755 0.0357582872
0.8131084843 0.5930477927 0.0343672551
0.8584553440 0.5930103835 0.0330451347
0.9036742248 0.5929542697 0.0318519776
0.9488458519 0.5929454096 0.0306893386
0.9932318854 0.5929060315 0.0296349894
0.9980212494 0.5928991403 0.0295247307
0.9980212494 0.5928991403 0.0295247307
0.9980212494 0.5928991403 0.0295247307
0.9980212494 0.5928991403 0.0295247307
0.9980212494 0.5928991403 0.0295247307
0.9980212494 0.5928991403 0.0295247307
0.9980212494 0.5928991403 0.0295247307
0.0000000000 0.6386712838 0.0660312022
0.0000000000 0.6386712838 0.0660312022
0.0086818912 0.6387037707 0.0653745721
0.0470765437 0.6387835114 0.0623660836
0.0894582309 0.6388051694 0.0607190937
0.1322169636 0.6387933559 0.0601431887
0.1745346614 0.6387628379 0.0593635019
0.2166269194 0.6387185375 0.0584381161
0.2585616649 0.6386634081 0.0572991039
0.3004156853 0.6386102477 0.0560360507
0.3422362343 0.6385551183 0.0546873500
0.3840321719 0.6385078645 0.0531959037
0.4258665032 0.6384615953 0.0516759082
0.4780346380 0.6383995747 0.0501027523
0.5313767329 0.6383661033 0.0484961249
0.5801475203 0.6383060517 0.0468225548
0.6275725603 0.6382430467 0.0451627670
0.6741765666 0.6381652749 0.0435374351
0.7203572580 0.6380589540 0.0419711703
0.7662908517 0.6379939801 0.0405092576
0.8119241873 0.6379152238 0.0390148579
0.8574433263 0.6378571411 0.0375558985
0.9028098750 0.6378197319 0.0362022756
0.9480858541 0.6377862605 0.0348998442
0.9925663952 0.6377557424 0.0336673090
0.9973695415 0.6377557424 0.0335432679
0.9973695415 0.6377557424 0.0335432679
0.9973695415 0.6377557424 0.0335432679
0.9973695415 0.6377557424 0.0335432679
0.9973695415 0.6377557424 0.0335432679
0.9973695415 0.6377557424 0.0335432679
0.9973695415 0.6377557424 0.0335432679
0.0000000000 0.6835593884 0.0699434186
0.0000000000 0.6835593884 0.0699434186
0.0086818912 0.6835771085 0.0693606224
0.0470499635 0.6836233778 0.0665992316
0.0891235169 0.6836647248 0.0648478897
0.1319738037 0.6836204244 0.0643674766
0.1743485997 0.6836007354 0.0637069086
0.2164782670 0.6835593884 0.0629626622
0.2584287637 0.6835288703 0.0619801780
0.3003152711 0.6834894922 0.0608155701
0.3421436957 0.6834442074 0.0594865585
0.3839386489 0.6833959692 0.0580531949
0.4256952084 0.6833457621 0.0565184327
0.4689855458 0.6832758659 0.0549364166
0.5240504335 0.6832236899 0.0533189603
0.5758119892 0.6831626538 0.0517083952
0.6243071297 0.6831163845 0.0501342548
0.6717174029 0.6830710997 0.0485256585
0.7183174713 0.6829746233 0.0468540573
0.7645798724 0.6828860225 0.0452434922
0.8104760569 0.6828240019 0.0436860875
0.8562009466 0.6827580436 0.0422369726
0.9017506036 0.6826832252 0.0408626762
0.9471358570 0.6826625517 0.0394342348
0.9917512681 0.6826133290 0.0381130989
0.9965613056 0.6826133290 0.0379821666
0.9965613056 0.6826133290 0.0379821666
0.9965613056 0.6826133290 0.0379821666
0.9965613056 0.6826133290 0.0379821666
0.9965613056 0.6826133290 0.0379821666
0.9965613056 0.6826133290 0.0379821666
0.9965613056 0.6826133290 0.0379821666
0.0000000000 0.7284140216 0.0706187533
0.0000000000 0.7284140216 0.0706187533
0.0086818912 0.7284159905 0.0700497395
0.0470470101 0.7284780110 0.0673710428
0.0890378694 0.7284878555 0.0657486642
0.1318832340 0.7284878555 0.0657230684
0.1742590145 0.7284573375 0.0656846748
0.2163689927 0.7284268195 0.0656334832
0.2583086605 0.7283884258 0.0655694938
0.3002089502 0.7283441254 0.0648291851
0.3420432815 0.7283047473 0.0640219336
0.3838451259 0.7282506024 0.0628396055
0.4256144833 0.7282013797 0.0614397133
0.4673424937 0.7281442814 0.0598882154
0.5123817118 0.7280822609 0.0582845414
0.5692890034 0.7280330382 0.0566365670
0.6201369866 0.7279887379 0.0549915460
0.6684844592 0.7279395152 0.0533544006
0.7158287741 0.7278952148 0.0517162708
0.7624948009 0.7277849561 0.0501647728
0.8087522796 0.7277209666 0.0486073681
0.8547065469 0.7276481171 0.0470411034
0.9004452189 0.7275860966 0.0455092945
0.9460303162 0.7275289983 0.0440089881
0.9907550016 0.7274679622 0.0426868676
0.9955788215 0.7274679622 0.0425283707
0.9955788215 0.7274679622 0.0425283707
0.9955788215 0.7274679622 0.0425283707
0.9955788215 0.7274679622 0.0425283707
0.9955788215 0.7274679622 0.0425283707
0.9955788215 0.7274679622 0.0425283707
0.9955788215 0.7274679622 0.0425283707
0.0000000000 0.7733040951 0.0706187533
0.0000000000 0.7733040951 0.0706187533
0.0086818912 0.7733060640 0.0700330038
0.0470194454 0.7733680845 0.0673710428
