LUTs/SPK Cube Block1 S32/TheBrim_SPK_Type-H_Block1_S32.cube
TITLE "TheBrim® SPK Block 1"
# © Copyright 2021 - TheBrim® d.o.o. Croatia
LUT_3D_SIZE 32
DOMAIN_MIN 0.000000 0.000000 0.000000
DOMAIN_MAX 1.000000 1.000000 1.000000
0.068330 0.020264 0.046204
0.069111 0.021575 0.048482
0.070954 0.021624 0.047892
0.076442 0.021791 0.046949
0.083622 0.021359 0.045336
0.090321 0.021813 0.044871
0.099281 0.022898 0.044748
0.111911 0.023635 0.043831
0.134722 0.023723 0.041081
0.170886 0.024243 0.037440
0.208879 0.023563 0.032754
0.259107 0.022821 0.026672
0.319664 0.019494 0.021766
0.378426 0.013749 0.019091
0.433113 0.012328 0.017197
0.487126 0.013632 0.016649
0.534699 0.015027 0.016370
0.586239 0.016529 0.016108
0.629685 0.017793 0.015877
0.664902 0.018817 0.015691
0.695955 0.019735 0.015536
0.729884 0.020717 0.015350
0.756130 0.021488 0.015237
0.775841 0.022070 0.015235
0.785188 0.022349 0.015313
0.790744 0.022505 0.015375
0.796189 0.022665 0.015437
0.799546 0.022763 0.015473
0.801357 0.022825 0.015503
0.802151 0.022827 0.015503
0.802272 0.022827 0.015503
0.803555 0.022889 0.015534
0.068673 0.026257 0.051204
0.069885 0.025428 0.049443
0.070997 0.024443 0.047964
0.077171 0.023496 0.045674
0.084876 0.022417 0.044117
0.092615 0.023035 0.044124
0.103833 0.023848 0.043542
0.118591 0.024191 0.042128
0.143502 0.024440 0.039519
0.177862 0.024719 0.035897
0.215134 0.024187 0.031398
0.264543 0.023477 0.025722
0.319191 0.019970 0.021742
0.370525 0.014711 0.019408
0.427564 0.012299 0.017378
0.485963 0.013599 0.016665
0.534855 0.015027 0.016370
0.585319 0.016511 0.016108
0.628733 0.017762 0.015877
0.664980 0.018824 0.015691
0.695595 0.019716 0.015536
0.729401 0.020706 0.015350
0.755895 0.021488 0.015237
0.775613 0.022063 0.015234
0.785143 0.022349 0.015313
0.790743 0.022505 0.015375
0.796127 0.022665 0.015437
0.799489 0.022763 0.015473
0.801301 0.022825 0.015503
0.802145 0.022827 0.015503
0.802290 0.022828 0.015503
0.805011 0.022920 0.015534
0.069364 0.032125 0.053110
0.070520 0.031081 0.051501
0.072333 0.029877 0.049635
0.075106 0.028228 0.047760
0.082697 0.026780 0.045615
0.092731 0.026639 0.044689
0.105758 0.026556 0.043223
0.124423 0.025402 0.040983
0.147388 0.025998 0.038858
0.180980 0.026187 0.035171
0.219166 0.025696 0.030543
0.265674 0.024803 0.025397
0.309288 0.022414 0.022389
0.359936 0.016629 0.019820
0.414854 0.012226 0.017759
0.476472 0.013322 0.016713
0.531830 0.014929 0.016405
0.583852 0.016472 0.016110
0.627272 0.017726 0.015892
0.664842 0.018824 0.015691
0.695759 0.019716 0.015536
0.728497 0.020682 0.015352
0.755730 0.021479 0.015237
0.775351 0.022063 0.015213
0.785140 0.022349 0.015313
0.790715 0.022505 0.015375
0.796105 0.022665 0.015437
0.799506 0.022763 0.015473
0.801321 0.022825 0.015503
0.802198 0.022829 0.015503
0.803407 0.022862 0.015533
0.806624 0.022982 0.015564
0.068995 0.038848 0.056094
0.070485 0.038160 0.054267
0.071840 0.037627 0.053144
0.075612 0.036312 0.050909
0.079289 0.034293 0.048795
0.091824 0.032072 0.045648
0.104785 0.030504 0.043617
0.122023 0.030217 0.042185
0.145266 0.029890 0.039448
0.177919 0.030311 0.035651
0.216626 0.029604 0.030661
0.256661 0.028083 0.026044
0.295441 0.025975 0.023322
0.344905 0.020504 0.020478
0.397500 0.013906 0.018371
0.457577 0.012808 0.016844
0.513573 0.014395 0.016511
0.567124 0.015973 0.016202
0.619559 0.017498 0.015926
0.661421 0.018722 0.015709
0.695132 0.019701 0.015539
0.725620 0.020600 0.015373
0.754669 0.021461 0.015237
0.775065 0.022063 0.015213
0.785303 0.022345 0.015316
0.790931 0.022513 0.015378
0.796535 0.022671 0.015440
0.800365 0.022796 0.015476
0.802372 0.022858 0.015506
0.804021 0.022890 0.015532
0.805948 0.022954 0.015537
0.810107 0.023078 0.015595
0.069174 0.047887 0.058777
0.070558 0.047304 0.057365
0.071793 0.046597 0.055852
0.074855 0.045662 0.053781
0.079019 0.043626 0.051638
0.086806 0.041453 0.048832
0.100980 0.040041 0.046101
0.119057 0.039232 0.043774
0.142964 0.037740 0.040794
0.170079 0.036293 0.037327
0.204694 0.034961 0.032849
0.244887 0.033807 0.027814
0.284491 0.030456 0.024113
0.326274 0.026181 0.021418
0.381957 0.018585 0.019019
0.438302 0.012395 0.017110
0.494688 0.013851 0.016604
0.547692 0.015404 0.016312
0.599938 0.016927 0.016033
0.646786 0.018291 0.015787
0.685650 0.019430 0.015586
0.717045 0.020349 0.015415
0.747786 0.021244 0.015277
0.773581 0.022012 0.015221
0.788080 0.022429 0.015348
0.793891 0.022604 0.015410
0.799649 0.022764 0.015472
0.804081 0.022896 0.015534
0.805617 0.022931 0.015538
0.807330 0.022990 0.015566
0.810452 0.023082 0.015598
0.814488 0.023206 0.015629
0.069228 0.058129 0.062009
0.070401 0.057556 0.060865
0.071826 0.056844 0.059343
0.074141 0.056281 0.057294
0.078474 0.055438 0.054471
0.084971 0.053871 0.051485
0.095955 0.052579 0.048302
0.114583 0.051650 0.045549
0.139525 0.049042 0.042250
0.165406 0.047425 0.038921
0.194566 0.047357 0.034989
0.234954 0.044742 0.029629
0.276987 0.039962 0.024857
0.317685 0.033953 0.021963
0.365646 0.027494 0.019757
0.423181 0.018482 0.017561
0.482082 0.013482 0.016681
0.530696 0.014896 0.016406
0.581838 0.016410 0.016121
0.630785 0.017826 0.015861
0.677947 0.019205 0.015627
0.710696 0.020158 0.015446
0.742801 0.021098 0.015291
0.772906 0.021980 0.015221
0.793293 0.022575 0.015410
0.799123 0.022744 0.015472
0.805262 0.022924 0.015534
0.809714 0.023057 0.015596
0.811455 0.023114 0.015600
0.813187 0.023176 0.015628
0.816039 0.023243 0.015660
0.819975 0.023361 0.015691
0.068667 0.071665 0.065982
0.069672 0.070544 0.064530
0.071241 0.069701 0.063007
0.074005 0.068980 0.060760
0.078449 0.067980 0.057995
0.083874 0.066762 0.055033
0.094061 0.065942 0.051224
0.110355 0.065332 0.047307
0.134180 0.064382 0.043815
0.160891 0.063004 0.040405
0.189618 0.061644 0.036016
0.226350 0.059377 0.031494
0.268033 0.054705 0.026287
0.311118 0.047047 0.022450
0.353309 0.040775 0.020410
0.410196 0.030348 0.018123
0.469407 0.018654 0.016728
0.520283 0.014592 0.016474
0.568335 0.016019 0.016189
0.621998 0.017575 0.015917
0.670500 0.018990 0.015669
0.708458 0.020101 0.015472
0.740009 0.021016 0.015307
0.772042 0.021954 0.015221
0.799201 0.022740 0.015482
0.807385 0.022986 0.015564
0.812849 0.023152 0.015626
0.817265 0.023295 0.015658
0.818872 0.023336 0.015668
0.820341 0.023368 0.015692
0.822784 0.023455 0.015722
0.825265 0.023517 0.015747
0.070575 0.091093 0.071680
0.070382 0.088855 0.069484
0.070186 0.086522 0.067710
0.072161 0.084414 0.065274
0.077732 0.083622 0.061917
0.083808 0.082490 0.058498
0.094635 0.082457 0.054549
0.107085 0.082717 0.050212
0.127869 0.081914 0.045492
0.155712 0.080226 0.040948
0.183211 0.078108 0.037391
0.215177 0.076480 0.033016
0.260030 0.072574 0.027561
0.299093 0.068018 0.023380
0.341504 0.060317 0.021123
0.392967 0.049743 0.019042
0.446236 0.037693 0.017096
0.507456 0.025291 0.016504
0.560471 0.016491 0.016233
0.612252 0.017298 0.015966
0.666101 0.018848 0.015699
0.707654 0.020076 0.015472
0.741094 0.021045 0.015300
0.772591 0.021984 0.015221
0.802825 0.022867 0.015513
0.816103 0.023265 0.015657
0.822058 0.023420 0.015719
0.825147 0.023523 0.015731
0.827057 0.023585 0.015754
0.827876 0.023609 0.015761
0.829645 0.023648 0.015785
0.831663 0.023710 0.015792
0.073087 0.116925 0.083712
0.072753 0.113171 0.080754
0.072410 0.109455 0.077444
0.072055 0.105504 0.073929
0.074136 0.103553 0.070368
0.081874 0.102808 0.065896
0.093676 0.102535 0.060998
0.106191 0.103141 0.056704
0.122242 0.101708 0.050552
0.146598 0.099941 0.044301
0.177064 0.098091 0.039561
0.209099 0.095935 0.035486
0.251517 0.093237 0.029258
0.292206 0.089536 0.024128
0.331392 0.083295 0.021845
0.379506 0.073751 0.019880
0.430906 0.063984 0.017873
0.481906 0.052507 0.016628
0.543727 0.035514 0.016287
0.603030 0.021699 0.016008
0.657494 0.018611 0.015737
0.709032 0.020114 0.015472
0.743189 0.021120 0.015286
0.775214 0.022046 0.015243
0.805633 0.022937 0.015538
0.824823 0.023520 0.015737
0.832187 0.023737 0.015819
0.835491 0.023840 0.015843
0.836549 0.023871 0.015855
0.837058 0.023874 0.015855
0.838635 0.023934 0.015876
0.840448 0.023966 0.015885
0.076018 0.148194 0.104843
0.075477 0.142324 0.099370
0.075047 0.137493 0.094423
0.074517 0.131285 0.087563
0.074097 0.126417 0.082793
0.076373 0.125680 0.079414
0.087144 0.126308 0.073943
0.102990 0.126158 0.067183
0.121320 0.126614 0.060365
0.139637 0.121833 0.051574
0.167568 0.120654 0.043997
0.203578 0.118476 0.037590
0.246123 0.116877 0.031179
0.287872 0.113123 0.024954
0.327402 0.109243 0.022348
0.371920 0.101989 0.020564
0.423576 0.092296 0.018547
0.467285 0.083752 0.017014
0.521852 0.069490 0.016339
0.584022 0.050048 0.016039
0.645391 0.032732 0.015760
0.705405 0.022441 0.015482
0.747125 0.021217 0.015268
0.779683 0.022187 0.015275
0.811070 0.023093 0.015600
0.834187 0.023792 0.015830
0.845245 0.024112 0.015943
0.849486 0.024241 0.015988
0.850529 0.024272 0.015988
0.851012 0.024281 0.015996
0.852834 0.024341 0.016018
0.854073 0.024385 0.016040
0.080256 0.193189 0.131021
0.079171 0.181639 0.124179
0.078141 0.170418 0.116224
0.077284 0.161038 0.108281
0.076650 0.153548 0.100433
0.076124 0.147458 0.093116
0.077238 0.149113 0.090258
0.092826 0.151139 0.082060
0.117066 0.151501 0.071236
0.138856 0.151549 0.062086
0.160709 0.149238 0.052579
0.194495 0.146636 0.043547
0.237479 0.144263 0.035502
0.285040 0.140968 0.027644
0.326373 0.136909 0.022771
0.369003 0.131851 0.021094
0.415592 0.124533 0.019309
0.459567 0.115205 0.017685
0.505950 0.105696 0.016432
0.559855 0.094080 0.016069
0.624477 0.076239 0.015771
0.686421 0.056007 0.015491
0.739642 0.038937 0.015274
0.785545 0.023938 0.015344
0.817855 0.023310 0.015662
0.844426 0.024094 0.015932
0.859665 0.024545 0.016103
0.864847 0.024716 0.016160
0.867323 0.024778 0.016174
0.868609 0.024827 0.016202
0.869741 0.024858 0.016204
0.869564 0.024850 0.016204
0.085614 0.247390 0.160022
0.084942 0.240968 0.156438
0.084062 0.232597 0.151513
0.082337 0.214329 0.140044
0.080199 0.191533 0.124478
0.078926 0.177400 0.112325
0.078598 0.173073 0.104527
0.081125 0.177287 0.100406
0.099515 0.180186 0.090152
0.133083 0.180233 0.074889
0.160690 0.181621 0.061962
0.186541 0.179788 0.049270
0.226345 0.179360 0.039477
0.276345 0.176053 0.029648
0.325181 0.170302 0.023343
0.370878 0.164081 0.021476
0.414355 0.159436 0.019854
0.454608 0.153514 0.018433
0.497498 0.143137 0.016859
0.543276 0.133270 0.016081
0.603019 0.121918 0.015782
0.665659 0.105366 0.015491
0.718285 0.089207 0.015277
0.761791 0.074639 0.015496
0.813365 0.046610 0.015804
0.854251 0.029737 0.016086
0.873648 0.025996 0.016253
0.881319 0.025183 0.016329
0.884159 0.025278 0.016360
0.886604 0.025354 0.016390
0.887223 0.025355 0.016390
0.886303 0.025336 0.016390
0.091205 0.286511 0.180878
0.091273 0.286842 0.180842
0.090729 0.283987 0.178813
0.089330 0.275345 0.173342
0.086954 0.258652 0.162821
0.083807 0.228752 0.142416
0.081777 0.206319 0.123777
0.081697 0.204426 0.115296
0.085026 0.210438 0.109639
0.118440 0.213997 0.094249
0.157830 0.216134 0.078581
0.188792 0.217066 0.063194
0.221263 0.217595 0.046817
0.269781 0.218920 0.032438
0.318146 0.215461 0.024183
0.367704 0.208485 0.022224
0.414243 0.200544 0.020471
0.458112 0.195901 0.018965
0.497135 0.190210 0.017582
0.535376 0.178011 0.016242
0.587168 0.166214 0.015771
0.645919 0.152597 0.015491
0.700992 0.140068 0.015441
0.745631 0.127855 0.015755
0.786226 0.113486 0.016065
0.834086 0.088920 0.016357
0.863890 0.071787 0.016524
0.880385 0.060409 0.016738
0.885448 0.053395 0.016753
0.887601 0.054860 0.016831
0.887728 0.054971 0.016844
0.888489 0.052054 0.016796
0.097850 0.320698 0.199313
0.097893 0.320918 0.199220
0.097963 0.321237 0.198941
0.097741 0.320060 0.197924
0.095296 0.307454 0.189692
0.091362 0.287010 0.175321
0.086852 0.257609 0.152320
0.085104 0.240280 0.136172
0.085577 0.243005 0.126776
0.098984 0.250656 0.114964
0.144577 0.254738 0.094910
0.187578 0.256311 0.075712
0.226082 0.259805 0.055870
0.264047 0.260142 0.038402
0.314437 0.259989 0.026864
0.362078 0.254993 0.023200
0.408784 0.248189 0.021402
0.456746 0.242977 0.019704
0.500428 0.235529 0.018153
0.537588 0.229307 0.016838
0.579819 0.216629 0.015753
0.637369 0.204391 0.015464
0.691897 0.190619 0.015705
0.733985 0.177295 0.016039
0.775192 0.163085 0.016357
0.816274 0.151943 0.016769
0.845891 0.139732 0.017891
0.861544 0.127212 0.018457
0.867005 0.120806 0.018545
0.870106 0.116956 0.018589
0.870484 0.115421 0.018530
0.871103 0.113166 0.018476
0.103494 0.349532 0.215313
0.103524 0.349691 0.214903
0.103569 0.349928 0.214799
0.103587 0.349997 0.214001
0.102616 0.344977 0.209641
0.099397 0.328449 0.199277
0.093876 0.299545 0.174590
0.090167 0.279250 0.155701
0.090505 0.280431 0.147488
0.092038 0.288392 0.138950
0.121754 0.294285 0.119749
0.180108 0.297378 0.093115
0.225757 0.301136 0.068017
0.270358 0.306183 0.044232
0.312519 0.306883 0.028383
0.361722 0.304521 0.025766
0.407146 0.300555 0.023880
0.455316 0.297062 0.021944
0.503261 0.289967 0.019827
0.543944 0.281872 0.018025
0.579088 0.273839 0.016451
0.628516 0.261801 0.015776
0.685609 0.250533 0.016139
0.729573 0.234782 0.016467
0.768252 0.220035 0.016856
0.805258 0.206457 0.018226
0.832949 0.199043 0.020046
0.849159 0.186905 0.020712
0.856289 0.177970 0.020788
0.858949 0.173567 0.020776
0.860497 0.166318 0.020507
0.860933 0.163940 0.020403
0.108280 0.372445 0.230535
0.108295 0.372428 0.229974
0.108265 0.372354 0.229789
0.108266 0.372302 0.228951
0.108243 0.372171 0.228330
0.105710 0.360228 0.216253
0.102076 0.341803 0.200007
0.097379 0.316947 0.174612
0.097608 0.317517 0.163263
0.098653 0.322304 0.154720
0.105627 0.333028 0.144587
0.169667 0.336816 0.114882
0.226474 0.343171 0.086736
0.278283 0.350774 0.052076
0.321213 0.355365 0.031889
0.359623 0.355022 0.029569
0.403749 0.354518 0.027965
0.459625 0.356932 0.026199
0.506923 0.353586 0.024269
0.550259 0.345621 0.022128
0.588937 0.337935 0.020367
0.627333 0.327201 0.019179
0.678433 0.312992 0.018518
0.721602 0.298510 0.018251
0.760760 0.285290 0.019538
0.794428 0.274058 0.021268
0.823079 0.260685 0.022730
0.839255 0.248346 0.023292
0.848893 0.237089 0.023448
0.851874 0.230311 0.023329
0.853074 0.223743 0.023071
0.853757 0.217182 0.022760
0.112242 0.388594 0.238328
0.112195 0.388325 0.236868
0.112150 0.388127 0.235805
0.112101 0.387907 0.234875
0.111948 0.387249 0.233498
0.110662 0.381896 0.227979
0.107954 0.370275 0.213544
0.105619 0.358958 0.197796
0.105514 0.357919 0.186757
0.106656 0.362532 0.176126
0.107601 0.366095 0.160100
0.156358 0.372710 0.129096
0.221793 0.380402 0.102420
0.279126 0.390394 0.071344
0.327382 0.398590 0.039607
0.367105 0.400058 0.035128
0.408108 0.402273 0.034011
0.459164 0.405581 0.032599
0.515249 0.409674 0.031108
0.560557 0.409945 0.029434
0.598397 0.403367 0.027438
0.638254 0.396706 0.025983
0.676968 0.387480 0.025080
0.711554 0.374331 0.025752
0.744377 0.354640 0.026032
0.781158 0.340607 0.027355
0.812133 0.326832 0.028247
0.829428 0.313517 0.028081
0.841811 0.303333 0.027963
0.846994 0.291296 0.027178
0.848426 0.284179 0.026582
0.848760 0.279962 0.026254
0.115816 0.403386 0.249769
0.115784 0.403275 0.249277
0.115752 0.403057 0.248026
0.115688 0.402857 0.247200
0.115568 0.402260 0.244919
0.115242 0.400743 0.240656
0.113036 0.391373 0.226643
0.112012 0.386632 0.205230
0.113161 0.390832 0.194113
0.115272 0.399000 0.184525
0.116665 0.404314 0.174676
0.122305 0.411350 0.156593
0.207383 0.418872 0.118401
0.273527 0.429097 0.081030
0.329518 0.440894 0.051748
0.374999 0.447172 0.042112
0.415866 0.448869 0.041338
0.466379 0.451554 0.039949
0.520242 0.457594 0.038901
0.572126 0.461186 0.037596
0.611147 0.460497 0.036843
0.653982 0.454643 0.035454
0.691711 0.449870 0.035513
0.718978 0.442608 0.035526
0.747360 0.433247 0.036394
0.779677 0.420977 0.037397
0.807401 0.406963 0.037817
0.822777 0.391208 0.037041
0.833752 0.378768 0.036318
0.839108 0.369258 0.035556
0.840156 0.363865 0.034971
0.841269 0.353713 0.033846
0.120290 0.421788 0.258974
0.120326 0.421881 0.258676
0.120329 0.421884 0.257906
0.120331 0.421897 0.257342
0.120284 0.421653 0.255775
0.119893 0.419944 0.252988
0.117422 0.409348 0.234815
0.116912 0.406779 0.219364
0.118995 0.414661 0.204184
0.121482 0.424269 0.190587
0.123818 0.433148 0.176176
0.126216 0.442598 0.164855
0.183054 0.453300 0.138001
0.272152 0.467698 0.096118
0.336796 0.481594 0.055299
0.383993 0.489385 0.048287
0.424907 0.495969 0.048314
0.470112 0.501585 0.048109
0.527063 0.503996 0.046338
0.579515 0.508913 0.045399
0.624778 0.512198 0.045346
0.668560 0.514696 0.045748
0.707891 0.508797 0.046076
0.736276 0.501295 0.045993
0.759896 0.495555 0.046065
0.786301 0.487104 0.046828
0.818901 0.481311 0.048718
0.836579 0.478248 0.049759
0.846543 0.469050 0.049325
0.850517 0.453051 0.047509
0.849694 0.445746 0.046453
0.847572 0.434465 0.044776
0.127079 0.449191 0.259955
0.127072 0.449115 0.259303
0.127084 0.449133 0.258565
0.127103 0.449178 0.257810
0.127156 0.449335 0.256734
0.127050 0.448850 0.254754
0.125205 0.441033 0.242516
0.123197 0.432334 0.224573
0.124061 0.435266 0.210802
0.127172 0.447451 0.199184
0.129978 0.458302 0.183050
0.131829 0.467078 0.164671
0.184823 0.478537 0.138954
0.275318 0.495035 0.102729
0.339926 0.513763 0.062048
0.390874 0.524719 0.053464
0.431873 0.532654 0.053702
0.476167 0.543459 0.054454
0.533725 0.552045 0.054100
0.587490 0.553380 0.052663
0.630633 0.555890 0.052606
0.678645 0.563041 0.054091
0.722448 0.568191 0.056664
0.758159 0.567728 0.058067
0.784111 0.563305 0.058408
0.806869 0.561677 0.059050
0.831391 0.560318 0.060383
0.849117 0.557278 0.061423
0.861367 0.554478 0.062051
0.867429 0.543324 0.061036
0.865956 0.524828 0.058415
0.863238 0.509047 0.056089
0.133807 0.476424 0.263859
0.133764 0.476175 0.262957
0.133713 0.475910 0.261908
0.133642 0.475605 0.260454
0.133576 0.475293 0.258633
0.133390 0.474385 0.255238
0.132684 0.471346 0.248833
0.130739 0.462887 0.229712
0.130378 0.460743 0.209519
0.132821 0.470289 0.199331
0.135513 0.481302 0.187341
0.143544 0.492688 0.169809
0.207927 0.504407 0.140836
0.286181 0.519600 0.102186
0.347072 0.538793 0.066112
0.399367 0.553759 0.057685
0.447436 0.565727 0.058370
0.489601 0.573415 0.058704
0.538477 0.581153 0.058700
0.598725 0.592115 0.058938
0.644021 0.598005 0.059512
0.685675 0.602882 0.061015
0.736701 0.612693 0.064750
0.777889 0.621059 0.067790
0.809257 0.624555 0.069603
0.832493 0.626196 0.070817
0.851016 0.626279 0.071638
0.862647 0.625435 0.071984
0.869666 0.617850 0.071270
0.875939 0.610066 0.070688
0.877893 0.596397 0.069028
0.875515 0.577750 0.066316
0.138266 0.494338 0.263298
0.138247 0.494228 0.262691
0.138277 0.494353 0.262011
0.138255 0.494210 0.260776
0.138250 0.494152 0.258949
0.138325 0.494326 0.256492
0.138173 0.493514 0.248601
0.137539 0.490494 0.237234
0.138182 0.492716 0.225671
0.140248 0.500938 0.218240
0.142387 0.510521 0.209008
0.181269 0.519680 0.191014
0.254162 0.532464 0.163073
0.316985 0.548051 0.129736
0.369783 0.564952 0.077820
0.417530 0.579188 0.061001
0.462249 0.591111 0.061898
0.507489 0.602099 0.062667
0.549748 0.611666 0.063236
0.610501 0.629102 0.064843
0.664690 0.645302 0.067201
0.711682 0.651405 0.069592
0.755076 0.659733 0.072528
0.790859 0.667850 0.075146
0.824825 0.674295 0.077434
0.851439 0.679236 0.079183
0.866940 0.676040 0.079415
0.876626 0.672662 0.079343
0.882930 0.666510 0.078756
0.885765 0.655529 0.077367
0.886444 0.641805 0.075570
0.884907 0.628381 0.073751
0.140271 0.502338 0.260402
0.140394 0.502761 0.259752
0.140469 0.503012 0.258915
0.140619 0.503663 0.257753
0.140908 0.504783 0.256216
0.141048 0.505191 0.253192
0.141450 0.506589 0.245691
0.142780 0.511673 0.238294
0.143817 0.515812 0.229893
0.164345 0.524430 0.221845
0.209304 0.532405 0.207625
0.263760 0.541776 0.188202
0.311765 0.553858 0.168309
0.359702 0.569625 0.146055
0.400975 0.585517 0.112551
0.443037 0.603990 0.069398
0.487184 0.620417 0.065785
0.531675 0.636902 0.067291
0.571458 0.649442 0.068310
0.621323 0.664007 0.069741
0.677888 0.683445 0.072704
0.725886 0.693314 0.075793
0.769428 0.700801 0.078608
0.800295 0.708545 0.080925
0.833953 0.717773 0.083532
0.861366 0.719996 0.084959
0.879474 0.722515 0.086027
0.889471 0.716019 0.085518
0.896306 0.711954 0.085221
0.900220 0.703831 0.084296
0.899661 0.686618 0.081995
0.896533 0.670284 0.079759
0.141363 0.506528 0.255497
0.141471 0.506992 0.254551
0.141513 0.507138 0.253101
0.141505 0.506978 0.250140
0.142068 0.509102 0.246099
0.143186 0.513448 0.241949
0.143767 0.515627 0.236247
0.145903 0.520719 0.230445
0.178797 0.529184 0.220168
0.239884 0.539380 0.205791
0.290164 0.551026 0.191894
0.327961 0.561897 0.179124
0.364800 0.574911 0.166170
0.397293 0.587729 0.153703
0.430349 0.601865 0.135349
0.461900 0.616386 0.109266
0.503877 0.637234 0.069700
0.542611 0.655016 0.069633
0.585528 0.674408 0.071527
0.629509 0.691662 0.073391
0.681237 0.711540 0.076398
0.733141 0.724090 0.080155
0.774658 0.733555 0.083126
0.803301 0.737161 0.084811
0.837024 0.742948 0.086969
0.865518 0.747601 0.088763
0.887334 0.754193 0.090396
0.899342 0.752512 0.090620
0.907529 0.748516 0.090357
0.912428 0.742543 0.089761
0.913863 0.731744 0.088373
0.912019 0.717328 0.086425
0.143262 0.513779 0.242282
0.143365 0.514090 0.240175
0.143481 0.514556 0.238029
0.143676 0.515302 0.235695
0.144370 0.518106 0.233054
0.146413 0.521890 0.229538
0.171129 0.527429 0.222152
0.209738 0.533996 0.212897
0.255070 0.542436 0.202552
0.295382 0.552508 0.190755
0.332326 0.563433 0.179107
0.363303 0.574724 0.169263
0.389064 0.584847 0.158981
0.416905 0.596589 0.150819
0.447945 0.610799 0.132114
0.485115 0.629313 0.104930
0.524514 0.650764 0.072630
0.565528 0.672661 0.071611
0.600676 0.691634 0.073649
0.637708 0.709178 0.075652
0.681207 0.726698 0.078403
0.731223 0.745482 0.082894
0.776195 0.752649 0.085654
0.807358 0.758685 0.087691
0.841503 0.765263 0.089883
0.871812 0.773330 0.092093
0.892260 0.780218 0.093658
0.906995 0.780578 0.094177
0.915835 0.775354 0.093812
0.920829 0.768737 0.093165
0.926205 0.766678 0.093083
0.925666 0.759642 0.092231
0.144847 0.520073 0.230695
0.145259 0.521842 0.229694
0.146803 0.523869 0.228348
0.162682 0.526438 0.223943
0.185680 0.530074 0.218704
0.211966 0.534286 0.212362
0.244104 0.539798 0.204687
0.275910 0.547428 0.196956
0.308208 0.556055 0.186331
0.336514 0.564864 0.178062
0.363302 0.574694 0.169242
0.388521 0.584633 0.159188
0.413305 0.594927 0.151991
0.436865 0.605576 0.140171
0.464691 0.618745 0.120682
0.503309 0.639407 0.088787
0.540646 0.659762 0.070328
0.577701 0.680548 0.072460
0.615186 0.702642 0.074994
0.649678 0.720849 0.077117
0.692389 0.742933 0.080947
0.734614 0.759800 0.084768
0.776402 0.770259 0.087740
0.807023 0.777530 0.089873
0.840554 0.786010 0.092137
0.871331 0.790289 0.093786
0.896091 0.797503 0.095273
0.909592 0.794334 0.095401
0.920517 0.790027 0.095330
0.927367 0.788408 0.095358
0.932190 0.783403 0.095074
0.930359 0.774321 0.094102
0.196314 0.531852 0.216452
0.203485 0.532972 0.214740
0.212895 0.534405 0.212290
0.227953 0.536785 0.208299
0.248952 0.540596 0.203762
0.270948 0.546082 0.198560
0.295356 0.552560 0.190970
0.319254 0.559191 0.182651
0.340985 0.566363 0.176971
0.363684 0.574818 0.169134
0.386012 0.583629 0.159976
0.407136 0.592250 0.153768
0.431010 0.602889 0.144254
0.457625 0.615354 0.125237
0.486582 0.630102 0.104213
0.519526 0.648326 0.076096
0.555139 0.667705 0.071120
0.592003 0.688907 0.073389
0.623102 0.707145 0.075521
0.657915 0.725618 0.077678
0.701293 0.748069 0.081967
0.740986 0.762901 0.085408
0.776921 0.773804 0.088186
0.807215 0.788955 0.091013
0.839785 0.800215 0.093261
0.870369 0.808339 0.095161
0.895686 0.813311 0.096463
0.911940 0.813479 0.096924
0.922932 0.807980 0.096765
0.931074 0.802279 0.096522
0.933842 0.787639 0.095468
0.931978 0.779726 0.094782
0.255205 0.541860 0.202500
0.262551 0.543805 0.200798
0.270646 0.545910 0.198691
0.281730 0.548935 0.195792
0.295402 0.552583 0.191028
0.310612 0.556581 0.185206
0.325587 0.561161 0.180714
0.343515 0.567206 0.176354
0.363924 0.574915 0.169060
0.383532 0.582561 0.160769
0.401100 0.589797 0.155293
0.422667 0.599057 0.148512
0.445872 0.609771 0.133884
0.472042 0.622387 0.115309
0.506686 0.641324 0.085571
0.536647 0.657584 0.070382
0.565512 0.673519 0.071730
0.599263 0.693302 0.073888
