LUTs/SPK Cube Block1 S32/TheBrim_SPK_Type-X_Block1_S32.cube
TITLE "TheBrim® SPK Block 1"
# © Copyright 2021 - TheBrim® d.o.o. Croatia
LUT_3D_SIZE 8
DOMAIN_MIN 0.000000 0.000000 0.000000
DOMAIN_MAX 0.903226 0.903226 0.903226
0.000000 0.000000 0.000000
0.036466 0.037802 0.036319
0.095774 0.119791 0.114769
0.268640 0.291560 0.287563
0.534618 0.532499 0.504200
0.758467 0.751172 0.681885
0.881630 0.866106 0.794706
0.943453 0.920728 0.861587
0.002173 0.002016 0.001982
0.037310 0.038851 0.037277
0.097064 0.121150 0.116158
0.270221 0.292930 0.288986
0.535908 0.533583 0.505190
0.759128 0.751813 0.682426
0.881855 0.866303 0.794961
0.943551 0.920823 0.861713
0.007615 0.007164 0.006920
0.039481 0.041466 0.039640
0.100285 0.124554 0.119714
0.274276 0.296512 0.292607
0.539318 0.536466 0.507788
0.760788 0.753420 0.683823
0.882440 0.866868 0.795622
0.943777 0.921024 0.862010
0.016100 0.015088 0.014649
0.042998 0.045855 0.043574
0.105965 0.130546 0.125928
0.281539 0.302878 0.299064
0.545214 0.541432 0.512321
0.763753 0.756263 0.686342
0.883384 0.867720 0.796687
0.944215 0.921448 0.862535
0.023773 0.023057 0.022384
0.047966 0.052483 0.049449
0.114423 0.139581 0.135314
0.292534 0.312382 0.308623
0.553451 0.549018 0.518949
0.767297 0.759992 0.689698
0.884728 0.868934 0.798236
0.944855 0.922011 0.863327
0.030987 0.031329 0.030263
0.054177 0.061465 0.057339
0.125753 0.151824 0.148023
0.307513 0.325207 0.321462
0.564132 0.559344 0.527741
0.772019 0.765010 0.694247
0.886602 0.870614 0.800342
0.945700 0.922842 0.864400
0.038822 0.040666 0.038923
0.062178 0.074264 0.068964
0.140388 0.168009 0.164765
0.326971 0.341552 0.337708
0.577727 0.572466 0.538928
0.777775 0.771116 0.699790
0.888555 0.872390 0.802571
0.946482 0.923544 0.865361
0.045706 0.049275 0.046635
0.069580 0.086090 0.079995
0.153746 0.182240 0.179358
0.343955 0.355532 0.351491
0.587582 0.583042 0.547538
0.782470 0.776069 0.704263
0.890317 0.873956 0.804564
0.947242 0.924267 0.866359
0.000000 0.000000 0.000000
0.026432 0.026025 0.025216
0.091738 0.115568 0.110362
0.272286 0.294770 0.290803
0.542314 0.538996 0.510104
0.763117 0.755650 0.685806
0.883210 0.867560 0.796504
0.944122 0.921363 0.862443
0.000000 0.000000 0.000000
0.034791 0.035775 0.034461
0.097527 0.121639 0.116681
0.275792 0.297852 0.293947
0.544259 0.540640 0.511592
0.763781 0.756292 0.686359
0.883428 0.867773 0.796748
0.944215 0.921455 0.862539
0.011352 0.010657 0.010321
0.041321 0.043757 0.041679
0.104658 0.129144 0.124496
0.282564 0.303796 0.299983
0.548372 0.544124 0.514751
0.765247 0.757806 0.687712
0.883934 0.868209 0.797310
0.944466 0.921680 0.862859
0.021737 0.020830 0.020216
0.046552 0.050466 0.047676
0.112831 0.137885 0.133558
0.292113 0.312030 0.308268
0.553773 0.549315 0.519181
0.767561 0.760268 0.689948
0.884811 0.869018 0.798320
0.944884 0.922065 0.863376
0.028744 0.028693 0.027776
0.052223 0.058627 0.054834
0.122383 0.148103 0.144183
0.303877 0.322076 0.318336
0.561670 0.556973 0.525718
0.770997 0.763914 0.693264
0.886177 0.870239 0.799863
0.945524 0.922670 0.864176
0.035352 0.036478 0.035125
0.058794 0.068714 0.063875
0.134391 0.161381 0.157904
0.318730 0.334750 0.331025
0.572221 0.567178 0.534421
0.775660 0.768875 0.697760
0.888016 0.871892 0.801937
0.946385 0.923471 0.865265
0.043170 0.045976 0.043700
0.066770 0.081686 0.075849
0.149088 0.177245 0.174220
0.338464 0.351011 0.347027
0.585118 0.580301 0.545335
0.781401 0.774948 0.703243
0.889976 0.873644 0.804162
0.947153 0.924177 0.866211
0.049824 0.055131 0.051783
0.075698 0.094615 0.088785
0.163196 0.191582 0.188776
0.355093 0.364876 0.360517
0.594472 0.590730 0.553677
0.785538 0.779537 0.707492
0.891751 0.875246 0.806179
0.947909 0.924900 0.867188
0.000000 0.000000 0.000000
0.008931 0.008374 0.008126
0.056592 0.065111 0.060588
0.237387 0.263177 0.259224
0.528795 0.527554 0.499714
0.762613 0.755183 0.685370
0.884477 0.868699 0.797933
0.945162 0.922339 0.863731
0.000000 0.000000 0.000000
0.008931 0.008374 0.008126
0.069476 0.085834 0.079839
0.250021 0.274946 0.270836
0.534789 0.532628 0.504320
0.764291 0.756820 0.686812
0.884831 0.869033 0.798344
0.945296 0.922445 0.863894
0.000000 0.000000 0.000000
0.027547 0.027294 0.026438
0.089871 0.113250 0.107975
0.271562 0.294107 0.290164
0.546045 0.542148 0.512972
0.767236 0.759930 0.689652
0.885633 0.869753 0.799240
0.945585 0.922727 0.864260
0.017645 0.016539 0.016069
0.044461 0.047670 0.045198
0.111066 0.135993 0.131601
0.293233 0.312947 0.309176
0.558086 0.553540 0.522772
0.771244 0.764181 0.693508
0.886890 0.870872 0.800668
0.946103 0.923208 0.864904
0.031451 0.031882 0.030782
0.054910 0.062509 0.058261
0.128348 0.154702 0.150992
0.313386 0.330212 0.326470
0.570542 0.565613 0.533040
0.776004 0.769244 0.698087
0.888543 0.872371 0.802536
0.946792 0.923859 0.865783
0.040626 0.042901 0.040923
0.064156 0.077505 0.071934
0.144934 0.172782 0.169647
0.334228 0.347527 0.343599
0.583600 0.578604 0.543993
0.781576 0.775158 0.703457
0.890596 0.874218 0.804874
0.947721 0.924724 0.866951
0.049327 0.054445 0.051158
0.075101 0.093807 0.087942
0.163009 0.191398 0.188599
0.356484 0.366179 0.361655
0.596891 0.593422 0.555837
0.787393 0.781660 0.709450
0.893078 0.876428 0.807671
0.948803 0.925728 0.868303
0.058302 0.067895 0.063109
0.088727 0.112266 0.106949
0.184604 0.212287 0.209471
0.380135 0.387047 0.380862
0.611395 0.609530 0.568605
0.793136 0.788219 0.715540
0.895162 0.878275 0.810052
0.949564 0.926455 0.869259
0.000000 0.000000 0.000000
0.008931 0.008374 0.008126
0.018083 0.016938 0.016465
0.133718 0.160646 0.157142
0.461780 0.466950 0.447016
0.740835 0.734199 0.666995
0.880672 0.865185 0.793591
0.944640 0.921851 0.863095
0.000000 0.000000 0.000000
0.008931 0.008374 0.008126
0.018083 0.016938 0.016465
0.159103 0.187615 0.184793
0.476125 0.480710 0.458542
0.745409 0.738594 0.670848
0.881653 0.866113 0.794737
0.944934 0.922107 0.863442
0.000000 0.000000 0.000000
0.008931 0.008374 0.008126
0.041380 0.044017 0.041850
0.205559 0.232602 0.229480
0.504076 0.506133 0.480569
0.754824 0.747658 0.678787
0.883729 0.868020 0.797083
0.945566 0.922693 0.864233
0.000000 0.000000 0.000000
0.010311 0.009650 0.009382
0.077330 0.096902 0.091110
0.254386 0.279007 0.274846
0.536965 0.534464 0.505998
0.766299 0.758933 0.688741
0.886424 0.870464 0.800137
0.946522 0.923607 0.865452
0.019572 0.018444 0.017925
0.045799 0.049378 0.046729
0.114204 0.139336 0.135088
0.299706 0.318537 0.314806
0.565257 0.560476 0.528683
0.775956 0.769192 0.698050
0.889494 0.873225 0.803624
0.947695 0.924689 0.866895
0.040261 0.042449 0.040504
0.063999 0.077273 0.071701
0.145873 0.173847 0.170735
0.338434 0.350984 0.346996
0.588384 0.583935 0.548239
0.785106 0.779044 0.707030
0.892708 0.876088 0.807255
0.949017 0.925928 0.868568
0.053839 0.060903 0.056815
0.082203 0.103688 0.098090
0.175415 0.203388 0.200588
0.371660 0.379546 0.373976
0.608046 0.605870 0.565798
0.793061 0.788142 0.715473
0.895979 0.878996 0.810961
0.950470 0.927297 0.870411
0.066165 0.080814 0.074952
0.104880 0.129394 0.124741
0.204371 0.231445 0.228358
0.400655 0.407111 0.397554
0.626588 0.626023 0.581055
0.801204 0.796820 0.723586
0.899475 0.882087 0.814911
0.952100 0.928820 0.872452
0.000000 0.000000 0.000000
0.008931 0.008374 0.008126
0.018083 0.016938 0.016465
0.025952 0.025487 0.024713
0.297177 0.316454 0.312734
0.674237 0.675259 0.617060
0.865124 0.850666 0.776437
0.940252 0.917775 0.857573
0.000000 0.000000 0.000000
0.008931 0.008374 0.008126
0.018083 0.016938 0.016465
0.025952 0.025487 0.024713
0.331517 0.345281 0.341377
0.684813 0.684943 0.624786
0.867368 0.852749 0.778817
0.940842 0.918328 0.858318
0.000000 0.000000 0.000000
0.008931 0.008374 0.008126
0.018083 0.016938 0.016465
0.065628 0.079763 0.074476
0.393474 0.399987 0.391700
0.707090 0.704008 0.640845
0.872282 0.857252 0.784013
0.942228 0.919614 0.860065
0.000000 0.000000 0.000000
0.008931 0.008374 0.008126
0.018083 0.016938 0.016465
0.148720 0.176508 0.173390
0.456835 0.462180 0.443040
0.733972 0.727908 0.661515
0.878559 0.863195 0.791181
0.944223 0.921444 0.862559
0.000000 0.000000 0.000000
0.008931 0.008374 0.008126
0.061328 0.072868 0.067666
0.228153 0.254533 0.250725
0.516769 0.517375 0.490465
0.759298 0.751968 0.682570
0.885117 0.869276 0.798656
0.946442 0.923516 0.865342
0.017015 0.016010 0.015545
0.044646 0.047946 0.045449
0.112926 0.137952 0.133637
0.299639 0.318489 0.314755
0.567404 0.562412 0.530380
0.778111 0.771492 0.700132
0.891002 0.874579 0.805330
0.948784 0.925719 0.868274
0.047764 0.052188 0.049183
0.073437 0.091483 0.085547
0.162709 0.191107 0.188299
0.360542 0.369653 0.364952
0.603443 0.600706 0.561671
0.792420 0.787409 0.714791
0.896437 0.879405 0.811488
0.951089 0.927870 0.871171
0.067345 0.082778 0.076763
0.107790 0.132467 0.127949
0.209065 0.236017 0.232788
0.406529 0.412961 0.402348
0.632272 0.632239 0.585780
0.804791 0.800103 0.726697
0.901546 0.883888 0.817116
0.953402 0.930042 0.874066
0.000000 0.000000 0.000000
0.008931 0.008374 0.008126
0.018083 0.016938 0.016465
0.025952 0.025487 0.024713
0.033631 0.034442 0.033220
0.515332 0.516152 0.489355
0.820778 0.813740 0.739755
0.929000 0.907487 0.844301
0.000000 0.000000 0.000000
0.008931 0.008374 0.008126
0.018083 0.016938 0.016465
0.025952 0.025487 0.024713
0.054706 0.062794 0.058637
0.544012 0.540429 0.511411
0.826525 0.818184 0.744093
0.930327 0.908693 0.845640
0.000000 0.000000 0.000000
0.008931 0.008374 0.008126
0.018083 0.016938 0.016465
0.025952 0.025487 0.024713
0.138283 0.165540 0.162116
0.594783 0.591071 0.553965
0.838668 0.827995 0.753635
0.933156 0.911252 0.848769
0.000000 0.000000 0.000000
0.008931 0.008374 0.008126
0.018083 0.016938 0.016465
0.025952 0.025487 0.024713
0.268849 0.291482 0.287619
0.649606 0.650607 0.598860
0.854668 0.841499 0.766866
0.936891 0.914679 0.853357
0.000000 0.000000 0.000000
0.008931 0.008374 0.008126
0.018083 0.016938 0.016465
0.083384 0.103737 0.098403
0.395142 0.401975 0.393085
0.701789 0.699555 0.637045
0.869524 0.854733 0.781117
0.941156 0.918610 0.858703
0.000000 0.000000 0.000000
0.008931 0.008374 0.008126
0.039653 0.041817 0.039926
0.193186 0.220611 0.217645
0.487125 0.490816 0.467246
0.745907 0.739058 0.671267
0.881627 0.866099 0.794695
0.945349 0.922496 0.863979
0.005546 0.005192 0.005043
0.040225 0.042385 0.040455
0.106307 0.130885 0.126301
0.292230 0.312151 0.308406
0.563635 0.558701 0.527254
0.777589 0.770859 0.699538
0.891270 0.874819 0.805632
0.949220 0.926116 0.868835
0.053520 0.060445 0.056430
0.082174 0.103680 0.098091
0.177430 0.205346 0.202554
0.377830 0.384880 0.378967
0.615426 0.613949 0.572003
0.798432 0.794278 0.721159
0.899514 0.882123 0.814974
0.952857 0.929527 0.873385
0.000000 0.000000 0.000000
0.008931 0.008374 0.008126
0.018083 0.016938 0.016465
0.025952 0.025487 0.024713
0.033631 0.034442 0.033220
0.117210 0.141720 0.137638
0.709456 0.705990 0.642532
0.902638 0.884837 0.818353
0.000000 0.000000 0.000000
0.008931 0.008374 0.008126
0.018083 0.016938 0.016465
0.025952 0.025487 0.024713
0.033631 0.034442 0.033220
0.160335 0.187142 0.183933
0.726068 0.720413 0.654958
0.905297 0.887073 0.820917
0.000000 0.000000 0.000000
0.008931 0.008374 0.008126
0.018083 0.016938 0.016465
0.025952 0.025487 0.024713
0.033631 0.034442 0.033220
0.288840 0.308709 0.305053
0.759589 0.752247 0.682828
0.911330 0.892156 0.826789
0.000000 0.000000 0.000000
0.008931 0.008374 0.008126
0.018083 0.016938 0.016465
0.025952 0.025487 0.024713
0.033631 0.034442 0.033220
0.438424 0.444202 0.428169
0.794085 0.789315 0.716559
0.919920 0.899421 0.835104
0.000000 0.000000 0.000000
0.008931 0.008374 0.008126
0.018083 0.016938 0.016465
0.025952 0.025487 0.024713
0.121279 0.146133 0.142121
0.569449 0.565148 0.532422
0.826639 0.818288 0.744181
0.928695 0.907212 0.843976
0.000000 0.000000 0.000000
0.008931 0.008374 0.008126
0.018083 0.016938 0.016465
0.034569 0.035672 0.034204
0.307998 0.325308 0.321445
0.658236 0.659740 0.605320
0.855379 0.842126 0.767477
0.936534 0.914358 0.852934
0.000000 0.000000 0.000000
0.008931 0.008374 0.008126
0.018083 0.016938 0.016465
0.149087 0.176902 0.173799
0.448169 0.453795 0.436063
0.726141 0.720774 0.655328
0.875785 0.860565 0.787982
0.943282 0.920583 0.861390
0.002683 0.002508 0.002435
0.031045 0.031405 0.030313
0.093380 0.117213 0.112068
0.276699 0.298633 0.294742
0.553709 0.549098 0.519060
0.773996 0.767028 0.696063
0.890341 0.873995 0.804559
0.949041 0.925940 0.868603
0.000000 0.000000 0.000000
0.008931 0.008374 0.008126
0.018083 0.016938 0.016465
0.025952 0.025487 0.024713
0.033631 0.034442 0.033220
0.163038 0.190660 0.187656
0.502450 0.504448 0.479231
0.838381 0.827676 0.753328
0.000000 0.000000 0.000000
0.008931 0.008374 0.008126
0.018083 0.016938 0.016465
0.025952 0.025487 0.024713
0.033631 0.034442 0.033220
0.099558 0.122000 0.117263
0.458961 0.464153 0.444742
0.846100 0.834192 0.759687
0.000000 0.000000 0.000000
0.008931 0.008374 0.008126
0.018083 0.016938 0.016465
0.025952 0.025487 0.024713
0.033631 0.034442 0.033220
0.042680 0.045401 0.043166
0.496152 0.498511 0.474207
0.863355 0.848954 0.774243
0.000000 0.000000 0.000000
0.008931 0.008374 0.008126
0.018083 0.016938 0.016465
0.025952 0.025487 0.024713
0.033631 0.034442 0.033220
0.042680 0.045401 0.043166
0.618981 0.617787 0.574690
0.881935 0.866383 0.795064
0.000000 0.000000 0.000000
0.008931 0.008374 0.008126
0.018083 0.016938 0.016465
0.025952 0.025487 0.024713
0.033631 0.034442 0.033220
0.199122 0.225348 0.221496
0.718042 0.713506 0.649025
0.900004 0.882560 0.815498
0.000000 0.000000 0.000000
0.008931 0.008374 0.008126
0.018083 0.016938 0.016465
0.025952 0.025487 0.024713
0.035090 0.036166 0.034789
0.443024 0.448503 0.431809
0.788985 0.783689 0.711386
0.916768 0.896693 0.831987
0.000000 0.000000 0.000000
0.008931 0.008374 0.008126
0.018083 0.016938 0.016465
0.025952 0.025487 0.024713
0.199415 0.226633 0.223343
0.602892 0.600251 0.561258
0.834176 0.824349 0.750083
0.930156 0.908522 0.845483
0.000000 0.000000 0.000000
0.008931 0.008374 0.008126
0.018083 0.016938 0.016465
0.095850 0.119403 0.114361
0.398915 0.405406 0.396153
0.698574 0.696848 0.634707
0.867344 0.852738 0.778860
0.940157 0.917676 0.857433
