LUTs/SPK Cube Block1 S32/TheBrim_SPK_Type-D_Block1_S32.cube
TITLE "TheBrim® SPK Block 1"
# TheBrim® d.o.o. Croatia
# Copyright: (C) Copyright 2020 TheBrim® d.o.o. Croatia
LUT_3D_SIZE 32
0.0066220000 0.0100400000 0.0125730000
0.0143322581 0.0112536452 0.0119861290
0.0213596452 0.0127501613 0.0115443226
0.0278361290 0.0145536452 0.0101432581
0.0368854839 0.0163565806 0.0085160323
0.0463534516 0.0178989032 0.0056565806
0.0570591290 0.0196412903 0.0001725806
0.0693107097 0.0213960645 0.0000000000
0.0828727419 0.0236098065 0.0000000000
0.0988369032 0.0257058387 0.0000000000
0.1223537742 0.0272711935 0.0000000000
0.1506801613 0.0301175806 0.0000000000
0.1879644516 0.0341677742 0.0000000000
0.2251054839 0.0394442903 0.0000000000
0.2652943871 0.0493493226 0.0000000000
0.3066157097 0.0596853226 0.0000000000
0.3476042903 0.0680855161 0.0000000000
0.3890252903 0.0760250000 0.0000000000
0.4274832903 0.0878878710 0.0000000000
0.4611924194 0.1001194839 0.0027310968
0.4854671290 0.1056480323 0.0085005484
0.5078164839 0.1073103226 0.0078374194
0.5231769677 0.1070505806 0.0009479032
0.5388961935 0.1117895484 0.0000000000
0.5509643226 0.1141053871 0.0000000000
0.5607939677 0.1156047419 0.0030969677
0.5664097742 0.1165081290 0.0035400000
0.5717664194 0.1173767742 0.0036732581
0.5764218065 0.1181344839 0.0040280000
0.5801428710 0.1188423871 0.0040280000
0.5849432581 0.1197362258 0.0037289032
0.5883480000 0.1204830000 0.0037230000
0.0068438710 0.0145969032 0.0143676129
0.0140232903 0.0157116452 0.0138466452
0.0210777742 0.0167820968 0.0133620645
0.0281309032 0.0184428387 0.0113686452
0.0381921290 0.0200116774 0.0091235806
0.0483976452 0.0214871290 0.0056943226
0.0597004839 0.0231833871 0.0000000000
0.0725828387 0.0249203548 0.0000000000
0.0865465806 0.0270702581 0.0000000000
0.1046932903 0.0293173226 0.0000000000
0.1296653871 0.0311477097 0.0000000000
0.1597768710 0.0346726774 0.0000000000
0.1992069677 0.0401447097 0.0000000000
0.2369840968 0.0453009032 0.0000000000
0.2798576452 0.0551158710 0.0000000000
0.3212911290 0.0658085484 0.0000000000
0.3639388065 0.0778112581 0.0000000000
0.4047347419 0.0864544516 0.0000000000
0.4417791290 0.0941940000 0.0000000000
0.4754750323 0.1047255484 0.0027379677
0.4993086452 0.1131993871 0.0128410645
0.5207480645 0.1186325806 0.0178339677
0.5365373548 0.1177054516 0.0092114516
0.5509288065 0.1170173871 0.0007403871
0.5627144194 0.1194753871 0.0000000000
0.5732292581 0.1219110968 0.0000000000
0.5791263871 0.1231066129 0.0000000000
0.5844330645 0.1239753871 0.0000000000
0.5892000645 0.1249882258 0.0000000000
0.5929644194 0.1257247097 0.0000000000
0.5969875484 0.1265275806 0.0000000000
0.6003726129 0.1273692903 0.0000000000
0.0073062581 0.0193894194 0.0162522258
0.0139474839 0.0202011290 0.0159605484
0.0206005484 0.0211319032 0.0155758065
0.0283660000 0.0222894839 0.0139370645
0.0390401290 0.0237061935 0.0107984194
0.0500293548 0.0252037419 0.0056825484
0.0619585161 0.0268605806 0.0000000000
0.0754916129 0.0286679355 0.0000000000
0.0902656452 0.0305501613 0.0000000000
0.1101136129 0.0324117097 0.0000000000
0.1356559032 0.0343290645 0.0000000000
0.1676327742 0.0383214516 0.0000000000
0.2081826129 0.0446680323 0.0000000000
0.2481476129 0.0513362581 0.0000000000
0.2916201935 0.0610379677 0.0000000000
0.3358283548 0.0716777419 0.0000000000
0.3789778710 0.0842845161 0.0000000000
0.4210837097 0.0966114516 0.0000000000
0.4570234839 0.1050583226 0.0000000000
0.4894720968 0.1125703226 0.0033856774
0.5133884516 0.1208219032 0.0146475161
0.5348605161 0.1275795806 0.0200411613
0.5504328065 0.1271078065 0.0091411613
0.5649707097 0.1265340323 0.0006141935
0.5754820000 0.1289506774 0.0000000000
0.5855366774 0.1314017097 0.0000000000
0.5916893548 0.1328628710 0.0000000000
0.5972959032 0.1340305484 0.0000000000
0.6020437419 0.1351035806 0.0000000000
0.6065336774 0.1362512903 0.0000000000
0.6105982258 0.1371628710 0.0000000000
0.6138912903 0.1381517097 0.0000000000
0.0023709677 0.0245032258 0.0176099355
0.0097054516 0.0255328065 0.0171923226
0.0187916774 0.0264724194 0.0164598387
0.0268419677 0.0274769677 0.0146085161
0.0387553548 0.0287988710 0.0109209355
0.0506063871 0.0300463548 0.0056516129
0.0630825806 0.0316355161 0.0000000000
0.0768898065 0.0332229355 0.0000000000
0.0922339677 0.0350260323 0.0000000000
0.1130124194 0.0370929677 0.0000000000
0.1404742581 0.0393925161 0.0000000000
0.1748910645 0.0441560000 0.0000000000
0.2186920000 0.0519618387 0.0000000000
0.2600038387 0.0589865161 0.0000000000
0.3045102581 0.0687534194 0.0000000000
0.3495968387 0.0796984194 0.0000000000
0.3949361613 0.0920164194 0.0000000000
0.4372352581 0.1046566452 0.0000000000
0.4725329677 0.1165526452 0.0000000000
0.5046859677 0.1250106452 0.0033708710
0.5285450000 0.1317080000 0.0158456452
0.5497256129 0.1368537097 0.0225141613
0.5647592581 0.1362514516 0.0111065484
0.5786308710 0.1361842903 0.0007481290
0.5889965484 0.1387761290 0.0000000000
0.5982639032 0.1414744194 0.0000000000
0.6045412581 0.1434037742 0.0000000000
0.6104466774 0.1448078065 0.0000000000
0.6175290968 0.1487447097 0.0044765161
0.6222451290 0.1502428710 0.0051085161
0.6260719355 0.1507737097 0.0019872903
0.6293964516 0.1518058387 0.0000000000
0.0000000000 0.0297360645 0.0190436129
0.0038088710 0.0306131290 0.0185214839
0.0136109032 0.0317696774 0.0178003548
0.0256727097 0.0328082258 0.0153473226
0.0377647097 0.0340685161 0.0113408710
0.0503537097 0.0353767097 0.0053643548
0.0637777419 0.0366566129 0.0000000000
0.0780242903 0.0381895484 0.0000000000
0.0937744516 0.0398844194 0.0000000000
0.1145439032 0.0420631613 0.0000000000
0.1433960323 0.0446730645 0.0000000000
0.1790300645 0.0497216774 0.0000000000
0.2266135161 0.0591026452 0.0000000000
0.2708281613 0.0674791290 0.0000000000
0.3161720645 0.0771348065 0.0000000000
0.3624563226 0.0877904839 0.0000000000
0.4086304194 0.1004205806 0.0000000000
0.4532246452 0.1127022258 0.0000000000
0.4890028387 0.1244013871 0.0000000000
0.5214353548 0.1356504194 0.0025376452
0.5462842581 0.1433775161 0.0133687742
0.5672560000 0.1480201290 0.0203906774
0.5799552903 0.1472690323 0.0109234194
0.5931280000 0.1469264516 0.0007481290
0.6025205806 0.1493106452 0.0000000000
0.6115990323 0.1519452258 0.0000000000
0.6179940645 0.1542131613 0.0000000000
0.6241296452 0.1562449677 0.0000000000
0.6316688387 0.1606658387 0.0051760000
0.6401777097 0.1672461935 0.0143285806
0.6446108710 0.1686686774 0.0129168710
0.6473051935 0.1692078387 0.0028285484
0.0000000000 0.0358622581 0.0191501613
0.0000000000 0.0363590645 0.0181997097
0.0048257742 0.0375372903 0.0168921613
0.0208407419 0.0386637742 0.0135271290
0.0369587742 0.0399900323 0.0083380323
0.0490377097 0.0413631290 0.0041319032
0.0632414516 0.0425329032 0.0000000000
0.0793575161 0.0444029355 0.0000000000
0.0960311935 0.0463268065 0.0000000000
0.1179507742 0.0492083226 0.0000000000
0.1488443226 0.0528190968 0.0000000000
0.1861243548 0.0581730323 0.0000000000
0.2367594516 0.0688124516 0.0000000000
0.2835256452 0.0783088065 0.0000000000
0.3305750968 0.0886291613 0.0000000000
0.3772445806 0.0991338065 0.0000000000
0.4230829032 0.1102048710 0.0000000000
0.4678246129 0.1222710323 0.0000000000
0.5049201290 0.1323777742 0.0000000000
0.5383106452 0.1432840645 0.0027691613
0.5643891290 0.1529364516 0.0123467419
0.5859860645 0.1593982258 0.0171878710
0.5981977742 0.1591372903 0.0082730968
0.6095470000 0.1596168065 0.0006844194
0.6193140645 0.1629362258 0.0000236129
0.6279091613 0.1660561290 0.0000000000
0.6339228710 0.1682563548 0.0000000000
0.6402389355 0.1707388710 0.0000000000
0.6455441935 0.1746497419 0.0046288387
0.6536825484 0.1810626452 0.0137120968
0.6607394516 0.1858039677 0.0185872903
0.6636844194 0.1863913871 0.0093080000
0.0000000000 0.0420007419 0.0189287742
0.0000000000 0.0425995161 0.0174982903
0.0007079355 0.0434264839 0.0157856452
0.0137704839 0.0445165806 0.0121540323
0.0345048710 0.0458590645 0.0064992581
0.0483803871 0.0472125161 0.0026051613
0.0619354194 0.0486504839 0.0000000000
0.0784998065 0.0507883871 0.0000000000
0.0974955161 0.0531701290 0.0000000000
0.1206350645 0.0563147097 0.0000000000
0.1532836129 0.0604865484 0.0000000000
0.1928808065 0.0664957742 0.0000000000
0.2464521290 0.0784017097 0.0000000000
0.2953256452 0.0890220000 0.0000000000
0.3440513871 0.1001517419 0.0000000000
0.3925170645 0.1116712903 0.0000000000
0.4384096129 0.1228704194 0.0000000000
0.4827002581 0.1341425484 0.0000000000
0.5195645161 0.1445412581 0.0000000000
0.5534432581 0.1551752258 0.0030859677
0.5796233871 0.1656955484 0.0131916774
0.6022223548 0.1741538710 0.0175987419
0.6170989032 0.1763982581 0.0080498387
0.6290105806 0.1776557742 0.0008522903
0.6395680000 0.1817511290 0.0001863548
0.6482663871 0.1850101613 0.0000118065
0.6534772581 0.1869101290 0.0000000000
0.6588615806 0.1888368387 0.0000000000
0.6636147097 0.1927607742 0.0049065161
0.6677543871 0.1977912903 0.0126890000
0.6742445161 0.2024450645 0.0173785806
0.6776900968 0.2034792581 0.0090677419
0.0000000000 0.0496190000 0.0180159355
0.0000000000 0.0501303226 0.0148786774
0.0010310645 0.0507760645 0.0119588065
0.0088129032 0.0519931935 0.0086247742
0.0271124194 0.0535171290 0.0033079032
0.0453954839 0.0553370323 0.0012046452
0.0600605161 0.0571346774 0.0000000000
0.0782065161 0.0600504194 0.0000000000
0.0987627742 0.0631000968 0.0000000000
0.1242545161 0.0672935806 0.0000000000
0.1594831613 0.0729880968 0.0000000000
0.2014939677 0.0798961290 0.0000000000
0.2576133871 0.0923020968 0.0000000000
0.3089964839 0.1037373548 0.0000000000
0.3590294516 0.1149579032 0.0000000000
0.4085900968 0.1275868065 0.0000000000
0.4558718387 0.1421469677 0.0000000000
0.5003978710 0.1537039355 0.0000000000
0.5355627097 0.1618879355 0.0000000000
0.5679835484 0.1713461290 0.0030675806
0.5930452581 0.1811327097 0.0144089677
0.6159990968 0.1895734516 0.0197477097
0.6321705806 0.1924873871 0.0095254516
0.6470919032 0.1960843226 0.0006379355
0.6579756774 0.2011907097 0.0000000000
0.6669280000 0.2060380645 0.0025700968
0.6716853871 0.2087401935 0.0063931613
0.6766379032 0.2105160968 0.0064125161
0.6809650968 0.2130244516 0.0036259355
0.6851366129 0.2178412903 0.0097421613
0.6894288710 0.2231050645 0.0190852581
0.6927589677 0.2243632258 0.0136719032
0.0000000000 0.0572999677 0.0160875484
0.0000000000 0.0578203226 0.0122451935
0.0000000000 0.0585229355 0.0073429355
0.0065544839 0.0598058387 0.0033669355
0.0206124194 0.0617381290 0.0012679677
0.0383598387 0.0637263871 0.0000000000
0.0569470645 0.0661298065 0.0000000000
0.0766811290 0.0692435161 0.0000000000
0.0997670968 0.0733957742 0.0000000000
0.1269234194 0.0783114194 0.0000000000
0.1647852581 0.0856273871 0.0000000000
0.2096343548 0.0942700645 0.0000000000
0.2692240645 0.1080923548 0.0000000000
0.3227487742 0.1201703871 0.0000000000
0.3738077097 0.1310998065 0.0000000000
0.4246688065 0.1439840645 0.0000000000
0.4721431613 0.1592197097 0.0000000000
0.5179292903 0.1742867097 0.0000237419
0.5538725806 0.1845534839 0.0000237419
0.5854301935 0.1927134194 0.0016430000
0.6094668065 0.2010299355 0.0106308710
0.6321273226 0.2099353226 0.0171775484
0.6492073548 0.2145324839 0.0097526774
0.6646592258 0.2185749032 0.0006456774
0.6758953548 0.2243157742 0.0000000000
0.6849610323 0.2293099677 0.0025661613
0.6891104516 0.2333108710 0.0128547742
0.6933295806 0.2365458065 0.0202427419
0.6976437419 0.2385198065 0.0147586452
0.7013708065 0.2406676774 0.0059174516
0.7058806129 0.2458352258 0.0124646774
0.7098437097 0.2509688065 0.0233804194
0.0000000000 0.0677567419 0.0159952903
0.0000000000 0.0685494194 0.0104256129
0.0000000000 0.0694904839 0.0050258387
0.0000000000 0.0706648387 0.0009429032
0.0104103548 0.0725926452 0.0000000000
0.0306671613 0.0758158065 0.0000000000
0.0515669032 0.0788242581 0.0000000000
0.0763885806 0.0834546452 0.0000000000
0.1022426774 0.0887127419 0.0000000000
0.1326282903 0.0952905806 0.0000000000
0.1733084516 0.1043228065 0.0000000000
0.2202542581 0.1139521935 0.0000000000
0.2811849677 0.1279769677 0.0000000000
0.3369850000 0.1412657097 0.0000000000
0.3891925484 0.1530527097 0.0000000000
0.4407812258 0.1661320645 0.0000000000
0.4889369355 0.1812449355 0.0000000000
0.5345299677 0.1964082581 0.0001270645
0.5713282581 0.2088652258 0.0002758387
0.6037883871 0.2185220000 0.0018509032
0.6278458387 0.2249351613 0.0077288387
0.6498974194 0.2320250323 0.0125134516
0.6671213226 0.2375577419 0.0070983548
0.6827226129 0.2430992258 0.0025239355
0.6941390000 0.2504684194 0.0043816452
0.7036765806 0.2566978710 0.0052581613
0.7079651290 0.2604182581 0.0124657742
0.7117891613 0.2643352581 0.0233037419
0.7156920968 0.2675728387 0.0224070323
0.7194508710 0.2696409032 0.0123781290
0.7235630323 0.2728390323 0.0046375806
0.7278067097 0.2784374839 0.0135825161
0.0000000000 0.0789666774 0.0159950968
0.0000000000 0.0799049677 0.0104851613
0.0000000000 0.0814630968 0.0049125806
0.0000000000 0.0828499677 0.0003856774
0.0000000000 0.0844500968 0.0000000000
0.0172238065 0.0875640645 0.0000000000
0.0448630323 0.0919783548 0.0000000000
0.0723040323 0.0971108387 0.0000000000
0.1035080000 0.1046941290 0.0000000000
0.1364690323 0.1124660000 0.0000000000
0.1802758710 0.1237605484 0.0000000000
0.2301882903 0.1354971935 0.0000000000
0.2929250968 0.1496532258 0.0000000000
0.3497837742 0.1630698710 0.0000000000
0.4038451935 0.1763335806 0.0000000000
0.4569849032 0.1908066774 0.0000000000
0.5054866129 0.2062753548 0.0000000000
0.5519663871 0.2206853871 0.0010956452
0.5888071935 0.2335568387 0.0021280645
0.6222818710 0.2457422258 0.0017930000
0.6473727419 0.2538465161 0.0036503548
0.6698431290 0.2617609032 0.0094211935
0.6871466129 0.2708775806 0.0166939032
0.7029397742 0.2779048065 0.0146237419
0.7138690645 0.2854606774 0.0187927742
0.7232459677 0.2917085806 0.0204544194
0.7276699677 0.2940703548 0.0179837097
0.7316325161 0.2970165161 0.0217672581
0.7354393548 0.3002930968 0.0197131935
0.7392375161 0.3030987097 0.0097107097
0.7433587097 0.3064142258 0.0018676129
0.7477286452 0.3125261290 0.0017947742
0.0000000000 0.0965085806 0.0214415806
0.0000000000 0.0984350645 0.0169520645
0.0000000000 0.1001171935 0.0103034194
0.0000000000 0.1019035484 0.0012886452
0.0000000000 0.1034722903 0.0000000000
0.0070325806 0.1058274194 0.0000000000
0.0319400968 0.1104676129 0.0000000000
0.0680614516 0.1186177097 0.0000000000
0.1045560000 0.1278763548 0.0000000000
0.1428456774 0.1379210968 0.0000000000
0.1892550000 0.1505295484 0.0000000000
0.2398720645 0.1628703226 0.0000000000
0.3047939032 0.1786766129 0.0000000000
0.3631287742 0.1924005806 0.0000000000
0.4180741935 0.2061962581 0.0000000000
0.4746112581 0.2233697742 0.0000000000
0.5251967097 0.2405560323 0.0000000000
0.5720006774 0.2558117419 0.0017740323
0.6093394839 0.2666754839 0.0088443548
0.6421924194 0.2772629355 0.0089158387
0.6672244839 0.2846866452 0.0029207419
0.6898990323 0.2932583226 0.0033156774
0.7070506774 0.3037770968 0.0136068387
0.7228768065 0.3136527419 0.0238283548
0.7338285161 0.3217350323 0.0280693226
0.7429918387 0.3286438710 0.0281214194
0.7474697419 0.3312231613 0.0241049032
0.7515475806 0.3332648065 0.0213809355
0.7555426774 0.3368157742 0.0176618710
0.7592573871 0.3397356452 0.0082280323
0.7633359032 0.3435937742 0.0000856452
0.7676925806 0.3497875161 0.0000000000
0.0000000000 0.1167397742 0.0297967742
0.0000000000 0.1192517097 0.0251840968
0.0000000000 0.1215678065 0.0157599032
0.0000000000 0.1234160645 0.0065232581
0.0000000000 0.1250442903 0.0015407742
0.0070052258 0.1268258387 0.0000000000
0.0240801290 0.1312157742 0.0000000000
0.0559494839 0.1396915161 0.0000000000
0.1012487742 0.1531768387 0.0000000000
0.1451810968 0.1651038387 0.0000000000
0.1972596774 0.1798546452 0.0000000000
0.2510139355 0.1934389677 0.0000000000
0.3152928710 0.2091790323 0.0000000000
0.3755099032 0.2243493226 0.0000000000
0.4315205484 0.2386731290 0.0000000000
0.4897009355 0.2571992903 0.0000000000
0.5439362581 0.2774620323 0.0000000000
0.5924935161 0.2935399032 0.0026660000
0.6299016129 0.3050794516 0.0110858065
0.6633024839 0.3154340000 0.0143199355
0.6878929032 0.3230848387 0.0061094194
0.7105615161 0.3323647097 0.0003938710
0.7274516452 0.3429300323 0.0022780968
0.7433264516 0.3539536774 0.0126282903
0.7539212903 0.3621364516 0.0220235484
0.7630932258 0.3689041290 0.0240004839
0.7677441613 0.3720320000 0.0158374194
0.7719451935 0.3745284194 0.0096819032
0.7760755484 0.3786869032 0.0085166129
0.7800076129 0.3837526452 0.0069602903
0.7839953226 0.3878231935 0.0000905806
0.7881136774 0.3942258387 0.0000000000
0.0000000000 0.1455618065 0.0432069032
0.0000000000 0.1488666774 0.0398666774
0.0000000000 0.1523112258 0.0326716452
0.0000000000 0.1545031935 0.0187536774
0.0000000000 0.1566330645 0.0088881613
0.0000000000 0.1581458710 0.0015916452
0.0128645806 0.1612106129 0.0000000000
0.0499749355 0.1709240000 0.0000000000
0.1017740968 0.1861000000 0.0000000000
0.1511643871 0.2006887742 0.0000000000
0.2078161613 0.2172892581 0.0000000000
0.2667010000 0.2331254516 0.0000000000
0.3338880645 0.2502796129 0.0000000000
0.3947950323 0.2655613871 0.0000000000
0.4523889355 0.2807146774 0.0000000000
0.5089977742 0.2984857419 0.0000000000
0.5621670968 0.3189651613 0.0000000000
0.6125343548 0.3372074194 0.0029958387
0.6499940323 0.3471847097 0.0155629677
0.6837839032 0.3582026774 0.0193373548
0.7090264516 0.3663928387 0.0079632258
0.7317822258 0.3749293871 0.0003641935
0.7486522258 0.3855316774 0.0000000000
0.7640734839 0.3955175161 0.0025831613
0.7745183226 0.4039563548 0.0133833871
0.7830959677 0.4110660645 0.0220179032
0.7876489355 0.4143254839 0.0153012581
0.7919104516 0.4171297742 0.0065109032
0.7977433226 0.4225769355 0.0037893871
0.8018916452 0.4282397097 0.0038531290
0.8059846452 0.4341865806 0.0034964194
0.8099514839 0.4404645161 0.0031449355
0.0000000000 0.1791862258 0.0602466774
0.0000000000 0.1818639032 0.0562791290
0.0000000000 0.1857303226 0.0517658065
0.0000000000 0.1884409677 0.0386049032
0.0000000000 0.1909983871 0.0172236452
0.0000000000 0.1936675806 0.0073013871
0.0000000000 0.1967889677 0.0016003871
0.0354750323 0.2063353226 0.0000000000
0.1032363226 0.2228893548 0.0000000000
0.1592423871 0.2390127097 0.0000000000
0.2184005484 0.2569767742 0.0000000000
0.2820604839 0.2746021935 0.0000000000
0.3542891290 0.2950333871 0.0000000000
0.4176370645 0.3117205484 0.0000000000
0.4771600968 0.3272480000 0.0000000000
0.5347048065 0.3454878065 0.0000826452
0.5839393871 0.3636503548 0.0007858065
0.6327003548 0.3809933226 0.0008457097
0.6706561613 0.3914470323 0.0129736774
0.7050480645 0.4023525161 0.0210129355
0.7319422581 0.4138824839 0.0115576129
0.7543522903 0.4231440645 0.0017650645
0.7683075806 0.4312841935 0.0000000000
0.7834189032 0.4416413871 0.0029542258
0.7935604516 0.4503300968 0.0181638387
0.8019949355 0.4576072258 0.0272355806
0.8064892258 0.4612366129 0.0228919355
0.8107007742 0.4642490000 0.0156091613
0.8179784839 0.4706932903 0.0144251935
0.8263346452 0.4789202903 0.0171840323
0.8309948387 0.4853261613 0.0169203548
0.8347198387 0.4916786129 0.0147904839
0.0000000000 0.2216667419 0.0844413871
0.0000000000 0.2239629032 0.0778701935
0.0000000000 0.2265230000 0.0708332903
0.0000000000 0.2310319677 0.0617795806
0.0000000000 0.2345392903 0.0428614194
0.0000000000 0.2359343226 0.0165564194
0.0000000000 0.2388847097 0.0031127097
0.0310619677 0.2500904194 0.0000000000
0.1002533548 0.2679481290 0.0000000000
0.1702120323 0.2874900645 0.0000000000
0.2331180000 0.3071090968 0.0000000000
0.3012023226 0.3276800323 0.0000000000
0.3755322581 0.3485954194 0.0000000000
0.4421278710 0.3673666774 0.0000000000
0.5025443548 0.3834938387 0.0000000000
0.5613500000 0.3981725161 0.0022190968
0.6115723548 0.4168914839 0.0074983548
0.6580652258 0.4344838065 0.0070339032
0.6961652581 0.4448544839 0.0008071613
0.7307246452 0.4547534194 0.0093904516
0.7574442581 0.4654127097 0.0095932903
0.7800761613 0.4756893226 0.0040775161
0.7919685161 0.4820270323 0.0018980645
0.8033041613 0.4889233548 0.0011764839
0.8135132258 0.4977788387 0.0156457097
0.8221908710 0.5051099032 0.0279608065
0.8266019355 0.5086425806 0.0247004194
0.8307918710 0.5119562581 0.0194310645
0.8366726774 0.5176097742 0.0222446452
0.8457098710 0.5261531613 0.0255453871
0.8540424839 0.5345201613 0.0267718710
0.8577861935 0.5407890000 0.0226951935
0.0000000000 0.2674788387 0.1111028065
0.0000000000 0.2706366129 0.1053762903
0.0000000000 0.2723840323 0.0943830323
0.0000000000 0.2759666774 0.0828092258
0.0000000000 0.2820553226 0.0694618387
0.0000000000 0.2845998387 0.0438082258
0.0000000000 0.2850382581 0.0120662581
0.0304081935 0.2950102581 0.0000000000
0.0986739677 0.3154147419 0.0000000000
0.1703745806 0.3368084839 0.0000000000
0.2438641290 0.3603574839 0.0000000000
0.3177459355 0.3838055484 0.0000000000
0.3968121613 0.4086537097 0.0000000000
0.4662759355 0.4287709032 0.0000000000
0.5279982581 0.4458696774 0.0000000000
0.5879509032 0.4613158065 0.0020990645
0.6378854839 0.4716547419 0.0109449677
0.6851562581 0.4889605484 0.0139525484
0.7220351613 0.5010121290 0.0063202581
0.7559715484 0.5098808387 0.0025635806
0.7819392581 0.5178280645 0.0063139032
0.8045644194 0.5274709355 0.0090362258
0.8180897742 0.5351830323 0.0090191613
0.8290400968 0.5419714516 0.0068616452
0.8387738387 0.5498961613 0.0022681290
0.8476514194 0.5573150645 0.0123704194
0.8518263871 0.5603530000 0.0132210645
0.8558465484 0.5633434194 0.0101614194
0.8597149032 0.5674283548 0.0158270645
0.8644035806 0.5728162903 0.0266228065
0.8722424516 0.5806273871 0.0279277097
0.8754066774 0.5853190968 0.0151967742
0.0000000000 0.3139301935 0.1377487419
0.0000000000 0.3186489355 0.1336790968
0.0000000000 0.3224957097 0.1244880645
0.0000000000 0.3238978065 0.1102038710
0.0000000000 0.3288296774 0.0954815806
0.0000000000 0.3335434839 0.0614724516
0.0000000000 0.3344026452 0.0173820645
0.0300076452 0.3434791935 0.0000000000
0.0993958065 0.3639745161 0.0000000000
0.1727745806 0.3870798065 0.0000000000
0.2533079355 0.4139524516 0.0000000000
0.3319012903 0.4393675161 0.0000000000
0.4130406452 0.4657339032 0.0000000000
0.4858024839 0.4884493226 0.0000000000
0.5503470323 0.5071966774 0.0000000000
0.6108720645 0.5216202903 0.0015358065
0.6608196774 0.5303323871 0.0089646452
0.7072642258 0.5413777097 0.0136037419
0.7445600000 0.5534805161 0.0066223226
0.7781203548 0.5635466129 0.0027147742
0.8033268710 0.5707633548 0.0119539355
0.8255933226 0.5781300000 0.0160474516
0.8410791935 0.5866356452 0.0166307742
0.8542979677 0.5947367742 0.0148263871
0.8637840968 0.6024502903 0.0071845161
0.8721429355 0.6088671935 0.0006693548
0.8766597419 0.6124040645 0.0004322258
0.8802983548 0.6146918387 0.0004744516
0.8833168387 0.6169778710 0.0041515806
0.8869796774 0.6217622581 0.0172860645
0.8909446774 0.6272858065 0.0274090968
0.8938147097 0.6316095161 0.0201571613
0.0007798065 0.3574594839 0.1619526774
0.0004988387 0.3636880645 0.1590617742
0.0006063226 0.3690302581 0.1514786774
0.0022443871 0.3722712258 0.1398306452
0.0024631613 0.3751160323 0.1231583871
0.0000000000 0.3798875484 0.0857317419
0.0000000000 0.3821073226 0.0286697097
0.0296836452 0.3916280645 0.0000000000
0.0981623226 0.4118437097 0.0000000000
0.1740713548 0.4353065161 0.0000000000
0.2580103226 0.4639195161 0.0000000000
0.3429802903 0.4926474194 0.0000000000
0.4256003226 0.5198385161 0.0000000000
0.5007430323 0.5440193548 0.0003140645
0.5667330645 0.5638035484 0.0004076129
0.6308497419 0.5800682903 0.0014236452
0.6803380000 0.5860889677 0.0080043871
0.7272646452 0.5955625161 0.0118772903
0.7632789355 0.6036112258 0.0055931935
0.7976249355 0.6131327097 0.0003780323
0.8224003871 0.6192204516 0.0067287419
0.8440198710 0.6249971613 0.0129905484
0.8587214516 0.6306862258 0.0118960000
0.8724175161 0.6382011613 0.0099041935
0.8823162581 0.6466922903 0.0075065806
0.8905393226 0.6530298387 0.0005610968
0.8955549677 0.6573380645 0.0000000000
0.8994188387 0.6598842903 0.0000000000
0.9013865806 0.6600744194 0.0000000000
0.9037384839 0.6621408065 0.0022741613
0.9078840000 0.6684982581 0.0134218710
0.9108303548 0.6731786129 0.0240410000
0.0013592258 0.3886495806 0.1738527419
0.0010463548 0.3959861613 0.1716593226
0.0010731935 0.4033892903 0.1663475806
0.0046457742 0.4084867742 0.1568026129
