LUTs/SPK Cube Block1 S32/TheBrim_SPK_Type-M_Block1_S32.cube
TITLE "TheBrim® SPK Block 1"
# © Copyright 2021 - TheBrim® d.o.o. Croatia
LUT_3D_SIZE 5
DOMAIN_MIN 0.000000 0.000000 0.000000
DOMAIN_MAX 0.903226 0.903226 0.903226
0.011200 0.001984 0.018219
0.068105 0.003566 0.018579
0.255931 0.001966 0.015872
0.491463 0.004978 0.016287
0.612603 0.014734 0.023142
0.012152 0.068970 0.021811
0.068063 0.074120 0.028924
0.276612 0.086814 0.020089
0.536506 0.050412 0.020467
0.660596 0.052521 0.024894
0.007446 0.230186 0.019526
0.045180 0.242251 0.030899
0.282558 0.295464 0.034993
0.623169 0.317282 0.027134
0.764050 0.304129 0.027714
0.007446 0.416405 0.024094
0.045203 0.437267 0.032262
0.233382 0.525439 0.047593
0.654233 0.617931 0.046610
0.867742 0.625167 0.035783
0.010096 0.493277 0.034223
0.046853 0.517611 0.036795
0.209049 0.612845 0.049466
0.596725 0.723359 0.063785
0.861087 0.758443 0.055623
0.010135 0.002934 0.093521
0.067182 0.004338 0.088076
0.265064 0.002161 0.079270
0.516346 0.004096 0.056026
0.633983 0.010100 0.055850
0.007446 0.082179 0.115015
0.069367 0.081947 0.105498
0.296091 0.091200 0.089670
0.559616 0.049316 0.058317
0.675433 0.050426 0.058565
0.007446 0.260092 0.133746
0.050672 0.263823 0.125700
0.308254 0.317006 0.125623
0.648469 0.328039 0.062482
0.781961 0.310271 0.062581
0.007446 0.454153 0.121494
0.049616 0.471519 0.098636
0.246647 0.565792 0.107229
0.673257 0.650499 0.075049
0.883023 0.645444 0.067977
0.007446 0.527353 0.122465
0.048005 0.549244 0.092761
0.213654 0.656815 0.072448
0.620391 0.762333 0.117177
0.872856 0.792503 0.082513
0.011366 0.001364 0.247357
0.066923 0.001984 0.256347
0.268593 0.002996 0.265884
0.529949 0.005115 0.249909
0.653652 0.007759 0.219375
0.007446 0.092799 0.307338
0.050624 0.091245 0.302251
0.298990 0.095673 0.309011
0.576425 0.049621 0.291043
0.696913 0.050381 0.262128
0.007446 0.302555 0.366027
0.050027 0.306087 0.361867
0.332344 0.347412 0.367761
0.667699 0.354412 0.341045
0.799966 0.333403 0.306754
0.007446 0.511673 0.394943
0.048453 0.530155 0.393312
0.270479 0.624308 0.395352
0.689172 0.693697 0.409622
0.886490 0.692511 0.343301
0.007446 0.582751 0.397049
0.045733 0.604971 0.400561
0.189299 0.722876 0.395189
0.660965 0.808454 0.440369
0.875140 0.837828 0.424961
0.018624 0.003114 0.375506
0.070984 0.003875 0.399240
0.265444 0.004562 0.430188
0.531333 0.006269 0.435194
0.660554 0.009082 0.422148
0.007446 0.083605 0.463575
0.047055 0.078455 0.470036
0.295885 0.065956 0.499758
0.581715 0.049978 0.501540
0.706432 0.050764 0.487821
0.007446 0.326348 0.547893
0.046435 0.332764 0.557525
0.304162 0.371124 0.591986
0.665920 0.380108 0.595246
0.804887 0.359810 0.580524
0.007446 0.542111 0.592930
0.044616 0.562495 0.605564
0.104237 0.661132 0.641864
0.710658 0.719254 0.646711
0.880578 0.721757 0.632748
0.007446 0.613052 0.599173
0.041571 0.632391 0.612016
0.095031 0.756362 0.648791
0.703576 0.841368 0.657319
0.879503 0.864981 0.667874
0.022801 0.005604 0.445099
0.065133 0.006700 0.469543
0.253528 0.006738 0.514155
0.525555 0.008286 0.532710
0.662064 0.011150 0.528122
0.007446 0.080917 0.538547
0.041676 0.078865 0.549143
0.286522 0.054163 0.593924
0.581337 0.050564 0.608634
0.711489 0.051765 0.602889
0.007446 0.337495 0.630710
0.041005 0.348763 0.643168
0.271812 0.384171 0.697683
0.662030 0.394465 0.717061
0.807049 0.373420 0.710922
0.007446 0.552220 0.679671
0.038705 0.570560 0.691337
0.093875 0.673829 0.754374
0.698745 0.736384 0.778017
0.874779 0.739955 0.775148
0.007446 0.621659 0.686322
0.037374 0.637246 0.697094
0.093126 0.763032 0.761455
0.694087 0.854103 0.788087
0.884195 0.874895 0.787834
