LUTs/SPK Cube Block1 S32/TheBrim_SPK_Type-I_Block1_S32.cube
TITLE "TheBrim® SPK Block 1"
# © Copyright 2021 - TheBrim® d.o.o. Croatia
LUT_3D_SIZE 32
DOMAIN_MIN 0.000000 0.000000 0.000000
DOMAIN_MAX 1.000000 1.000000 1.000000
0.006195 0.007263 0.008331
0.006660 0.007791 0.008920
0.007138 0.008361 0.009553
0.008110 0.009361 0.010682
0.009311 0.010558 0.012100
0.010868 0.012114 0.013894
0.013407 0.014963 0.016903
0.016081 0.017923 0.020012
0.020216 0.022468 0.024912
0.025297 0.027975 0.030893
0.031642 0.034823 0.038168
0.040243 0.044097 0.047711
0.049564 0.054089 0.057976
0.061632 0.066752 0.070701
0.073708 0.079417 0.083428
0.088161 0.094111 0.098955
0.101128 0.107156 0.112931
0.113722 0.119826 0.126488
0.128593 0.134522 0.142287
0.143422 0.149146 0.158009
0.157585 0.163122 0.173039
0.172478 0.178135 0.189013
0.182415 0.188174 0.199683
0.191042 0.196894 0.208954
0.198622 0.204559 0.217085
0.205916 0.211928 0.224943
0.213219 0.219343 0.232798
0.220638 0.226494 0.240581
0.228278 0.233758 0.248555
0.235998 0.241076 0.256557
0.244838 0.249425 0.265737
0.255009 0.259068 0.276310
0.006723 0.007883 0.009014
0.007043 0.008263 0.009427
0.007862 0.009112 0.010403
0.008949 0.010197 0.011676
0.010106 0.011333 0.013024
0.011796 0.013161 0.015008
0.014422 0.016076 0.018073
0.017233 0.019224 0.021381
0.021734 0.024110 0.026701
0.026546 0.029328 0.032382
0.033962 0.037338 0.040737
0.042768 0.046826 0.050514
0.052894 0.057581 0.061499
0.065117 0.070405 0.074355
0.077773 0.083596 0.087761
0.093118 0.099099 0.104300
0.107158 0.113248 0.119442
0.121249 0.127270 0.134492
0.136652 0.142487 0.150841
0.152218 0.157836 0.167357
0.168984 0.174600 0.185250
0.186390 0.192212 0.203960
0.197767 0.203703 0.216173
0.206874 0.212924 0.225970
0.214947 0.221059 0.234643
0.223740 0.229470 0.243827
0.232645 0.237887 0.253056
0.241375 0.246177 0.262177
0.249239 0.253633 0.270352
0.256961 0.260952 0.278357
0.264682 0.268243 0.286389
0.272529 0.275685 0.294576
0.007366 0.008615 0.009813
0.008047 0.009268 0.010590
0.008791 0.010014 0.011458
0.009886 0.011109 0.012742
0.011298 0.012597 0.014411
0.013340 0.014889 0.016823
0.015585 0.017384 0.019449
0.019153 0.021310 0.023655
0.023799 0.026355 0.029160
0.028634 0.031612 0.034803
0.036519 0.040082 0.043582
0.045345 0.049590 0.053378
0.056588 0.061463 0.065381
0.068604 0.074096 0.078045
0.082013 0.087914 0.092310
0.097673 0.103699 0.109225
0.112365 0.118451 0.125035
0.128609 0.134536 0.142288
0.144057 0.149783 0.158695
0.160106 0.165664 0.175742
0.179151 0.184877 0.196184
0.197837 0.203781 0.216260
0.213100 0.219164 0.232642
0.223715 0.229431 0.243793
0.234210 0.239370 0.254703
0.243666 0.248341 0.264530
0.252633 0.256822 0.273846
0.261460 0.265183 0.283040
0.270081 0.273364 0.292001
0.277940 0.280833 0.300175
0.285803 0.288361 0.308183
0.294170 0.296965 0.315999
0.008635 0.009886 0.011302
0.009289 0.010539 0.012077
0.010046 0.011297 0.012960
0.010953 0.012197 0.014007
0.013033 0.014523 0.016456
0.015107 0.016871 0.018901
0.017297 0.019291 0.021472
0.021261 0.023577 0.026136
0.025945 0.028690 0.031679
0.031984 0.035197 0.038534
0.039509 0.043305 0.046897
0.048276 0.052707 0.056554
0.060412 0.065483 0.069420
0.072614 0.078290 0.082272
0.086580 0.092511 0.097232
0.102055 0.108116 0.113936
0.117367 0.123436 0.130364
0.134517 0.140353 0.148580
0.151025 0.156658 0.166082
0.168197 0.173783 0.184404
0.187849 0.193682 0.205533
0.207703 0.213742 0.226857
0.229038 0.234484 0.249327
0.242470 0.247221 0.263294
0.253056 0.257224 0.274293
0.263266 0.266901 0.284907
0.272684 0.275842 0.294722
0.281556 0.284299 0.303869
0.290541 0.293238 0.312597
0.299664 0.302584 0.321069
0.308131 0.311270 0.328941
0.316519 0.319903 0.336737
0.009917 0.011142 0.012802
0.010647 0.011882 0.013635
0.011775 0.013139 0.014984
0.013264 0.014787 0.016725
0.014805 0.016511 0.018541
0.017020 0.018983 0.021128
0.020402 0.022650 0.025114
0.024094 0.026678 0.029488
0.028470 0.031422 0.034590
0.035824 0.039342 0.042807
0.043317 0.047402 0.051136
0.052405 0.057077 0.060963
0.064504 0.069784 0.073737
0.077178 0.082980 0.087142
0.091786 0.097765 0.102853
0.106686 0.112762 0.118931
0.123276 0.129256 0.136641
0.140467 0.146225 0.154878
0.157316 0.162882 0.172779
0.176697 0.182391 0.193546
0.196507 0.202433 0.214829
0.217145 0.223075 0.236867
0.241163 0.245967 0.261936
0.260936 0.264691 0.282501
0.271806 0.274999 0.293793
0.282140 0.284877 0.304440
0.292768 0.295504 0.314672
0.302531 0.305542 0.323743
0.311668 0.314899 0.332225
0.320781 0.324257 0.340688
0.329955 0.333679 0.349211
0.338566 0.342508 0.357171
0.011773 0.013110 0.014976
0.012979 0.014470 0.016378
0.014316 0.015964 0.017959
0.015848 0.017682 0.019748
0.017520 0.019519 0.021706
0.020093 0.022334 0.024769
0.023783 0.026315 0.029116
0.027755 0.030662 0.033770
0.033378 0.036710 0.040083
0.040132 0.043970 0.047589
0.048170 0.052596 0.056436
0.058858 0.063838 0.067775
0.069961 0.075494 0.079473
0.082922 0.088835 0.093299
0.097800 0.103817 0.109357
0.113394 0.119483 0.126130
0.131159 0.137053 0.145001
0.148275 0.153948 0.163156
0.166131 0.171718 0.182206
0.186183 0.192000 0.203750
0.206566 0.212586 0.225627
0.229028 0.234460 0.249322
0.253741 0.257892 0.275027
0.277874 0.280779 0.300097
0.292197 0.294930 0.314142
0.303018 0.306029 0.324186
0.313922 0.317233 0.334315
0.324139 0.327708 0.343804
0.333559 0.337376 0.352542
0.342682 0.346745 0.361012
0.351877 0.356091 0.369521
0.361392 0.365461 0.378194
0.014378 0.016025 0.018026
0.015568 0.017366 0.019429
0.017034 0.018969 0.021143
0.019397 0.021580 0.023953
0.022085 0.024513 0.027133
0.024597 0.027215 0.030084
0.027441 0.030295 0.033394
0.032956 0.036256 0.039627
0.039379 0.043176 0.046763
0.045885 0.050179 0.053965
0.054416 0.059203 0.063095
0.065630 0.070970 0.074918
0.077261 0.083063 0.087226
0.090317 0.096286 0.101275
0.104372 0.110434 0.116430
0.121190 0.127207 0.134427
0.139528 0.145313 0.153898
0.156868 0.162458 0.172299
0.175997 0.181701 0.192802
0.196133 0.202042 0.214427
0.217298 0.223214 0.237036
0.241548 0.246329 0.262343
0.266159 0.269653 0.287931
0.290854 0.293636 0.312795
0.313255 0.316532 0.333685
0.324251 0.327821 0.343895
0.335193 0.339061 0.354061
0.345422 0.349549 0.363547
0.355198 0.359435 0.372559
0.365075 0.368804 0.381442
0.375301 0.378106 0.390442
0.385581 0.387449 0.399506
0.017176 0.019170 0.021324
0.019115 0.021242 0.023583
0.021450 0.023817 0.026382
0.024001 0.026584 0.029394
0.026845 0.029657 0.032710
0.029991 0.033071 0.036324
0.034458 0.037888 0.041315
0.038974 0.042739 0.046327
0.045696 0.049957 0.053749
0.053731 0.058478 0.062372
0.062780 0.067963 0.071909
0.072712 0.078347 0.082380
0.085700 0.091620 0.096284
0.099119 0.105163 0.110782
0.112498 0.118588 0.125161
0.129721 0.135630 0.143485
0.148132 0.153808 0.163019
0.166285 0.171873 0.182364
0.186172 0.191976 0.203709
0.206264 0.212291 0.225315
0.229078 0.234497 0.249353
0.253829 0.257965 0.275106
0.278653 0.281528 0.300851
0.303875 0.306912 0.324990
0.328910 0.332615 0.348226
0.345662 0.349808 0.363780
0.356389 0.360593 0.373640
0.367548 0.371070 0.383625
0.378325 0.380875 0.393127
0.388782 0.390356 0.402343
0.398989 0.399654 0.411340
0.409272 0.408976 0.420406
0.022357 0.024778 0.027428
0.023981 0.026542 0.029332
0.026388 0.029169 0.032193
0.029365 0.032391 0.035618
0.033699 0.037063 0.040463
0.037961 0.041634 0.045185
0.042379 0.046399 0.050082
0.047258 0.051613 0.055451
0.053407 0.058110 0.062024
0.062865 0.068056 0.072002
0.072173 0.077805 0.081828
0.082402 0.088291 0.092726
0.094950 0.100945 0.106264
0.108637 0.114710 0.121012
0.123669 0.129663 0.137059
0.140391 0.146168 0.154798
0.158167 0.163751 0.173683
0.177796 0.183525 0.194743
0.197680 0.203613 0.216102
0.218551 0.224381 0.238328
0.242755 0.247469 0.263596
0.267483 0.270914 0.289303
0.292665 0.295485 0.314496
0.318374 0.321791 0.338442
0.343256 0.347325 0.361540
0.367528 0.371030 0.383587
0.379714 0.382131 0.394363
0.390617 0.392045 0.403971
0.401459 0.401871 0.413523
0.411955 0.411414 0.422759
0.422420 0.420938 0.432004
0.433002 0.430600 0.441275
0.029378 0.032392 0.035628
0.030911 0.034058 0.037377
0.033788 0.037161 0.040566
0.038106 0.041811 0.045370
0.042333 0.046370 0.050058
0.046068 0.050341 0.054152
0.051217 0.055843 0.059734
0.057959 0.062895 0.066817
0.064859 0.070144 0.074089
0.072653 0.078274 0.082321
0.082981 0.088898 0.093371
0.094655 0.100644 0.105946
0.106749 0.112815 0.118973
0.120395 0.126433 0.133602
0.136988 0.142779 0.151187
0.153776 0.159400 0.169010
0.172375 0.178033 0.188913
0.191962 0.197824 0.209949
0.212214 0.218169 0.231623
0.235249 0.240360 0.255778
0.259388 0.263247 0.280888
0.283807 0.286610 0.305944
0.309758 0.312945 0.330438
0.335337 0.339197 0.354195
0.360658 0.364566 0.377448
0.387943 0.389601 0.401601
0.404811 0.404933 0.416479
0.415648 0.414782 0.426026
0.426476 0.424612 0.435568
0.436853 0.434205 0.444613
0.447232 0.444113 0.453513
0.457137 0.453831 0.461862
0.040387 0.044258 0.047888
0.042032 0.046047 0.049709
0.043783 0.047900 0.051653
0.046986 0.051327 0.055165
0.052221 0.056883 0.060793
0.057284 0.062199 0.066115
0.062772 0.067960 0.071906
0.069096 0.074590 0.078547
0.076644 0.082415 0.086571
0.085576 0.091503 0.096153
0.095253 0.101233 0.106596
0.107162 0.113236 0.119435
0.120696 0.126735 0.133909
0.135845 0.141684 0.149976
0.151043 0.156679 0.166111
0.169174 0.174802 0.185473
0.189006 0.194851 0.206777
0.208201 0.214206 0.227372
0.229913 0.235304 0.250243
0.254146 0.258265 0.275438
0.278226 0.281190 0.300322
0.302523 0.305525 0.323731
0.328146 0.331820 0.347513
0.353815 0.357935 0.371246
0.380663 0.382994 0.395181
0.407719 0.407568 0.419040
0.430403 0.428228 0.439006
0.441379 0.438454 0.448559
0.452650 0.449457 0.458080
0.463725 0.460297 0.467403
0.473996 0.470371 0.476059
0.483742 0.479931 0.484263
0.053015 0.057692 0.061609
0.055570 0.060382 0.064300
0.058078 0.063036 0.066953
0.060540 0.065600 0.069537
0.064668 0.069949 0.073897
0.069694 0.075224 0.079196
0.075491 0.081249 0.085344
0.081871 0.087783 0.092164
0.090463 0.096421 0.101434
0.099967 0.106008 0.111691
0.110135 0.116200 0.122605
0.121171 0.127199 0.134416
0.136674 0.142485 0.150849
0.151786 0.157433 0.166902
0.167789 0.173387 0.183983
0.185866 0.191664 0.203405
0.205678 0.211709 0.224690
0.226746 0.232287 0.246924
0.249540 0.253891 0.270638
0.272972 0.276110 0.295020
0.297614 0.300481 0.319183
0.322217 0.325736 0.342020
0.346825 0.350995 0.364860
0.373488 0.376469 0.388856
0.400637 0.401148 0.412802
0.427698 0.425728 0.436637
0.454197 0.450967 0.459386
0.466944 0.463451 0.470115
0.478072 0.474366 0.479499
0.489564 0.485620 0.489172
0.500730 0.496587 0.498577
0.510293 0.505944 0.506618
0.065890 0.071215 0.075183
0.069824 0.075347 0.079325
0.072452 0.078106 0.082093
0.075238 0.080978 0.085071
0.078326 0.084157 0.088360
0.084263 0.090158 0.094725
0.091213 0.097187 0.102232
0.098342 0.104359 0.109944
0.105635 0.111709 0.117803
0.115619 0.121672 0.128493
0.127595 0.133530 0.141241
0.140138 0.145917 0.154549
0.152865 0.158501 0.168056
0.169298 0.174925 0.185604
0.186868 0.192682 0.204460
0.204302 0.210302 0.223194
0.223834 0.229500 0.243893
0.246843 0.251354 0.267842
0.269607 0.272915 0.291511
0.292641 0.295459 0.314428
0.316705 0.320079 0.336894
0.341161 0.345176 0.359600
0.366697 0.370178 0.382831
0.393285 0.394459 0.406310
0.420020 0.418768 0.429883
0.446847 0.443824 0.453153
0.473578 0.469950 0.475698
0.492231 0.488248 0.491426
0.503395 0.499193 0.500821
0.514565 0.510263 0.510358
0.525173 0.521125 0.519793
0.534407 0.530925 0.528386
0.077569 0.083388 0.087540
0.083007 0.088923 0.093388
0.087978 0.093913 0.098759
0.091347 0.097324 0.102388
0.094850 0.100857 0.106163
0.100811 0.106854 0.112594
0.107618 0.113704 0.119927
0.115488 0.121570 0.128373
0.124599 0.130575 0.138031
0.134521 0.140363 0.148577
0.146546 0.152240 0.161339
0.159582 0.165204 0.175213
0.173780 0.179439 0.190409
0.188895 0.194735 0.206652
0.206388 0.212392 0.225434
0.225695 0.231294 0.245839
0.246595 0.251121 0.267591
0.267750 0.271152 0.289587
0.290862 0.293726 0.312678
0.314581 0.317899 0.334910
0.337330 0.341249 0.356040
0.361270 0.365017 0.377943
0.387858 0.389520 0.401514
0.414505 0.413741 0.425020
0.440291 0.437526 0.447572
0.466895 0.463404 0.470077
0.493804 0.489806 0.492757
0.517371 0.513116 0.512847
0.527730 0.523830 0.522160
0.537382 0.534099 0.531187
0.547205 0.544559 0.540346
0.556851 0.554826 0.549373
0.091639 0.097617 0.102704
0.097329 0.103338 0.108828
0.102780 0.108838 0.114730
0.107697 0.113795 0.120015
0.111908 0.117977 0.124523
0.118628 0.124683 0.131713
0.127009 0.132954 0.140605
0.135803 0.141624 0.149935
0.145146 0.150860 0.159844
0.155409 0.161017 0.170754
0.167073 0.172654 0.183198
0.181225 0.186978 0.198414
0.196276 0.202213 0.214578
0.211782 0.217678 0.231134
0.228736 0.234180 0.249016
0.249949 0.254276 0.271053
0.270879 0.274121 0.292836
0.291816 0.294680 0.313588
0.313789 0.317095 0.334192
0.337345 0.341271 0.356070
0.360736 0.364486 0.377468
0.384705 0.386655 0.398758
0.410256 0.409881 0.421285
0.436677 0.434145 0.444427
0.462746 0.459348 0.466582
0.488837 0.484923 0.488550
0.514964 0.510695 0.510745
0.536959 0.533655 0.530788
0.551273 0.548877 0.544152
0.560103 0.558308 0.552407
0.569673 0.568468 0.561327
0.579229 0.578661 0.570262
0.106265 0.112353 0.118478
0.112337 0.118439 0.124999
0.118801 0.124843 0.131882
0.125758 0.131720 0.139285
0.132450 0.138330 0.146368
0.140098 0.145858 0.154485
0.148423 0.154090 0.163322
0.157159 0.162751 0.172619
0.167032 0.172615 0.183165
0.178931 0.184654 0.195942
0.191605 0.197467 0.209551
0.204388 0.210389 0.223290
0.219973 0.225709 0.239788
0.237787 0.242779 0.258425
0.256123 0.260140 0.277489
0.274578 0.277677 0.296585
0.295828 0.298680 0.317514
0.317311 0.320706 0.337461
0.338662 0.342615 0.357289
0.360893 0.364569 0.377571
0.385484 0.387372 0.399429
0.409816 0.409467 0.420888
0.434240 0.431885 0.442314
0.459760 0.456417 0.464079
0.485890 0.482033 0.486084
0.511638 0.507324 0.507823
0.534783 0.531328 0.528742
0.555826 0.553745 0.548400
0.574617 0.573747 0.565936
0.583864 0.583517 0.574468
0.592885 0.592919 0.582503
0.602857 0.603082 0.590970
0.124586 0.130550 0.138024
0.131752 0.137624 0.145625
0.138880 0.144672 0.153202
0.145866 0.151553 0.160592
0.152960 0.158570 0.168154
0.161607 0.167187 0.177360
0.170974 0.176613 0.187411
0.181119 0.186872 0.198306
0.191199 0.197062 0.209131
0.202366 0.208353 0.221129
0.215804 0.221671 0.235416
0.230398 0.235755 0.250729
0.246646 0.251157 0.267647
0.264354 0.267950 0.286064
0.282867 0.285849 0.304819
0.301845 0.304808 0.323096
0.320793 0.324282 0.340695
0.342138 0.346169 0.360505
0.364132 0.367649 0.380477
0.387330 0.389039 0.401056
0.410714 0.410302 0.421677
0.435402 0.432999 0.443297
0.459896 0.456545 0.464182
0.484547 0.480700 0.484943
0.509545 0.505217 0.505995
0.532943 0.529363 0.527025
0.554952 0.552794 0.547583
0.575794 0.575005 0.567050
0.595704 0.595773 0.584862
0.608714 0.609050 0.595942
0.617740 0.618244 0.603572
0.627512 0.628203 0.611841
0.146202 0.151903 0.160975
0.153416 0.159010 0.168609
0.161563 0.167166 0.177324
0.169616 0.175227 0.185943
0.178022 0.183728 0.194975
0.187562 0.193388 0.205216
0.197067 0.202991 0.215429
0.207004 0.213008 0.226086
0.218239 0.224028 0.237972
0.229961 0.235341 0.250281
0.243895 0.248547 0.264769
0.259363 0.263215 0.280858
0.275575 0.278663 0.297629
0.292025 0.294899 0.313800
0.310436 0.313644 0.331096
0.329568 0.333275 0.348819
0.348673 0.352765 0.366528
0.368702 0.371962 0.384569
0.392419 0.393655 0.405541
0.416341 0.415413 0.426635
0.439390 0.436821 0.446707
0.462407 0.458999 0.466288
0.486620 0.482747 0.486703
0.510901 0.506600 0.507205
0.532872 0.529291 0.526953
0.554045 0.551836 0.546729
0.575914 0.575127 0.567175
0.597337 0.597430 0.586230
0.617528 0.618024 0.603386
0.633960 0.634759 0.617319
0.642972 0.643941 0.624941
0.652711 0.653852 0.633179
0.169979 0.175591 0.186323
0.178506 0.184225 0.195485
0.187479 0.193279 0.205128
0.196641 0.202561 0.214971
0.205296 0.211313 0.224282
0.215346 0.221256 0.234943
0.225911 0.231495 0.246063
0.237423 0.242413 0.258034
0.249713 0.254062 0.270822
0.262237 0.265942 0.283859
0.274648 0.277712 0.296727
0.288913 0.291800 0.310776
0.305630 0.308721 0.326625
0.322626 0.326150 0.342380
0.339399 0.343358 0.357969
0.358941 0.362639 0.375798
0.379853 0.382248 0.394462
0.401118 0.401580 0.413218
0.422087 0.420626 0.431706
0.445773 0.442912 0.452164
0.468405 0.464873 0.471342
0.490902 0.486948 0.490286
0.513370 0.509142 0.509404
0.535284 0.531866 0.529216
0.555910 0.553828 0.548471
0.576257 0.575490 0.567478
0.597863 0.597961 0.586673
0.619605 0.620146 0.605167
0.639736 0.640649 0.622210
0.658201 0.659597 0.637770
0.666807 0.668743 0.644869
0.674714 0.677400 0.651271
0.194898 0.200802 0.213104
0.204800 0.210815 0.223749
0.214292 0.220247 0.233847
0.224707 0.230344 0.244805
0.236106 0.241173 0.256672
0.247964 0.252408 0.269017
0.259208 0.263057 0.280701
0.270478 0.273762 0.292423
0.282496 0.285385 0.304544
0.295438 0.298291 0.317093
0.308664 0.311812 0.329427
0.322145 0.325652 0.341938
0.337814 0.341741 0.356483
0.355572 0.359466 0.372771
0.373803 0.376740 0.389118
0.392342 0.393607 0.405488
0.412854 0.412231 0.423546
0.433773 0.431497 0.441869
0.454572 0.451301 0.459686
0.475348 0.471673 0.477187
0.497826 0.493735 0.496125
0.519204 0.515171 0.514643
0.539110 0.535958 0.532800
0.558293 0.556371 0.550693
0.578859 0.578254 0.569901
0.599778 0.599936 0.588309
0.621072 0.621631 0.606405
0.641891 0.642853 0.624030
0.661079 0.662659 0.640142
0.677145 0.680074 0.653230
0.687695 0.691640 0.661770
0.695489 0.700177 0.668058
0.214564 0.220617 0.234194
0.230919 0.236250 0.251276
0.245266 0.249841 0.266194
0.256687 0.260673 0.278084
0.268206 0.271583 0.290059
0.281350 0.284203 0.303483
0.293374 0.296248 0.315096
0.305161 0.308226 0.326180
0.318096 0.321499 0.338181
0.332164 0.335951 0.351259
0.345870 0.350028 0.363971
0.360082 0.363748 0.376815
0.375059 0.377888 0.390249
0.392316 0.393575 0.405450
0.410935 0.410509 0.421875
0.429373 0.427330 0.438082
0.446596 0.443721 0.452873
0.466365 0.462877 0.469630
0.486888 0.483007 0.486928
0.507589 0.503305 0.504355
0.526640 0.522886 0.521387
0.546056 0.543328 0.539273
0.564985 0.563497 0.556971
0.583641 0.583243 0.574193
0.602757 0.602982 0.590875
0.624039 0.624656 0.608921
0.645229 0.646248 0.626849
0.663882 0.665688 0.642445
0.679428 0.682571 0.655090
0.694941 0.699567 0.667606
0.708746 0.714701 0.678790
0.716346 0.722959 0.684945
0.234374 0.239546 0.254876
0.251780 0.256023 0.272965
0.268757 0.272101 0.290642
0.284156 0.286896 0.306353
0.298914 0.301824 0.320379
0.314111 0.317415 0.334489
0.329265 0.332977 0.348564
0.342735 0.346783 0.361047
0.356404 0.360334 0.373567
0.371912 0.374968 0.387452
0.388019 0.389664 0.401654
0.403064 0.403343 0.414929
0.418261 0.417144 0.428327
0.433822 0.431506 0.441935
0.450815 0.447743 0.456476
0.468872 0.465356 0.471735
0.485897 0.482031 0.486088
0.502566 0.498372 0.500114
0.520864 0.516909 0.516175
0.539124 0.535960 0.532799
0.556875 0.554860 0.549389
0.574136 0.573227 0.565504
0.593499 0.593427 0.582778
0.612635 0.613049 0.599259
0.631404 0.632159 0.615157
0.650817 0.651928 0.631581
0.669509 0.671786 0.647022
0.685835 0.689587 0.660259
0.699456 0.704535 0.671267
0.713103 0.719486 0.682315
0.728396 0.734405 0.694662
0.737607 0.742640 0.702093
0.254762 0.258858 0.276070
0.272061 0.275250 0.294053
0.289444 0.292167 0.311502
0.307257 0.310371 0.328119
0.323381 0.326930 0.343090
0.339193 0.343151 0.357769
0.354918 0.359119 0.372297
0.372465 0.375530 0.387963
0.391170 0.392529 0.404444
0.409633 0.409317 0.420727
0.427663 0.425705 0.436616
0.445560 0.442693 0.452007
0.461306 0.457922 0.465363
0.476512 0.472836 0.478177
0.491901 0.487931 0.491143
0.508557 0.504256 0.505176
0.524053 0.520182 0.519023
0.538529 0.535310 0.532249
0.552544 0.550251 0.545334
0.569235 0.568006 0.560923
0.587191 0.586920 0.577288
0.604996 0.605264 0.592793
0.623024 0.623624 0.608062
0.642279 0.643228 0.624345
0.659893 0.661510 0.639121
0.675907 0.678709 0.652212
0.691629 0.695934 0.664935
0.707699 0.713534 0.677937
0.721145 0.727509 0.688797
0.733181 0.738686 0.698511
0.746676 0.750752 0.709438
0.758798 0.761576 0.719221
0.270602 0.273862 0.292550
0.289726 0.292389 0.311828
0.307550 0.310690 0.328403
0.325560 0.329165 0.345110
0.343415 0.347507 0.361701
0.360526 0.364525 0.377369
0.377958 0.380521 0.392813
0.395683 0.396641 0.408421
0.414284 0.413537 0.424821
0.433237 0.430859 0.441490
0.451711 0.448526 0.457291
0.470033 0.466475 0.472708
0.489705 0.485775 0.489291
0.509775 0.505430 0.506190
0.526964 0.523104 0.521545
0.542779 0.539856 0.536210
0.557497 0.555520 0.549968
0.571487 0.570410 0.563020
0.585418 0.585099 0.575780
0.600292 0.600420 0.588708
0.618248 0.618764 0.604011
0.636236 0.637084 0.619252
0.654061 0.655249 0.634306
0.669280 0.671580 0.646818
0.684643 0.688283 0.659290
0.699760 0.704856 0.671506
0.714746 0.721277 0.683653
0.730041 0.735777 0.695980
0.743478 0.747903 0.706849
0.755302 0.758481 0.716406
0.767185 0.769092 0.726009
0.779529 0.780577 0.736077
0.280284 0.283048 0.302619
0.301630 0.304602 0.322892
0.321018 0.324507 0.340882
0.338909 0.342865 0.357522
0.357281 0.361553 0.374493
0.378236 0.380778 0.393050
0.396735 0.397584 0.409365
0.414436 0.413683 0.424951
0.432957 0.430584 0.441254
0.452388 0.449186 0.457857
0.470964 0.467400 0.473511
0.489235 0.485305 0.488896
0.508741 0.504432 0.505312
0.527401 0.523499 0.521869
0.544298 0.541468 0.537636
0.561258 0.559521 0.553472
0.579496 0.578930 0.570509
0.598867 0.599018 0.587604
0.617303 0.617794 0.603198
0.633565 0.634383 0.616989
0.649919 0.651016 0.630823
0.665731 0.667757 0.643905
0.680676 0.683945 0.656089
0.694879 0.699496 0.667577
0.708909 0.714867 0.678910
0.723926 0.729981 0.691043
0.738976 0.743887 0.703215
0.753887 0.757192 0.715268
0.768130 0.769947 0.726778
0.779071 0.780210 0.735708
0.788160 0.789788 0.743425
0.797329 0.799926 0.751312
0.288006 0.290637 0.310276
0.309614 0.312786 0.330304
0.330885 0.334632 0.350062
0.350799 0.355030 0.368533
0.370981 0.374188 0.386635
0.392377 0.393631 0.405498
0.412443 0.411865 0.423200
0.430536 0.428315 0.439146
0.448993 0.445855 0.455000
0.468518 0.464994 0.471455
0.488047 0.484141 0.487883
0.506395 0.502142 0.503346
0.524609 0.520563 0.519313
0.542499 0.539559 0.535959
0.560160 0.558347 0.552455
0.577154 0.576440 0.568322
0.595872 0.595944 0.585005
0.616075 0.616543 0.602158
0.635942 0.636782 0.618988
0.655442 0.656692 0.635498
0.672611 0.675104 0.649583
0.689119 0.693186 0.662914
0.705407 0.711042 0.676092
0.721665 0.727869 0.689220
0.735606 0.740865 0.700479
0.749589 0.753359 0.711794
0.764597 0.766760 0.723913
0.778690 0.779832 0.735418
0.790729 0.792635 0.745633
0.801363 0.804374 0.754784
0.809802 0.813739 0.762039
0.818608 0.823492 0.769610
0.296257 0.299081 0.317913
0.318971 0.322408 0.338993
0.340661 0.344657 0.359129
0.362533 0.366499 0.379195
0.384904 0.386834 0.398914
0.406142 0.406149 0.417644
0.426294 0.424456 0.435419
0.445847 0.442778 0.452346
0.464662 0.461216 0.468196
0.484142 0.480316 0.484598
0.503895 0.499703 0.501253
0.522404 0.518234 0.517275
0.539180 0.536012 0.532851
0.556864 0.554849 0.549383
0.575089 0.574240 0.566373
0.593192 0.593201 0.582712
0.612373 0.612778 0.599020
0.632615 0.633398 0.616160
0.653093 0.654268 0.633518
0.670654 0.672941 0.647967
0.686892 0.690755 0.661110
0.703397 0.708836 0.674447
0.719944 0.726397 0.687827
0.736875 0.742013 0.701524
0.753643 0.756999 0.715075
0.769957 0.771577 0.728257
0.784143 0.785492 0.740013
0.796808 0.799342 0.750870
0.809371 0.813269 0.761678
0.821059 0.826203 0.771751
0.829727 0.835207 0.780415
0.836284 0.841926 0.787167
0.304913 0.307979 0.325945
0.327966 0.331626 0.347334
0.349536 0.353758 0.367365
0.372338 0.375426 0.387833
0.396163 0.397060 0.408847
0.418193 0.417097 0.428277
0.438143 0.435345 0.445785
0.457759 0.454433 0.462373
0.477733 0.474040 0.479212
0.497391 0.493295 0.495758
0.516792 0.512467 0.512251
0.534054 0.530548 0.528070
0.551215 0.548837 0.544107
0.568884 0.567632 0.560597
0.587202 0.587036 0.577502
0.606331 0.606621 0.593922
0.626026 0.626689 0.610587
0.646265 0.647296 0.627734
