LUTs/SPK Cube Block1 S32/TheBrim_SPK_Type-T_Block1_S32.cube
TITLE "TheBrim® SPK Block 1"
# TheBrim® d.o.o. Croatia
# Copyright: (C) Copyright 2020 TheBrim® d.o.o. Croatia
LUT_3D_SIZE 32
0.0000000000 0.0000000000 0.0000000000
0.0082209032 0.0023574194 0.0012397097
0.0165834516 0.0047649677 0.0024744839
0.0236796774 0.0068084516 0.0034982258
0.0297654516 0.0081873548 0.0041126129
0.0350800645 0.0089897097 0.0046523548
0.0408777419 0.0100244516 0.0052898387
0.0496483548 0.0109387742 0.0060363226
0.0672751935 0.0108870000 0.0070249032
0.0940128065 0.0104791613 0.0084005161
0.1255623548 0.0116824194 0.0098407742
0.1612812903 0.0170751290 0.0106077097
0.1990741290 0.0229966129 0.0102931613
0.2411273226 0.0261593226 0.0103414839
0.2844996774 0.0287395806 0.0115071935
0.3292100000 0.0322805806 0.0124018065
0.3813408710 0.0367009355 0.0154774516
0.4330788387 0.0313042903 0.0190134839
0.4789113548 0.0308968710 0.0220476452
0.5256653871 0.0284985484 0.0252548387
0.5695509032 0.0203404194 0.0275019032
0.6031531935 0.0210960323 0.0279397419
0.6320344194 0.0216594194 0.0270878387
0.6596888387 0.0189840968 0.0262876774
0.6829419355 0.0160078387 0.0266605806
0.7019624839 0.0160613548 0.0281245161
0.7186140000 0.0162345161 0.0296417742
0.7324255484 0.0172531935 0.0310025484
0.7431464516 0.0186936774 0.0320626774
0.7524226452 0.0180247419 0.0328394516
0.7609741290 0.0173836774 0.0338872903
0.7700200000 0.0167850000 0.0353390000
0.0042189355 0.0065782903 0.0033801613
0.0075690645 0.0061424194 0.0027593226
0.0159596452 0.0085490000 0.0039650968
0.0230578710 0.0105925806 0.0050459355
0.0292494839 0.0117490323 0.0054389032
0.0348738065 0.0120820968 0.0055229677
0.0407419355 0.0130346452 0.0061527742
0.0493701290 0.0137940323 0.0067361613
0.0669700645 0.0136523548 0.0075682581
0.0936881935 0.0133581613 0.0088324194
0.1254380323 0.0148962903 0.0100070323
0.1607960645 0.0198465484 0.0105553871
0.1986396129 0.0254960000 0.0102441613
0.2406880000 0.0282080645 0.0103230645
0.2840508065 0.0310460323 0.0113731613
0.3286991290 0.0346313226 0.0123348710
0.3808518710 0.0387702903 0.0155578710
0.4325355161 0.0333299032 0.0190590000
0.4784456129 0.0329354194 0.0220820000
0.5254870000 0.0302430968 0.0253168065
0.5706023226 0.0221291290 0.0276196129
0.6051061935 0.0235959355 0.0283337742
0.6341228710 0.0239963226 0.0275338710
0.6614743548 0.0207778387 0.0268540323
0.6847564839 0.0178044194 0.0275758387
0.7037133871 0.0185889677 0.0290706129
0.7204941935 0.0188530645 0.0306197419
0.7343513871 0.0197219032 0.0320184839
0.7450912581 0.0211710968 0.0331124839
0.7543481613 0.0203166774 0.0338081290
0.7628676129 0.0194931290 0.0347570000
0.7717895161 0.0188024516 0.0361467742
0.0085608065 0.0133965806 0.0068523226
0.0114450968 0.0126877097 0.0061094516
0.0152807742 0.0124250323 0.0055456452
0.0223760968 0.0144685161 0.0065964839
0.0286915806 0.0157101935 0.0070578065
0.0343976774 0.0156709677 0.0067621935
0.0405666774 0.0161918387 0.0070545161
0.0491747742 0.0168716129 0.0076285484
0.0666230968 0.0165368710 0.0081908387
0.0931443871 0.0161685161 0.0092053226
0.1250244516 0.0179888710 0.0100080000
0.1603301935 0.0228625484 0.0104634194
0.1981937742 0.0281005484 0.0101947742
0.2402740968 0.0304300645 0.0103304839
0.2836282258 0.0333161935 0.0113274194
0.3282344839 0.0373326129 0.0122121290
0.3806883226 0.0411625806 0.0157903226
0.4323790323 0.0359162581 0.0192134516
0.4782644516 0.0351678710 0.0222463548
0.5254260000 0.0323317742 0.0254516129
0.5705102903 0.0246089032 0.0273976129
0.6050335484 0.0257612903 0.0280661613
0.6351660000 0.0260297097 0.0278173548
0.6633273226 0.0227051290 0.0277236452
0.6858794194 0.0194092258 0.0281826129
0.7039141935 0.0208870968 0.0293703226
0.7203653871 0.0212336129 0.0307137097
0.7343627419 0.0214978065 0.0322668065
0.7455761935 0.0230572903 0.0335488387
0.7556581613 0.0227005806 0.0346095161
0.7647300968 0.0216778710 0.0356370645
0.7736746129 0.0209920968 0.0370337419
0.0128988065 0.0201697742 0.0102973871
0.0157890000 0.0195778710 0.0096116129
0.0186584516 0.0187460000 0.0087226774
0.0216971613 0.0183584516 0.0081529677
0.0281096129 0.0196899355 0.0086685161
0.0338418065 0.0196069032 0.0082730000
0.0401573548 0.0196305161 0.0081697419
0.0490041290 0.0200497097 0.0085253226
0.0662642581 0.0194802258 0.0088820323
0.0926530323 0.0189325484 0.0096485161
0.1245521290 0.0209566774 0.0101497097
0.1598453226 0.0260709355 0.0103590968
0.1977379032 0.0307205161 0.0101457742
0.2398501935 0.0326470323 0.0103110645
0.2833970645 0.0357872581 0.0114715484
0.3282344839 0.0402426774 0.0125715161
0.3806544194 0.0435612903 0.0160532581
0.4323620323 0.0386443548 0.0193854839
0.4781975484 0.0375097742 0.0224322903
0.5253804839 0.0344020645 0.0255898065
0.5704482903 0.0271300000 0.0272205161
0.6049222581 0.0278527097 0.0278294516
0.6351130323 0.0278538387 0.0276133871
0.6634650968 0.0244856774 0.0277414839
0.6857320000 0.0207842903 0.0282176774
0.7037600323 0.0229895484 0.0294367097
0.7202385161 0.0235960000 0.0308346774
0.7342280000 0.0237085484 0.0323635806
0.7454492258 0.0246728065 0.0337357742
0.7555129677 0.0244681935 0.0347982581
0.7647713871 0.0233662258 0.0358481935
0.7739500968 0.0226258387 0.0373348065
0.0160318387 0.0268159032 0.0126354839
0.0193086774 0.0264298387 0.0123521290
0.0222780323 0.0256239677 0.0115890968
0.0247903871 0.0249430968 0.0109624516
0.0278800323 0.0243099032 0.0102776129
0.0335470968 0.0241609032 0.0097050000
0.0398319355 0.0241530323 0.0095801613
0.0487196774 0.0240546452 0.0094247097
0.0659074839 0.0234117419 0.0096470645
0.0921030323 0.0227740645 0.0101752903
0.1240344516 0.0248282903 0.0103818710
0.1594295806 0.0301838710 0.0103363226
0.1973927419 0.0343232903 0.0102014839
0.2395726452 0.0359586129 0.0105115484
0.2833763548 0.0393171290 0.0117561613
0.3282194839 0.0434534194 0.0130132903
0.3806034516 0.0461869032 0.0163337097
0.4323000323 0.0416712903 0.0195793226
0.4780991613 0.0401847419 0.0225916452
0.5252949032 0.0366378387 0.0257450000
0.5703585484 0.0293892258 0.0271764194
0.6048466129 0.0307392258 0.0275427419
0.6350206452 0.0301120000 0.0273759677
0.6633142581 0.0263580968 0.0275622903
0.6855733871 0.0223204194 0.0282486774
0.7036013871 0.0243896129 0.0294367097
0.7200704194 0.0261546129 0.0309317742
0.7340729355 0.0262740323 0.0324295484
0.7452972581 0.0265127419 0.0339378065
0.7553840968 0.0263690323 0.0350182581
0.7646395484 0.0253193871 0.0360390323
0.7737651290 0.0241896774 0.0374956129
0.0169660323 0.0338725161 0.0133173871
0.0205769032 0.0341149677 0.0134310000
0.0237911935 0.0332472581 0.0129430968
0.0262962903 0.0325623548 0.0123448065
0.0294276452 0.0318790968 0.0116871613
0.0347662903 0.0313561613 0.0109113871
0.0408451935 0.0310068065 0.0106357419
0.0494613871 0.0308715484 0.0103543548
0.0659532258 0.0302598710 0.0101615484
0.0916609677 0.0297273548 0.0104862581
0.1234466774 0.0313866452 0.0106318065
0.1592299032 0.0361841613 0.0105373548
0.1970549355 0.0394494839 0.0104468387
0.2393396129 0.0410450968 0.0108344839
0.2829647419 0.0438478710 0.0118388065
0.3279161935 0.0474950645 0.0133645161
0.3803631290 0.0494720323 0.0166688387
0.4322164194 0.0455919355 0.0198267097
0.4779571935 0.0436645484 0.0228095806
0.5251690968 0.0395093871 0.0259262581
0.5701990968 0.0320395806 0.0271814194
0.6046931290 0.0345254194 0.0271608387
0.6349400968 0.0330674516 0.0270080645
0.6631210645 0.0288117419 0.0272945161
0.6853404516 0.0244404516 0.0282609677
0.7033949355 0.0263070323 0.0294488387
0.7198651613 0.0293157742 0.0310639677
0.7339261935 0.0294679355 0.0326067097
0.7451648065 0.0294633548 0.0341341935
0.7552216452 0.0289060645 0.0352830323
0.7644713226 0.0279345806 0.0362929677
0.7735998387 0.0267016774 0.0377746774
0.0182623871 0.0432614839 0.0151627742
0.0221095484 0.0440283871 0.0154559355
0.0253050968 0.0430710645 0.0150004839
0.0280178387 0.0422745484 0.0145994516
0.0313841613 0.0416335806 0.0138963871
0.0367489355 0.0411534194 0.0130861290
0.0422488710 0.0398261613 0.0123054839
0.0501550645 0.0388716129 0.0115434516
0.0658330645 0.0384621613 0.0107086774
0.0906428710 0.0385494839 0.0105453226
0.1220262581 0.0398519355 0.0105136452
0.1584621290 0.0435576129 0.0104786452
0.1962996774 0.0459977419 0.0105446452
0.2385537742 0.0472334194 0.0109704516
0.2821831290 0.0499621290 0.0116761935
0.3270156129 0.0529706129 0.0134001935
0.3794140968 0.0538588065 0.0168331290
0.4313080323 0.0502104194 0.0199860968
0.4772791290 0.0482328387 0.0229798710
0.5242920645 0.0434885161 0.0260637742
0.5698487419 0.0355115484 0.0272729355
0.6044724839 0.0390950968 0.0268820645
0.6349133548 0.0374437419 0.0268840323
0.6630251613 0.0326352258 0.0271252258
0.6852099677 0.0282927742 0.0284323548
0.7034675161 0.0310413226 0.0300933548
0.7200039032 0.0349782258 0.0319210968
0.7340885806 0.0330949032 0.0333755161
0.7453948065 0.0331330323 0.0349180000
0.7554535806 0.0330929677 0.0359815161
0.7646674839 0.0327410645 0.0366962581
0.7737784194 0.0314733226 0.0381392258
0.0218668387 0.0584745806 0.0184621290
0.0267947419 0.0600204516 0.0192154839
0.0301031613 0.0586872903 0.0184426452
0.0328005806 0.0576762903 0.0178251290
0.0364603226 0.0571455161 0.0169981613
0.0410809355 0.0564307097 0.0157776774
0.0461583548 0.0548369032 0.0145973548
0.0533449032 0.0530146452 0.0134623226
0.0667398387 0.0508523548 0.0116920323
0.0899499355 0.0502492903 0.0106243226
0.1203034516 0.0513444516 0.0104249677
0.1571163548 0.0539825161 0.0104211935
0.1952201613 0.0557810645 0.0105679355
0.2374790645 0.0573739032 0.0110089355
0.2812163548 0.0603991613 0.0117977097
0.3259817742 0.0625364516 0.0136817097
0.3782901290 0.0627173548 0.0169648065
0.4301087742 0.0590250645 0.0202302581
0.4759669032 0.0557111935 0.0232739355
0.5229548710 0.0505645806 0.0260364194
0.5684232903 0.0423626452 0.0268900323
0.6031660968 0.0455084516 0.0264608065
0.6337848387 0.0435242903 0.0267519355
0.6625621613 0.0391119032 0.0275867742
0.6847580645 0.0354306774 0.0290508065
0.7025207097 0.0373317097 0.0305974839
0.7188503226 0.0413038710 0.0323842581
0.7328410645 0.0390189032 0.0337809677
0.7442227097 0.0379851935 0.0353954839
0.7545575484 0.0378119677 0.0367193871
0.7640127097 0.0383357419 0.0372842581
0.7732851613 0.0379107097 0.0384357742
0.0242429355 0.0781189032 0.0224579355
0.0298331290 0.0806556129 0.0239288387
0.0342541290 0.0799493871 0.0235903871
0.0376092903 0.0788808710 0.0228746452
0.0411138387 0.0783112581 0.0219187097
0.0455466774 0.0776377097 0.0207224194
0.0506422903 0.0762696129 0.0195018065
0.0577212258 0.0740858710 0.0176143226
0.0702244839 0.0706877742 0.0146343548
0.0907375161 0.0670690323 0.0118596774
0.1189295806 0.0665645161 0.0109107097
0.1552724839 0.0678358710 0.0107521613
0.1939726452 0.0690424839 0.0109146129
0.2361539677 0.0709181613 0.0109853871
0.2800169032 0.0740219677 0.0118353226
0.3246433226 0.0750970323 0.0142971290
0.3768862258 0.0742611935 0.0176007742
0.4285743871 0.0706819355 0.0206621613
0.4744183871 0.0671148387 0.0238244516
0.5214005161 0.0609623871 0.0262363226
0.5668032581 0.0532060323 0.0265208065
0.6014540323 0.0560932581 0.0259070323
0.6319805161 0.0531027097 0.0261989677
0.6606861290 0.0475733548 0.0274233226
0.6828428065 0.0446510645 0.0291184194
0.7005861290 0.0458573871 0.0306385161
0.7169071290 0.0501013871 0.0326004194
0.7309060645 0.0489100000 0.0338676774
0.7422407097 0.0474663871 0.0354102903
0.7525524839 0.0460194194 0.0369687419
0.7620257419 0.0465994194 0.0374312258
0.7712616452 0.0464242903 0.0383628387
0.0282829032 0.1007681935 0.0275910323
0.0325368387 0.1031121613 0.0291018065
0.0371523871 0.1054347097 0.0306300968
0.0404632903 0.1046032903 0.0300857097
0.0439728065 0.1039845806 0.0291622903
0.0480918710 0.1032472258 0.0280096129
0.0526483871 0.1024129355 0.0267010645
0.0592255806 0.1003648387 0.0249299032
0.0719061935 0.0969762258 0.0209082581
0.0928343871 0.0917911290 0.0166937742
0.1191948065 0.0872310323 0.0131933226
0.1532876129 0.0863644516 0.0112483226
0.1925020000 0.0880508065 0.0109805484
0.2346935806 0.0892464516 0.0111637419
0.2786765161 0.0919741935 0.0129277097
0.3232016452 0.0923000000 0.0154440000
0.3753563871 0.0912102258 0.0185637742
0.4269096452 0.0870804516 0.0217776129
0.4726807097 0.0831850323 0.0246166129
0.5196385161 0.0772487742 0.0259868710
0.5649886452 0.0694982903 0.0256468387
0.5995354839 0.0716866129 0.0253295484
0.6299437419 0.0686624194 0.0259124516
0.6585499677 0.0620932581 0.0276469032
0.6806206774 0.0599805806 0.0294919355
0.6983782581 0.0605370645 0.0310838710
0.7147048387 0.0635474839 0.0331284194
0.7286771935 0.0637646452 0.0343866129
0.7399922258 0.0616235484 0.0356054516
0.7503586129 0.0600005806 0.0370766452
0.7598021613 0.0605803871 0.0376037419
0.7690155161 0.0613864839 0.0379762903
0.0334607419 0.1287209355 0.0360659032
0.0371537742 0.1309137097 0.0373595161
0.0411673871 0.1331316452 0.0387156774
0.0449091613 0.1339555161 0.0389581290
0.0482220323 0.1333970968 0.0379572903
0.0522155484 0.1327004194 0.0366754194
0.0567565161 0.1319510968 0.0352628065
0.0631419677 0.1303802581 0.0329315806
0.0748388065 0.1270989677 0.0283734516
0.0944448065 0.1223044839 0.0226653871
0.1214305484 0.1161856774 0.0175571613
0.1532305161 0.1112028065 0.0134468065
0.1907484516 0.1111355806 0.0118713226
0.2335785806 0.1126326774 0.0129156774
0.2773487742 0.1137824516 0.0150049355
0.3219360323 0.1141367419 0.0176233226
0.3738796129 0.1128677097 0.0206257419
0.4251505806 0.1082981290 0.0232433871
0.4708862258 0.1052670645 0.0251692581
0.5177463548 0.1001782581 0.0254369032
0.5630344839 0.0926180000 0.0248160968
0.5975380323 0.0937545161 0.0250259677
0.6278122903 0.0912099677 0.0264235806
0.6562972903 0.0860270968 0.0284754839
0.6782672581 0.0822203226 0.0302298710
0.6959653548 0.0824624194 0.0319500968
0.7122692903 0.0840916774 0.0336133548
0.7262526774 0.0850839677 0.0349940968
0.7375273548 0.0836014194 0.0355411935
0.7478676129 0.0821275484 0.0367154194
0.7573214516 0.0818340000 0.0374590968
0.7665434516 0.0830927097 0.0376570323
0.0439710000 0.1587470968 0.0461230323
0.0485329677 0.1610125161 0.0474143871
0.0537808387 0.1632160645 0.0486715161
0.0575043226 0.1639570968 0.0488001935
0.0606502903 0.1633990000 0.0478159355
0.0643874839 0.1627413548 0.0466178710
0.0688467419 0.1621623226 0.0454497419
0.0750967742 0.1611084839 0.0434442903
0.0851339355 0.1579550000 0.0387662581
0.1017584516 0.1534732581 0.0318267097
0.1249073226 0.1480440000 0.0249470000
0.1557610645 0.1412973226 0.0194211613
0.1902426774 0.1372936129 0.0164026452
0.2327319032 0.1377719355 0.0166528710
0.2763989032 0.1379975806 0.0186434516
0.3208982581 0.1380392258 0.0207875161
0.3725125161 0.1363812581 0.0229937097
0.4237158387 0.1334337097 0.0245843871
0.4693641935 0.1317592258 0.0251633226
0.5160043871 0.1278457742 0.0247046129
0.5611169032 0.1233837097 0.0247012903
0.5954372581 0.1223399355 0.0259616452
0.6255029677 0.1195071290 0.0278390968
0.6538669355 0.1174481613 0.0300862903
0.6757989032 0.1145207419 0.0315919677
0.6934480000 0.1133697742 0.0332416774
0.7097501290 0.1136440968 0.0343253871
0.7237281290 0.1143640645 0.0356938065
0.7350007742 0.1136828387 0.0360956129
0.7452745484 0.1120217097 0.0368810323
0.7547448065 0.1108309032 0.0376304516
0.7639168065 0.1117732258 0.0376983548
0.0534812258 0.1875462258 0.0548963548
0.0574313548 0.1898362258 0.0561062258
0.0611737097 0.1921938065 0.0573495484
0.0644532903 0.1941762903 0.0584374839
0.0679015806 0.1956924516 0.0591430968
0.0715302903 0.1951509032 0.0580325484
0.0764966452 0.1948004516 0.0570386452
0.0836189355 0.1946104516 0.0557727742
0.0941578065 0.1916040645 0.0516023226
0.1104817419 0.1868759677 0.0448432581
0.1311998065 0.1812381613 0.0369361935
0.1589825161 0.1747428065 0.0296847742
0.1925957742 0.1673742581 0.0247431935
0.2323343871 0.1642798387 0.0222874194
0.2759269355 0.1637510323 0.0225663548
0.3199935161 0.1635089677 0.0238787097
0.3715665161 0.1627771613 0.0248689355
0.4226999677 0.1619215161 0.0251553871
0.4680816129 0.1604790968 0.0246720645
0.5144852581 0.1584760968 0.0246179677
0.5591727097 0.1568316774 0.0262840645
0.5931081935 0.1547981290 0.0281311290
0.6229346774 0.1530555161 0.0302092903
0.6511496129 0.1515829677 0.0320780000
0.6730473548 0.1511814194 0.0335101613
0.6906964839 0.1500922581 0.0348510968
0.7069590645 0.1497547097 0.0356581935
0.7209099677 0.1501298387 0.0366623226
0.7321626129 0.1502991290 0.0369235484
0.7424237742 0.1499391290 0.0372303226
0.7518430323 0.1489151290 0.0379145161
0.7609826774 0.1488757742 0.0378523226
0.0584249677 0.2216000000 0.0642108065
0.0617665484 0.2239448065 0.0653149355
0.0650839032 0.2263165484 0.0664321290
0.0678944194 0.2283150323 0.0673855484
0.0708992903 0.2303626452 0.0683575806
0.0748137097 0.2306815484 0.0679626774
0.0795995484 0.2304835484 0.0671277419
0.0860024194 0.2302520645 0.0661277097
0.0965076129 0.2278265161 0.0629822581
0.1141798710 0.2229760000 0.0566850968
0.1368072258 0.2171029032 0.0485769355
0.1638155161 0.2100800645 0.0402730323
0.1963158387 0.2023653871 0.0336150323
0.2345041290 0.1943306452 0.0281752903
0.2765393226 0.1924553871 0.0262392258
0.3200506129 0.1915492258 0.0255252903
0.3714106129 0.1918195484 0.0253493871
0.4221447097 0.1916180323 0.0247130968
0.4671411935 0.1908936774 0.0251817097
0.5129980968 0.1903254839 0.0265069355
0.5572035161 0.1892032581 0.0286864516
0.5908054516 0.1882285806 0.0306109355
0.6204439032 0.1872735484 0.0324715484
0.6485261935 0.1867023871 0.0343089677
0.6702960323 0.1864967419 0.0354358065
0.6878491935 0.1865480000 0.0366061613
0.7040024839 0.1864842581 0.0371057742
0.7178617419 0.1861097419 0.0376409355
0.7290652903 0.1861387419 0.0376520645
0.7392861613 0.1867475161 0.0371306774
0.7486759677 0.1871021935 0.0370190323
0.7578260645 0.1875210645 0.0366997097
0.0580506774 0.2568625806 0.0721660323
0.0626456452 0.2594920323 0.0735570323
0.0670127097 0.2621568710 0.0748960323
0.0704749355 0.2642938710 0.0758785806
0.0741685161 0.2665957419 0.0769947097
0.0794443548 0.2688686774 0.0780947097
0.0844196129 0.2690143871 0.0775439677
0.0910958387 0.2688480000 0.0766245484
0.1015260323 0.2674159677 0.0741036774
0.1171484194 0.2620050645 0.0675294516
0.1391318387 0.2559547097 0.0593921290
0.1675266129 0.2489319355 0.0502666774
0.2005755161 0.2408732581 0.0417860645
0.2393109032 0.2321518387 0.0350461290
0.2788610645 0.2248790968 0.0299753871
0.3213994516 0.2233226129 0.0270057419
0.3715001290 0.2225901613 0.0253275161
0.4217115806 0.2227960000 0.0260600323
0.4663343226 0.2229981290 0.0275741935
0.5115663226 0.2227153226 0.0294861613
0.5553116129 0.2219680645 0.0316800968
0.5886527097 0.2219277742 0.0335200323
0.6180076452 0.2214491935 0.0350665484
0.6459194516 0.2214732581 0.0363286452
0.6675444839 0.2215052581 0.0370835806
0.6849466452 0.2217229032 0.0368779677
0.7010429355 0.2219540968 0.0367853548
0.7148813548 0.2222656452 0.0360944516
0.7261077097 0.2222063871 0.0359623871
0.7362769677 0.2226060323 0.0352438710
0.7456507097 0.2230414194 0.0346817742
0.7548038387 0.2235828387 0.0342348710
0.0595623548 0.2941706129 0.0795319032
0.0628640645 0.2964839677 0.0804176452
0.0669786452 0.2990143226 0.0814792581
0.0701627419 0.3013277097 0.0826270000
0.0735432581 0.3036448387 0.0837301935
0.0777579355 0.3063030000 0.0849257097
0.0825343226 0.3094178065 0.0863895161
0.0893464839 0.3099218065 0.0861392903
0.1020460323 0.3099444194 0.0853741613
0.1202243871 0.3050519032 0.0800604516
0.1424974839 0.2983939355 0.0718951935
0.1706866452 0.2908403871 0.0612665161
0.2046541935 0.2825534839 0.0506991290
0.2438640000 0.2732368387 0.0415715484
0.2839445484 0.2646819032 0.0356275806
0.3235863871 0.2582582903 0.0318447419
0.3725193871 0.2567945161 0.0298403226
0.4214880000 0.2560927742 0.0295331290
0.4652780645 0.2560885484 0.0309883548
0.5101012903 0.2561813226 0.0331815806
0.5535356129 0.2563987419 0.0348433548
0.5865499032 0.2564312258 0.0360371613
0.6157828065 0.2569306452 0.0364832903
0.6435084516 0.2571017097 0.0366715484
0.6650490000 0.2577000323 0.0363064194
0.6824448710 0.2583707742 0.0354770968
0.6983970000 0.2586421613 0.0349857097
0.7121345806 0.2591699032 0.0343233548
0.7232743548 0.2595023871 0.0337042903
0.7333196452 0.2598288065 0.0337348065
0.7425713871 0.2602201290 0.0336521613
0.7516280968 0.2604540645 0.0331904516
0.0588504839 0.3341565806 0.0881091935
0.0611402581 0.3366101613 0.0888867097
0.0635473548 0.3391675484 0.0897080000
0.0656804516 0.3413193226 0.0904502903
0.0685334839 0.3435620000 0.0910979677
0.0730944516 0.3463244839 0.0919336129
0.0779330000 0.3493582258 0.0928921613
0.0847492581 0.3526710968 0.0938961290
0.0981857097 0.3534840968 0.0940818387
0.1193166452 0.3498023548 0.0909553548
0.1451514839 0.3427173871 0.0836321613
0.1751690000 0.3349048065 0.0737855806
0.2087693548 0.3263222581 0.0627527419
0.2488434516 0.3169820000 0.0525119032
0.2891471290 0.3075621935 0.0447506774
0.3286273548 0.2990879677 0.0399896452
0.3741206452 0.2924211290 0.0367794516
0.4220957419 0.2914416774 0.0367472581
0.4649979677 0.2908580323 0.0366102581
0.5092327419 0.2911347097 0.0374812258
0.5523000968 0.2919066452 0.0374973226
0.5852019677 0.2925642903 0.0372126129
0.6140964194 0.2931094516 0.0359913548
0.6415014516 0.2936923226 0.0347443548
0.6627639032 0.2940447742 0.0337752258
0.6798893226 0.2943606129 0.0334450323
0.6956815484 0.2948176129 0.0328250323
0.7092401613 0.2951588387 0.0332648065
0.7202019032 0.2954397419 0.0335572581
0.7301928387 0.2956556452 0.0334553548
0.7393651290 0.2959800968 0.0339807742
0.7483123871 0.2963229677 0.0344800968
0.0616513226 0.3774817419 0.0973245806
0.0650988710 0.3800875484 0.0979660968
0.0686938065 0.3826095161 0.0985116774
0.0720146774 0.3846358065 0.0989332258
0.0758897097 0.3868328710 0.0995836774
0.0799559032 0.3895415161 0.1005798710
0.0843458710 0.3923921935 0.1016246774
0.0909295806 0.3961152258 0.1031188065
0.1017747742 0.3984691613 0.1031280000
0.1228895806 0.3972510323 0.1011901613
0.1495069355 0.3892726452 0.0937915484
0.1802900000 0.3808572258 0.0837925484
0.2150160645 0.3720598387 0.0726620968
0.2542488065 0.3623117419 0.0618108387
0.2949466129 0.3528275484 0.0531714839
0.3345104839 0.3439479355 0.0482610645
0.3793601290 0.3348230645 0.0444357097
0.4237481613 0.3292028710 0.0411096774
0.4658132903 0.3286174516 0.0390752903
0.5090900323 0.3281690645 0.0369706452
0.5513316774 0.3283583871 0.0354567097
0.5836429032 0.3287975806 0.0343461613
0.6122081290 0.3292983871 0.0336687419
0.6392789355 0.3298085484 0.0334466452
0.6602997419 0.3303431935 0.0337643548
0.6773230000 0.3307925484 0.0340203871
0.6929774839 0.3312761935 0.0345528710
0.7064463548 0.3317419355 0.0352219677
0.7173700000 0.3321978065 0.0360008387
0.7273274194 0.3325743548 0.0363812258
0.7364649032 0.3329603226 0.0370886452
0.7453710645 0.3333211290 0.0377803226
0.0627130645 0.4177855161 0.1059953226
0.0653887419 0.4203342903 0.1068212258
0.0685780323 0.4230747419 0.1076993548
0.0717150000 0.4253315161 0.1084390000
0.0748745806 0.4275962581 0.1091476774
0.0784852581 0.4305115484 0.1099904516
0.0822871290 0.4337376452 0.1108722258
0.0898419677 0.4379658065 0.1123487742
0.1044210323 0.4422223548 0.1135124516
0.1270094839 0.4424972258 0.1124296129
0.1553787419 0.4344550000 0.1045818065
0.1874898065 0.4257564839 0.0936279032
0.2209452581 0.4164784194 0.0809857419
0.2611290645 0.4065522581 0.0682470323
0.3009552581 0.3970119677 0.0572303548
0.3406937097 0.3879513548 0.0491867419
0.3852270645 0.3780804194 0.0428684516
0.4286152581 0.3693019355 0.0385674839
0.4670893871 0.3645387097 0.0365999677
0.5094014194 0.3640305484 0.0347557742
0.5508448710 0.3637506452 0.0337570968
0.5825716129 0.3637604516 0.0336411613
0.6106814194 0.3640442258 0.0340474516
0.6375368710 0.3647759032 0.0352085161
0.6583901935 0.3653721613 0.0366832581
0.6752683548 0.3659698710 0.0377451613
0.6908233226 0.3665213548 0.0390514194
0.7042305806 0.3670666452 0.0400022581
0.7150451613 0.3675234194 0.0407782581
0.7249086129 0.3679423226 0.0415167419
0.7340199355 0.3684014194 0.0417309677
0.7428972903 0.3688362903 0.0419736774
0.0650079355 0.4546693226 0.1157799032
0.0688553871 0.4572695484 0.1165437097
0.0736102903 0.4598558065 0.1170897419
0.0773464194 0.4618941613 0.1174887097
