LUTs/SPK Cube Block1 S32/TheBrim_SPK_Type-K_Block1_S32.cube
TITLE "TheBrim® SPK Block 1"
# TheBrim® d.o.o. Croatia
# Copyright: (C) Copyright 2020 TheBrim® d.o.o. Croatia
LUT_3D_SIZE 8
DOMAIN_MIN 0.000000 0.000000 0.000000
DOMAIN_MAX 0.903226 0.903226 0.903226
0.0022280000 0.0019840000 0.0018310000
0.0086709355 0.0060632258 0.0058192258
0.0282255806 0.0099333871 0.0101360645
0.1509103226 0.0238724516 0.0327620000
0.3415770968 0.0428260968 0.0685127742
0.5432060000 0.0293355806 0.0981438065
0.6758269032 0.0000000000 0.1287929032
0.7153624516 0.0000000000 0.1542994516
0.0073471290 0.0118160323 0.0073142258
0.0134995161 0.0138674839 0.0065276129
0.0427810645 0.0186765161 0.0095659677
0.1518496129 0.0294650645 0.0264660323
0.3439500000 0.0439550968 0.0627216774
0.5459498065 0.0297389677 0.0945914839
0.6765828387 0.0003445806 0.1243218710
0.7169878710 0.0000000000 0.1492405161
0.0049391935 0.0427838065 0.0104194194
0.0136135161 0.0478307419 0.0092810645
0.0611916129 0.0659602258 0.0065132903
0.1765904516 0.0861636774 0.0177199355
0.3735691935 0.1017750968 0.0467874516
0.5755959032 0.1020820645 0.0586243226
0.7086183226 0.0952560645 0.0795418065
0.7505996774 0.0840810323 0.1033492903
0.0000000000 0.1082004516 0.0096189032
0.0000000000 0.1122365806 0.0099594516
0.0341265161 0.1542171935 0.0153680968
0.1973976452 0.1896390645 0.0000000000
0.4246937742 0.2352882258 0.0047212903
0.6512099032 0.2705793548 0.0000000000
0.7913968065 0.2936224516 0.0000000000
0.8360238065 0.2949403871 0.0168153548
0.0000000000 0.2342630000 0.0164971935
0.0000000000 0.2410533226 0.0150125161
0.0000000000 0.3137590000 0.0117653548
0.2242138710 0.3810089677 0.0000000000
0.5020134194 0.4368612903 0.0000000000
0.7254187419 0.4717562258 0.0000000000
0.8615557419 0.5008767742 0.0000000000
0.9089109677 0.5089778387 0.0000000000
0.0000000000 0.3478164516 0.0007905806
0.0000000000 0.3625979677 0.0000000000
0.0000000000 0.4536538387 0.0000000000
0.2004187419 0.5601059355 0.0000000000
0.5635357097 0.6325183548 0.0000000000
0.7812035806 0.6535647419 0.0000000000
0.9041957097 0.6719361613 0.0000000000
0.9402951290 0.6720158710 0.0000000000
0.0000000000 0.4493385161 0.0000000000
0.0000000000 0.4859158387 0.0000000000
0.0000000000 0.5604534194 0.0000000000
0.2694613871 0.6317365484 0.0000000000
0.5856255161 0.7069456774 0.0000000000
0.8283217097 0.7520268065 0.0000000000
0.9113719032 0.7368968387 0.0000000000
0.9426170000 0.7313175806 0.0000000000
0.0000000000 0.5794178387 0.0000000000
0.0107975484 0.5931462581 0.0000000000
0.2556448387 0.6284900645 0.0000000000
0.4711395484 0.6804344194 0.0000000000
0.6844726452 0.7302491290 0.0000000000
0.8509223226 0.7630927742 0.0000000000
0.9170614839 0.7540492903 0.0000000000
0.9406616452 0.7468870000 0.0000000000
0.0066987419 0.0066234839 0.0084525806
0.0086695806 0.0063210000 0.0101484194
0.0291358065 0.0095678065 0.0155078710
0.1559005806 0.0214235806 0.0399438387
0.3462947419 0.0427395161 0.0738574194
0.5499141290 0.0291178387 0.1014155161
0.6788116129 0.0000000000 0.1304350645
0.7154706774 0.0000000000 0.1550153548
0.0026902903 0.0102126774 0.0089208387
0.0108660323 0.0130724516 0.0123612258
0.0454316452 0.0183768065 0.0181498387
0.1688174194 0.0319272903 0.0397602903
0.3538070968 0.0461930000 0.0716639677
0.5547603548 0.0290388065 0.0997794516
0.6793617742 0.0000000000 0.1300616129
0.7175255161 0.0000000000 0.1529515484
0.0000000000 0.0354321290 0.0059057419
0.0065347419 0.0452031613 0.0129923226
0.0603183548 0.0657752581 0.0112235484
0.1854898387 0.0844875806 0.0243075161
0.3768841935 0.0975793871 0.0495242258
0.5799451935 0.0943536774 0.0613877419
0.7072470323 0.0830893548 0.0827970968
0.7465366774 0.0713598387 0.1052707419
0.0000000000 0.1032756452 0.0083823548
0.0000000000 0.1101655161 0.0097153871
0.0293343548 0.1518230968 0.0153936774
0.1989537742 0.1875282581 0.0000000000
0.4272972903 0.2319161613 0.0056656129
0.6542583226 0.2656790645 0.0000542903
0.7915886452 0.2869712903 0.0019354839
0.8336406129 0.2871459032 0.0239949355
0.0000000000 0.2337264839 0.0168495484
0.0000000000 0.2404615161 0.0153863871
0.0000000000 0.3133032903 0.0122416774
0.2244782903 0.3786936452 0.0000000000
0.5001102581 0.4313146452 0.0000000000
0.7271974839 0.4684349032 0.0000000000
0.8621451935 0.4964522903 0.0000000000
0.9080498387 0.5047638387 0.0000000000
0.0000000000 0.3514554839 0.0007579355
0.0000000000 0.3634731290 0.0000000000
0.0000000000 0.4539095161 0.0000000000
0.2045634839 0.5597957742 0.0000000000
0.5663059032 0.6309706452 0.0000000000
0.7784758387 0.6486709355 0.0000000000
0.9045702903 0.6697237097 0.0000000000
0.9408953548 0.6713334839 0.0000000000
0.0000000000 0.4587973871 0.0000000000
0.0000000000 0.4896750645 0.0000000000
0.0000000000 0.5632581935 0.0000000000
0.2789759032 0.6337632903 0.0000000000
0.5887871290 0.7076414516 0.0000000000
0.8314446452 0.7524294839 0.0000000000
0.9122451613 0.7369109355 0.0000000000
0.9432375161 0.7315672258 0.0000000000
0.0000000000 0.5828128387 0.0000000000
0.0401456774 0.5963526774 0.0000000000
0.2686377742 0.6313400323 0.0000000000
0.4780361290 0.6820936129 0.0000000000
0.6871583548 0.7308504516 0.0000000000
0.8536200645 0.7635999677 0.0000000000
0.9250206452 0.7618802903 0.0000000000
0.9485490323 0.7549742258 0.0000000000
0.0082124516 0.0120713548 0.0346916452
0.0090640000 0.0091809032 0.0369535806
0.0262424516 0.0059588710 0.0465342581
0.1274835484 0.0143904839 0.0744710000
0.3394649677 0.0328840968 0.1220550000
0.5557389032 0.0144188710 0.1669313871
0.6795977097 0.0000000000 0.2048929032
0.7143498710 0.0000000000 0.2288504839
0.0015877419 0.0146045484 0.0349456774
0.0100080968 0.0161375484 0.0387987419
0.0308446774 0.0137764839 0.0513785806
0.1408286774 0.0238723871 0.0776437097
0.3515005161 0.0390330968 0.1192460000
0.5613343226 0.0179513871 0.1591000645
0.6805763548 0.0000000000 0.1956805161
0.7183790645 0.0000000000 0.2250979355
0.0000000000 0.0421910323 0.0351383226
0.0000000000 0.0487855484 0.0426805806
0.0419322903 0.0702891935 0.0696365161
0.1825581290 0.0892981935 0.0881535806
0.3864930968 0.1073423871 0.1205564194
0.6003243226 0.1171431935 0.1545380000
0.7266483871 0.1131590000 0.1882973226
0.7658710968 0.1049578387 0.2209680645
0.0000000000 0.1142855161 0.0324303871
0.0000000000 0.1231935161 0.0384856774
0.0000000000 0.1607291290 0.0595062258
0.2026526774 0.2035490968 0.0722744194
0.4374110968 0.2405317097 0.0916392258
0.6629352903 0.2706378387 0.1069623226
0.7979205806 0.2892769677 0.1344427419
0.8406046774 0.2941983548 0.1678978710
0.0000000000 0.2304519355 0.0209029355
0.0000000000 0.2402491935 0.0215525484
0.0000000000 0.3068375484 0.0209510000
0.2207191935 0.3823184516 0.0167365806
0.5012572581 0.4362052581 0.0000000000
0.7361784839 0.4783836774 0.0000000000
0.8704737419 0.5077847419 0.0000000000
0.9151176452 0.5162452258 0.0061272258
0.0000000000 0.3453202258 0.0018902258
0.0000000000 0.3597194839 0.0000000000
0.0000000000 0.4532275806 0.0000000000
0.2052682903 0.5581262903 0.0000000000
0.5693007097 0.6321699677 0.0000000000
0.7841127419 0.6561614194 0.0000000000
0.9155047097 0.6884293226 0.0000000000
0.9609997097 0.7017535161 0.0000000000
0.0000000000 0.4717642258 0.0000000000
0.0000000000 0.4995274516 0.0000000000
0.0000000000 0.5708379677 0.0000000000
0.3026408065 0.6419276129 0.0000000000
0.5971447097 0.7138515806 0.0000000000
0.8383434839 0.7613388710 0.0000000000
0.9306112581 0.7639651935 0.0000000000
0.9739884194 0.7732798710 0.0000000000
0.0000000000 0.5903740000 0.0000000000
0.0999275806 0.6035834516 0.0000000000
0.3009930323 0.6388287097 0.0000000000
0.4955405161 0.6865108065 0.0000000000
0.6939155161 0.7370272903 0.0000000000
0.8610779677 0.7799820968 0.0000000000
0.9404329677 0.7949396452 0.0000000000
0.9786851613 0.8000478710 0.0000000000
0.0108246452 0.0271507419 0.1155425484
0.0115418387 0.0273133871 0.1262592903
0.0320691935 0.0226133871 0.1457139355
0.1209718710 0.0060177097 0.1579826774
0.3224996774 0.0000000000 0.2258850000
0.5645650968 0.0000000000 0.3082650968
0.6725740645 0.0000000000 0.3426041935
0.7037874516 0.0000000000 0.3606481290
0.0056783871 0.0341797742 0.1306996129
0.0105666774 0.0341739355 0.1452607097
0.0320621290 0.0274539032 0.1626576129
0.1309725484 0.0052047742 0.1627294194
0.3407235806 0.0002511290 0.2260269355
0.5693960323 0.0000000000 0.2971518710
0.6761328387 0.0000000000 0.3340329677
0.7097461613 0.0000000000 0.3592797742
0.0000000000 0.0677648710 0.1403877097
0.0000000000 0.0723657419 0.1526643871
0.0266799677 0.0853910323 0.1881055484
0.1745490000 0.0884705161 0.2099687419
0.4037515806 0.1045829032 0.2659617097
0.6181386129 0.1091724194 0.3158715806
0.7307175161 0.0961763871 0.3535242903
0.7676992258 0.0815558065 0.3820551613
0.0000000000 0.1352173871 0.1241334839
0.0000000000 0.1443340968 0.1368032258
0.0000000000 0.1825469355 0.1882886774
0.1879011935 0.2223953548 0.2297481935
0.4547542903 0.2645965161 0.2763938387
0.6886520000 0.3056582258 0.3284909032
0.8145308387 0.3231407097 0.3674376129
0.8541385161 0.3260457742 0.3976027419
0.0000000000 0.2608280323 0.1328028387
0.0000000000 0.2718635484 0.1412010645
0.0000000000 0.3426437097 0.1936614194
0.1544809677 0.4099288065 0.2313950968
0.5021923226 0.4702690323 0.2603391935
0.7481907097 0.5132350000 0.2917350645
0.8770644194 0.5369635484 0.3212951935
0.9207300323 0.5466015161 0.3518295484
0.0000000000 0.3675590000 0.1171175484
0.0000000000 0.3900136774 0.1266892581
0.0000000000 0.4878894194 0.1699947097
0.0172827097 0.5841061290 0.1913577419
0.5515320645 0.6727601290 0.2151091290
0.7881696452 0.7022900968 0.2219337419
0.9185475484 0.7304059032 0.2538963548
0.9630828065 0.7445274194 0.2894563226
0.0000000000 0.5062039677 0.1452585806
0.0000000000 0.5359386774 0.1543480645
0.0000000000 0.5906832903 0.1676951613
0.2008713226 0.6787745806 0.1969661613
0.5688428065 0.7543885484 0.1723367097
0.8301842903 0.8044838710 0.1352157742
0.9324371290 0.8099819032 0.1709094839
0.9751047419 0.8206226774 0.2246818387
0.0000000000 0.6124297419 0.0745956129
0.0000040000 0.6324352258 0.0886226774
0.2606123226 0.6701729032 0.0882747742
0.4747304516 0.7228597419 0.0836837742
0.6861493871 0.7788734516 0.1094393226
0.8534249677 0.8217653871 0.1570165806
0.9394716129 0.8396223226 0.2310955161
0.9778336452 0.8442119032 0.2112151290
0.0067380968 0.0508343871 0.2635370968
0.0087942903 0.0528151935 0.2843764194
0.0483696129 0.0387151935 0.3045986452
0.1798125161 0.0183500645 0.3365766774
0.3129078065 0.0000000000 0.3097025161
0.5350499677 0.0000000000 0.4062413548
0.6466627097 0.0000000000 0.4450476452
0.6658287097 0.0000000000 0.4470872903
0.0000000000 0.0668187742 0.2919903226
0.0057730968 0.0610906774 0.3091606452
0.0418661613 0.0438559032 0.3319976452
0.1918316129 0.0188571613 0.3671382581
0.3352254516 0.0000000000 0.3251624194
0.5522736129 0.0000000000 0.4135600968
0.6646837097 0.0000000000 0.4579596774
0.6944609032 0.0000000000 0.4730216129
0.0000000000 0.1152765161 0.3376699677
0.0000000000 0.1112482258 0.3527862258
0.0134248387 0.1150206129 0.3720780323
0.2108025806 0.1024266774 0.4049780645
0.4391214194 0.0656797097 0.4353244194
0.6326835161 0.0458471613 0.4799083548
0.7279110323 0.0221321613 0.5068932581
0.7575851613 0.0063161290 0.5193983548
0.0000000000 0.2052966452 0.3243614516
0.0000000000 0.2106147742 0.3361916452
0.0000000000 0.2352996774 0.3848324839
0.2103290645 0.2687999677 0.4408356129
0.4804355161 0.2798715806 0.4744998710
0.7059739032 0.3097859032 0.5261899032
0.8133505484 0.3174387419 0.5558502903
0.8488906774 0.3156425161 0.5737108065
0.0000000000 0.2945864516 0.2743381935
0.0000000000 0.3058097097 0.2877981290
0.0000000000 0.3815129677 0.3790243548
0.0724864839 0.4468923226 0.4419812581
0.5028467419 0.5015310000 0.4917524194
0.7555070000 0.5459910645 0.5316148387
0.8766774194 0.5630327097 0.5610310968
0.9178760323 0.5650210323 0.5839466774
0.0000000000 0.4081195484 0.2745114516
0.0000000000 0.4309978387 0.2941088387
0.0000000000 0.5304397097 0.3780025161
0.0000000000 0.6236472258 0.4370550968
0.5159713548 0.7037208065 0.4924943871
0.7776914516 0.7374058387 0.5112711935
0.9113659032 0.7679622258 0.5428350323
0.9547364839 0.7757233871 0.5625037419
0.0000000000 0.5296207097 0.3212153548
0.0000000000 0.5684284194 0.3487508065
0.0000000000 0.6213585484 0.3800648387
0.0000000000 0.7053362581 0.4258894839
0.5222954194 0.7904632258 0.4780060323
0.8075581935 0.8398340645 0.4950325484
0.9202722581 0.8492285161 0.5120650968
0.9642805806 0.8567525161 0.5313718387
0.0000000000 0.6528527742 0.3323903226
0.0000000000 0.6692081935 0.3403530645
0.0593851613 0.7065939355 0.3598603871
0.4347770323 0.7641952903 0.4075415161
0.6641935484 0.8163805161 0.4438421613
0.8362642903 0.8562216774 0.4843259677
0.9299158710 0.8760327742 0.5179121290
0.9667457419 0.8797636452 0.5182889032
0.0001082258 0.0743912903 0.3937457097
0.0162883548 0.0685544516 0.4028488710
0.0782374839 0.0440920645 0.4138217419
0.2125696774 0.0182954839 0.4363523226
0.3581906774 0.0000000000 0.4303047742
0.5109221290 0.0000000000 0.4494035806
0.6478320000 0.0000000000 0.5074393548
0.6996263871 0.0000000000 0.5271903871
0.0000000000 0.0945002258 0.4210874194
0.0000000000 0.0891488387 0.4260740000
0.0738386129 0.0594992903 0.4305598710
0.2175588710 0.0455865484 0.4596076774
0.3862196774 0.0000000000 0.4641634839
0.5514089677 0.0000000000 0.4947068065
0.6685163871 0.0000000000 0.5291374516
0.7183011290 0.0000000000 0.5475228387
0.0000000000 0.1440390323 0.4649457742
0.0000000000 0.1414055484 0.4682450645
0.0278497097 0.1459694839 0.4918429677
0.2364709355 0.1223015161 0.5142346774
0.4403213871 0.0931023871 0.5281126452
0.6195431935 0.0388825806 0.5571941935
0.7241929355 0.0271310968 0.5822204194
0.7667561935 0.0266073548 0.5991950000
0.0000000000 0.2595981613 0.5085114516
0.0000000000 0.2651210645 0.5212363871
0.0000000000 0.2750695806 0.5455636452
0.2341424194 0.3063672581 0.6055670323
0.5099005806 0.3011791935 0.6276843226
0.7114079677 0.2962380323 0.6527402903
0.8084653871 0.2994243871 0.6710698387
0.8432991613 0.2997119355 0.6822665484
0.0000000000 0.3674994516 0.4515086452
0.0000000000 0.3830744839 0.4740932581
0.0000000000 0.4391893548 0.5542994839
0.0326520000 0.4963820968 0.6204412258
0.5272581613 0.5402585161 0.6709626129
0.7631906129 0.5614258710 0.6963824194
0.8755769032 0.5748417097 0.7185414516
0.9136008387 0.5738554194 0.7305227419
0.0000000000 0.4349038710 0.4016997097
0.0000000000 0.4585472258 0.4268474839
0.0000000000 0.5582947097 0.5329855484
0.0000000000 0.6505482258 0.6079918710
0.4975852903 0.7241003871 0.6638560000
0.7838754516 0.7685113548 0.6972429032
0.9090210000 0.7911594194 0.7190887742
0.9513171613 0.7955570323 0.7342596452
0.0000000000 0.5326027742 0.4417927742
0.0000000000 0.5830931613 0.4897176774
0.0000000000 0.6487947742 0.5438517097
0.0000000000 0.7300040645 0.6041948710
0.4810377419 0.8093145806 0.6554190968
0.7920828065 0.8614755484 0.6892865161
0.9129796129 0.8748738065 0.7048930645
0.9586082581 0.8830791935 0.7216283226
0.0000000000 0.6844840000 0.5186243548
0.0000000000 0.7001026774 0.5297795161
0.0000000000 0.7388837742 0.5576084839
0.3708544516 0.7880294839 0.5945592581
0.6418172258 0.8422090323 0.6389750000
0.8225175806 0.8794870000 0.6711043871
0.9241877097 0.9011154839 0.6961204516
0.9604455484 0.9050588065 0.7080834839
0.0000000000 0.1280293548 0.4607208710
0.0000000000 0.1293376452 0.4680009355
0.0904424194 0.1278724516 0.4874954839
0.2110714516 0.1065939677 0.4990311613
0.3638476129 0.0811993871 0.5099361935
0.5010927419 0.0113356129 0.5098770968
0.6360299355 0.0000000000 0.5453856129
0.7180260645 0.0000000000 0.5704964516
0.0000000000 0.1421441935 0.4722523548
0.0000000000 0.1436364516 0.4792319677
0.0897184194 0.1492011935 0.5035451613
0.2148543871 0.1282150000 0.5148127742
0.3734996129 0.1104784516 0.5272719032
0.5138740323 0.0590438710 0.5267311613
0.6532976129 0.0242948710 0.5620689677
0.7326010000 0.0375404194 0.5869885484
0.0000000000 0.1841106452 0.5040326452
0.0000000000 0.1858195806 0.5101231935
0.0438928387 0.1941705806 0.5354143871
0.2180277419 0.1847810000 0.5553913226
0.3999782903 0.1778739677 0.5696588065
0.5500033871 0.1563040000 0.5718390000
0.6934185484 0.1500630968 0.6051616129
0.7720660645 0.1693300000 0.6277306774
0.0000000000 0.2784884194 0.5600329355
0.0000000000 0.2795665806 0.5645123548
0.0000000000 0.2917295806 0.5925389355
0.2407562258 0.3137164839 0.6356241935
0.4613773871 0.3075945806 0.6482089677
0.6403398710 0.3108757419 0.6540793871
0.7776488387 0.3363893548 0.6893693226
0.8407306452 0.3574149032 0.7058805484
0.0000000000 0.4085868710 0.5644902258
0.0000000000 0.4226467097 0.5870124516
0.0000000000 0.4595759032 0.6436188710
0.0552861935 0.5181176452 0.7125705806
0.5420294839 0.5524687419 0.7525586774
0.7586295161 0.5568888710 0.7565240323
0.8667483226 0.5748242903 0.7732769677
0.9081539677 0.5855110323 0.7807086129
0.0000000000 0.4580509032 0.4849241290
0.0000000000 0.4815230323 0.5128842258
0.0000000000 0.5819112903 0.6307788387
0.0000000000 0.6744334516 0.7167684194
0.4914744516 0.7426494194 0.7704815484
0.7855316452 0.7806593548 0.7947061935
0.9072397419 0.8033692258 0.8158527097
0.9489921935 0.8075997419 0.8277095484
0.0000000000 0.5341803871 0.5123170323
0.0000000000 0.5637824516 0.5429491613
0.0000000000 0.6523886452 0.6297311290
0.0000000000 0.7376836774 0.7002148710
0.4806421935 0.8224812581 0.7604065484
0.7811711935 0.8701454194 0.7889748387
0.9113375161 0.8873028065 0.8058127097
0.9555990968 0.8953107742 0.8190247419
0.0000000000 0.7073915806 0.6392690645
0.0000000000 0.7234858387 0.6516774194
0.0000000000 0.7562364516 0.6763421613
0.3461362581 0.8052317742 0.7142204839
0.6236220000 0.8547875161 0.7480295161
0.8157785161 0.8925526774 0.7790849677
0.9174508710 0.9129646452 0.7999915161
0.9563107097 0.9176367742 0.8118971290
0.0000000000 0.1683840000 0.4948201290
0.0000000000 0.1701048065 0.5020425161
0.0653714194 0.1758222581 0.5226226774
0.1941803871 0.1635960645 0.5368989032
0.3432644839 0.1539171290 0.5492139355
0.4758370323 0.1324472903 0.5518118710
0.6006876129 0.0959607742 0.5685444194
0.6988909355 0.0935158710 0.5891933226
0.0000000000 0.1821186774 0.5065394194
0.0000000000 0.1838133548 0.5131634516
0.0568747097 0.1909385161 0.5342789355
0.1951115484 0.1795640968 0.5488999032
0.3493514516 0.1716457419 0.5608921613
0.4863102903 0.1529498387 0.5638744839
0.6126651613 0.1277846129 0.5814841613
0.7096810000 0.1257532581 0.6009194839
0.0000000000 0.2168572258 0.5323637097
0.0000000000 0.2183632258 0.5386007097
0.0266839355 0.2255270645 0.5596685806
0.2017855161 0.2235784516 0.5809590323
0.3635522258 0.2184575806 0.5920215161
0.5095975806 0.2078171613 0.5960100968
0.6433377419 0.1960516452 0.6139281935
0.7471808710 0.2242450968 0.6411051290
0.0000000000 0.2897080323 0.5736843226
0.0000000000 0.2925887097 0.5817977742
0.0000000000 0.3023100645 0.6045120000
0.2091124839 0.3171477419 0.6342133226
0.3937387742 0.3177930968 0.6515593226
0.5708273226 0.3309640968 0.6627648065
0.7299499032 0.3635867419 0.6945365806
0.8240163226 0.3978559677 0.7180444516
0.0000000000 0.4179480645 0.6175674839
0.0000000000 0.4260617097 0.6295470968
0.0000000000 0.4541812258 0.6665187742
0.2227487419 0.4972150000 0.7115753548
0.5156358065 0.5381841935 0.7458684194
0.6944401290 0.5560636129 0.7519982903
0.8221983871 0.5856735484 0.7714585161
0.8925742581 0.6203886452 0.7865029032
0.0000000000 0.5003612581 0.5621573871
0.0000000000 0.5279130000 0.5959472258
0.0000000000 0.6178973871 0.6980826452
0.0000000000 0.6909377742 0.7626488065
0.5455340000 0.7500411613 0.8034292581
0.7943738387 0.7805027097 0.8170700645
0.8954420000 0.8010240323 0.8294718065
0.9372006452 0.8146547742 0.8355702581
0.0000000000 0.5286861935 0.5359179032
0.0000000000 0.5524852581 0.5619055484
0.0000000000 0.6489152903 0.6640915806
0.0000000000 0.7436752258 0.7449260000
0.4837038065 0.8277905806 0.8074165806
0.7815395161 0.8743579677 0.8356281613
0.9099886774 0.8916132903 0.8487639032
0.9532610000 0.8989564839 0.8545778065
0.0000000000 0.7152125806 0.7001897742
0.0000000000 0.7309465484 0.7124002258
0.0000000000 0.7681837097 0.7407816774
0.3243102258 0.8141138387 0.7748707419
0.6152560645 0.8622457742 0.8059250645
0.8069260323 0.8982152903 0.8288176452
0.9128395161 0.9179480645 0.8477968387
0.9552539677 0.9231853871 0.8574487742
