LUTs/SPK Cube Block1 S32/TheBrim_SPK_Type-U_Block 1_S32.cube
TITLE "TheBrim® Industrial Imaging Burau"
# © Copyright 2022 - TheBrim® d.o.o. Croatia
LUT_3D_SIZE 8
DOMAIN_MIN 0.000000 0.000000 0.000000
DOMAIN_MAX 0.903226 0.903226 0.903226
0.0127260243 0.0152590219 0.0176394293
0.0600910127 0.0301163870 0.0305652975
0.1414471952 0.0447601257 0.0379319595
0.3297494321 0.0281612633 0.0195591127
0.4566946497 0.0110524541 0.0210544969
0.5676597337 0.0000000000 0.0299628123
0.6468934354 0.0000000000 0.0400465646
0.6653214116 0.0000000000 0.0368549679
0.0290964936 0.0634027127 0.0414759904
0.0633446299 0.0646126054 0.0402080149
0.1497323518 0.0719507183 0.0392127329
0.3017161477 0.0738408681 0.0260092489
0.4435167615 0.0539362124 0.0263252584
0.5711634020 0.0157985022 0.0311707361
0.6545446043 0.0073203927 0.0388317496
0.6826448315 0.0139241036 0.0374594221
0.0247560402 0.1346662827 0.0588378040
0.0659898552 0.1383530593 0.0570884310
0.1478786268 0.1428815432 0.0522970981
0.2796604622 0.1497175850 0.0447168098
0.4412229860 0.1481828228 0.0350859058
0.5907362970 0.1432999358 0.0343839908
0.7003177322 0.1441721611 0.0358685460
0.7464619989 0.1515693412 0.0232744384
0.0000000000 0.2663427816 0.1076686430
0.0000000000 0.2335043820 0.0961111644
0.1232446587 0.2481756855 0.0892446046
0.2734387190 0.2608918652 0.0736233040
0.4547001479 0.2753003197 0.0497729605
0.6249224128 0.2848199805 0.0257660890
0.7512297049 0.2941417662 0.0192627924
0.8195970142 0.3049668116 0.0000000000
0.0000000000 0.4129957644 0.1788731458
0.0000000000 0.4116746284 0.1602276055
0.0244725178 0.4028686961 0.1415338270
0.2819640822 0.4281976880 0.1204517655
0.4819320875 0.4454748386 0.0788448428
0.6680572066 0.4641479436 0.0104105907
0.8071742014 0.4801984657 0.0000000000
0.8855258333 0.4962312677 0.0000000000
0.0000000000 0.5297858569 0.2466950681
0.0000000000 0.5459092285 0.2208718808
0.0000000000 0.5687288496 0.2035012072
0.2787419675 0.5995264781 0.1731180335
0.5149407975 0.6286131272 0.1221647138
0.7014892313 0.6438711646 0.0303349355
0.8494751635 0.6642828137 0.0000000000
0.9277096454 0.6788783142 0.0000000000
0.0000000000 0.6191308756 0.2446631571
0.0000000000 0.6313085596 0.2427139401
0.0595160921 0.6593871288 0.2309851668
0.3388201823 0.6991098084 0.2128288996
0.5491726903 0.7493513685 0.1901372574
0.7339673211 0.7782529404 0.1269786891
0.8716883616 0.7921130546 0.0000000000
0.9492878713 0.8015027675 0.0000000000
0.1708508381 0.6699670454 0.2251601582
0.2337416352 0.6777708046 0.2213011023
0.3306708801 0.6973318862 0.2135219545
0.4742041313 0.7313467071 0.2014210579
0.6195276102 0.7701627055 0.1853439556
0.7624022623 0.8068650832 0.1623402417
0.8823824748 0.8398659175 0.1579092187
0.9626764324 0.8614077186 0.1214706744
0.0184575098 0.0278915231 0.0557485904
0.0506077767 0.0320665884 0.0590839172
0.1425064666 0.0434823057 0.0662359685
0.3450153452 0.0194567296 0.0588309128
0.4644147304 0.0079780073 0.0471395487
0.5713248523 0.0000000000 0.0392127329
0.6488180411 0.0000000000 0.0420351597
0.6658274205 0.0000000000 0.0389735108
0.0107000199 0.0529163190 0.0589864564
0.0498290743 0.0545111329 0.0573030417
0.1517022423 0.0655389757 0.0613865529
0.2987657420 0.0664486103 0.0558066731
0.4443643756 0.0430727732 0.0399717462
0.5735782652 0.0030262086 0.0347748187
0.6509454441 0.0001811394 0.0414848505
0.6781143787 0.0017995801 0.0390788473
0.0000000000 0.1516579420 0.0726772446
0.0382076064 0.1325969625 0.0650625005
0.1440599335 0.1382014535 0.0653155049
0.2836701393 0.1435903494 0.0588318973
0.4432627727 0.1433206093 0.0436408026
0.5947843679 0.1373193836 0.0368421700
0.7007922386 0.1378470505 0.0378384365
0.7435017486 0.1445836625 0.0254746909
0.0000000000 0.2667070292 0.1173901166
0.0000000000 0.2374717277 0.0983793442
0.1168329162 0.2458750188 0.0890486984
0.2752963819 0.2586266388 0.0718286461
0.4572390523 0.2717238019 0.0484065397
0.6273195559 0.2802609785 0.0261510102
0.7530637409 0.2889989836 0.0210239788
0.8176989887 0.2989626326 0.0002274086
0.0000000000 0.4119729177 0.1795740764
0.0000000000 0.4108339055 0.1604717499
0.0247018953 0.4020811337 0.1415968320
0.2820674498 0.4261854660 0.1194515612
0.4824115161 0.4423088377 0.0767932427
0.6698233153 0.4610232897 0.0080341211
0.8084185500 0.4759475976 0.0000000000
0.8852649532 0.4923013312 0.0000000000
0.0000000000 0.5329784380 0.2439848690
0.0000000000 0.5465875166 0.2211918281
0.0000000000 0.5680515460 0.2029341622
0.2804086465 0.5985794343 0.1726454960
0.5164642385 0.6264453616 0.1209538365
0.7024087104 0.6417654196 0.0259157259
0.8502105499 0.6617714740 0.0000000000
0.9284342029 0.6776890950 0.0000000000
0.0000000000 0.6212976568 0.2443648678
0.0000000000 0.6325154990 0.2425426453
0.0722431008 0.6607092492 0.2303551168
0.3439708405 0.7002399604 0.2125128902
0.5509387990 0.7497796056 0.1898812996
0.7363802154 0.7783316967 0.1245726859
0.8733333826 0.7923916548 0.0000000000
0.9498755897 0.8012192451 0.0000000000
0.1874959699 0.6717607188 0.2240939956
0.2442063709 0.6796481565 0.2205755605
0.3380818425 0.6989060266 0.2128328374
0.4791126140 0.7326343717 0.2010361368
0.6219641315 0.7707888176 0.1849905369
0.7655298695 0.8077284485 0.1618234039
0.8823677080 0.8427346136 0.1893004723
0.9601404814 0.8715515226 0.2375937999
0.0067937103 0.0280244243 0.1468646402
0.0346084461 0.0234811736 0.1583768339
0.1361400089 0.0338523862 0.1518144700
0.2968125872 0.0335176722 0.1578255402
0.4580600861 0.0120506895 0.1554766352
0.5795184548 0.0000000000 0.1531011501
0.6546125316 0.0000000000 0.1483127706
0.6694836790 0.0000000000 0.1344113094
0.0000000000 0.0504177773 0.1465830866
0.0299204808 0.0472754032 0.1224807232
0.1244476603 0.0584410694 0.1306457766
0.2737379927 0.0642965960 0.1366814581
0.4436033934 0.0434439120 0.1366391266
0.5811014553 0.0012089083 0.1406999953
0.6559208697 0.0000000000 0.1387960632
0.6825739509 0.0013900477 0.1326481540
0.0000000000 0.1372603165 0.1565280311
0.0209668805 0.1195952914 0.1259066197
0.1251791089 0.1320899692 0.1390372542
0.2630468329 0.1400620698 0.1383107278
0.4297452482 0.1424099902 0.1385282919
0.5880467714 0.1380498478 0.1409146061
0.7014262263 0.1375556524 0.1456114315
0.7461676474 0.1414403040 0.1398907749
0.0000000000 0.2572838449 0.1639389934
0.0000000000 0.2495932978 0.1487203341
0.1076085913 0.2420130095 0.1427899891
0.2667670809 0.2549093442 0.1454992038
0.4492393870 0.2692203378 0.1444300878
0.6212425274 0.2783757510 0.1448248535
0.7528599591 0.2878796605 0.1527319802
0.8209575282 0.3029604964 0.1519138997
0.0000000000 0.4024916506 0.1928769901
0.0000000000 0.4127742625 0.1697295461
0.0089998696 0.4025123241 0.1551389679
0.2785923306 0.4248190452 0.1501724023
0.4809456656 0.4434458809 0.1438827320
0.6655822917 0.4577371855 0.1372613009
0.8032925031 0.4730572435 0.1442302439
0.8807039824 0.4885023270 0.1418646033
0.0000000000 0.5273483512 0.2512087853
0.0000000000 0.5447721853 0.2253107795
0.0000000000 0.5673437242 0.2036537974
0.2802846054 0.5956497021 0.1751056441
0.5166719581 0.6245876988 0.1379051332
0.7010413052 0.6408203447 0.1158829190
0.8444406707 0.6625235961 0.1277150599
0.9242414174 0.6802270149 0.1386188616
0.0000000000 0.6255662451 0.2447911360
0.0000000000 0.6372369357 0.2435251294
0.1099269782 0.6648784077 0.2324145925
0.3573810596 0.7045193777 0.2205735916
0.5542751103 0.7530056581 0.2094305678
0.7378470505 0.7821612189 0.1823147936
0.8698661390 0.7996017888 0.1866670604
0.9445723413 0.8092051280 0.1954631482
0.2245822843 0.6761582705 0.2218789763
0.2662728855 0.6837237920 0.2187405400
0.3566122018 0.7028891235 0.2112488525
0.4916417477 0.7361075220 0.2013738042
0.6263675898 0.7749097380 0.2092996355
0.7659659822 0.8177580559 0.2552164935
0.8779829542 0.8572848293 0.3294363760
0.9545586328 0.8881434939 0.3906398206
0.0155356532 0.0357070957 0.2300942368
0.0243780103 0.0352365271 0.2425741478
0.1109045401 0.0446242712 0.2571509437
0.2522099740 0.0511866351 0.2784200513
0.4341477221 0.0311372647 0.3022192032
0.5888116914 0.0000000000 0.3167034606
0.6623828193 0.0000000000 0.2974800464
0.6694324874 0.0000000000 0.2699576931
0.0076137597 0.0608362436 0.2299623201
0.0256745349 0.0516916595 0.2401592845
0.1061624298 0.0564564121 0.2596652367
0.2614392211 0.0587747990 0.2778362707
0.4443545311 0.0357632095 0.2924150356
0.5903779561 0.0000000000 0.3023668712
0.6658431717 0.0000000000 0.2855406001
0.6911101431 0.0000000000 0.2716283099
0.0000000000 0.1277308112 0.2641218556
0.0000000000 0.1214657521 0.2462333597
0.1045725382 0.1285301870 0.2512836037
0.2533657218 0.1414058481 0.2643207151
0.4353684439 0.1487695568 0.2804519624
0.5979424932 0.1439270323 0.2935402654
0.7074107163 0.1412778692 0.2989596793
0.7551488124 0.1485451015 0.2919936897
0.0000000000 0.2610749735 0.2911135887
0.0000000000 0.2490282218 0.2758407844
0.0732935122 0.2457135685 0.2650413347
0.2562767494 0.2643738756 0.2809963649
0.4492315114 0.2788817598 0.2900129702
0.6246172324 0.2883876382 0.3049648427
0.7557109351 0.2962790137 0.3176544422
0.8250715574 0.3117339417 0.3189962517
0.0000000000 0.4146082984 0.3287374144
0.0000000000 0.4136474723 0.3102730134
0.0000000000 0.4149174167 0.3020922088
0.2564519821 0.4335078276 0.3058646328
0.4706837272 0.4529271480 0.3126229028
0.6615470187 0.4689008828 0.3196538663
0.8005291435 0.4816879432 0.3331743442
0.8803387503 0.4992840565 0.3395250506
0.0000000000 0.5339392642 0.3603196519
0.0000000000 0.5530917978 0.3413197085
0.0000000000 0.5767865977 0.3353972391
0.2388686666 0.6103456168 0.3353263585
0.4964645831 0.6398811765 0.3379203922
0.6925129886 0.6581063554 0.3405892444
0.8373595001 0.6751482217 0.3542298255
0.9194077531 0.6935456799 0.3675288014
0.0000000000 0.6398181715 0.3599406375
0.0000000000 0.6521277722 0.3643568938
0.0141485589 0.6812252502 0.3739238083
0.3142925351 0.7216153890 0.3812835791
0.5305970461 0.7702237416 0.3926244779
0.7219107249 0.7986045378 0.3911546896
0.8598995366 0.8146767179 0.3959292867
0.9368306027 0.8248736824 0.4086198707
0.1998223062 0.6892652781 0.3206914798
0.2409419247 0.6972836480 0.3248616228
0.3358559942 0.7180172132 0.3383889918
0.4725906127 0.7534988691 0.3610028623
0.6145964850 0.7962644930 0.3938796555
0.7548495387 0.8373073241 0.4332439942
0.8727003793 0.8764127516 0.4906848594
0.9482945582 0.9028945380 0.5232417054
0.0194685430 0.0577667191 0.3175244944
0.0309502187 0.0558746004 0.3370442290
0.1193393336 0.0588446952 0.3711968734
0.2553828661 0.0602947945 0.4056635583
0.4268342206 0.0362436226 0.4326247733
0.5778271645 0.0000000000 0.4474250401
0.6660636892 0.0000000000 0.4432598193
0.6595239677 0.0000000000 0.4051280158
0.0079514271 0.0829884056 0.3430277345
0.0311864874 0.0696953364 0.3561140686
0.1141995043 0.0689136807 0.3923320954
0.2602992245 0.0656256076 0.4244735022
0.4410753180 0.0338494328 0.4438957760
0.5871971884 0.0000000000 0.4454443206
0.6764792022 0.0000000000 0.4378512344
0.7026646682 0.0000000000 0.4241604462
0.0000000000 0.1416106144 0.3891188407
0.0000000000 0.1329936970 0.3930832330
0.0967599190 0.1377180871 0.4014579749
0.2640332548 0.1479672276 0.4268233916
0.4560754288 0.1529456065 0.4462308985
0.6111154591 0.1458969228 0.4524998954
0.7183381448 0.1424838242 0.4584843853
0.7630470790 0.1464905480 0.4503173630
0.0000000000 0.2702264488 0.4143917188
0.0000000000 0.2590401091 0.4106527662
0.0192431033 0.2657215918 0.4181818629
0.2609883416 0.2803023255 0.4374308729
0.4617370181 0.2955977722 0.4532195306
0.6369189574 0.3027360411 0.4688693803
0.7612524211 0.3060054096 0.4802417817
0.8289375045 0.3195495143 0.4818425023
0.0000000000 0.4238385300 0.4503537878
0.0000000000 0.4260761917 0.4513914013
0.0000000000 0.4282114704 0.4488505280
0.2383026061 0.4492699050 0.4618994529
0.4697947662 0.4683210400 0.4746628864
0.6620727166 0.4843449819 0.4886854353
0.7993714267 0.4937238658 0.5026223367
0.8792568364 0.5075849644 0.5084630965
0.0000000000 0.5439373691 0.4799326634
0.0000000000 0.5690822683 0.4865462188
0.0000000000 0.5894850572 0.4842170030
0.1847680506 0.6214719049 0.4940093572
0.4777993537 0.6495750855 0.5036766859
0.6811248360 0.6681477762 0.5120278010
0.8320493605 0.6904604041 0.5310400500
0.9143673536 0.7042053372 0.5388241201
0.0000000000 0.6572380678 0.4976764447
0.0000000000 0.6690751310 0.5020415095
0.0000000000 0.6961013199 0.5136112936
0.2506102378 0.7390736789 0.5315037274
0.5095253214 0.7858076330 0.5476773061
0.7093520576 0.8118227886 0.5541904474
0.8503651090 0.8277571453 0.5618583520
0.9296145620 0.8378851980 0.5720356274
0.0881341416 0.7118072835 0.4764526220
0.1663134941 0.7205246150 0.4811848877
0.3063696572 0.7407649692 0.4925691024
0.4582874947 0.7752700478 0.5137776662
0.6061439713 0.8155971815 0.5434618783
0.7506124528 0.8559026573 0.5820888617
0.8674552135 0.8920980417 0.6280500201
0.9415382571 0.9141999966 0.6505408339
0.0093365525 0.0776930328 0.4148632718
0.0489164864 0.0693616068 0.4265664493
0.1367395408 0.0742090535 0.4537786999
0.2633549667 0.0723179193 0.4763315342
0.4131129143 0.0593841754 0.4918908143
0.5470856499 0.0396803481 0.4975336991
0.6604434469 0.0273500740 0.5031204700
0.7273232476 0.0293465447 0.5075106382
0.0000000000 0.1014862780 0.4350465277
0.0157561707 0.0952724105 0.4439627188
0.1344329674 0.0925622113 0.4654336393
0.2642419589 0.1005855034 0.4903481764
0.4252246399 0.0953442755 0.5073816749
0.5618199583 0.0841136354 0.5161265711
0.6739117487 0.0771525681 0.5172931480
0.7413940347 0.0847545143 0.5206166614
0.0000000000 0.1557069972 0.4698882892
0.0000000000 0.1484899721 0.4718818066
0.1046316054 0.1552994337 0.4961623560
0.2682289936 0.1596241358 0.5190996193
0.4465833327 0.1658823037 0.5388979541
0.5991582927 0.1615270835 0.5495310312
0.7107736078 0.1599677099 0.5536224180
0.7761905113 0.1764238267 0.5558541730
0.0000000000 0.2789506715 0.5086171634
0.0000000000 0.2774739920 0.5275166926
0.0000000000 0.2800985437 0.5444315645
0.2581924950 0.2964079770 0.5707440250
0.4720255367 0.3089567997 0.5930034923
0.6430698199 0.3111442544 0.6038373979
0.7643012722 0.3130737823 0.6107905896
0.8329018968 0.3280374683 0.6150424422
0.0000000000 0.4273579496 0.5469694844
0.0000000000 0.4325371569 0.5629727528
0.0000000000 0.4424190964 0.5760669625
0.2218543649 0.4648833300 0.5980143582
0.4722608210 0.4849041512 0.6177752838
0.6651087698 0.4982700699 0.6320774174
0.8017223006 0.5052321217 0.6425529820
0.8791652823 0.5177312296 0.6488741549
0.0000000000 0.5504229456 0.5758877920
0.0000000000 0.5767944733 0.5970092317
0.0000000000 0.6015318089 0.6092203870
0.1145509541 0.6329535806 0.6267023039
0.4689914525 0.6614397133 0.6441822518
0.6810953024 0.6839256049 0.6585710172
0.8285378165 0.7004841048 0.6708067839
0.9105525981 0.7129433423 0.6807979976
0.0000000000 0.6676240472 0.6112700182
0.0000000000 0.6826320336 0.6194606674
0.0000000000 0.7132741185 0.6354993761
0.1941843438 0.7544075193 0.6581073398
0.4935614311 0.7944796797 0.6756778574
0.6988115191 0.8201345255 0.6865068407
0.8424796403 0.8369745790 0.6965590906
0.9246155096 0.8511890962 0.7098590509
0.0000000000 0.7308594029 0.6077830856
0.0650605316 0.7388886018 0.6128116717
0.2705680540 0.7597442391 0.6263095071
0.4401971859 0.7931142433 0.6465754571
0.5989259617 0.8326075453 0.6711277156
0.7472672815 0.8709716797 0.7010531186
0.8654114891 0.9050839615 0.7351762294
0.9366002407 0.9225412670 0.7518686149
0.0000000000 0.1364540494 0.4712143474
0.0501952909 0.1385765301 0.4797160837
0.1432950135 0.1421126854 0.4942879574
0.2507510146 0.1457551616 0.5106480900
0.3809764297 0.1476502337 0.5254808438
0.5107514576 0.1418901990 0.5342375534
0.6178609312 0.1372652387 0.5367577532
0.7114883207 0.1406911352 0.5442681453
0.0000000000 0.1504687227 0.4800567045
0.0397059439 0.1529918758 0.4882316024
0.1400148160 0.1583167822 0.5027542535
0.2522473832 0.1625243344 0.5188131434
0.3837801520 0.1670469116 0.5337847050
0.5154975056 0.1639892006 0.5428593930
0.6290817268 0.1578659027 0.5467588115
0.7207244590 0.1651045858 0.5564428759
0.0000000000 0.1924152817 0.5054137533
0.0000000000 0.1950122687 0.5130757512
0.1236325332 0.2018335438 0.5278169508
0.2525939107 0.2094345056 0.5445122897
0.3941996028 0.2142209162 0.5579087264
0.5293940446 0.2158846418 0.5670286993
0.6546981790 0.2150685302 0.5740763985
0.7486632358 0.2306750641 0.5837535717
0.0000000000 0.2843139716 0.5594730223
0.0000000000 0.2858310137 0.5666181824
0.0398349072 0.2910692883 0.5797478324
0.2561723974 0.3016610184 0.5975811989
0.4282006414 0.3113962743 0.6109097084
0.5874590529 0.3243241115 0.6218834063
0.7174757640 0.3393124088 0.6307464369
0.8024734382 0.3589709513 0.6378276075
0.0000000000 0.4234683757 0.6141780925
0.0000000000 0.4342796388 0.6375086447
0.0000000000 0.4514288105 0.6620323540
0.2072923358 0.4755262517 0.6871989112
0.4713511864 0.4945173350 0.7010265384
0.6613944285 0.5050972517 0.7063947607
0.7915656987 0.5152110298 0.7103246972
0.8648946512 0.5310439878 0.7141758775
0.0000000000 0.5498411339 0.6423728271
0.0000000000 0.5733262453 0.6701639360
0.0000000000 0.6056202423 0.6965246347
0.0668571583 0.6393407118 0.7211438360
0.4602436029 0.6703519666 0.7428047559
0.6772825159 0.6935791513 0.7593534113
0.8263680821 0.7101662003 0.7715941002
0.9095947253 0.7234937253 0.7830866048
0.0000000000 0.6744787937 0.6958040151
0.0000000000 0.6892396823 0.7045420201
0.0000000000 0.7212540947 0.7243314949
0.1053266292 0.7636023105 0.7496850981
0.4887218600 0.8001196110 0.7662317845
0.6926173406 0.8256868406 0.7811157298
0.8410315099 0.8450490627 0.7928858502
0.9228494008 0.8606733166 0.8070353935
0.0000000000 0.7477506479 0.7016191791
0.0919754773 0.7565240933 0.7070996291
0.2432947674 0.7737638346 0.7176283542
0.4371512883 0.8079519193 0.7380587079
0.5947095494 0.8458976612 0.7615713839
0.7491869649 0.8841810704 0.7910754411
0.8637536702 0.9154384385 0.8201168054
0.9332245513 0.9280768464 0.8320592050
0.0000000000 0.1774240310 0.5009684557
0.0514189660 0.1798438165 0.5071326083
0.1330724533 0.1837954110 0.5174595205
0.2355333397 0.1898330614 0.5319457468
0.3461297460 0.1909218664 0.5423681510
0.4666681433 0.1913008808 0.5511642388
0.5762983090 0.1861265957 0.5564241713
0.6756079613 0.1830944804 0.5619085591
0.0000000000 0.1914170463 0.5103281428
0.0461334377 0.1936104076 0.5158814423
0.1308023046 0.1987374390 0.5265027060
0.2357627173 0.2044049351 0.5400970178
0.3490092711 0.2053569011 0.5501029984
0.4720826350 0.2060017179 0.5587327136
0.5822493275 0.2023818841 0.5641048738
0.6819123984 0.2010637015 0.5696926292
0.0000000000 0.2255992243 0.5321426374
0.0138748809 0.2272855923 0.5368296183
0.1251495753 0.2312795182 0.5465727498
0.2376046289 0.2382307410 0.5600036425
0.3546344357 0.2429698979 0.5706022637
0.4827787171 0.2468417516 0.5795086103
0.5985371028 0.2479768260 0.5854586444
0.7047428486 0.2642084875 0.5971441018
0.0000000000 0.2956440415 0.5752587266
0.0000000000 0.2962081331 0.5788076797
0.0893696301 0.2992441862 0.5868329408
0.2385319836 0.3057081048 0.5989200550
0.3701031461 0.3162752235 0.6110189827
0.5156993185 0.3336035657 0.6247698226
0.6504778289 0.3617756579 0.6407681687
0.7626720024 0.3862068287 0.6518275140
0.0000000000 0.4169621256 0.6405072886
0.0000000000 0.4214354802 0.6469613627
0.0000000000 0.4323117172 0.6598261948
0.2624571455 0.4539204611 0.6779204414
0.4492177290 0.4792179505 0.6938026221
0.6054617454 0.5032563245 0.7056613432
0.7337527103 0.5256147294 0.7148295543
0.8255086546 0.5516033048 0.7245579191
0.0000000000 0.5717265091 0.7085979666
0.0000000000 0.5870199869 0.7240971950
0.0000000000 0.6136228610 0.7453603959
0.1599509742 0.6417417927 0.7647688873
0.4841087131 0.6732590564 0.7820539136
0.6835003212 0.6951227736 0.7892187627
0.8102919642 0.7119234489 0.7937354332
0.8807049668 0.7278774947 0.7972509149
0.0000000000 0.6696087045 0.7438955298
0.0000000000 0.6919341302 0.7615221613
0.0000000000 0.7283441254 0.7866552470
0.0226581708 0.7704117721 0.8123159996
0.4823022418 0.8059652931 0.8296748598
0.6904791087 0.8332661444 0.8447586490
0.8398226016 0.8512599768 0.8520317880
0.9183425749 0.8651171376 0.8551889288
0.0000000000 0.7598220109 0.7728994849
0.0039614390 0.7686643680 0.7784419554
0.2234796969 0.7890710947 0.7900388121
0.4320321325 0.8210648336 0.8068631143
0.5935301747 0.8569323951 0.8277217050
0.7496585179 0.8936396951 0.8509479052
0.8642015963 0.9218885747 0.8718704854
0.9340012847 0.9322233625 0.8790038320
