LUTs/SPK Cube Block1 S32/TheBrim_SPK_Type-V_Block1_S32.cube
TITLE "TheBrim® SPK Block 1"
# © Copyright 2021 - TheBrim® d.o.o. Croatia
LUT_3D_SIZE 8
DOMAIN_MIN 0.000000 0.000000 0.000000
DOMAIN_MAX 0.903226 0.903226 0.903226
0.007721 0.009491 0.011383
0.035695 0.012596 0.012330
0.152614 0.020321 0.012546
0.346762 0.002245 0.001141
0.496329 0.000000 0.000000
0.562552 0.000000 0.000000
0.588824 0.000000 0.000000
0.601158 0.000000 0.000000
0.005904 0.037534 0.014979
0.037149 0.036964 0.015350
0.134611 0.048603 0.015322
0.313002 0.053351 0.005460
0.491455 0.019026 0.000000
0.596258 0.000000 0.000000
0.643462 0.000000 0.000000
0.657126 0.000000 0.000000
0.000000 0.138156 0.017649
0.024245 0.140938 0.016828
0.143353 0.137688 0.014950
0.315038 0.152499 0.001403
0.508433 0.154165 0.000000
0.647177 0.139758 0.000000
0.716765 0.129654 0.000000
0.736909 0.125527 0.000000
0.000000 0.312508 0.000000
0.000000 0.298347 0.000000
0.143834 0.302073 0.000000
0.345610 0.318893 0.000000
0.558737 0.334991 0.000000
0.722197 0.331584 0.000000
0.801141 0.325029 0.000000
0.828955 0.314445 0.000000
0.000000 0.413759 0.000000
0.000000 0.444136 0.000000
0.072009 0.476939 0.000000
0.368936 0.508473 0.000000
0.595319 0.531185 0.000000
0.771963 0.539241 0.000000
0.864363 0.536285 0.000000
0.907641 0.530979 0.000000
0.000000 0.485817 0.000000
0.000000 0.536965 0.000000
0.052341 0.589063 0.000000
0.391618 0.640145 0.000000
0.621088 0.678644 0.000000
0.797903 0.699801 0.000000
0.899620 0.705105 0.000000
0.949162 0.703058 0.000000
0.000000 0.515190 0.000000
0.000000 0.579549 0.000000
0.128831 0.642648 0.000000
0.428618 0.703751 0.000000
0.647033 0.753858 0.000000
0.816173 0.785661 0.000000
0.916450 0.800000 0.000000
0.968147 0.804681 0.000000
0.000000 0.520828 0.000000
0.000000 0.593380 0.000000
0.169170 0.659950 0.000000
0.432080 0.720744 0.000000
0.640306 0.772539 0.000000
0.811829 0.811236 0.000000
0.917440 0.833092 0.000000
0.972241 0.843159 0.000000
0.004475 0.010438 0.040370
0.032259 0.014150 0.040234
0.152509 0.021843 0.045443
0.353324 0.002226 0.040537
0.511549 0.000000 0.027270
0.573760 0.000000 0.018113
0.597004 0.000000 0.008407
0.608648 0.000000 0.001940
0.002668 0.032656 0.039086
0.030541 0.034108 0.037293
0.122778 0.046681 0.042453
0.294630 0.053629 0.042156
0.480079 0.022489 0.029525
0.594639 0.000000 0.017854
0.651051 0.000000 0.010313
0.665539 0.000000 0.006470
0.000000 0.141634 0.058014
0.024613 0.118790 0.051056
0.131342 0.125807 0.053021
0.297656 0.142828 0.051269
0.491216 0.148222 0.035781
0.640242 0.137129 0.015618
0.717029 0.129180 0.002304
0.743323 0.127052 0.000201
0.000000 0.305787 0.058337
0.000000 0.259516 0.055231
0.133425 0.284852 0.051084
0.328764 0.303105 0.037748
0.536902 0.318175 0.007149
0.701346 0.317964 0.000000
0.791309 0.313739 0.000000
0.832189 0.313044 0.000000
0.000000 0.425338 0.045599
0.000000 0.436739 0.030594
0.058250 0.455120 0.007990
0.351339 0.490242 0.000000
0.574903 0.513598 0.000000
0.755008 0.528383 0.000000
0.859015 0.527743 0.000000
0.909394 0.528077 0.000000
0.000000 0.503905 0.056745
0.000000 0.543964 0.028904
0.002859 0.594070 0.000000
0.367973 0.642273 0.000000
0.603245 0.677577 0.000000
0.785038 0.697688 0.000000
0.896449 0.705651 0.000000
0.949347 0.708185 0.000000
0.000000 0.548127 0.085452
0.000000 0.613034 0.084473
0.046254 0.671983 0.065338
0.403991 0.727627 0.005828
0.628611 0.771668 0.000000
0.804386 0.800876 0.000000
0.910970 0.815288 0.000000
0.966271 0.818771 0.000000
0.000000 0.555855 0.063364
0.000000 0.632124 0.083971
0.085981 0.696434 0.112895
0.414476 0.753404 0.129901
0.628768 0.801273 0.137562
0.806655 0.837718 0.140676
0.913291 0.858238 0.153524
0.969296 0.867273 0.151424
0.000000 0.005715 0.172677
0.024214 0.009027 0.168873
0.140712 0.016647 0.164520
0.346137 0.000000 0.170584
0.516556 0.000000 0.166678
0.585294 0.000000 0.143185
0.607363 0.000000 0.113697
0.619244 0.000000 0.092007
0.000000 0.037826 0.147196
0.021196 0.037610 0.115631
0.117274 0.050239 0.123389
0.290169 0.056535 0.134676
0.479646 0.024930 0.138872
0.601881 0.000000 0.137384
0.660120 0.000000 0.126495
0.675981 0.000000 0.112569
0.000000 0.137750 0.158116
0.012038 0.113930 0.120048
0.121101 0.127752 0.134137
0.286558 0.144339 0.142781
0.480441 0.150710 0.148042
0.636657 0.141254 0.149337
0.720203 0.133912 0.146102
0.751304 0.132372 0.132299
0.000000 0.296778 0.177957
0.000000 0.271776 0.156072
0.115584 0.276986 0.156542
0.316854 0.300184 0.164984
0.526778 0.316978 0.166129
0.694622 0.320177 0.166534
0.792343 0.318522 0.166603
0.837807 0.321241 0.152407
0.000000 0.435778 0.190078
0.000000 0.441375 0.176151
0.000000 0.458893 0.175981
0.333821 0.493653 0.176927
0.565742 0.520338 0.173635
0.746232 0.532923 0.170133
0.854795 0.533990 0.170705
0.909526 0.534727 0.154870
0.000000 0.524972 0.210710
0.000000 0.562050 0.201325
0.000000 0.606531 0.199520
0.339269 0.653779 0.189134
0.588982 0.690766 0.179005
0.775018 0.711456 0.171333
0.890566 0.719763 0.167062
0.947630 0.719835 0.150049
0.000000 0.581245 0.248365
0.000000 0.647487 0.268733
0.000000 0.702668 0.278542
0.374872 0.753730 0.268860
0.613115 0.796069 0.258704
0.794222 0.823649 0.244686
0.904449 0.834452 0.231463
0.963065 0.835279 0.208046
0.000000 0.600582 0.249639
0.000000 0.677603 0.290919
0.023461 0.736749 0.327828
0.406983 0.789931 0.360258
0.626052 0.832302 0.369704
0.803487 0.863637 0.366870
0.907650 0.879822 0.358804
0.964352 0.888045 0.354940
0.000000 0.000000 0.281437
0.022983 0.000000 0.316360
0.128785 0.000000 0.347774
0.331830 0.000000 0.371901
0.506666 0.000000 0.360931
0.597136 0.000000 0.330100
0.619217 0.000000 0.273812
0.630828 0.000000 0.232528
0.000000 0.028056 0.291538
0.006330 0.030594 0.264504
0.107137 0.037755 0.281918
0.280658 0.041735 0.298824
0.473422 0.008063 0.307076
0.607356 0.000000 0.307788
0.669458 0.000000 0.283180
0.686935 0.000000 0.260423
0.000000 0.134790 0.295695
0.000000 0.123600 0.263641
0.107034 0.132975 0.272715
0.280815 0.148602 0.291833
0.478438 0.154412 0.307860
0.638822 0.144209 0.315931
0.726548 0.137473 0.312825
0.760743 0.138648 0.296871
0.000000 0.302007 0.332150
0.000000 0.275624 0.301837
0.070527 0.285282 0.305398
0.303973 0.308934 0.325693
0.520721 0.324287 0.339974
0.692092 0.328646 0.347600
0.794292 0.327842 0.349755
0.842861 0.333029 0.336758
0.000000 0.457707 0.357532
0.000000 0.449014 0.335899
0.000000 0.471227 0.344073
0.308820 0.506601 0.358790
0.554876 0.533667 0.371538
0.740053 0.545880 0.377991
0.851894 0.547178 0.381659
0.909427 0.549004 0.369082
0.000000 0.547317 0.372839
0.000000 0.581848 0.364215
0.000000 0.626090 0.377018
0.299729 0.672584 0.388207
0.571706 0.709849 0.396872
0.765290 0.730816 0.401594
0.883606 0.738404 0.405495
0.943813 0.739026 0.394843
0.000000 0.607641 0.400954
0.000000 0.674999 0.421556
0.000000 0.725855 0.438157
0.331903 0.776303 0.448702
0.594560 0.817425 0.451339
0.782101 0.842982 0.449896
0.895356 0.853335 0.444837
0.955766 0.854289 0.430388
0.000000 0.638516 0.411522
0.000000 0.712471 0.451420
0.000000 0.765937 0.486073
0.392631 0.814188 0.511192
0.621454 0.854117 0.521366
0.800230 0.884874 0.529776
0.900925 0.900144 0.527691
0.957987 0.905941 0.507850
0.000724 0.000000 0.342002
0.024619 0.000000 0.370760
0.110723 0.000000 0.423789
0.285539 0.000000 0.477131
0.483443 0.000000 0.499615
0.600346 0.000000 0.496601
0.630282 0.000000 0.434292
0.642779 0.000000 0.390645
0.000000 0.011196 0.371691
0.003354 0.009278 0.374732
0.102276 0.002293 0.411613
0.266725 0.000725 0.449782
0.464405 0.000000 0.470504
0.602568 0.000000 0.461223
0.676842 0.000000 0.442134
0.697943 0.000000 0.420838
0.000000 0.131799 0.411563
0.000000 0.124102 0.404476
0.093356 0.130980 0.414252
0.274304 0.144247 0.443902
0.475874 0.148432 0.465348
0.637578 0.138857 0.473348
0.732244 0.130621 0.475005
0.769159 0.133819 0.462770
0.000000 0.296187 0.454918
0.000000 0.277507 0.436643
0.004198 0.292639 0.455600
0.292609 0.313174 0.481053
0.515075 0.329685 0.500907
0.690012 0.334101 0.512378
0.796199 0.334533 0.517195
0.846782 0.341762 0.509161
0.000000 0.463845 0.491440
0.000000 0.459273 0.483038
0.000000 0.480093 0.497785
0.284935 0.516871 0.522558
0.544131 0.543044 0.540296
0.733485 0.554950 0.551050
0.848359 0.557186 0.556545
0.908117 0.561094 0.548553
0.000000 0.558684 0.502855
0.000000 0.599832 0.516156
0.000000 0.641327 0.534811
0.259820 0.686589 0.555596
0.555595 0.723502 0.570772
0.755451 0.744172 0.580617
0.876237 0.752166 0.586274
0.939104 0.753716 0.578620
0.000000 0.624286 0.529554
0.000000 0.687580 0.559935
0.000000 0.743830 0.581805
0.287111 0.792526 0.598765
0.577648 0.832475 0.609667
0.770938 0.857689 0.614806
0.886041 0.868198 0.616356
0.947864 0.869316 0.608357
0.000000 0.663269 0.544065
0.000000 0.733973 0.586144
0.000000 0.785630 0.623011
0.372863 0.832635 0.645451
0.615006 0.871860 0.659132
0.793555 0.900758 0.667205
0.893347 0.915389 0.666842
0.949976 0.920579 0.656896
0.002514 0.000000 0.368564
0.024703 0.000000 0.401054
0.095013 0.000000 0.451180
0.235344 0.000000 0.509284
0.430851 0.000000 0.552451
0.579155 0.000000 0.563123
0.640260 0.000000 0.550254
0.653715 0.000000 0.521964
0.000000 0.003279 0.417246
0.000526 0.000307 0.445724
0.095443 0.000000 0.483119
0.247172 0.000000 0.526584
0.437433 0.000000 0.553381
0.594189 0.000000 0.563467
0.683235 0.000000 0.569437
0.708928 0.000000 0.556024
0.000000 0.125410 0.473914
0.000000 0.120490 0.489093
0.080293 0.127744 0.520184
0.267204 0.138513 0.555987
0.470222 0.141659 0.582982
0.638251 0.129720 0.597976
0.738184 0.114955 0.606300
0.777895 0.120464 0.600284
0.000000 0.287551 0.530686
0.000000 0.282309 0.540881
0.000000 0.295667 0.568273
0.280508 0.317170 0.602005
0.509541 0.333843 0.627940
0.688344 0.338486 0.642897
0.798412 0.339591 0.650509
0.850591 0.347148 0.648721
0.000000 0.455003 0.573631
0.000000 0.459337 0.588679
0.000000 0.485644 0.616135
0.262045 0.522095 0.648616
0.534582 0.549057 0.671102
0.727695 0.561714 0.684580
0.845844 0.564635 0.691503
0.907305 0.570268 0.690603
0.000000 0.563610 0.595750
0.000000 0.606060 0.625479
0.000000 0.648401 0.653399
0.221440 0.694208 0.681216
0.542983 0.731408 0.701809
0.747151 0.752186 0.714004
0.870474 0.760209 0.720188
0.935158 0.763392 0.718718
0.000000 0.633303 0.619788
0.000000 0.694901 0.655000
0.000000 0.752183 0.686898
0.246141 0.801377 0.711638
0.564050 0.841003 0.727747
0.761653 0.865274 0.735210
0.879236 0.875192 0.739176
0.942558 0.878989 0.738291
0.000000 0.679805 0.643449
0.000000 0.745565 0.685305
0.000000 0.797073 0.717034
0.358849 0.844708 0.741510
0.609738 0.882946 0.756191
0.786812 0.910665 0.764703
0.887026 0.924334 0.767246
0.944373 0.929669 0.763232
0.006877 0.000000 0.389999
0.029488 0.000000 0.423426
0.090336 0.000000 0.468825
0.205721 0.000000 0.522674
0.386495 0.000000 0.570144
0.551907 0.000000 0.599189
0.641394 0.000000 0.611308
0.660091 0.000000 0.604356
0.000000 0.000173 0.439094
0.003130 0.000284 0.474694
0.092207 0.000000 0.519220
0.229248 0.000000 0.570850
0.419105 0.000000 0.614909
0.589239 0.000000 0.641328
0.686546 0.000000 0.651312
0.718367 0.000000 0.644934
0.000000 0.119141 0.503832
0.000000 0.125906 0.539769
0.055666 0.135682 0.583486
0.252264 0.143344 0.631613
0.460661 0.144783 0.669009
0.636038 0.132853 0.687206
0.743308 0.114132 0.694859
0.786330 0.110714 0.693319
0.000000 0.277069 0.573193
0.000000 0.286142 0.609664
0.000000 0.304434 0.648610
0.259029 0.327195 0.688207
0.499062 0.345471 0.718232
0.684869 0.351049 0.734577
0.800902 0.351497 0.743407
0.855228 0.355087 0.746016
0.000000 0.437874 0.626029
0.000000 0.458233 0.660669
0.000000 0.491495 0.699004
0.230161 0.527647 0.735501
0.521493 0.556321 0.761990
0.721405 0.571198 0.777496
0.844102 0.574800 0.785679
0.907341 0.579425 0.789463
0.000000 0.561254 0.655919
0.000000 0.603694 0.697362
0.000000 0.651863 0.736498
0.182052 0.697988 0.767329
0.529644 0.736294 0.792068
0.739349 0.757725 0.805703
0.865794 0.766538 0.813010
0.932809 0.770747 0.816452
0.000000 0.635410 0.681332
0.000000 0.697897 0.726508
0.000000 0.754831 0.762473
0.174438 0.803681 0.789105
0.550434 0.843138 0.806797
0.754070 0.868539 0.820343
0.874004 0.879890 0.826978
0.939632 0.884939 0.829965
0.000000 0.686558 0.712389
0.000000 0.749373 0.754706
0.000000 0.803195 0.786369
0.340017 0.851776 0.811468
0.600833 0.889563 0.826931
0.779712 0.916447 0.836096
0.882276 0.929182 0.839863
0.941404 0.934924 0.840780
0.013345 0.000000 0.408244
0.039360 0.000000 0.442320
0.095362 0.000000 0.485730
0.197328 0.000000 0.534846
0.360718 0.000000 0.579836
0.524416 0.000000 0.609322
0.629514 0.000000 0.624023
0.659328 0.000000 0.625338
0.000000 0.000000 0.456295
0.016906 0.000000 0.493892
0.102056 0.000000 0.538512
0.225394 0.000000 0.586530
0.400717 0.000000 0.629216
0.570452 0.000000 0.657853
0.682369 0.000000 0.672680
0.719463 0.000000 0.673536
0.000000 0.106430 0.518721
0.000000 0.120835 0.558848
0.074941 0.139927 0.603398
0.249399 0.155107 0.649142
0.447823 0.161727 0.688423
0.625631 0.150994 0.713170
0.741635 0.133184 0.726071
0.789220 0.104696 0.729604
0.000000 0.262079 0.587184
0.000000 0.283164 0.629668
0.000000 0.310499 0.672548
0.245583 0.337315 0.715421
0.486755 0.358121 0.750605
0.677369 0.367024 0.771569
0.800353 0.367441 0.782666
0.856982 0.361581 0.787070
0.000000 0.424247 0.644391
0.000000 0.457270 0.689531
0.000000 0.495028 0.732756
0.203216 0.532656 0.771550
0.506358 0.564305 0.802861
0.712524 0.581963 0.821451
0.842849 0.587288 0.831020
0.905417 0.584890 0.835432
0.000000 0.557176 0.685681
0.000000 0.604384 0.733990
0.000000 0.653140 0.775872
0.126814 0.699692 0.811450
0.512684 0.738565 0.837964
0.729343 0.762395 0.854134
0.862687 0.773261 0.862741
0.929353 0.774484 0.865676
0.000000 0.637184 0.714450
0.000000 0.695105 0.762343
0.000000 0.753766 0.804437
0.100005 0.804558 0.835343
0.535222 0.844719 0.855404
0.745278 0.871130 0.868953
0.870076 0.883157 0.875789
0.936689 0.887701 0.878803
0.000000 0.685294 0.743988
0.000000 0.745264 0.787535
0.000000 0.803507 0.823522
0.309856 0.853184 0.849002
0.587344 0.890540 0.864958
0.771019 0.916764 0.874861
0.879074 0.930736 0.881292
0.939303 0.936384 0.884010
