LUTs/SPK Cube Block1 S32/TheBrim_SPK_Type-Y_Block1_S32.cube
TITLE "TheBrim® Industrial Imaging Burau"
# © Copyright 2022 - TheBrim® d.o.o. Croatia
LUT_3D_SIZE 32
DOMAIN_MIN 0.000000 0.000000 0.000000
DOMAIN_MAX 1.000000 1.000000 1.000000
0.000000 0.000031 0.000031
0.000877 0.000031 0.000031
0.007293 0.000031 0.000031
0.016978 0.000031 0.000031
0.028364 0.000031 0.000031
0.045897 0.000031 0.000031
0.068887 0.000031 0.000031
0.093717 0.000031 0.000031
0.123758 0.000031 0.000031
0.159245 0.000031 0.000031
0.203775 0.000031 0.000031
0.254043 0.000031 0.000031
0.308556 0.000031 0.000031
0.364179 0.000031 0.000031
0.417879 0.000031 0.000031
0.473308 0.000031 0.000031
0.532525 0.000031 0.000031
0.592383 0.000031 0.000031
0.644799 0.000031 0.000031
0.701987 0.000031 0.000031
0.765630 0.000031 0.000031
0.821889 0.000031 0.000031
0.886611 0.000031 0.000031
0.940302 0.000031 0.000031
0.975426 0.000031 0.000031
0.991197 0.000031 0.000031
0.996262 0.000031 0.000031
0.998342 0.000031 0.000031
0.999523 0.000031 0.000031
0.999967 0.000031 0.000031
0.999969 0.000031 0.000031
0.999969 0.000031 0.000031
0.000000 0.000641 0.000031
0.000877 0.000641 0.000031
0.007293 0.000641 0.000031
0.016978 0.000641 0.000031
0.028364 0.000641 0.000031
0.045897 0.000641 0.000031
0.068887 0.000641 0.000031
0.093717 0.000641 0.000031
0.123758 0.000641 0.000031
0.159245 0.000641 0.000031
0.203775 0.000641 0.000031
0.254043 0.000641 0.000031
0.308556 0.000641 0.000031
0.364179 0.000641 0.000031
0.417879 0.000641 0.000031
0.473308 0.000641 0.000031
0.532525 0.000641 0.000031
0.592383 0.000641 0.000031
0.644799 0.000641 0.000031
0.701987 0.000641 0.000031
0.765630 0.000641 0.000031
0.821889 0.000641 0.000031
0.886611 0.000641 0.000031
0.940302 0.000641 0.000031
0.975426 0.000641 0.000031
0.991197 0.000641 0.000031
0.996262 0.000641 0.000031
0.998342 0.000641 0.000031
0.999523 0.000641 0.000031
0.999967 0.000641 0.000031
0.999968 0.000641 0.000031
0.999969 0.000641 0.000031
0.000000 0.007356 0.000031
0.000877 0.007356 0.000031
0.007293 0.007356 0.000031
0.016978 0.007356 0.000031
0.028364 0.007356 0.000031
0.045897 0.007356 0.000031
0.068887 0.007356 0.000031
0.093717 0.007356 0.000031
0.123758 0.007356 0.000031
0.159245 0.007356 0.000031
0.203775 0.007356 0.000031
0.254043 0.007356 0.000031
0.308556 0.007356 0.000031
0.364179 0.007356 0.000031
0.417879 0.007356 0.000031
0.473308 0.007356 0.000031
0.532525 0.007356 0.000031
0.592383 0.007356 0.000031
0.644799 0.007356 0.000031
0.701987 0.007356 0.000031
0.765630 0.007356 0.000031
0.821889 0.007356 0.000031
0.886611 0.007356 0.000031
0.940302 0.007356 0.000031
0.975426 0.007356 0.000031
0.991197 0.007356 0.000031
0.996262 0.007356 0.000031
0.998342 0.007356 0.000031
0.999523 0.007356 0.000031
0.999967 0.007356 0.000031
0.999969 0.007356 0.000031
0.999969 0.007356 0.000031
0.000000 0.028946 0.000031
0.000877 0.028946 0.000031
0.007293 0.028946 0.000031
0.016978 0.028946 0.000031
0.028364 0.028946 0.000031
0.045897 0.028946 0.000031
0.068887 0.028946 0.000031
0.093717 0.028946 0.000031
0.123758 0.028946 0.000031
0.159245 0.028946 0.000031
0.203775 0.028946 0.000031
0.254043 0.028946 0.000031
0.308556 0.028946 0.000031
0.364179 0.028946 0.000031
0.417879 0.028946 0.000031
0.473308 0.028946 0.000031
0.532525 0.028946 0.000031
0.592383 0.028946 0.000031
0.644799 0.028946 0.000031
0.701987 0.028946 0.000031
0.765630 0.028946 0.000031
0.821889 0.028946 0.000031
0.886611 0.028946 0.000031
0.940302 0.028946 0.000031
0.975426 0.028946 0.000031
0.991197 0.028946 0.000031
0.996262 0.028946 0.000031
0.998342 0.028946 0.000031
0.999523 0.028946 0.000031
0.999967 0.028946 0.000031
0.999969 0.028946 0.000031
0.999969 0.028946 0.000031
0.000000 0.054566 0.000031
0.000877 0.054566 0.000031
0.007293 0.054566 0.000031
0.016978 0.054566 0.000031
0.028364 0.054566 0.000031
0.045897 0.054566 0.000031
0.068887 0.054566 0.000031
0.093717 0.054566 0.000031
0.123758 0.054566 0.000031
0.159245 0.054566 0.000031
0.203775 0.054566 0.000031
0.254043 0.054566 0.000031
0.308556 0.054566 0.000031
0.364179 0.054566 0.000031
0.417879 0.054566 0.000031
0.473308 0.054566 0.000031
0.532525 0.054566 0.000031
0.592383 0.054566 0.000031
0.644799 0.054566 0.000031
0.701987 0.054566 0.000031
0.765630 0.054566 0.000031
0.821889 0.054566 0.000031
0.886611 0.054566 0.000031
0.940302 0.054566 0.000031
0.975426 0.054566 0.000031
0.991197 0.054566 0.000031
0.996262 0.054566 0.000031
0.998342 0.054566 0.000031
0.999523 0.054566 0.000031
0.999967 0.054566 0.000031
0.999969 0.054566 0.000031
0.999969 0.054566 0.000031
0.000000 0.077296 0.000031
0.000877 0.077296 0.000031
0.007293 0.077296 0.000031
0.016978 0.077296 0.000031
0.028364 0.077296 0.000031
0.045897 0.077296 0.000031
0.068887 0.077296 0.000031
0.093717 0.077296 0.000031
0.123758 0.077296 0.000031
0.159245 0.077296 0.000031
0.203775 0.077296 0.000031
0.254043 0.077296 0.000031
0.308556 0.077296 0.000031
0.364179 0.077296 0.000031
0.417879 0.077296 0.000031
0.473308 0.077296 0.000031
0.532525 0.077296 0.000031
0.592383 0.077296 0.000031
0.644799 0.077296 0.000031
0.701987 0.077296 0.000031
0.765630 0.077296 0.000031
0.821889 0.077296 0.000031
0.886611 0.077296 0.000031
0.940302 0.077296 0.000031
0.975426 0.077296 0.000031
0.991197 0.077296 0.000031
0.996262 0.077296 0.000031
0.998342 0.077296 0.000031
0.999523 0.077296 0.000031
0.999967 0.077296 0.000031
0.999968 0.077296 0.000031
0.999969 0.077296 0.000031
0.000000 0.101853 0.000031
0.000877 0.101853 0.000031
0.007293 0.101853 0.000031
0.016978 0.101853 0.000031
0.028364 0.101853 0.000031
0.045897 0.101853 0.000031
0.068887 0.101853 0.000031
0.093717 0.101853 0.000031
0.123758 0.101853 0.000031
0.159245 0.101853 0.000031
0.203775 0.101853 0.000031
0.254043 0.101853 0.000031
0.308556 0.101853 0.000031
0.364179 0.101853 0.000031
0.417879 0.101853 0.000031
0.473308 0.101853 0.000031
0.532525 0.101853 0.000031
0.592383 0.101853 0.000031
0.644799 0.101853 0.000031
0.701987 0.101853 0.000031
0.765630 0.101853 0.000031
0.821889 0.101853 0.000031
0.886611 0.101853 0.000031
0.940302 0.101853 0.000031
0.975426 0.101853 0.000031
0.991197 0.101853 0.000031
0.996262 0.101853 0.000031
0.998342 0.101853 0.000031
0.999523 0.101853 0.000031
0.999967 0.101853 0.000031
0.999969 0.101853 0.000031
0.999969 0.101853 0.000031
0.000000 0.130454 0.000031
0.000877 0.130454 0.000031
0.007293 0.130454 0.000031
0.016978 0.130454 0.000031
0.028364 0.130454 0.000031
0.045897 0.130454 0.000031
0.068887 0.130454 0.000031
0.093717 0.130454 0.000031
0.123758 0.130454 0.000031
0.159245 0.130454 0.000031
0.203775 0.130454 0.000031
0.254043 0.130454 0.000031
0.308556 0.130454 0.000031
0.364179 0.130454 0.000031
0.417879 0.130454 0.000031
0.473308 0.130454 0.000031
0.532525 0.130454 0.000031
0.592383 0.130454 0.000031
0.644799 0.130454 0.000031
0.701987 0.130454 0.000031
0.765630 0.130454 0.000031
0.821889 0.130454 0.000031
0.886611 0.130454 0.000031
0.940302 0.130454 0.000031
0.975426 0.130454 0.000031
0.991197 0.130454 0.000031
0.996262 0.130454 0.000031
0.998342 0.130454 0.000031
0.999523 0.130454 0.000031
0.999967 0.130454 0.000031
0.999969 0.130454 0.000031
0.999969 0.130454 0.000031
0.000000 0.160572 0.000031
0.000877 0.160572 0.000031
0.007293 0.160572 0.000031
0.016978 0.160572 0.000031
0.028364 0.160572 0.000031
0.045897 0.160572 0.000031
0.068887 0.160572 0.000031
0.093717 0.160572 0.000031
0.123758 0.160572 0.000031
0.159245 0.160572 0.000031
0.203775 0.160572 0.000031
0.254043 0.160572 0.000031
0.308556 0.160572 0.000031
0.364179 0.160572 0.000031
0.417879 0.160572 0.000031
0.473308 0.160572 0.000031
0.532525 0.160572 0.000031
0.592383 0.160572 0.000031
0.644799 0.160572 0.000031
0.701987 0.160572 0.000031
0.765630 0.160572 0.000031
0.821889 0.160572 0.000031
0.886611 0.160572 0.000031
0.940302 0.160572 0.000031
0.975426 0.160572 0.000031
0.991197 0.160572 0.000031
0.996262 0.160572 0.000031
0.998342 0.160572 0.000031
0.999523 0.160572 0.000031
0.999967 0.160572 0.000031
0.999969 0.160572 0.000031
0.999969 0.160572 0.000031
0.000000 0.194557 0.000031
0.000877 0.194557 0.000031
0.007293 0.194557 0.000031
0.016978 0.194557 0.000031
0.028364 0.194557 0.000031
0.045897 0.194557 0.000031
0.068887 0.194557 0.000031
0.093717 0.194557 0.000031
0.123758 0.194557 0.000031
0.159245 0.194557 0.000031
0.203775 0.194557 0.000031
0.254043 0.194557 0.000031
0.308556 0.194557 0.000031
0.364179 0.194557 0.000031
0.417879 0.194557 0.000031
0.473308 0.194557 0.000031
0.532525 0.194557 0.000031
0.592383 0.194557 0.000031
0.644799 0.194557 0.000031
0.701987 0.194557 0.000031
0.765630 0.194557 0.000031
0.821889 0.194557 0.000031
0.886611 0.194557 0.000031
0.940302 0.194557 0.000031
0.975426 0.194557 0.000031
0.991197 0.194557 0.000031
0.996262 0.194557 0.000031
0.998342 0.194557 0.000031
0.999523 0.194557 0.000031
0.999967 0.194557 0.000031
0.999968 0.194557 0.000031
0.999969 0.194557 0.000031
0.000000 0.237396 0.000031
0.000877 0.237396 0.000031
0.007293 0.237396 0.000031
0.016978 0.237396 0.000031
0.028364 0.237396 0.000031
0.045897 0.237396 0.000031
0.068887 0.237396 0.000031
0.093717 0.237396 0.000031
0.123758 0.237396 0.000031
0.159245 0.237396 0.000031
0.203775 0.237396 0.000031
0.254043 0.237396 0.000031
0.308556 0.237396 0.000031
0.364179 0.237396 0.000031
0.417879 0.237396 0.000031
0.473308 0.237396 0.000031
0.532525 0.237396 0.000031
0.592383 0.237396 0.000031
0.644799 0.237396 0.000031
0.701987 0.237396 0.000031
0.765630 0.237396 0.000031
0.821889 0.237396 0.000031
0.886611 0.237396 0.000031
0.940302 0.237396 0.000031
0.975426 0.237396 0.000031
0.991197 0.237396 0.000031
0.996262 0.237396 0.000031
0.998342 0.237396 0.000031
0.999523 0.237396 0.000031
0.999967 0.237396 0.000031
0.999969 0.237396 0.000031
0.999969 0.237396 0.000031
0.000000 0.281357 0.000031
0.000877 0.281357 0.000031
0.007293 0.281357 0.000031
0.016978 0.281357 0.000031
0.028364 0.281357 0.000031
0.045897 0.281357 0.000031
0.068887 0.281357 0.000031
0.093717 0.281357 0.000031
0.123758 0.281357 0.000031
0.159245 0.281357 0.000031
0.203775 0.281357 0.000031
0.254043 0.281357 0.000031
0.308556 0.281357 0.000031
0.364179 0.281357 0.000031
0.417879 0.281357 0.000031
0.473308 0.281357 0.000031
0.532525 0.281357 0.000031
0.592383 0.281357 0.000031
0.644799 0.281357 0.000031
0.701987 0.281357 0.000031
0.765630 0.281357 0.000031
0.821889 0.281357 0.000031
0.886611 0.281357 0.000031
0.940302 0.281357 0.000031
0.975426 0.281357 0.000031
0.991197 0.281357 0.000031
0.996262 0.281357 0.000031
0.998342 0.281357 0.000031
0.999523 0.281357 0.000031
0.999967 0.281357 0.000031
0.999969 0.281357 0.000031
0.999969 0.281357 0.000031
0.000000 0.325435 0.000031
0.000877 0.325435 0.000031
0.007293 0.325435 0.000031
0.016978 0.325435 0.000031
0.028364 0.325435 0.000031
0.045897 0.325435 0.000031
0.068887 0.325435 0.000031
0.093717 0.325435 0.000031
0.123758 0.325435 0.000031
0.159245 0.325435 0.000031
0.203775 0.325435 0.000031
0.254043 0.325435 0.000031
0.308556 0.325435 0.000031
0.364179 0.325435 0.000031
0.417879 0.325435 0.000031
0.473308 0.325435 0.000031
0.532525 0.325435 0.000031
0.592383 0.325435 0.000031
0.644799 0.325435 0.000031
0.701987 0.325435 0.000031
0.765630 0.325435 0.000031
0.821889 0.325435 0.000031
0.886611 0.325435 0.000031
0.940302 0.325435 0.000031
0.975426 0.325435 0.000031
0.991197 0.325435 0.000031
0.996262 0.325435 0.000031
0.998342 0.325435 0.000031
0.999523 0.325435 0.000031
0.999967 0.325435 0.000031
0.999969 0.325435 0.000031
0.999969 0.325435 0.000031
0.000000 0.372328 0.000031
0.000877 0.372328 0.000031
0.007293 0.372328 0.000031
0.016978 0.372328 0.000031
0.028364 0.372328 0.000031
0.045897 0.372328 0.000031
0.068887 0.372328 0.000031
0.093717 0.372328 0.000031
0.123758 0.372328 0.000031
0.159245 0.372328 0.000031
0.203775 0.372328 0.000031
0.254043 0.372328 0.000031
0.308556 0.372328 0.000031
0.364179 0.372328 0.000031
0.417879 0.372328 0.000031
0.473308 0.372328 0.000031
0.532525 0.372328 0.000031
0.592383 0.372328 0.000031
0.644799 0.372328 0.000031
0.701987 0.372328 0.000031
0.765630 0.372328 0.000031
0.821889 0.372328 0.000031
0.886611 0.372328 0.000031
0.940302 0.372328 0.000031
0.975426 0.372328 0.000031
0.991197 0.372328 0.000031
0.996262 0.372328 0.000031
0.998342 0.372328 0.000031
0.999523 0.372328 0.000031
0.999967 0.372328 0.000031
0.999968 0.372328 0.000031
0.999969 0.372328 0.000031
0.000000 0.425970 0.000031
0.000877 0.425970 0.000031
0.007293 0.425970 0.000031
0.016978 0.425970 0.000031
0.028364 0.425970 0.000031
0.045897 0.425970 0.000031
0.068887 0.425970 0.000031
0.093717 0.425970 0.000031
0.123758 0.425970 0.000031
0.159245 0.425970 0.000031
0.203775 0.425970 0.000031
0.254043 0.425970 0.000031
0.308556 0.425970 0.000031
0.364179 0.425970 0.000031
0.417879 0.425970 0.000031
0.473308 0.425970 0.000031
0.532525 0.425970 0.000031
0.592383 0.425970 0.000031
0.644799 0.425970 0.000031
0.701987 0.425970 0.000031
0.765630 0.425970 0.000031
0.821889 0.425970 0.000031
0.886611 0.425970 0.000031
0.940302 0.425970 0.000031
0.975426 0.425970 0.000031
0.991197 0.425970 0.000031
0.996262 0.425970 0.000031
0.998342 0.425970 0.000031
0.999523 0.425970 0.000031
0.999967 0.425970 0.000031
0.999969 0.425970 0.000031
0.999969 0.425970 0.000031
0.000000 0.479372 0.000031
0.000877 0.479372 0.000031
0.007293 0.479372 0.000031
0.016978 0.479372 0.000031
0.028364 0.479372 0.000031
0.045897 0.479372 0.000031
0.068887 0.479372 0.000031
0.093717 0.479372 0.000031
0.123758 0.479372 0.000031
0.159245 0.479372 0.000031
0.203775 0.479372 0.000031
0.254043 0.479372 0.000031
0.308556 0.479372 0.000031
0.364179 0.479372 0.000031
0.417879 0.479372 0.000031
0.473308 0.479372 0.000031
0.532525 0.479372 0.000031
0.592383 0.479372 0.000031
0.644799 0.479372 0.000031
0.701987 0.479372 0.000031
0.765630 0.479372 0.000031
0.821889 0.479372 0.000031
0.886611 0.479372 0.000031
0.940302 0.479372 0.000031
0.975426 0.479372 0.000031
0.991197 0.479372 0.000031
0.996262 0.479372 0.000031
0.998342 0.479372 0.000031
0.999523 0.479372 0.000031
0.999967 0.479372 0.000031
0.999969 0.479372 0.000031
0.999969 0.479372 0.000031
0.000000 0.530596 0.000031
0.000877 0.530596 0.000031
0.007293 0.530596 0.000031
0.016978 0.530596 0.000031
0.028364 0.530596 0.000031
0.045897 0.530596 0.000031
0.068887 0.530596 0.000031
0.093717 0.530596 0.000031
0.123758 0.530596 0.000031
0.159245 0.530596 0.000031
0.203775 0.530596 0.000031
0.254043 0.530596 0.000031
0.308556 0.530596 0.000031
0.364179 0.530596 0.000031
0.417879 0.530596 0.000031
0.473308 0.530596 0.000031
0.532525 0.530596 0.000031
0.592383 0.530596 0.000031
0.644799 0.530596 0.000031
0.701987 0.530596 0.000031
0.765630 0.530596 0.000031
0.821889 0.530596 0.000031
0.886611 0.530596 0.000031
0.940302 0.530596 0.000031
0.975426 0.530596 0.000031
0.991197 0.530596 0.000031
0.996262 0.530596 0.000031
0.998342 0.530596 0.000031
0.999523 0.530596 0.000031
0.999967 0.530596 0.000031
0.999969 0.530596 0.000031
0.999969 0.530596 0.000031
0.000000 0.584776 0.000031
0.000877 0.584776 0.000031
0.007293 0.584776 0.000031
0.016978 0.584776 0.000031
0.028364 0.584776 0.000031
0.045897 0.584776 0.000031
0.068887 0.584776 0.000031
0.093717 0.584776 0.000031
0.123758 0.584776 0.000031
0.159245 0.584776 0.000031
0.203775 0.584776 0.000031
0.254043 0.584776 0.000031
0.308556 0.584776 0.000031
0.364179 0.584776 0.000031
0.417879 0.584776 0.000031
0.473308 0.584776 0.000031
0.532525 0.584776 0.000031
0.592383 0.584776 0.000031
0.644799 0.584776 0.000031
0.701987 0.584776 0.000031
0.765630 0.584776 0.000031
0.821889 0.584776 0.000031
0.886611 0.584776 0.000031
0.940302 0.584776 0.000031
0.975426 0.584776 0.000031
0.991197 0.584776 0.000031
0.996262 0.584776 0.000031
0.998342 0.584776 0.000031
0.999523 0.584776 0.000031
0.999967 0.584776 0.000031
0.999968 0.584776 0.000031
0.999969 0.584776 0.000031
0.000000 0.644463 0.000031
0.000877 0.644463 0.000031
0.007293 0.644463 0.000031
0.016978 0.644463 0.000031
0.028364 0.644463 0.000031
0.045897 0.644463 0.000031
0.068887 0.644463 0.000031
0.093717 0.644463 0.000031
0.123758 0.644463 0.000031
0.159245 0.644463 0.000031
0.203775 0.644463 0.000031
0.254043 0.644463 0.000031
0.308556 0.644463 0.000031
0.364179 0.644463 0.000031
0.417879 0.644463 0.000031
0.473308 0.644463 0.000031
0.532525 0.644463 0.000031
0.592383 0.644463 0.000031
0.644799 0.644463 0.000031
0.701987 0.644463 0.000031
0.765630 0.644463 0.000031
0.821889 0.644463 0.000031
0.886611 0.644463 0.000031
0.940302 0.644463 0.000031
0.975426 0.644463 0.000031
0.991197 0.644463 0.000031
0.996262 0.644463 0.000031
0.998342 0.644463 0.000031
0.999523 0.644463 0.000031
0.999967 0.644463 0.000031
0.999969 0.644463 0.000031
0.999969 0.644463 0.000031
0.000000 0.703785 0.000031
0.000877 0.703785 0.000031
0.007293 0.703785 0.000031
0.016978 0.703785 0.000031
0.028364 0.703785 0.000031
0.045897 0.703785 0.000031
0.068887 0.703785 0.000031
0.093717 0.703785 0.000031
0.123758 0.703785 0.000031
0.159245 0.703785 0.000031
0.203775 0.703785 0.000031
0.254043 0.703785 0.000031
0.308556 0.703785 0.000031
0.364179 0.703785 0.000031
0.417879 0.703785 0.000031
0.473308 0.703785 0.000031
0.532525 0.703785 0.000031
0.592383 0.703785 0.000031
0.644799 0.703785 0.000031
0.701987 0.703785 0.000031
0.765630 0.703785 0.000031
0.821889 0.703785 0.000031
0.886611 0.703785 0.000031
0.940302 0.703785 0.000031
0.975426 0.703785 0.000031
0.991197 0.703785 0.000031
0.996262 0.703785 0.000031
0.998342 0.703785 0.000031
0.999523 0.703785 0.000031
0.999967 0.703785 0.000031
0.999969 0.703785 0.000031
0.999969 0.703785 0.000031
0.000000 0.757217 0.000031
0.000877 0.757217 0.000031
0.007293 0.757217 0.000031
0.016978 0.757217 0.000031
0.028364 0.757217 0.000031
0.045897 0.757217 0.000031
0.068887 0.757217 0.000031
0.093717 0.757217 0.000031
0.123758 0.757217 0.000031
0.159245 0.757217 0.000031
0.203775 0.757217 0.000031
0.254043 0.757217 0.000031
0.308556 0.757217 0.000031
0.364179 0.757217 0.000031
0.417879 0.757217 0.000031
0.473308 0.757217 0.000031
0.532525 0.757217 0.000031
0.592383 0.757217 0.000031
0.644799 0.757217 0.000031
0.701987 0.757217 0.000031
0.765630 0.757217 0.000031
0.821889 0.757217 0.000031
0.886611 0.757217 0.000031
0.940302 0.757217 0.000031
0.975426 0.757217 0.000031
0.991197 0.757217 0.000031
0.996262 0.757217 0.000031
0.998342 0.757217 0.000031
0.999523 0.757217 0.000031
0.999967 0.757217 0.000031
0.999969 0.757217 0.000031
0.999969 0.757217 0.000031
0.000000 0.815428 0.000031
0.000877 0.815428 0.000031
0.007293 0.815428 0.000031
0.016978 0.815428 0.000031
0.028364 0.815428 0.000031
0.045897 0.815428 0.000031
0.068887 0.815428 0.000031
0.093717 0.815428 0.000031
0.123758 0.815428 0.000031
0.159245 0.815428 0.000031
0.203775 0.815428 0.000031
0.254043 0.815428 0.000031
0.308556 0.815428 0.000031
0.364179 0.815428 0.000031
0.417879 0.815428 0.000031
0.473308 0.815428 0.000031
0.532525 0.815428 0.000031
0.592383 0.815428 0.000031
0.644799 0.815428 0.000031
0.701987 0.815428 0.000031
0.765630 0.815428 0.000031
0.821889 0.815428 0.000031
0.886611 0.815428 0.000031
0.940302 0.815428 0.000031
0.975426 0.815428 0.000031
0.991197 0.815428 0.000031
0.996262 0.815428 0.000031
0.998342 0.815428 0.000031
0.999523 0.815428 0.000031
0.999967 0.815428 0.000031
0.999968 0.815428 0.000031
0.999969 0.815428 0.000031
0.000000 0.870144 0.000031
0.000877 0.870144 0.000031
0.007293 0.870144 0.000031
0.016978 0.870144 0.000031
0.028364 0.870144 0.000031
0.045897 0.870144 0.000031
0.068887 0.870144 0.000031
0.093717 0.870144 0.000031
0.123758 0.870144 0.000031
0.159245 0.870144 0.000031
0.203775 0.870144 0.000031
0.254043 0.870144 0.000031
0.308556 0.870144 0.000031
0.364179 0.870144 0.000031
0.417879 0.870144 0.000031
0.473308 0.870144 0.000031
0.532525 0.870144 0.000031
0.592383 0.870144 0.000031
0.644799 0.870144 0.000031
0.701987 0.870144 0.000031
0.765630 0.870144 0.000031
0.821889 0.870144 0.000031
0.886611 0.870144 0.000031
0.940302 0.870144 0.000031
0.975426 0.870144 0.000031
0.991197 0.870144 0.000031
0.996262 0.870144 0.000031
0.998342 0.870144 0.000031
0.999523 0.870144 0.000031
0.999967 0.870144 0.000031
0.999969 0.870144 0.000031
0.999969 0.870144 0.000031
0.000000 0.914120 0.000031
0.000877 0.914120 0.000031
0.007293 0.914120 0.000031
0.016978 0.914120 0.000031
0.028364 0.914120 0.000031
0.045897 0.914120 0.000031
0.068887 0.914120 0.000031
0.093717 0.914120 0.000031
0.123758 0.914120 0.000031
0.159245 0.914120 0.000031
0.203775 0.914120 0.000031
0.254043 0.914120 0.000031
0.308556 0.914120 0.000031
0.364179 0.914120 0.000031
0.417879 0.914120 0.000031
0.473308 0.914120 0.000031
0.532525 0.914120 0.000031
0.592383 0.914120 0.000031
0.644799 0.914120 0.000031
0.701987 0.914120 0.000031
0.765630 0.914120 0.000031
0.821889 0.914120 0.000031
0.886611 0.914120 0.000031
0.940302 0.914120 0.000031
0.975426 0.914120 0.000031
0.991197 0.914120 0.000031
0.996262 0.914120 0.000031
0.998342 0.914120 0.000031
0.999523 0.914120 0.000031
0.999967 0.914120 0.000031
0.999969 0.914120 0.000031
0.999969 0.914120 0.000031
0.000000 0.940601 0.000031
0.000877 0.940601 0.000031
0.007293 0.940601 0.000031
0.016978 0.940601 0.000031
0.028364 0.940601 0.000031
0.045897 0.940601 0.000031
0.068887 0.940601 0.000031
0.093717 0.940601 0.000031
0.123758 0.940601 0.000031
0.159245 0.940601 0.000031
0.203775 0.940601 0.000031
0.254043 0.940601 0.000031
0.308556 0.940601 0.000031
0.364179 0.940601 0.000031
0.417879 0.940601 0.000031
0.473308 0.940601 0.000031
0.532525 0.940601 0.000031
0.592383 0.940601 0.000031
0.644799 0.940601 0.000031
0.701987 0.940601 0.000031
0.765630 0.940601 0.000031
0.821889 0.940601 0.000031
0.886611 0.940601 0.000031
0.940302 0.940601 0.000031
0.975426 0.940601 0.000031
0.991197 0.940601 0.000031
0.996262 0.940601 0.000031
0.998342 0.940601 0.000031
0.999523 0.940601 0.000031
0.999967 0.940601 0.000031
0.999969 0.940601 0.000031
0.999969 0.940601 0.000031
0.000000 0.960103 0.000031
0.000877 0.960103 0.000031
0.007293 0.960103 0.000031
0.016978 0.960103 0.000031
0.028364 0.960103 0.000031
0.045897 0.960103 0.000031
0.068887 0.960103 0.000031
0.093717 0.960103 0.000031
0.123758 0.960103 0.000031
0.159245 0.960103 0.000031
0.203775 0.960103 0.000031
0.254043 0.960103 0.000031
0.308556 0.960103 0.000031
0.364179 0.960103 0.000031
0.417879 0.960103 0.000031
0.473308 0.960103 0.000031
0.532525 0.960103 0.000031
0.592383 0.960103 0.000031
0.644799 0.960103 0.000031
0.701987 0.960103 0.000031
0.765630 0.960103 0.000031
0.821889 0.960103 0.000031
0.886611 0.960103 0.000031
0.940302 0.960103 0.000031
0.975426 0.960103 0.000031
0.991197 0.960103 0.000031
0.996262 0.960103 0.000031
0.998342 0.960103 0.000031
0.999523 0.960103 0.000031
0.999967 0.960103 0.000031
0.999968 0.960103 0.000031
0.999969 0.960103 0.000031
0.000000 0.972854 0.000031
0.000877 0.972854 0.000031
0.007293 0.972854 0.000031
0.016978 0.972854 0.000031
0.028364 0.972854 0.000031
0.045897 0.972854 0.000031
0.068887 0.972854 0.000031
0.093717 0.972854 0.000031
0.123758 0.972854 0.000031
0.159245 0.972854 0.000031
0.203775 0.972854 0.000031
0.254043 0.972854 0.000031
0.308556 0.972854 0.000031
0.364179 0.972854 0.000031
0.417879 0.972854 0.000031
0.473308 0.972854 0.000031
0.532525 0.972854 0.000031
0.592383 0.972854 0.000031
0.644799 0.972854 0.000031
0.701987 0.972854 0.000031
0.765630 0.972854 0.000031
0.821889 0.972854 0.000031
0.886611 0.972854 0.000031
0.940302 0.972854 0.000031
0.975426 0.972854 0.000031
0.991197 0.972854 0.000031
0.996262 0.972854 0.000031
0.998342 0.972854 0.000031
0.999523 0.972854 0.000031
0.999967 0.972854 0.000031
0.999969 0.972854 0.000031
0.999969 0.972854 0.000031
0.000000 0.980345 0.000031
0.000877 0.980345 0.000031
0.007293 0.980345 0.000031
0.016978 0.980345 0.000031
0.028364 0.980345 0.000031
0.045897 0.980345 0.000031
0.068887 0.980345 0.000031
0.093717 0.980345 0.000031
0.123758 0.980345 0.000031
0.159245 0.980345 0.000031
0.203775 0.980345 0.000031
0.254043 0.980345 0.000031
0.308556 0.980345 0.000031
0.364179 0.980345 0.000031
0.417879 0.980345 0.000031
0.473308 0.980345 0.000031
0.532525 0.980345 0.000031
0.592383 0.980345 0.000031
