LUTs/SPK Cube Block1 S32/TheBrim_SPK_Type-F_Block1_S32.cube
TITLE "TheBrim® SPK Block 1"
# © Copyright 2021 - TheBrim® d.o.o. Croatia
LUT_3D_SIZE 32
DOMAIN_MIN 0.000000 0.000000 0.000000
DOMAIN_MAX 1.000000 1.000000 1.000000
0.005615 0.006592 0.005554
0.006793 0.006192 0.004996
0.009754 0.006045 0.004440
0.015617 0.006146 0.003941
0.026726 0.006586 0.003409
0.047243 0.007353 0.002754
0.073951 0.007934 0.002005
0.107533 0.007754 0.000821
0.150506 0.006085 0.000000
0.195142 0.002348 0.000000
0.241199 0.000000 0.000000
0.293575 0.000000 0.000000
0.342637 0.000000 0.000000
0.383580 0.000000 0.000000
0.425883 0.000000 0.000000
0.463613 0.000000 0.000000
0.486756 0.000000 0.000000
0.506301 0.000000 0.000000
0.523635 0.000000 0.000000
0.539075 0.000000 0.000000
0.551663 0.000000 0.000000
0.560004 0.000000 0.000000
0.565216 0.000000 0.000000
0.569079 0.000000 0.000000
0.572365 0.000000 0.000000
0.575473 0.000000 0.000000
0.578319 0.000000 0.000000
0.580719 0.000000 0.000000
0.583039 0.000000 0.000000
0.585031 0.000000 0.000000
0.586663 0.000000 0.000000
0.588708 0.000000 0.000000
0.005923 0.010585 0.006018
0.007284 0.009349 0.005213
0.010512 0.009049 0.004624
0.016685 0.009188 0.004035
0.027733 0.009662 0.003491
0.045786 0.010317 0.002977
0.071927 0.011299 0.002210
0.104378 0.011793 0.001012
0.144339 0.011057 0.000000
0.187729 0.008537 0.000000
0.232790 0.002376 0.000000
0.284468 0.000000 0.000000
0.335630 0.000000 0.000000
0.377736 0.000000 0.000000
0.419607 0.000000 0.000000
0.460022 0.000000 0.000000
0.488352 0.000000 0.000000
0.508406 0.000000 0.000000
0.527573 0.000000 0.000000
0.544507 0.000000 0.000000
0.558512 0.000000 0.000000
0.568244 0.000000 0.000000
0.573952 0.000000 0.000000
0.577984 0.000000 0.000000
0.581397 0.000000 0.000000
0.584432 0.000000 0.000000
0.587172 0.000000 0.000000
0.589842 0.000000 0.000000
0.592188 0.000000 0.000000
0.593390 0.000000 0.000000
0.594415 0.000000 0.000000
0.595619 0.000000 0.000000
0.006000 0.016973 0.006419
0.007719 0.014995 0.005551
0.011069 0.013988 0.004906
0.017795 0.014230 0.004235
0.029593 0.014941 0.003799
0.047067 0.015656 0.003250
0.070429 0.016670 0.002467
0.102004 0.018083 0.001224
0.140386 0.018567 0.000000
0.182487 0.016805 0.000000
0.225183 0.012652 0.000000
0.274658 0.004156 0.000000
0.327676 0.000000 0.000000
0.372625 0.000000 0.000000
0.412802 0.000000 0.000000
0.455088 0.000000 0.000000
0.488466 0.000000 0.000000
0.510645 0.000000 0.000000
0.530257 0.000000 0.000000
0.548712 0.000000 0.000000
0.564701 0.000000 0.000000
0.575688 0.000000 0.000000
0.583354 0.000000 0.000000
0.587589 0.000000 0.000000
0.591428 0.000000 0.000000
0.594473 0.000000 0.000000
0.597175 0.000000 0.000000
0.599815 0.000000 0.000000
0.601908 0.000000 0.000000
0.602818 0.000000 0.000000
0.603741 0.000000 0.000000
0.604758 0.000000 0.000000
0.005462 0.027255 0.006714
0.007788 0.024162 0.005788
0.011968 0.022573 0.005089
0.018404 0.021910 0.004575
0.030904 0.022840 0.004092
0.049416 0.023797 0.003447
0.071566 0.024867 0.002631
0.099335 0.026345 0.001426
0.136156 0.028176 0.000000
0.179156 0.028059 0.000000
0.219518 0.024759 0.000000
0.265217 0.019014 0.000000
0.318930 0.008635 0.000000
0.367128 0.000000 0.000000
0.406671 0.000000 0.000000
0.449339 0.000000 0.000000
0.486376 0.000000 0.000000
0.511796 0.000000 0.000000
0.533342 0.000000 0.000000
0.552952 0.000000 0.000000
0.571083 0.000000 0.000000
0.583433 0.000000 0.000000
0.593079 0.000000 0.000000
0.598086 0.000000 0.000000
0.601883 0.000000 0.000000
0.605269 0.000000 0.000000
0.608200 0.000000 0.000000
0.610791 0.000000 0.000000
0.612356 0.000000 0.000000
0.613593 0.000000 0.000000
0.614485 0.000000 0.000000
0.615171 0.000000 0.000000
0.003867 0.042622 0.006664
0.006888 0.038769 0.005749
0.012189 0.036616 0.005087
0.020076 0.035628 0.004705
0.031382 0.034948 0.004221
0.051320 0.036126 0.003471
0.074654 0.037479 0.002498
0.100969 0.038653 0.001202
0.133101 0.040345 0.000000
0.176010 0.041397 0.000000
0.217154 0.039723 0.000000
0.259284 0.035668 0.000000
0.309823 0.028204 0.000000
0.360789 0.016255 0.000000
0.402763 0.003271 0.000000
0.443664 0.000000 0.000000
0.482662 0.000000 0.000000
0.513381 0.000000 0.000000
0.535606 0.000000 0.000000
0.557445 0.000000 0.000000
0.576922 0.000000 0.000000
0.591358 0.000000 0.000000
0.602088 0.000000 0.000000
0.609634 0.000000 0.000000
0.613494 0.000000 0.000000
0.616875 0.000000 0.000000
0.620266 0.000000 0.000000
0.622749 0.000000 0.000000
0.624005 0.000000 0.000000
0.625181 0.000000 0.000000
0.626392 0.000000 0.000000
0.626621 0.000000 0.000000
0.000896 0.062505 0.006192
0.003886 0.060129 0.005507
0.010747 0.057567 0.004867
0.020549 0.056156 0.004369
0.033920 0.055068 0.003821
0.052775 0.053636 0.003108
0.077361 0.055490 0.001892
0.104180 0.057164 0.000520
0.134570 0.058472 0.000000
0.172881 0.059222 0.000000
0.216453 0.059406 0.000000
0.258502 0.058066 0.000000
0.304446 0.053517 0.000000
0.355472 0.045295 0.000000
0.401347 0.033270 0.000000
0.441142 0.017988 0.000000
0.482157 0.001551 0.000000
0.516421 0.000000 0.000000
0.540516 0.000000 0.000000
0.562921 0.000000 0.000000
0.583861 0.000000 0.000000
0.600848 0.000000 0.000000
0.612210 0.000000 0.000000
0.621427 0.000000 0.000000
0.626450 0.000000 0.000000
0.629871 0.000000 0.000000
0.633314 0.000000 0.000000
0.635488 0.000000 0.000000
0.636745 0.000000 0.000000
0.637910 0.000000 0.000000
0.638824 0.000000 0.000000
0.639141 0.000000 0.000000
0.000000 0.085034 0.005181
0.000419 0.082385 0.004477
0.007403 0.081437 0.003791
0.019400 0.080125 0.003233
0.035782 0.078787 0.002545
0.057385 0.076873 0.001747
0.079617 0.075707 0.000861
0.107534 0.077894 0.000000
0.138986 0.079429 0.000000
0.175553 0.080276 0.000000
0.217474 0.081407 0.000000
0.259924 0.081983 0.000000
0.305171 0.080025 0.000000
0.354557 0.075184 0.000000
0.401241 0.067746 0.000000
0.442267 0.057738 0.000000
0.483507 0.041734 0.000000
0.520020 0.021624 0.000000
0.547606 0.005655 0.000000
0.570177 0.000514 0.000000
0.592176 0.000000 0.000000
0.611128 0.000000 0.000000
0.623545 0.000000 0.000000
0.632906 0.000000 0.000000
0.640205 0.000000 0.000000
0.643816 0.000000 0.000000
0.647046 0.000000 0.000000
0.648832 0.000000 0.000000
0.650184 0.000000 0.000000
0.651346 0.000000 0.000000
0.651831 0.000000 0.000000
0.652159 0.000000 0.000000
0.000000 0.110335 0.003176
0.000000 0.108133 0.002314
0.002642 0.107391 0.001505
0.016036 0.107813 0.000921
0.035780 0.106707 0.000378
0.061914 0.103954 0.000000
0.085586 0.102541 0.000000
0.110558 0.100744 0.000000
0.142658 0.102391 0.000000
0.180027 0.104439 0.000000
0.222020 0.106447 0.000000
0.261935 0.106739 0.000000
0.307169 0.106633 0.000000
0.356723 0.104512 0.000000
0.402942 0.099666 0.000000
0.444755 0.093096 0.000000
0.485212 0.083528 0.000000
0.523915 0.070097 0.000000
0.555735 0.053871 0.000000
0.578667 0.039973 0.000000
0.601512 0.024210 0.000000
0.622043 0.008250 0.000000
0.635997 0.002867 0.000000
0.646183 0.000455 0.000000
0.654428 0.000000 0.000000
0.659442 0.000000 0.000000
0.662151 0.000000 0.000000
0.663846 0.000000 0.000000
0.665133 0.000000 0.000000
0.666129 0.000000 0.000000
0.666346 0.000000 0.000000
0.666562 0.000000 0.000000
0.000000 0.141443 0.000249
0.000000 0.135475 0.000000
0.000000 0.134719 0.000000
0.010946 0.135957 0.000000
0.032054 0.136793 0.000000
0.061855 0.134642 0.000000
0.090718 0.133332 0.000000
0.117885 0.131703 0.000000
0.146401 0.130211 0.000000
0.184989 0.132623 0.000000
0.228698 0.135286 0.000000
0.268505 0.135602 0.000000
0.310777 0.134935 0.000000
0.359876 0.134427 0.000000
0.408122 0.131929 0.000000
0.450723 0.126889 0.000000
0.489470 0.120022 0.000000
0.529983 0.111601 0.000000
0.564857 0.101179 0.000000
0.589344 0.090098 0.000000
0.612546 0.078639 0.000000
0.634004 0.066128 0.000000
0.650413 0.052305 0.000000
0.660737 0.039870 0.000000
0.669178 0.030483 0.000000
0.676149 0.021844 0.000000
0.678504 0.019006 0.000000
0.679572 0.013944 0.000000
0.680779 0.008635 0.000000
0.681353 0.006505 0.000000
0.681611 0.005237 0.000000
0.681937 0.004213 0.000000
0.000000 0.185582 0.000000
0.000000 0.174062 0.000000
0.000000 0.167933 0.000000
0.000141 0.169350 0.000000
0.025770 0.170464 0.000000
0.059633 0.167290 0.000000
0.092725 0.166398 0.000000
0.123939 0.165451 0.000000
0.155352 0.164487 0.000000
0.190925 0.164870 0.000000
0.236500 0.168683 0.000000
0.278381 0.169966 0.000000
0.320406 0.169324 0.000000
0.366494 0.168388 0.000000
0.416766 0.167444 0.000000
0.461338 0.163741 0.000000
0.499926 0.157370 0.000000
0.540521 0.150576 0.000000
0.577088 0.143002 0.000000
0.603723 0.134653 0.000000
0.626738 0.125320 0.000000
0.648845 0.116861 0.000000
0.666947 0.108527 0.000000
0.677698 0.099758 0.000000
0.685793 0.090515 0.000000
0.693321 0.082997 0.000000
0.696814 0.079189 0.000000
0.697622 0.073980 0.000000
0.698012 0.066997 0.000000
0.697820 0.061661 0.000000
0.698044 0.057029 0.000000
0.698307 0.053013 0.000000
0.000000 0.227508 0.000000
0.000000 0.217692 0.000000
0.000000 0.208741 0.000000
0.000000 0.205099 0.000000
0.014866 0.206738 0.000000
0.056417 0.203366 0.000000
0.094294 0.201619 0.000000
0.128834 0.199991 0.000000
0.163514 0.198987 0.000000
0.201433 0.199557 0.000000
0.243877 0.201963 0.000000
0.288225 0.204542 0.000000
0.331912 0.205390 0.000000
0.378063 0.205455 0.000000
0.427993 0.205214 0.000000
0.474634 0.203124 0.000000
0.514248 0.197986 0.000000
0.555002 0.191953 0.000000
0.592239 0.185525 0.000000
0.621086 0.178589 0.000000
0.644224 0.170727 0.000000
0.666139 0.162780 0.000000
0.685151 0.155655 0.000000
0.696512 0.148415 0.000000
0.704510 0.140475 0.000000
0.711525 0.132779 0.000000
0.716306 0.128239 0.000000
0.717106 0.124205 0.000000
0.717356 0.117863 0.000000
0.716599 0.111490 0.000000
0.715922 0.106122 0.000000
0.715904 0.102221 0.000000
0.000000 0.270982 0.000000
0.000000 0.261596 0.000000
0.000000 0.252525 0.000000
0.000000 0.244578 0.000000
0.002205 0.242005 0.000000
0.050575 0.240273 0.000000
0.096474 0.239990 0.000000
0.133012 0.239141 0.000000
0.170581 0.238431 0.000000
0.211688 0.238991 0.000000
0.256694 0.241550 0.000000
0.297450 0.241926 0.000000
0.342424 0.242916 0.000000
0.389520 0.243809 0.000000
0.440562 0.244676 0.000000
0.487051 0.243326 0.000000
0.528413 0.239971 0.000000
0.569827 0.235719 0.000000
0.608299 0.230355 0.000000
0.639221 0.224198 0.000000
0.662765 0.217623 0.000000
0.685476 0.210872 0.000000
0.705085 0.203688 0.000000
0.716709 0.196841 0.000000
0.725057 0.189762 0.000000
0.732146 0.182667 0.000000
0.737352 0.175800 0.000000
0.738232 0.171436 0.000000
0.738253 0.165704 0.000000
0.737411 0.159590 0.000000
0.736544 0.153679 0.000000
0.735596 0.148820 0.000000
0.000000 0.303933 0.000000
0.000000 0.301808 0.000000
0.000000 0.295565 0.000000
0.000000 0.287132 0.000000
0.000000 0.280963 0.000000
0.037939 0.279417 0.000000
0.094967 0.280147 0.000000
0.137412 0.280827 0.000000
0.176518 0.280323 0.000000
0.220362 0.281812 0.000000
0.268716 0.286152 0.000000
0.311965 0.287546 0.000000
0.352582 0.285545 0.000000
0.400994 0.286589 0.000000
0.453446 0.288041 0.000000
0.500797 0.287103 0.000000
0.541282 0.283157 0.000000
0.582732 0.279545 0.000000
0.623013 0.274968 0.000000
0.655715 0.268599 0.000000
0.678816 0.261642 0.000000
0.702509 0.256070 0.000000
0.723120 0.249930 0.000000
0.736146 0.243066 0.000000
0.745131 0.236475 0.000000
0.752618 0.230074 0.000000
0.758685 0.223860 0.000000
0.760171 0.217650 0.000000
0.760272 0.212472 0.000000
0.759481 0.206902 0.000000
0.758700 0.201308 0.000000
0.758514 0.197797 0.000000
0.000000 0.323873 0.000000
0.000000 0.324902 0.000000
0.000000 0.327348 0.000000
0.000000 0.325754 0.000000
0.000000 0.322588 0.000000
0.022261 0.321799 0.000000
0.089449 0.322187 0.000000
0.139293 0.322766 0.000000
0.183823 0.322755 0.000000
0.228056 0.322920 0.000000
0.278699 0.328208 0.000000
0.324566 0.331473 0.000000
0.367984 0.332203 0.000000
0.412797 0.332258 0.000000
0.466982 0.334856 0.000000
0.516143 0.334863 0.000000
0.557733 0.331015 0.000000
0.597027 0.326938 0.000000
0.639105 0.323064 0.000000
0.673615 0.317048 0.000000
0.696508 0.308777 0.000000
0.719249 0.302137 0.000000
0.740855 0.296438 0.000000
0.756023 0.289814 0.000000
0.765331 0.283031 0.000000
0.773353 0.277544 0.000000
0.780539 0.272550 0.000000
0.783349 0.265972 0.000000
0.783060 0.259292 0.000000
0.782231 0.253601 0.000000
0.781579 0.248385 0.000000
0.781599 0.245268 0.000000
0.000000 0.344214 0.000000
0.000000 0.346219 0.000000
0.000000 0.350137 0.000000
0.000000 0.353750 0.000000
0.000000 0.354764 0.000000
0.013573 0.358493 0.000000
0.085387 0.361903 0.000000
0.138910 0.365424 0.000000
0.189973 0.367214 0.000000
0.238386 0.368221 0.000000
0.289218 0.372124 0.000000
0.336025 0.374688 0.000000
0.381458 0.375383 0.000000
0.428193 0.376134 0.000000
0.478680 0.377949 0.000000
0.529946 0.379686 0.000000
0.573740 0.377708 0.000000
0.613463 0.374937 0.000000
0.655063 0.372044 0.000000
0.692030 0.367540 0.000000
0.716319 0.359997 0.000000
0.738316 0.352604 0.000000
0.759652 0.345883 0.000000
0.776905 0.339587 0.000000
0.786942 0.333565 0.000000
0.795409 0.328787 0.000000
0.802808 0.323870 0.000000
0.806717 0.316856 0.000000
0.806920 0.308471 0.000000
0.805085 0.300449 0.000000
0.804194 0.294704 0.000000
0.804201 0.291491 0.000000
0.000000 0.364524 0.000000
0.000000 0.368534 0.000000
0.000000 0.372800 0.000000
0.000000 0.378728 0.000000
0.000000 0.383855 0.000000
0.007089 0.388992 0.000000
0.084912 0.394984 0.000000
0.141241 0.400815 0.000000
0.194701 0.406393 0.000000
0.247783 0.411625 0.000000
0.301885 0.418458 0.000000
0.347744 0.421300 0.000000
0.394364 0.422577 0.000000
0.443279 0.423996 0.000000
0.495648 0.426124 0.000000
0.542973 0.425655 0.000000
0.588366 0.424355 0.000000
0.628902 0.422353 0.000000
0.671332 0.420278 0.000000
0.708248 0.416373 0.000000
0.734624 0.410298 0.000000
0.757529 0.404293 0.000000
0.779047 0.397834 0.000000
0.797346 0.391880 0.000000
0.808705 0.386640 0.000000
0.817813 0.382260 0.000000
0.825806 0.377956 0.000000
0.830763 0.371247 0.000000
0.832149 0.362684 0.000000
0.830404 0.354348 0.000000
0.828574 0.346333 0.000000
0.828503 0.342889 0.000000
0.000000 0.383741 0.000000
0.000000 0.390161 0.000000
0.000000 0.396734 0.000000
0.000000 0.404710 0.000000
0.000000 0.411704 0.000000
0.004233 0.418292 0.000000
0.081295 0.424612 0.000000
0.145821 0.430864 0.000000
0.199931 0.437612 0.000000
0.254308 0.445257 0.000000
0.310974 0.455120 0.000000
0.358783 0.461534 0.000000
0.405243 0.466778 0.000000
0.455570 0.470953 0.000000
0.510341 0.475385 0.000000
0.559674 0.477111 0.000000
0.602502 0.474386 0.000000
0.643893 0.472779 0.000000
0.687590 0.471371 0.000000
0.724913 0.467392 0.000000
0.751616 0.460537 0.000000
0.774570 0.454743 0.000000
0.796957 0.448976 0.000000
0.816719 0.443108 0.000000
0.828582 0.437641 0.000000
0.838442 0.433565 0.000000
0.846934 0.429549 0.000000
0.852572 0.422110 0.000000
0.854365 0.413248 0.000000
0.853796 0.405305 0.000000
0.852224 0.397723 0.000000
0.852245 0.394536 0.000000
0.000000 0.397433 0.000000
0.000000 0.405130 0.000000
0.000000 0.413989 0.000000
0.000000 0.423593 0.000000
0.000000 0.433472 0.000000
0.004026 0.443109 0.000000
0.077395 0.452681 0.000000
0.150292 0.461173 0.000000
0.207851 0.469878 0.000000
0.263249 0.478282 0.000000
0.319033 0.487579 0.000000
0.367883 0.493970 0.000000
0.415983 0.499654 0.000000
0.465246 0.505401 0.000000
0.521086 0.512486 0.000000
0.572009 0.516804 0.000000
0.617005 0.517782 0.000000
0.656552 0.517013 0.000000
0.701819 0.518239 0.000000
0.740944 0.517039 0.000000
0.769548 0.512287 0.000000
0.792337 0.507070 0.000000
0.815567 0.501700 0.000000
0.836087 0.496014 0.000000
0.848859 0.490222 0.000000
0.858755 0.485649 0.000000
0.867644 0.481582 0.000000
0.873856 0.473653 0.000000
0.874932 0.461770 0.000000
0.874603 0.451979 0.000000
0.873226 0.444606 0.000000
0.873435 0.441714 0.000000
0.000000 0.412195 0.000000
0.000000 0.420041 0.000000
0.000000 0.430031 0.000000
0.000000 0.440426 0.000000
0.000000 0.451202 0.000000
0.005631 0.462335 0.000000
0.087418 0.472847 0.000000
0.156415 0.483646 0.000000
0.216346 0.495360 0.000000
0.275198 0.507331 0.000000
0.329418 0.517818 0.000000
0.376629 0.525504 0.000000
0.426563 0.532900 0.000000
0.477455 0.539648 0.000000
0.531835 0.546476 0.000000
0.582726 0.551413 0.000000
0.628624 0.553738 0.000000
0.669519 0.554896 0.000000
0.712742 0.556216 0.000000
0.753160 0.557122 0.000000
0.783618 0.554722 0.000000
0.807520 0.551699 0.000000
0.831636 0.548547 0.000000
0.853431 0.545163 0.000000
0.868080 0.541168 0.000000
0.878518 0.537301 0.000000
0.887760 0.533825 0.000000
0.894794 0.527360 0.000000
0.896525 0.515790 0.000000
0.895619 0.501701 0.000000
0.893718 0.491925 0.000000
0.893879 0.488678 0.000000
0.000000 0.425172 0.000000
0.000000 0.434598 0.000000
0.000000 0.445496 0.000000
0.000000 0.456598 0.000000
0.000000 0.468051 0.000000
0.007039 0.479810 0.000000
0.100893 0.490804 0.000000
0.166363 0.502215 0.000000
0.226135 0.514478 0.000000
0.286579 0.528629 0.000000
0.340940 0.541254 0.000000
0.386875 0.551018 0.000000
0.436432 0.560886 0.000000
0.489925 0.571153 0.000000
0.545426 0.580019 0.000000
0.593729 0.584933 0.000000
0.639282 0.587672 0.000000
0.680989 0.589571 0.000000
0.724868 0.591456 0.000000
0.763003 0.591705 0.000000
0.794984 0.590455 0.000000
0.819568 0.588505 0.000000
0.844305 0.586467 0.000000
0.865864 0.583442 0.000000
0.882162 0.580743 0.000000
0.893351 0.577924 0.000000
0.902891 0.574964 0.000000
0.910495 0.569959 0.000000
0.914437 0.562217 0.000000
0.915721 0.552467 0.000000
0.914241 0.541509 0.000000
0.914470 0.538308 0.000000
0.000000 0.434926 0.000000
0.000000 0.447743 0.000000
0.000000 0.460204 0.000000
0.000000 0.472213 0.000000
0.000000 0.484341 0.000000
0.012256 0.496928 0.000000
0.112924 0.508735 0.000000
0.178599 0.520923 0.000000
0.239381 0.533917 0.000000
0.299405 0.548785 0.000000
0.352411 0.560784 0.000000
0.399157 0.570739 0.000000
0.447406 0.580623 0.000000
0.500461 0.591615 0.000000
0.556427 0.602940 0.000000
0.605217 0.611057 0.000000
0.648415 0.616218 0.000000
0.690407 0.620417 0.000000
0.735380 0.624527 0.000000
0.774619 0.626621 0.000000
0.806200 0.626827 0.000000
0.831311 0.625970 0.000000
0.856727 0.624843 0.000000
0.878436 0.621796 0.000000
0.894496 0.617708 0.000000
0.906031 0.615035 0.000000
0.915978 0.612216 0.000000
0.923624 0.606917 0.000000
0.927957 0.598940 0.000000
0.930196 0.590424 0.000000
0.930344 0.581776 0.000000
0.930866 0.579196 0.000000
0.000000 0.443371 0.000000
0.000000 0.457512 0.000000
0.000000 0.471181 0.000000
0.000000 0.484773 0.000000
0.000000 0.497975 0.000000
0.035217 0.511250 0.000000
0.120185 0.524507 0.000000
0.191959 0.538313 0.000000
0.254472 0.553261 0.000000
0.313996 0.568561 0.000000
0.362783 0.580661 0.000000
0.410439 0.591507 0.000000
0.460189 0.602068 0.000000
0.512884 0.612609 0.000000
0.566494 0.623246 0.000000
0.615527 0.631763 0.000000
0.658282 0.637632 0.000000
0.698607 0.642493 0.000000
0.743836 0.648416 0.000000
0.784166 0.652927 0.000000
0.816190 0.655193 0.000000
0.841025 0.655713 0.000000
0.867427 0.656541 0.000000
0.890331 0.656128 0.000000
0.906875 0.653045 0.000000
0.918104 0.649419 0.000000
0.928424 0.646894 0.000000
0.936632 0.642454 0.000000
0.940829 0.633966 0.000000
0.942851 0.624460 0.000000
0.943287 0.616190 0.000000
0.944210 0.613769 0.000000
0.000000 0.452744 0.000000
0.000000 0.467000 0.000000
0.000000 0.481240 0.000000
0.000000 0.495493 0.000000
0.000000 0.509295 0.000000
0.058834 0.522880 0.000000
0.132546 0.536635 0.000000
0.204285 0.551260 0.000000
0.267798 0.568076 0.000000
0.327537 0.583775 0.000000
0.374059 0.596143 0.000000
0.421586 0.608352 0.000000
0.472707 0.620106 0.000000
0.527096 0.631706 0.000000
0.577893 0.641865 0.000000
0.624889 0.650403 0.000000
0.667544 0.656879 0.000000
0.709103 0.662359 0.000000
0.751757 0.667523 0.000000
0.791405 0.672189 0.000000
0.823504 0.675213 0.000000
0.849159 0.676938 0.000000
0.875032 0.678521 0.000000
0.898429 0.679611 0.000000
0.916128 0.679363 0.000000
0.928029 0.677382 0.000000
0.938323 0.675003 0.000000
0.947209 0.672350 0.000000
0.952720 0.667072 0.000000
0.954667 0.657952 0.000000
0.954958 0.649094 0.000000
0.956403 0.646555 0.000000
0.000000 0.458955 0.000000
0.000000 0.474260 0.000000
0.000000 0.488824 0.000000
0.000000 0.503309 0.000000
0.000732 0.518072 0.000000
0.074293 0.532436 0.000000
0.150018 0.546694 0.000000
0.218127 0.561537 0.000000
0.278217 0.577963 0.000000
0.335121 0.592875 0.000000
0.382334 0.605471 0.000000
0.429655 0.617783 0.000000
0.479668 0.630824 0.000000
0.536789 0.644654 0.000000
0.587837 0.656098 0.000000
0.633229 0.665658 0.000000
0.674856 0.673040 0.000000
0.717719 0.679747 0.000000
0.760555 0.685957 0.000000
0.797892 0.690327 0.000000
0.829452 0.693579 0.000000
0.855493 0.695686 0.000000
0.881623 0.697664 0.000000
0.904511 0.698487 0.000000
0.922399 0.698186 0.000000
0.934628 0.696992 0.000000
0.945194 0.695385 0.000000
0.954419 0.693462 0.000000
0.960709 0.690168 0.000000
0.964023 0.684945 0.000000
0.965491 0.679209 0.000000
0.967250 0.676253 0.000000
0.000000 0.460709 0.000000
0.000000 0.477273 0.000000
0.000000 0.493113 0.000000
0.000000 0.507654 0.000000
0.002453 0.522754 0.000000
0.085670 0.539135 0.000000
0.163180 0.554031 0.000000
0.228832 0.569159 0.000000
0.288012 0.585369 0.000000
0.339646 0.599654 0.000000
0.387051 0.612348 0.000000
0.434806 0.624659 0.000000
0.484107 0.637663 0.000000
0.539375 0.651560 0.000000
0.590366 0.663170 0.000000
0.636518 0.673222 0.000000
0.677751 0.682059 0.000000
0.721861 0.690958 0.000000
0.765988 0.699035 0.000000
0.804155 0.704782 0.000000
0.833796 0.708467 0.000000
0.860203 0.711408 0.000000
0.886988 0.714320 0.000000
0.910419 0.716156 0.000000
0.928111 0.716301 0.000000
0.940666 0.715516 0.000000
0.951527 0.714265 0.000000
0.960959 0.712630 0.000000
0.967752 0.710272 0.000000
0.971691 0.706395 0.000000
0.973529 0.702325 0.000000
0.975524 0.699476 0.000000
0.000000 0.460883 0.000000
0.000000 0.477448 0.000000
0.000000 0.494755 0.000000
0.000000 0.511172 0.000000
0.003958 0.526905 0.000000
0.096778 0.543631 0.000000
0.171131 0.559315 0.000000
0.235120 0.574836 0.000000
0.294368 0.590912 0.000000
0.343599 0.604821 0.000000
0.388241 0.617805 0.000000
0.435864 0.630167 0.000000
0.486162 0.643289 0.000000
0.540390 0.657406 0.000000
0.589617 0.669413 0.000000
0.636525 0.679612 0.000000
0.678039 0.688539 0.000000
0.721969 0.697928 0.000000
0.766625 0.706691 0.000000
0.805937 0.713704 0.000000
0.836535 0.718636 0.000000
0.863588 0.722819 0.000000
0.891038 0.726812 0.000000
0.915148 0.729874 0.000000
0.932944 0.730718 0.000000
0.945590 0.730362 0.000000
0.956875 0.730059 0.000000
0.966556 0.728991 0.000000
0.974043 0.728109 0.000000
0.978820 0.726697 0.000000
0.980922 0.723851 0.000000
0.983097 0.721339 0.000000
0.000000 0.461176 0.000000
0.000000 0.478842 0.000000
0.000000 0.496601 0.000000
0.000000 0.514204 0.000000
0.005411 0.531005 0.000000
0.107884 0.547803 0.000000
0.180312 0.563565 0.000000
0.241544 0.580078 0.000000
0.300550 0.596212 0.000000
0.348364 0.609751 0.000000
0.392449 0.622788 0.000000
0.437043 0.635560 0.000000
0.487990 0.648830 0.000000
0.542156 0.663041 0.000000
0.590461 0.675439 0.000000
0.635966 0.686128 0.000000
0.677782 0.695128 0.000000
0.722299 0.704580 0.000000
0.766629 0.713814 0.000000
0.806255 0.721098 0.000000
0.837273 0.726025 0.000000
0.864547 0.730195 0.000000
0.892025 0.734252 0.000000
0.916600 0.737597 0.000000
0.935095 0.739570 0.000000
0.948276 0.740188 0.000000
0.959888 0.740551 0.000000
0.970307 0.741031 0.000000
0.978302 0.741784 0.000000
0.983731 0.742070 0.000000
0.986892 0.741450 0.000000
0.989165 0.739556 0.000000
0.000000 0.462073 0.000000
0.000000 0.480065 0.000000
0.000000 0.497800 0.000000
0.000000 0.515420 0.000000
0.006115 0.533317 0.000000
0.114142 0.550711 0.000000
0.185841 0.566502 0.000000
0.245986 0.583171 0.000000
0.304320 0.599901 0.000000
0.351154 0.613289 0.000000
0.395598 0.626399 0.000000
0.439234 0.639366 0.000000
0.488325 0.652939 0.000000
0.542455 0.667250 0.000000
0.591044 0.679610 0.000000
0.635346 0.690757 0.000000
0.676232 0.700119 0.000000
0.720812 0.709612 0.000000
