LUTs/SPK Cube Block1 S32/TheBrim_SPK_Type-G_Block1_S32.cube
TITLE "TheBrim® SPK Block 1"
# © Copyright 2021 - TheBrim® d.o.o. Croatia
LUT_3D_SIZE 5
DOMAIN_MIN 0.000000 0.000000 0.000000
DOMAIN_MAX 0.903226 0.903226 0.903226
0.067048 0.020356 0.045258
0.120303 0.031088 0.044849
0.524014 0.014699 0.016441
0.812005 0.023137 0.015616
0.869778 0.024863 0.016202
0.072900 0.116532 0.092510
0.137008 0.116531 0.056009
0.460494 0.136021 0.017963
0.826263 0.080867 0.016214
0.931455 0.044857 0.019027
0.115858 0.404654 0.282817
0.106415 0.363019 0.215884
0.452167 0.411449 0.074309
0.753496 0.418226 0.034884
0.872738 0.376187 0.039152
0.155701 0.558426 0.406138
0.163299 0.592254 0.367070
0.523338 0.719438 0.244601
0.822341 0.784947 0.091081
0.927997 0.743476 0.090310
0.375730 0.702111 0.335892
0.464164 0.742806 0.320520
0.657353 0.825969 0.270484
0.854332 0.909348 0.143451
0.964281 0.916618 0.106032
0.069071 0.031838 0.177165
0.120300 0.031244 0.139096
0.565264 0.012241 0.094257
0.840175 0.022942 0.036455
0.883031 0.025246 0.016355
0.075481 0.138913 0.216489
0.116632 0.114704 0.143343
0.465046 0.125796 0.096238
0.847814 0.067703 0.033787
0.943103 0.030606 0.018390
0.115486 0.403179 0.284315
0.106576 0.363917 0.223080
0.461107 0.406671 0.121243
0.755835 0.415415 0.036689
0.876873 0.373040 0.039089
0.155793 0.558806 0.406922
0.162664 0.589549 0.368308
0.522624 0.716973 0.242992
0.822635 0.782199 0.090810
0.928904 0.754569 0.091676
0.397639 0.711645 0.332558
0.482535 0.751366 0.317064
0.666156 0.829828 0.267319
0.862363 0.911317 0.199118
0.964630 0.939545 0.243479
0.080046 0.083082 0.380464
0.103282 0.086275 0.408974
0.416720 0.080430 0.370725
0.937278 0.013154 0.324382
0.957710 0.016503 0.235828
0.086927 0.155310 0.458154
0.085967 0.142388 0.446129
0.440531 0.144071 0.372373
0.926849 0.080885 0.329161
1.000000 0.044018 0.278102
0.123814 0.431156 0.557852
0.114746 0.391876 0.493252
0.432745 0.424308 0.417155
0.792369 0.422063 0.372242
0.952365 0.393675 0.319198
0.155486 0.576952 0.579032
0.163501 0.608292 0.574993
0.508937 0.728955 0.486982
0.822273 0.790491 0.442243
0.932522 0.781387 0.389220
0.386402 0.737090 0.492441
0.476702 0.766477 0.490710
0.670471 0.835363 0.495614
0.861852 0.905143 0.512130
0.963935 0.941718 0.501349
0.089526 0.147203 0.556536
0.101442 0.137466 0.563559
0.380321 0.137572 0.537245
0.814466 0.101276 0.491871
1.000000 0.063699 0.460043
0.093846 0.208150 0.608474
0.093482 0.200788 0.607636
0.380300 0.203288 0.573090
0.817076 0.184450 0.528094
1.000000 0.175301 0.493956
0.127760 0.427306 0.711038
0.127673 0.424613 0.721761
0.413808 0.459220 0.713750
0.803041 0.462111 0.646841
0.979471 0.433994 0.603923
0.159782 0.590721 0.760723
0.169874 0.632511 0.786212
0.507401 0.759470 0.767336
0.827431 0.818347 0.706235
0.951570 0.804962 0.667009
0.375298 0.770820 0.736857
0.488391 0.803350 0.738175
0.683120 0.862384 0.728065
0.870858 0.931982 0.731537
0.964989 0.956296 0.717897
0.095559 0.233747 0.626298
0.095943 0.238033 0.633148
0.287537 0.240905 0.611805
0.604228 0.231732 0.562174
0.918268 0.206498 0.531790
0.099010 0.270330 0.653673
0.099718 0.274165 0.660443
0.298181 0.278371 0.633913
0.616311 0.281091 0.589019
0.908405 0.272250 0.559146
0.125905 0.411935 0.736542
0.127584 0.418376 0.749212
0.370902 0.442007 0.729892
0.691928 0.486158 0.690079
0.886408 0.514184 0.667366
0.165462 0.597559 0.837239
0.190041 0.673948 0.902940
0.540583 0.779239 0.884026
0.838241 0.833149 0.795073
0.944133 0.831793 0.774048
0.354914 0.787749 0.895728
0.494247 0.817722 0.883039
0.691986 0.875612 0.865687
0.879590 0.943969 0.826874
0.962432 0.961925 0.826201
