LUTs/SPK Cube Block1 S32/TheBrim_SPK_Type-U_Block 1_S32.cube
TITLE "TheBrim® Industrial Imaging Burau"
# © Copyright 2022 - TheBrim® d.o.o. Croatia
LUT_3D_SIZE 5
DOMAIN_MIN 0.000000 0.000000 0.000000
DOMAIN_MAX 0.903226 0.903226 0.903226
0.0127260243 0.0152590219 0.0176394293
0.1130772279 0.0412347994 0.0372448113
0.3927711614 0.0181936764 0.0173982383
0.5902066613 0.0000000000 0.0333709887
0.6653214116 0.0000000000 0.0368549679
0.0314700099 0.1124796649 0.0548054844
0.1234612384 0.1202312480 0.0493378323
0.3635269999 0.1288196162 0.0358616548
0.6171521251 0.1115355744 0.0351075638
0.7312295572 0.1217246633 0.0281543721
0.0000000000 0.3387453638 0.1479770721
0.0443811113 0.3069504845 0.1142684160
0.3684620629 0.3494010834 0.0807261326
0.6854662739 0.3777306881 0.0043375000
0.8559843669 0.4019314968 0.0000000000
0.0000000000 0.5558246394 0.2609282900
0.0000000000 0.5916636518 0.2233044642
0.4060031946 0.6497394891 0.1607739770
0.7525498564 0.6875858012 0.0048523690
0.9336646018 0.7138569147 0.0000000000
0.1708508381 0.6699670454 0.2251601582
0.3030628795 0.6913759454 0.2160707034
0.5458619748 0.7505563390 0.1928277675
0.7966376007 0.8159190977 0.1565240933
0.9626764324 0.8614077186 0.1214706744
0.0092400761 0.0285107441 0.1167984603
0.1094071870 0.0351558020 0.1184759683
0.3897341238 0.0198613398 0.1256959468
0.5992045620 0.0000000000 0.1189258633
0.6685415575 0.0000000000 0.1064587502
0.0000000000 0.1147419379 0.1305896628
0.1040182911 0.1106987894 0.1154802777
0.3488301006 0.1190430132 0.1119441224
0.6181670961 0.1037593800 0.1099171337
0.7288452120 0.1075357418 0.1068426869
0.0000000000 0.3317970944 0.1554077235
0.0359345043 0.3063558748 0.1216114512
0.3692604543 0.3452703185 0.1147685182
0.6816899121 0.3681608202 0.1023575189
0.8519884721 0.3921105935 0.1032494333
0.0000000000 0.5523613336 0.2652992614
0.0000000000 0.5895972849 0.2230317708
0.4061735049 0.6476770600 0.1608625777
0.7526384572 0.6841244644 0.0479044687
0.9309652316 0.7136954644 0.0546971946
0.2156513264 0.6748597770 0.2224243632
0.3243132825 0.6960009057 0.2142396208
0.5569163978 0.7534309419 0.1914849736
0.8032206381 0.8240378818 0.2192347354
0.9556592513 0.8851054718 0.3643460648
0.0145324956 0.0468766997 0.2688659347
0.0885899433 0.0502966895 0.3058823529
0.3375394089 0.0548163134 0.3562272807
0.6142440508 0.0000000000 0.3849664178
0.6642965960 0.0000000000 0.3378524649
0.0000000000 0.1105609659 0.3147631037
0.0691371515 0.1065325842 0.3226210077
0.3522136657 0.1225486504 0.3545989954
0.6366689063 0.1030554961 0.3777513616
0.7426433056 0.1058966275 0.3630013019
0.0000000000 0.3411228179 0.3700883793
0.0000000000 0.3302436275 0.3531843364
0.3563838087 0.3625779871 0.3754162390
0.6851020263 0.3876303477 0.3982388135
0.8563033297 0.4089880561 0.4116007945
0.0000000000 0.5628103181 0.4326562758
0.0000000000 0.6048405555 0.4145452935
0.3596827108 0.6649089258 0.4259186793
0.7379553403 0.7126253639 0.4418953674
0.9219939112 0.7398494279 0.4626683107
0.1543691256 0.7004486645 0.4020506157
0.2895492928 0.7231275088 0.4142204240
0.5358865123 0.7840907469 0.4536684411
0.7889736339 0.8574049326 0.5224930288
0.9442789743 0.9085640030 0.5871627325
0.0009746085 0.0911948060 0.4335501591
0.1189199566 0.0895182825 0.4594904963
0.3309967341 0.0936155760 0.4968317841
0.5692958946 0.0743143900 0.5106894371
0.7285597206 0.0813128666 0.5198704460
0.0000000000 0.1432497287 0.4677392282
0.0868366325 0.1483452575 0.4900961564
0.3439334313 0.1607611791 0.5272449836
0.6028814940 0.1559491727 0.5473347165
0.7629112245 0.1712426504 0.5556720492
0.0000000000 0.3512705597 0.5454002663
0.0000000000 0.3618140516 0.5807864303
0.3611397013 0.3925348927 0.6236377016
0.6939109119 0.4088935486 0.6473226569
0.8585035822 0.4256991462 0.6588761976
0.0000000000 0.5759921441 0.6006448167
0.0000000000 0.6274652550 0.6366462639
0.3292069985 0.6861002616 0.6689441987
0.7285055757 0.7341868541 0.6977965480
0.9146410315 0.7571866301 0.7148610568
0.0000000000 0.7354380939 0.6340345100
0.2310412806 0.7578619649 0.6473836930
0.5204025428 0.8161553664 0.6822766461
0.7840306952 0.8843553186 0.7357590256
0.9356866683 0.9246460276 0.7752149184
0.0000000000 0.1774240310 0.5009684557
0.1087033031 0.1823216848 0.5142679238
0.2871019426 0.1911669952 0.5375079064
0.4927187393 0.1902485006 0.5522559972
0.6756079613 0.1830944804 0.5619085591
0.0000000000 0.2129214382 0.5243447850
0.1043047670 0.2182611114 0.5366061474
0.2944292264 0.2290517010 0.5587179468
0.5066359517 0.2348127201 0.5746680547
0.6966683648 0.2426450284 0.5876431456
0.0000000000 0.3491746592 0.6053633001
0.0000000000 0.3528624202 0.6152393328
0.3196637108 0.3753867055 0.6393554786
0.5900491488 0.4214325268 0.6677490728
0.7913264766 0.4649798064 0.6888340877
0.0000000000 0.5876982750 0.7066546563
0.0000000000 0.6359817581 0.7528688192
0.3395427708 0.6985742659 0.7914150774
0.7280546962 0.7423784877 0.8085642491
0.8906922428 0.7669652020 0.8131124221
0.0000000000 0.7598220109 0.7728994849
0.1578088045 0.7827853622 0.7865075791
0.5147911606 0.8396463845 0.8170679543
0.7852898107 0.9020439706 0.8568890792
0.9340012847 0.9322233625 0.8790038320
