LUTs/SPK Cube Block1 S32/TheBrim_SPK_Type-K_Block1_S32.cube
TITLE "TheBrim® SPK Block 1"
# TheBrim® d.o.o. Croatia
# Copyright: (C) Copyright 2020 TheBrim® d.o.o. Croatia
LUT_3D_SIZE 32
0.0022280000 0.0019840000 0.0018310000
0.0050856774 0.0040467097 0.0038627419
0.0062535484 0.0051466774 0.0049287419
0.0072950323 0.0057488065 0.0054748065
0.0086709355 0.0060632258 0.0058192258
0.0106450968 0.0067681935 0.0065541935
0.0130725161 0.0074690323 0.0072610323
0.0170940000 0.0082017419 0.0081235161
0.0282255806 0.0099333871 0.0101360645
0.0480367097 0.0128007742 0.0140938710
0.0753462581 0.0163456774 0.0189928065
0.1104240323 0.0199044194 0.0251688387
0.1509103226 0.0238724516 0.0327620000
0.1952964194 0.0287041290 0.0409796452
0.2427021613 0.0343521290 0.0501630323
0.2891380323 0.0389394839 0.0590730968
0.3415770968 0.0428260968 0.0685127742
0.4006397419 0.0438015806 0.0778767097
0.4544658710 0.0407812581 0.0854860645
0.4983716129 0.0358907419 0.0916842581
0.5432060000 0.0293355806 0.0981438065
0.5898798710 0.0207104839 0.1063938710
0.6219511290 0.0131438710 0.1131846452
0.6515461290 0.0034998065 0.1208782581
0.6758269032 0.0000000000 0.1287929032
0.6914049355 0.0000000000 0.1353949032
0.7027510645 0.0000000000 0.1442074839
0.7108517097 0.0000000000 0.1506669032
0.7153624516 0.0000000000 0.1542994516
0.7155740645 0.0000000000 0.1547471290
0.7156360323 0.0000000000 0.1548150000
0.7167360000 0.0000000000 0.1548160000
0.0066889032 0.0062466452 0.0048967742
0.0068055161 0.0060405484 0.0046729355
0.0072974839 0.0062816129 0.0048520323
0.0080407742 0.0063465806 0.0048377097
0.0093139355 0.0065211613 0.0051393548
0.0111495484 0.0070209677 0.0058424194
0.0139580968 0.0076226129 0.0065496774
0.0191737742 0.0086977097 0.0077900645
0.0319134516 0.0104046774 0.0100001613
0.0515103226 0.0126160968 0.0131277097
0.0781782258 0.0161526774 0.0180299355
0.1137310000 0.0203353548 0.0240167097
0.1524248065 0.0242735161 0.0313063548
0.1961445161 0.0288184839 0.0398690323
0.2430110968 0.0344964839 0.0496639355
0.2899187419 0.0391104516 0.0590531935
0.3419152903 0.0428711290 0.0686192903
0.4001553871 0.0438330968 0.0778471613
0.4538054516 0.0408956774 0.0854540968
0.4988474516 0.0359233226 0.0917829677
0.5430820323 0.0293552581 0.0981467419
0.5899089032 0.0207854194 0.1064561935
0.6217553226 0.0131442258 0.1133050323
0.6512133226 0.0036117419 0.1208203226
0.6756930968 0.0000000000 0.1287791290
0.6914239355 0.0000000000 0.1353958710
0.7026159355 0.0000000000 0.1440991613
0.7108137097 0.0000000000 0.1506590323
0.7153014516 0.0000000000 0.1542354516
0.7155720645 0.0000000000 0.1547421935
0.7156517742 0.0000000000 0.1548150000
0.7174660323 0.0000000000 0.1534538065
0.0069968710 0.0075832903 0.0056937419
0.0077628387 0.0076491935 0.0053095161
0.0084943548 0.0078390968 0.0050665484
0.0094792581 0.0079758710 0.0050655806
0.0105596129 0.0079768387 0.0052903548
0.0122543871 0.0082537742 0.0057272258
0.0148843548 0.0085633226 0.0062573871
0.0214952258 0.0096668710 0.0075957742
0.0350284194 0.0114521613 0.0097371290
0.0541912258 0.0138904839 0.0130849355
0.0800465484 0.0161809032 0.0166547419
0.1145104839 0.0204135806 0.0224699677
0.1517331935 0.0246405161 0.0298026452
0.1973284194 0.0292526452 0.0388693871
0.2436771935 0.0348423226 0.0483290000
0.2907321290 0.0393647742 0.0581298065
0.3426237419 0.0429894516 0.0685080645
0.3999483548 0.0438835161 0.0778680968
0.4529263226 0.0409260968 0.0853667419
0.4992804194 0.0359871935 0.0919211935
0.5435256452 0.0293344194 0.0982773226
0.5894272903 0.0209900645 0.1063958387
0.6218302903 0.0132020645 0.1133600968
0.6506979032 0.0038980645 0.1206755484
0.6756613548 0.0000000000 0.1287465806
0.6913807419 0.0000000000 0.1353777097
0.7025490645 0.0000000000 0.1440430968
0.7108845161 0.0000000000 0.1506484839
0.7153540968 0.0000000000 0.1542625161
0.7156252258 0.0000000000 0.1547043226
0.7166794516 0.0000000000 0.1549168065
0.7173381290 0.0000000000 0.1502433226
0.0071838065 0.0093473548 0.0063613226
0.0077957742 0.0095304194 0.0062653548
0.0084402903 0.0097571935 0.0062003871
0.0106559677 0.0104537742 0.0060076129
0.0133080000 0.0111351613 0.0057827419
0.0145310968 0.0108911290 0.0059536129
0.0168083548 0.0109098065 0.0064193226
0.0231659032 0.0116415806 0.0074219677
0.0374252581 0.0137371613 0.0096994194
0.0576200323 0.0166053226 0.0131729677
0.0840298710 0.0187802258 0.0169363871
0.1135506129 0.0213792258 0.0209412581
0.1490672581 0.0250018065 0.0272715484
0.1961258710 0.0299152903 0.0367649355
0.2442783871 0.0352449032 0.0464093871
0.2909780323 0.0397393871 0.0560608710
0.3435301935 0.0433812581 0.0664906129
0.4009358387 0.0440497419 0.0762160968
0.4526624194 0.0410429677 0.0842984194
0.4989601935 0.0361121613 0.0912590323
0.5446942581 0.0293049032 0.0981442903
0.5887905161 0.0213869032 0.1058316452
0.6220249677 0.0137165484 0.1132367419
0.6502307742 0.0046612258 0.1203603226
0.6757614516 0.0000000000 0.1287606129
0.6917688387 0.0000000000 0.1353807742
0.7029072258 0.0000000000 0.1439767097
0.7117475806 0.0000000000 0.1506859032
0.7164718710 0.0000000000 0.1541678710
0.7171299677 0.0000000000 0.1543864194
0.7173631613 0.0000000000 0.1513600000
0.7170512903 0.0000000000 0.1438499677
0.0073471290 0.0118160323 0.0073142258
0.0078670000 0.0120280000 0.0071902581
0.0084092258 0.0122287097 0.0070642903
0.0104484194 0.0129273871 0.0068754194
0.0134995161 0.0138674839 0.0065276129
0.0176421613 0.0150615806 0.0061439032
0.0204341613 0.0151501613 0.0062875484
0.0260764194 0.0157187742 0.0073392581
0.0427810645 0.0186765161 0.0095659677
0.0631360000 0.0213444194 0.0124817097
0.0889142903 0.0241737419 0.0164158065
0.1182436452 0.0273487419 0.0212698710
0.1518496129 0.0294650645 0.0264660323
0.1932626452 0.0315046452 0.0327924839
0.2444032903 0.0359700645 0.0427531290
0.2921218065 0.0404035161 0.0525166452
0.3439500000 0.0439550968 0.0627216774
0.4022018710 0.0444111613 0.0728120968
0.4525755484 0.0415423548 0.0803075806
0.4983787097 0.0366190645 0.0873324194
0.5459498065 0.0297389677 0.0945914839
0.5895515806 0.0220180645 0.1014698387
0.6216744516 0.0152089032 0.1081732903
0.6510493871 0.0071132903 0.1160228065
0.6765828387 0.0003445806 0.1243218710
0.6932214194 0.0000000000 0.1313980645
0.7043062258 0.0000000000 0.1394573548
0.7129976129 0.0000000000 0.1464260000
0.7169878710 0.0000000000 0.1492405161
0.7171073226 0.0000000000 0.1485261290
0.7169786129 0.0000000000 0.1429579677
0.7165967742 0.0000000000 0.1339055161
0.0072693226 0.0149660323 0.0080598710
0.0077022258 0.0151636452 0.0079930323
0.0083708387 0.0153700000 0.0078209355
0.0102401935 0.0160666129 0.0076330645
0.0130355484 0.0171527742 0.0073529677
0.0172279032 0.0186911613 0.0069925161
0.0243034516 0.0210524194 0.0064016129
0.0324536129 0.0227858065 0.0068572903
0.0515174194 0.0264518065 0.0086332258
0.0736366452 0.0303021613 0.0115179355
0.0994970645 0.0341262581 0.0148844516
0.1290162581 0.0368545806 0.0192239032
0.1624527742 0.0395202903 0.0254056452
0.2018600000 0.0408730645 0.0331540645
0.2491010968 0.0412480323 0.0401372258
0.2930719032 0.0420245161 0.0461476452
0.3448781935 0.0449673548 0.0558152581
0.4024964194 0.0451129032 0.0653874516
0.4529513871 0.0424764839 0.0720922258
0.4978174194 0.0376250968 0.0787333871
0.5443697419 0.0309803871 0.0857849677
0.5906737097 0.0229284839 0.0936075484
0.6214304516 0.0167632903 0.0986251935
0.6508377742 0.0088244839 0.1057730645
0.6763400645 0.0006616129 0.1132487419
0.6925149032 0.0000000000 0.1196917742
0.7037665806 0.0000000000 0.1271659677
0.7126900323 0.0000000000 0.1342855806
0.7164717742 0.0000000000 0.1374227419
0.7165731935 0.0000000000 0.1359676129
0.7163560645 0.0000000000 0.1293778065
0.7160595806 0.0000000000 0.1168917742
0.0074591935 0.0223740000 0.0091348387
0.0079118710 0.0227688710 0.0090590645
0.0090639355 0.0234059677 0.0089753548
0.0109783226 0.0244149677 0.0088009032
0.0138715806 0.0257114194 0.0085154516
0.0177510968 0.0272223226 0.0081130000
0.0245922581 0.0297015484 0.0075045484
0.0384278710 0.0340229677 0.0069556452
0.0558441935 0.0372238387 0.0080298710
0.0798729355 0.0417420645 0.0103589677
0.1076166452 0.0463266452 0.0134918387
0.1376451935 0.0508178387 0.0175020968
0.1730353226 0.0539865484 0.0232978710
0.2156523871 0.0562093548 0.0307924516
0.2621733548 0.0577253226 0.0390006774
0.3070906774 0.0559940323 0.0467595161
0.3505859355 0.0523162581 0.0520019355
0.4015227097 0.0496017097 0.0565630000
0.4531690968 0.0456119677 0.0605991290
0.4978789032 0.0407113226 0.0656863226
0.5432372903 0.0344819032 0.0705716452
0.5900641290 0.0262913226 0.0785138387
0.6224905806 0.0195566452 0.0835056774
0.6508378065 0.0131281935 0.0873727742
0.6765137097 0.0039949032 0.0943170645
0.6920810645 0.0007087742 0.0992799355
0.7038464839 0.0000000000 0.1080943548
0.7125315161 0.0000000000 0.1131559677
0.7164649677 0.0000000000 0.1169322581
0.7165013548 0.0000000000 0.1153931290
0.7185363548 0.0007914194 0.1110701613
0.7251981290 0.0041936129 0.1097324516
0.0064885806 0.0305999355 0.0096750968
0.0070602258 0.0309185161 0.0095811290
0.0085990645 0.0317402258 0.0094231613
0.0107295806 0.0328636774 0.0091510645
0.0141384194 0.0346121613 0.0087762581
0.0186173226 0.0368797097 0.0082753871
0.0265610000 0.0408910000 0.0075090000
0.0409919032 0.0465316452 0.0068862903
0.0600853226 0.0504117097 0.0061931613
0.0815308710 0.0539670000 0.0078978065
0.1073342903 0.0590822258 0.0109088710
0.1393109032 0.0645074839 0.0150883226
0.1745799355 0.0691677742 0.0210208387
0.2179960645 0.0735541613 0.0286480323
0.2673694194 0.0760113226 0.0368651290
0.3151442581 0.0762178065 0.0446649677
0.3602449677 0.0746290645 0.0499563226
0.4130246774 0.0729526129 0.0543270000
0.4648790968 0.0705676129 0.0574750645
0.5097576452 0.0666146452 0.0605137097
0.5563028065 0.0621722903 0.0638781290
0.6016696129 0.0566053226 0.0688326452
0.6335117419 0.0492140323 0.0738140968
0.6632153226 0.0446618065 0.0794747742
0.6891930323 0.0434788065 0.0851546452
0.7057642258 0.0388359355 0.0905987097
0.7173991935 0.0332280645 0.0989605806
0.7261630323 0.0268169032 0.1054807742
0.7315798710 0.0259740645 0.1084862258
0.7315764516 0.0239019355 0.1083318710
0.7358056452 0.0365810000 0.1075488065
0.7403867419 0.0506779677 0.1065183548
0.0049391935 0.0427838065 0.0104194194
0.0057362903 0.0431718387 0.0102704839
0.0074021290 0.0441057097 0.0100538710
0.0098141290 0.0456127097 0.0097369677
0.0136135161 0.0478307419 0.0092810645
0.0190863871 0.0509493871 0.0086492903
0.0268148387 0.0548565806 0.0079014194
0.0414809032 0.0611824839 0.0071023871
0.0611916129 0.0659602258 0.0065132903
0.0850367419 0.0703396129 0.0057718065
0.1083224839 0.0741104516 0.0086952258
0.1396357097 0.0803790645 0.0126275806
0.1765904516 0.0861636774 0.0177199355
0.2218744839 0.0927264194 0.0246967419
0.2751143548 0.0979824516 0.0330171613
0.3244244194 0.1008407419 0.0411871613
0.3735691935 0.1017750968 0.0467874516
0.4287481290 0.1028550645 0.0506563548
0.4816478065 0.1040226129 0.0529597097
0.5274176774 0.1036277097 0.0553768710
0.5755959032 0.1020820645 0.0586243226
0.6209884839 0.1000813226 0.0633299032
0.6522175806 0.0985292258 0.0674400000
0.6825816774 0.0958832903 0.0732162581
0.7086183226 0.0952560645 0.0795418065
0.7260416774 0.0970537419 0.0841960968
0.7370337097 0.0926441935 0.0929605161
0.7457700968 0.0878316129 0.0997937097
0.7505996774 0.0840810323 0.1033492903
0.7513341935 0.0842357419 0.1032642903
0.7544022581 0.0930982581 0.1021374516
0.7578885484 0.1030663548 0.1008047742
0.0004329032 0.0555174194 0.0108041935
0.0016890323 0.0570649677 0.0117483871
0.0037318387 0.0589331613 0.0123390968
0.0065277097 0.0604148065 0.0119618065
0.0103896774 0.0623613548 0.0113123871
0.0153865806 0.0653842903 0.0105463548
0.0246405806 0.0707388065 0.0093720000
0.0401411935 0.0783150968 0.0081904194
0.0594922258 0.0825033871 0.0077261613
0.0848823226 0.0879348065 0.0068742258
0.1110856452 0.0929886774 0.0053856452
0.1416293548 0.0982487419 0.0090420968
0.1802731290 0.1061683871 0.0133456774
0.2275745161 0.1143860645 0.0200521613
0.2818092258 0.1227763548 0.0274069355
0.3346371935 0.1286070000 0.0353006129
0.3857580000 0.1318260323 0.0412064194
0.4439518387 0.1353506452 0.0441894194
0.4987272903 0.1389138710 0.0454899677
0.5452605484 0.1408140323 0.0471197742
0.5938130968 0.1421555484 0.0497752903
0.6403895806 0.1428990645 0.0537323548
0.6726911935 0.1446003548 0.0569695161
0.7036871935 0.1466544839 0.0614534516
0.7294921290 0.1466273226 0.0680446452
0.7460248065 0.1478960645 0.0729815161
0.7587475161 0.1494306452 0.0817092903
0.7678075161 0.1463198065 0.0894441290
0.7724645806 0.1428576774 0.0936486452
0.7732937097 0.1432245806 0.0927290968
0.7754572903 0.1480063548 0.0910848710
0.7770828710 0.1518593548 0.0900220645
0.0000000000 0.0690381613 0.0093078387
0.0000000000 0.0701078387 0.0099209355
0.0000000000 0.0730137742 0.0117575484
0.0009510968 0.0773254194 0.0143050645
0.0043957742 0.0805765161 0.0145557742
0.0097549355 0.0834331290 0.0136455161
0.0182689355 0.0884151613 0.0124335161
0.0350739032 0.0969751613 0.0105508387
0.0570106452 0.1023031290 0.0099430000
0.0844823226 0.1091172258 0.0081227742
0.1124983871 0.1147411613 0.0056222258
0.1426744516 0.1190953871 0.0037800968
0.1829589355 0.1284179355 0.0074166129
0.2334782581 0.1391398065 0.0131155161
0.2895784839 0.1494582581 0.0195331290
0.3439971935 0.1581340968 0.0261918710
0.3978310645 0.1645821613 0.0322395161
0.4573638710 0.1697061935 0.0342160000
0.5151455161 0.1756080968 0.0341610968
0.5629805161 0.1799131290 0.0346335806
0.6117546452 0.1825265161 0.0358049032
0.6596875806 0.1857280645 0.0380650645
0.6927212581 0.1891852903 0.0399556129
0.7240590968 0.1914478065 0.0443480645
0.7494967742 0.1934951290 0.0503274839
0.7653277742 0.1933828065 0.0563836452
0.7779185484 0.1938574516 0.0663273548
0.7885671290 0.1954235484 0.0737826129
0.7941866774 0.1936535484 0.0779577097
0.7957056774 0.1953831290 0.0762926452
0.7967029032 0.1972796129 0.0749509032
0.7964889355 0.1968019677 0.0752632903
0.0000000000 0.0868416452 0.0091572903
0.0000000000 0.0873108065 0.0092192903
0.0000000000 0.0877951935 0.0092399355
0.0000000000 0.0902995484 0.0103899677
0.0000000000 0.0965298387 0.0138570645
0.0002754839 0.1050958710 0.0169943226
0.0075701290 0.1107186774 0.0155304839
0.0235270645 0.1191307097 0.0131184839
0.0484471290 0.1249204839 0.0122151613
0.0816294516 0.1328450323 0.0097724194
0.1125367419 0.1403442581 0.0070760645
0.1488755806 0.1477630968 0.0033786129
0.1840966452 0.1521772258 0.0014502258
0.2353274839 0.1645291613 0.0052920645
0.2968273871 0.1774630000 0.0104184194
0.3538423871 0.1878977419 0.0156584516
0.4100572258 0.1975119677 0.0201959677
0.4703929677 0.2056342903 0.0205770000
0.5309967419 0.2124740645 0.0190979677
0.5801989355 0.2187885484 0.0175581935
0.6310511935 0.2244093548 0.0161615161
0.6800313226 0.2293501290 0.0164517742
0.7127012581 0.2340267419 0.0168199355
0.7439833226 0.2379879355 0.0195137097
0.7699949677 0.2405160968 0.0248520323
0.7860498065 0.2424821290 0.0297667742
0.7984305806 0.2421242903 0.0407269032
0.8083095484 0.2414242258 0.0504259032
0.8155006452 0.2439311290 0.0527019032
0.8181654516 0.2468892581 0.0497941935
0.8181464516 0.2465112581 0.0490046452
0.8171182903 0.2440332258 0.0504719032
0.0000000000 0.1082004516 0.0096189032
0.0000000000 0.1088471935 0.0096553226
0.0000000000 0.1094457419 0.0096976452
0.0000000000 0.1101381613 0.0096055806
0.0000000000 0.1122365806 0.0099594516
0.0000000000 0.1193554839 0.0130480000
0.0000000000 0.1357276452 0.0196517419
0.0046435484 0.1459330000 0.0175466774
0.0341265161 0.1542171935 0.0153680968
0.0728590323 0.1627859677 0.0121692581
0.1121778387 0.1718858387 0.0080436129
0.1520759032 0.1807878065 0.0027034839
0.1973976452 0.1896390645 0.0000000000
0.2409627419 0.1954938710 0.0000000000
0.3037345806 0.2107868387 0.0000925161
0.3651172581 0.2240965484 0.0024384194
0.4246937742 0.2352882258 0.0047212903
0.4883163871 0.2458908065 0.0044771613
0.5476664516 0.2557785161 0.0016737097
0.5989024839 0.2628421290 0.0002597419
0.6512099032 0.2705793548 0.0000000000
0.6998801290 0.2775841935 0.0000000000
0.7329130000 0.2827632258 0.0000000000
0.7643628710 0.2879226452 0.0000000000
0.7913968065 0.2936224516 0.0000000000
0.8080865484 0.2955324194 0.0002943871
0.8201954516 0.2960372581 0.0061821290
0.8295268387 0.2943843226 0.0143213226
0.8360238065 0.2949403871 0.0168153548
0.8402080968 0.3000889032 0.0122131613
0.8394186129 0.2978410323 0.0121616774
0.8383336774 0.2951434839 0.0140923548
0.0000000000 0.1341612581 0.0114055484
0.0000000000 0.1367166129 0.0116906774
0.0000000000 0.1375669355 0.0116074194
0.0000000000 0.1383735484 0.0113516774
0.0000000000 0.1398008387 0.0111319677
0.0000000000 0.1427653226 0.0110964839
0.0000000000 0.1524697419 0.0133078387
0.0000000000 0.1798548065 0.0212629355
0.0075822581 0.1905170323 0.0181040000
0.0573368710 0.1997968710 0.0138786774
0.1062757419 0.2101132903 0.0089929677
0.1567351290 0.2212816129 0.0025239355
0.2073905484 0.2328757419 0.0000000000
0.2605818065 0.2428877419 0.0000000000
0.3138201613 0.2503847097 0.0000000000
0.3774778065 0.2654588710 0.0000000000
0.4383789355 0.2778212258 0.0000000000
0.5067958710 0.2913206452 0.0000000000
0.5656116129 0.3009937097 0.0000000000
0.6167100968 0.3111894516 0.0000000000
0.6715659032 0.3203380645 0.0000000000
0.7191802258 0.3275647419 0.0000000000
0.7518556452 0.3338024839 0.0000000000
0.7835681290 0.3379614839 0.0000000000
0.8100477742 0.3432391935 0.0000000000
0.8275990323 0.3475382258 0.0000000000
0.8404257097 0.3477094194 0.0000000000
0.8500347419 0.3481856774 0.0000000000
0.8567127742 0.3496507742 0.0000000000
0.8598976774 0.3501567419 0.0000000000
0.8596632903 0.3489696452 0.0000000000
0.8588916452 0.3469220323 0.0000000000
0.0000000000 0.1654468387 0.0136876452
0.0000000000 0.1687966774 0.0136502903
0.0000000000 0.1703650323 0.0134483871
0.0000000000 0.1710442258 0.0129482581
0.0000000000 0.1722648710 0.0122327419
0.0000000000 0.1754270645 0.0118031935
0.0000000000 0.1824183226 0.0116604516
0.0000000000 0.2068730323 0.0166009032
0.0000000000 0.2325813548 0.0227928065
0.0296762258 0.2438137419 0.0175339355
0.0941931290 0.2547737419 0.0107639032
0.1544801613 0.2662646774 0.0013151935
0.2136958710 0.2780095484 0.0000000000
0.2745339355 0.2901286129 0.0000000000
0.3383840323 0.3027611935 0.0000000000
0.3894920968 0.3091241290 0.0000000000
0.4539773548 0.3240317097 0.0000000000
0.5216144194 0.3371752903 0.0000000000
0.5840011290 0.3486388387 0.0000000000
0.6341602903 0.3580914194 0.0000000000
0.6885461290 0.3690106129 0.0000000000
0.7371046129 0.3775740645 0.0000000000
0.7693522258 0.3841920000 0.0000000000
0.8027464516 0.3911516129 0.0000000000
0.8282939677 0.3943528065 0.0000000000
0.8451015161 0.3987064839 0.0000000000
0.8586830000 0.4006986452 0.0000000000
0.8688344516 0.4008998710 0.0000000000
0.8759167742 0.4039385484 0.0000000000
0.8797801613 0.4041118065 0.0000000000
0.8788245806 0.4003322581 0.0000000000
0.8780468387 0.3981628710 0.0000000000
0.0000000000 0.1996401935 0.0166821613
0.0000000000 0.2027657742 0.0170250645
0.0000000000 0.2039550000 0.0169972581
0.0000000000 0.2049719032 0.0167190323
0.0000000000 0.2067467097 0.0158660323
0.0000000000 0.2105397742 0.0147093871
0.0000000000 0.2193179032 0.0124511290
0.0000000000 0.2353747742 0.0104811290
0.0000000000 0.2745663548 0.0212267742
0.0014794839 0.2884768065 0.0156139032
0.0767174839 0.3017993226 0.0072967742
0.1523614516 0.3161612258 0.0000789677
0.2200286774 0.3304060645 0.0000000000
0.2882887097 0.3444460000 0.0000000000
0.3590298710 0.3571419032 0.0000000000
0.4179349355 0.3680244839 0.0000000000
0.4686154516 0.3717700323 0.0000000000
0.5421891613 0.3890588710 0.0000000000
0.6012793548 0.4003200645 0.0000000000
0.6533520968 0.4094593226 0.0000000000
0.7088023871 0.4211759677 0.0000000000
0.7544339032 0.4302423548 0.0000000000
0.7865313871 0.4366000323 0.0000000000
0.8197677742 0.4435421290 0.0000000000
0.8463979355 0.4493112581 0.0000000000
0.8626958387 0.4518981613 0.0000000000
0.8762068387 0.4549206774 0.0000000000
0.8864155161 0.4552191290 0.0000000000
0.8935136129 0.4573491935 0.0000000000
0.8972377419 0.4566269032 0.0000000000
0.8976724516 0.4541782903 0.0000000000
0.8957627419 0.4483002903 0.0000000000
0.0000000000 0.2342630000 0.0164971935
0.0000000000 0.2371627419 0.0164253871
0.0000000000 0.2380595806 0.0160551935
0.0000000000 0.2388810968 0.0155021613
0.0000000000 0.2410533226 0.0150125161
0.0000000000 0.2453454194 0.0145717419
0.0000000000 0.2553741613 0.0144613871
0.0000000000 0.2739286129 0.0101438387
0.0000000000 0.3137590000 0.0117653548
0.0000000000 0.3357552581 0.0128744194
0.0395628065 0.3498291613 0.0029624516
0.1458958387 0.3654065806 0.0000000000
0.2242138710 0.3810089677 0.0000000000
0.2987923548 0.3965426774 0.0000000000
0.3757060000 0.4129714194 0.0000000000
0.4405527419 0.4254358387 0.0000000000
0.5020134194 0.4368612903 0.0000000000
0.5586307419 0.4393548065 0.0000000000
0.6186385806 0.4522486129 0.0000000000
0.6699059677 0.4626679677 0.0000000000
0.7254187419 0.4717562258 0.0000000000
0.7720613226 0.4820879677 0.0000000000
0.8033340323 0.4893492581 0.0000000000
0.8355358387 0.4953938065 0.0000000000
0.8615557419 0.5008767742 0.0000000000
0.8780335806 0.5034399355 0.0000000000
0.8913610968 0.5062610645 0.0000000000
0.9019900968 0.5077591613 0.0000000000
0.9089109677 0.5089778387 0.0000000000
0.9125822258 0.5076646774 0.0000000000
0.9146305161 0.5068586129 0.0000000000
0.9136363226 0.5036344516 0.0000000000
0.0000000000 0.2678870968 0.0144568710
0.0000000000 0.2725424194 0.0134739032
0.0000000000 0.2741945806 0.0128708065
0.0000000000 0.2753947419 0.0119904516
0.0000000000 0.2782200323 0.0109105806
0.0000000000 0.2843559355 0.0093512581
0.0000000000 0.2961052581 0.0076745161
0.0000000000 0.3171442903 0.0052410323
0.0000000000 0.3531599032 0.0000000000
0.0000000000 0.3844910000 0.0048632258
0.0089977419 0.3999641613 0.0000000000
0.1238050968 0.4165501935 0.0000000000
0.2217720323 0.4343195806 0.0000000000
0.3091420323 0.4521729677 0.0000000000
0.3886531290 0.4674290000 0.0000000000
0.4546646452 0.4805068387 0.0000000000
0.5214370645 0.4923974194 0.0000000000
0.5854771613 0.4991790968 0.0000000000
0.6353855161 0.5039962581 0.0000000000
0.6870845161 0.5147676129 0.0000000000
0.7411239355 0.5255804516 0.0000000000
0.7869920645 0.5324266452 0.0000000000
0.8185762258 0.5407519032 0.0000000000
0.8500158387 0.5470677742 0.0000000000
0.8755927419 0.5520730645 0.0000000000
0.8929127097 0.5563285161 0.0000000000
0.9057292903 0.5580473226 0.0000000000
0.9161968387 0.5591530000 0.0000000000
0.9228495806 0.5590755161 0.0000000000
0.9269730968 0.5596452258 0.0000000000
0.9292305484 0.5606620323 0.0000000000
0.9282058710 0.5550794839 0.0000000000
0.0000000000 0.3003251935 0.0110761613
0.0000000000 0.3053794194 0.0109762903
0.0000000000 0.3071828387 0.0105593871
0.0000000000 0.3088091935 0.0094289677
0.0000000000 0.3120589355 0.0075091290
0.0000000000 0.3198632258 0.0034506452
0.0000000000 0.3351044194 0.0005120323
0.0000000000 0.3630609032 0.0000000000
0.0000000000 0.3943875806 0.0000000000
0.0000000000 0.4288289032 0.0000000000
0.0000000000 0.4470715484 0.0000000000
0.0960043226 0.4648091613 0.0000000000
0.2148958065 0.4832633871 0.0000000000
0.3111405161 0.5035688065 0.0000000000
0.4026174839 0.5225605161 0.0000000000
0.4708388387 0.5359683548 0.0000000000
0.5379522258 0.5481978387 0.0000000000
0.6131898387 0.5607096774 0.0000000000
0.6625434194 0.5641554516 0.0000000000
0.7026671290 0.5643616129 0.0000000000
0.7564843226 0.5750366774 0.0000000000
0.8014036129 0.5841454194 0.0000000000
0.8312409355 0.5877617097 0.0000000000
0.8624601290 0.5942598065 0.0000000000
0.8886975806 0.6002809355 0.0000000000
0.9040303548 0.6027311290 0.0000000000
0.9169358065 0.6047611935 0.0000000000
0.9274536452 0.6069791613 0.0000000000
0.9326972581 0.6078086774 0.0000000000
0.9347110000 0.6052923548 0.0000000000
0.9359484839 0.6049656129 0.0000000000
0.9353992903 0.5991560968 0.0000000000
0.0000000000 0.3292587097 0.0058462903
0.0000000000 0.3325450968 0.0051511935
0.0000000000 0.3340671290 0.0044818710
0.0000000000 0.3356568710 0.0037621290
