LUTs/SPK Cube Block1 S32/TheBrim_SPK_Type-P_Block 1_S32.cube
TITLE "TheBrim® Industrial Imaging Burau"
# © Copyright 2022 - TheBrim® d.o.o. Croatia
LUT_3D_SIZE 8
DOMAIN_MIN 0.000000 0.000000 0.000000
DOMAIN_MAX 0.903226 0.903226 0.903226
0.0000000000 0.0000000000 0.0000000000
0.0441192468 0.0000000000 0.0000000000
0.1842246325 0.0104430777 0.0010021732
0.4124365951 0.0296596008 0.0139723418
0.5673378175 0.0620244784 0.0422054701
0.7841389851 0.1222867859 0.0968721466
1.0000000000 0.1968285846 0.1587971953
1.0000000000 0.2454024813 0.1960538200
0.0000000000 0.0367161600 0.0023006667
0.0265940140 0.0356165260 0.0000000000
0.1883504751 0.0646952995 0.0000000000
0.3861713883 0.0849464827 0.0000000000
0.5527600371 0.0951011156 0.0341408309
0.7785335096 0.1408456944 0.0942318436
1.0000000000 0.2142474964 0.1565142487
1.0000000000 0.2719551483 0.1918541434
0.0000000000 0.1647344315 0.0482234315
0.0136533790 0.1643367125 0.0379270373
0.1331039558 0.1633335548 0.0134751930
0.3180620058 0.1796488948 0.0147805777
0.5072482815 0.1864613098 0.0281494498
0.7350738463 0.2270306190 0.0715264190
0.9955965416 0.2911706869 0.1257067757
1.0000000000 0.3540230903 0.1564226946
0.0000000000 0.3287236320 0.1478865024
0.0000000000 0.3106293854 0.1311941169
0.0710273013 0.2978147604 0.1028576210
0.2445479761 0.2917810478 0.0678297979
0.4464573227 0.3073895505 0.0542207193
0.6786154653 0.3439285090 0.0688024375
0.9455302141 0.3989751844 0.1058611872
1.0000000000 0.4597356251 0.1280261471
0.0000000000 0.5108435040 0.2422384493
0.0000000000 0.4984462870 0.2244562743
0.0357031579 0.4722460542 0.1956009717
0.1790444407 0.4672745664 0.1547117152
0.3886285831 0.4582441788 0.1086038733
0.6241102390 0.4862439918 0.0965354637
0.8815791611 0.5315618101 0.1053049712
1.0000000000 0.5889249035 0.1151898641
0.0000000000 0.7348552977 0.3426792381
0.0000000000 0.7326786721 0.3216119434
0.0380550162 0.6944986304 0.2937834253
0.1526443639 0.6825995467 0.2524196625
0.3311424331 0.6701737806 0.2019654605
0.5667983373 0.6590287879 0.1469020494
0.8302783295 0.6950016859 0.1291976462
1.0000000000 0.7424306637 0.1141798153
0.0092144803 0.8268278216 0.3427245230
0.0372093710 0.8236322871 0.3366937637
0.0981125574 0.8315236626 0.3227972248
0.1791694662 0.8573655545 0.3026769739
0.2913429662 0.8969553329 0.2756645673
0.5175638725 0.8972034151 0.2272826389
0.7716059136 0.8861135517 0.1648663482
1.0000000000 0.9229842709 0.1272513825
0.1191453963 0.8375957688 0.3172409720
0.1348178885 0.8426312460 0.3137176146
0.1754187002 0.8560237450 0.3035482148
0.2453316007 0.8819059995 0.2880991935
0.3378426204 0.9223197651 0.2660759949
0.5254901961 0.9684965187 0.2407046715
0.7499932319 1.0000000000 0.2072263774
0.9888412250 1.0000000000 0.1449193610
0.0000000000 0.0000000000 0.0171649230
0.0302650394 0.0000000000 0.0106173259
0.1889175201 0.0000000000 0.0346606221
0.4217288472 0.0000000000 0.0502740471
0.5689956364 0.0454344760 0.0640947831
0.7909159597 0.1201692275 0.1043992745
1.0000000000 0.1991056244 0.1619700874
1.0000000000 0.2448885968 0.1983259376
0.0000000000 0.0289783593 0.0339478781
0.0320370548 0.0312170054 0.0321079354
0.1919919669 0.0476475264 0.0402119527
0.3847961075 0.0700142992 0.0543605116
0.5584048908 0.0844956032 0.0606856223
0.7937177130 0.1336719852 0.1023220786
1.0000000000 0.2038861283 0.1610299348
1.0000000000 0.2650708683 0.1959898306
0.0000000000 0.1956078628 0.0791480544
0.0000000000 0.1576887012 0.0563550135
0.1295579560 0.1511755600 0.0355574588
0.3264741569 0.1710241019 0.0397659955
0.5130698445 0.1806254722 0.0395838717
0.7471393026 0.2237602660 0.0765983210
0.9985735276 0.2888365488 0.1305315800
1.0000000000 0.3507586441 0.1603496777
0.0000000000 0.3275344128 0.1563527984
0.0000000000 0.3138347645 0.1350354526
0.0635060802 0.2964266816 0.1031509880
0.2476312830 0.2892962884 0.0649286148
0.4515695873 0.3044460360 0.0522390154
0.6869862693 0.3412507968 0.0694649744
0.9575966548 0.3973823394 0.1085270860
1.0000000000 0.4573916425 0.1315160330
0.0000000000 0.5094554252 0.2427611938
0.0000000000 0.4974303315 0.2246718695
0.0361560063 0.4713738288 0.1955231999
0.1804325194 0.4651255055 0.1534959158
0.3906368673 0.4551844988 0.1062657974
0.6291260272 0.4841087131 0.0952281101
0.8892047342 0.5291784493 0.1052449196
1.0000000000 0.5869481218 0.1166498079
0.0000000000 0.7397529515 0.3414654076
0.0000000000 0.7331078936 0.3219761910
0.0393938723 0.6919587416 0.2927458118
0.1534299574 0.6806739565 0.2514903388
0.3364515883 0.6666779879 0.2000743262
0.5692063094 0.6559100407 0.1445364088
0.8344090944 0.6924677038 0.1281620016
1.0000000000 0.7416716505 0.1158189296
0.0137784045 0.8263769421 0.3417085674
0.0402808644 0.8234078318 0.3361149054
0.1006426017 0.8323141783 0.3221858795
0.1814986821 0.8582397488 0.3021689961
0.2924553981 0.8973343473 0.2753249310
0.5223808012 0.8966442457 0.2262420721
0.7754787518 0.8862612197 0.1638710662
1.0000000000 0.9223099206 0.1289200304
0.1227386499 0.8386648848 0.3163480731
0.1387163225 0.8439366308 0.3128010888
0.1787766694 0.8570899076 0.3026878029
0.2481993124 0.8830696230 0.2874750503
0.3395329263 0.9230896074 0.2656615401
0.5312211894 0.9696827846 0.2400578858
0.7535047758 1.0000000000 0.2237838929
0.9896278029 1.0000000000 0.2014023533
0.0227959943 0.0001890150 0.1540678830
0.0849336848 0.0000000000 0.1458201355
0.1947799378 0.0000000000 0.1043569430
0.3776036937 0.0000000000 0.1219471496
0.5572196093 0.0012285974 0.1355168501
0.7869751942 0.0682560661 0.1782864118
1.0000000000 0.1480272792 0.2296443417
1.0000000000 0.1862969061 0.2642301454
0.0000000000 0.0476918268 0.1721266893
0.0524949731 0.0302236923 0.1361419778
0.1595473485 0.0009568883 0.1033439408
0.3563434461 0.0212838744 0.1249635137
0.5501719101 0.0385944964 0.1343049885
0.7895751347 0.0861849246 0.1731121267
1.0000000000 0.1579200476 0.2242593837
1.0000000000 0.2123730979 0.2617916553
0.0000000000 0.1713765361 0.1824004410
0.0004804131 0.1430036154 0.1520221896
0.1563970988 0.1571344541 0.1566796368
0.3056273796 0.1523027587 0.1425576582
0.5016900597 0.1679978933 0.1514964917
0.7445354243 0.2115697842 0.1810064556
1.0000000000 0.2777870480 0.2253304686
1.0000000000 0.3366661991 0.2656192086
0.0000000000 0.3192315360 0.2065736851
0.0000000000 0.3110546691 0.1938693188
0.0846678825 0.2788217082 0.1674436462
0.2473320092 0.2714806420 0.1453348002
0.4500682964 0.2914423960 0.1480637040
0.6873544548 0.3290514549 0.1667456690
0.9619646729 0.3865307137 0.2020826104
1.0000000000 0.4492561227 0.2415030629
0.0000000000 0.4985358722 0.2525151544
0.0000000000 0.5001149349 0.2351631854
0.0336929048 0.4684017651 0.2092130036
0.1908214522 0.4560291595 0.1809483728
0.3943157682 0.4446833384 0.1565674092
0.6330185545 0.4739777071 0.1660102826
0.8947796917 0.5210517896 0.1913953883
1.0000000000 0.5783627070 0.2242633215
0.0000000000 0.7312521996 0.3455587632
0.0000000000 0.7382290182 0.3261256605
0.0388947546 0.6906720615 0.2932528051
0.1536918219 0.6751551129 0.2521351556
0.3443252436 0.6604276956 0.2089314501
0.5738174873 0.6467565965 0.1779822159
0.8386294445 0.6842278320 0.2046500639
1.0000000000 0.7326196049 0.2345882648
0.0218391059 0.8251138889 0.3406325603
0.0509543042 0.8232345681 0.3354159437
0.1082248589 0.8340871782 0.3231693481
0.1885552414 0.8601604166 0.3070755100
0.2961402058 0.8971325344 0.2879387276
0.5321692176 0.8921748290 0.2530290389
0.7822015815 0.8783974089 0.2370316772
1.0000000000 0.9076100680 0.2599172567
0.1314658259 0.8415089696 0.3144195296
0.1475311149 0.8467728399 0.3103842566
0.1872222920 0.8601052873 0.3007385859
0.2557126579 0.8859757283 0.2865388354
0.3439688716 0.9235060310 0.2805307186
0.5437030693 0.9675150191 0.2939448756
0.7588631536 1.0000000000 0.3232303842
0.9911271249 1.0000000000 0.3357457355
0.0929628837 0.0359827425 0.2638166752
0.1135861901 0.0301902209 0.2722593443
0.2111326870 0.0020476623 0.2478183290
0.3383860385 0.0000000000 0.2231184026
0.5363718476 0.0000000000 0.2362027678
0.7873069549 0.0268401273 0.2760937888
1.0000000000 0.0863975664 0.3201716886
1.0000000000 0.1021133745 0.3626419766
0.0770275425 0.0763640212 0.2780420214
0.1178980943 0.0590140211 0.2829140794
0.2080976184 0.0290610533 0.2651122153
0.3457133224 0.0000000000 0.2251512981
0.5479411396 0.0008820699 0.2322364065
0.7916395327 0.0381505081 0.2696623572
1.0000000000 0.1053128469 0.3129517101
1.0000000000 0.1527152445 0.3484668375
0.0000000000 0.1722861707 0.3164770364
0.0389498840 0.1652276425 0.3070154584
0.1763824797 0.1519798581 0.2744812548
0.3013056308 0.1177327062 0.2351041182
0.5039444572 0.1337251456 0.2503365599
0.7483314752 0.1738740934 0.2827752715
0.9972710962 0.2320680651 0.3234184147
1.0000000000 0.2891564960 0.3611564370
0.0000000000 0.3110339956 0.3252179948
0.0000000000 0.3034064536 0.3185030407
0.1086393136 0.2757521836 0.2871826677
0.2869326167 0.2888867559 0.2892834905
0.4627529737 0.2861617899 0.2752195946
0.6991925024 0.3217980050 0.3012829884
0.9711545419 0.3790537930 0.3383013755
1.0000000000 0.4399914353 0.3769155610
0.0000000000 0.4909004546 0.3684010268
0.0000000000 0.4906563102 0.3611042610
0.0316629627 0.4612477450 0.3375482690
0.2203629186 0.4410635046 0.3129398967
0.4063044372 0.4330539948 0.2911608424
0.6415537622 0.4641223478 0.3042747412
0.9005338197 0.5103020548 0.3314495825
1.0000000000 0.5689680717 0.3675061590
0.0000000000 0.7122059870 0.4383877613
0.0000000000 0.7260690545 0.4273264471
0.0309610477 0.6829273695 0.4025192153
0.1540521317 0.6584066136 0.3737436534
0.3660747643 0.6432017366 0.3474115038
0.5833115523 0.6331652380 0.3242867023
0.8444692198 0.6726437732 0.3465697965
1.0000000000 0.7242911323 0.3798068995
0.0158300047 0.8244513520 0.4428571780
0.0438258798 0.8216830701 0.4405240243
0.1054624837 0.8297240824 0.4380097313
0.1875412547 0.8522217874 0.4313144663
0.2967259554 0.8847520532 0.4219857894
0.5464260663 0.8730508445 0.3983096942
0.7894058088 0.8618054376 0.3791364870
1.0000000000 0.8952955451 0.4084052599
0.1375881393 0.8376459759 0.3869402462
0.1531050879 0.8426233704 0.3879325748
0.1911059591 0.8549989294 0.3917502836
0.2591739947 0.8789910341 0.3991454948
0.3500931539 0.9169968276 0.4141524967
0.5586923510 0.9615157623 0.4333444084
0.7728965315 1.0000000000 0.4601136551
0.9977318202 1.0000000000 0.4745467209
0.1481759316 0.0893568322 0.3965445699
0.1674849932 0.0868120212 0.4173204665
0.2597341485 0.0611817866 0.4069197203
0.3822375141 0.0244715333 0.3827317095
0.5267606327 0.0000000000 0.3516643409
0.7791458393 0.0000000000 0.3964569536
1.0000000000 0.0095580544 0.4433454667
1.0000000000 0.0000000000 0.4840653972
0.1369954986 0.1245205098 0.4277507463
0.1759995275 0.1083380710 0.4429507011
0.2592064816 0.0819950925 0.4412958355
0.3913801293 0.0349598958 0.4077348474
0.5441618244 0.0000000000 0.3614645708
0.7954710239 0.0008033137 0.3961133795
1.0000000000 0.0496617173 0.4341034217
1.0000000000 0.0932089969 0.4660469535
0.0596243819 0.1991509093 0.4823386666
0.0951168669 0.1908224367 0.4912962047
0.2337150550 0.1814848997 0.4673503693
0.3700263587 0.1404991669 0.4229830403
0.5210586808 0.1012736361 0.3785271106
0.7595886955 0.1366922871 0.4042794173
0.9975122872 0.1911473062 0.4390335625
1.0000000000 0.2391630180 0.4663964343
0.0000000000 0.3237875846 0.4855361700
0.0189960056 0.3211147946 0.4917628354
0.1628275460 0.3076464928 0.4649788220
0.3285188658 0.2981878681 0.4426465051
0.4736193662 0.2624571455 0.3977692294
0.7093924202 0.2936849800 0.4226749065
0.9637770509 0.3412783615 0.4541744500
1.0000000000 0.3949231757 0.4864477735
0.0000000000 0.4851482955 0.5025662229
0.0000000000 0.4849533738 0.5066320139
0.0615873813 0.4585966130 0.4813689804
0.2529561894 0.4412357839 0.4547208214
0.4454915743 0.4440385216 0.4455388281
0.6634204328 0.4639362862 0.4522449221
0.9115006264 0.5035772562 0.4776674370
1.0000000000 0.5610038468 0.5127759853
0.0000000000 0.7034010391 0.5707706052
0.0000000000 0.7112756788 0.5713701371
0.0313489221 0.6696283936 0.5442140004
0.1559747685 0.6492108378 0.5173728887
0.3932279476 0.6318175218 0.4930150597
0.5995589650 0.6237656805 0.4704819144
0.8571932752 0.6671839967 0.4970778973
1.0000000000 0.7165818806 0.5248950942
0.0045914889 0.8268022258 0.5814312470
0.0317358122 0.8247417657 0.5796306824
0.0919439748 0.8300479675 0.5763002779
0.1827656731 0.8526254132 0.5741679526
0.3002020590 0.8753741537 0.5672019630
0.5702724720 0.8571922907 0.5458334256
0.8011345821 0.8497261990 0.5280433750
1.0000000000 0.8851507567 0.5531735074
0.1394605690 0.8394898564 0.5267586638
0.1570301021 0.8443914481 0.5278710957
0.1971888944 0.8557362847 0.5307624343
0.2664264601 0.8804283355 0.5385721001
0.3796070556 0.9168402996 0.5521240805
0.5852834117 0.9635949271 0.5747576400
0.7907220225 1.0000000000 0.6010789605
0.9988629568 1.0000000000 0.6111804330
0.1841960834 0.1395088072 0.5538084796
0.2326036075 0.1240469879 0.5554239670
0.3150702530 0.1022836849 0.5377559886
0.4240285294 0.0629990869 0.5015374695
0.5442720831 0.0238050586 0.4587098251
0.6997073713 0.0111636973 0.4339439403
0.9197779074 0.0647120352 0.4643261296
1.0000000000 0.1220140924 0.4971409023
0.1659679511 0.1728187597 0.5939062358
0.2115215460 0.1636269218 0.5948670619
0.3140434685 0.1293472830 0.5596846797
0.4217534585 0.1003147789 0.5256609987
0.5476280835 0.0611670198 0.4800567045
0.6968839601 0.0485433787 0.4474860761
0.9220283670 0.0963690911 0.4772884226
1.0000000000 0.1533009941 0.5051622256
0.0907626311 0.2415197986 0.6628396055
0.1625932462 0.2328093582 0.6541252273
0.2968116028 0.2239295919 0.6299401699
0.4229731958 0.1796459415 0.5763219358
0.5564094045 0.1434594172 0.5275954489
0.7155216247 0.1223675111 0.4885702543
0.9445969526 0.1693022935 0.5136526407
1.0000000000 0.2286224795 0.5423287729
0.0000000000 0.3591087747 0.6796796590
0.0879136241 0.3623427029 0.7146277414
0.2382494456 0.3481350768 0.6853245126
0.4016430521 0.3399296608 0.6578986358
0.5505046552 0.2985609758 0.6059480652
0.7100116412 0.2591218187 0.5530356840
0.9499484393 0.3018972871 0.5732445357
1.0000000000 0.3554249515 0.6010120177
0.0000000000 0.5115188387 0.6963592466
0.0058939203 0.5094820054 0.7140577431
0.1603782269 0.4934029342 0.6876202571
0.3233367051 0.4791913703 0.6561335115
0.5051317075 0.4718847599 0.6350150252
0.6671879345 0.4347236271 0.5835645567
0.9088278364 0.4706807739 0.6053002951
1.0000000000 0.5229005924 0.6331012485
0.0000000000 0.6929294123 0.7198089177
0.0000000000 0.6976823515 0.7301830837
0.0305623442 0.6637462868 0.7068505625
0.2262814502 0.6429349498 0.6754327286
0.4263872789 0.6276838035 0.6483012032
0.6359433644 0.6288592404 0.6345168920
0.8767366367 0.6621347372 0.6526800503
1.0000000000 0.7086294691 0.6802910043
0.0000000000 0.8383853001 0.7328568581
0.0132664890 0.8376617272 0.7299773330
0.0876871999 0.8400706837 0.7289377506
0.1821218408 0.8567876806 0.7325930247
0.3576192972 0.8578095428 0.7204429054
0.5984711445 0.8457086462 0.6996335374
0.8182630803 0.8415247208 0.6843814066
1.0000000000 0.8821964131 0.7132849475
0.1396928999 0.8451819638 0.6690436285
0.1573904119 0.8494712257 0.6701078222
0.2004090402 0.8622592705 0.6745467209
0.2704302306 0.8876059825 0.6845152922
0.4329447205 0.9221858795 0.6993273725
0.6125448849 0.9714961471 0.7218723312
0.8145585836 1.0000000000 0.7526689752
1.0000000000 1.0000000000 0.7634211712
0.2100350219 0.2127383299 0.6335324390
0.2533332349 0.2104543989 0.6261362434
0.3247425040 0.1955487956 0.6046082246
0.4101359284 0.1664434419 0.5692909723
0.5080038492 0.1343463355 0.5305448701
0.6158319736 0.1015158115 0.4885830521
0.7666413170 0.1070454842 0.4809722458
0.9675002523 0.1577753331 0.5072773229
0.2071525435 0.2299849625 0.6467260784
0.2482780686 0.2274755917 0.6396517990
0.3252544196 0.2183743235 0.6213744441
0.4105927146 0.1881506312 0.5844200464
0.5087372667 0.1578580271 0.5459348243
0.6177998952 0.1255571389 0.5040768661
0.7712564328 0.1275102937 0.4916171364
0.9674825321 0.1794460975 0.5183908131
0.1947198862 0.2759284007 0.6886647618
0.2347516840 0.2732890822 0.6796530788
0.3168599886 0.2689752090 0.6626604351
0.4099695558 0.2461034119 0.6278127669
0.5130383420 0.2131173443 0.5834296867
0.6236042302 0.1833553605 0.5411050977
0.7790493629 0.1813579053 0.5223522521
0.9818781887 0.2369233874 0.5475709852
0.1450434021 0.3719421043 0.7850161327
0.1958451160 0.3663257998 0.7724033206
0.2910220345 0.3571940135 0.7466076979
0.4194951233 0.3487739868 0.7154586197
0.5327461071 0.3149629476 0.6578484287
0.6587521566 0.2888404866 0.6087665542
0.8184924579 0.2942362736 0.5883923144
1.0000000000 0.3495497358 0.6101152548
0.0020004085 0.5286153422 0.9184646471
0.0939670257 0.5272193878 0.9321603576
0.2314488441 0.5160241880 0.9071394995
0.3954843140 0.5043874610 0.8664825740
0.5648323846 0.4940369219 0.8157074402
0.7121291996 0.4552681773 0.7351447269
0.8760268460 0.4454974810 0.6902211820
1.0000000000 0.4966122510 0.7029255483
0.0000000000 0.7040872028 0.9348794168
0.0000000000 0.7043569430 0.9548037616
0.1470575930 0.6830592862 0.9300004676
0.3205753143 0.6688713492 0.8988248092
0.4987199650 0.6576466158 0.8668005523
0.6998570082 0.6555684355 0.8435221760
0.8710671717 0.6275892960 0.7866601693
1.0000000000 0.6747977564 0.8129224226
0.0000000000 0.8506998230 0.9277066921
0.0008741943 0.8496759919 0.9227076396
0.0773514276 0.8528400239 0.9153646045
0.1877273164 0.8649113869 0.9238781542
0.4257188353 0.8456850193 0.8971207210
0.6314414607 0.8363799693 0.8680065072
0.8486570830 0.8374136450 0.8463672453
1.0000000000 0.8799528447 0.8726255608
0.1470871266 0.8589081924 0.8235761733
0.1662455669 0.8634612876 0.8260973575
0.2044246241 0.8739841060 0.8314714865
0.3206117391 0.8966304634 0.8446789083
0.4763423632 0.9322430516 0.8623862649
0.6455358747 0.9862865694 0.8830479650
0.8410699035 1.0000000000 0.9156540337
1.0000000000 1.0000000000 0.9199767669
0.2278467305 0.2561379416 0.6657880423
0.2604203122 0.2540764969 0.6591370777
0.3229330793 0.2508711179 0.6465567525
0.3973941528 0.2282257449 0.6167809863
0.4800773780 0.1984972325 0.5794741544
0.5701454775 0.1699727060 0.5422411565
0.6718581797 0.1405119648 0.5021488148
0.8377828149 0.1654186263 0.5129044564
0.2314911756 0.2700738586 0.6773927746
0.2619501522 0.2677023112 0.6705459038
0.3219702843 0.2652362564 0.6585129345
0.3978105765 0.2451032076 0.6292402238
0.4813650426 0.2145959928 0.5907914264
0.5723506523 0.1859149383 0.5525838200
0.6744551668 0.1573913964 0.5133031598
0.8379206383 0.1809907043 0.5210340695
0.2291590064 0.3046921492 0.7091256334
0.2585990741 0.3019386341 0.7016309926
0.3204187863 0.2970990630 0.6869843004
0.4015022753 0.2849489438 0.6607200782
0.4836233778 0.2573320831 0.6214778117
0.5753256694 0.2293942907 0.5821075663
0.6815648865 0.2029390845 0.5422234364
0.8420258074 0.2353010088 0.5508590583
0.2206326587 0.3712008112 0.7730048214
0.2503021040 0.3674165738 0.7642087336
0.3145347106 0.3608620855 0.7456813276
0.4059953189 0.3540221059 0.7226776138
0.4936106538 0.3345112314 0.6853402639
0.5961744155 0.3168294706 0.6441025111
0.7160876852 0.3110812494 0.6125478383
0.8854264035 0.3431557134 0.6148110958
0.1895475700 0.4926419520 0.8968086494
0.2261958028 0.4895172981 0.8866018404
0.3090611518 0.4834885077 0.8653662042
0.4233512258 0.4807418838 0.8368909005
0.5505154842 0.4838498020 0.8097633129
0.6631162368 0.4675630111 0.7615113323
0.7824289902 0.4549413389 0.7159705353
0.9424744719 0.4855214032 0.7131175905
0.0818956627 0.6722312874 1.0000000000
0.1517947809 0.6656797525 1.0000000000
0.2664668227 0.6660853472 1.0000000000
0.3969678847 0.6687748728 1.0000000000
0.5571595577 0.6622883118 0.9722187356
0.7318546849 0.6576938696 0.9210094581
0.8624453321 0.6378404054 0.8549418311
0.9993886547 0.6537363684 0.8322226242
0.0000000000 0.8709490373 1.0000000000
0.0332745123 0.8686956244 1.0000000000
0.1643022566 0.8715899162 1.0000000000
0.3331064169 0.8704912667 1.0000000000
0.5221149989 0.8568546234 1.0000000000
0.7129728759 0.8515129812 1.0000000000
0.9134567345 0.8504231917 1.0000000000
1.0000000000 0.8513761423 0.9914785746
0.1849078429 0.8781572024 0.9994772554
0.2164851581 0.8817957408 0.9998375653
0.2973560053 0.8907158696 1.0000000000
0.4026609765 0.9089144683 1.0000000000
0.5398184176 0.9417006918 1.0000000000
0.6951621517 0.9974719246 1.0000000000
0.8767671547 1.0000000000 1.0000000000
1.0000000000 1.0000000000 1.0000000000
