LUTs/SPK Cube Block1 S32/TheBrim_SPK_Type-V_Block1_S32.cube
TITLE "TheBrim® SPK Block 1"
# © Copyright 2021 - TheBrim® d.o.o. Croatia
LUT_3D_SIZE 32
DOMAIN_MIN 0.000000 0.000000 0.000000
DOMAIN_MAX 1.000000 1.000000 1.000000
0.007721 0.009491 0.011383
0.010759 0.009898 0.011540
0.015697 0.010526 0.011761
0.023284 0.011369 0.012036
0.035695 0.012596 0.012330
0.056079 0.014480 0.012735
0.082553 0.016637 0.013146
0.114498 0.018714 0.013187
0.152614 0.020321 0.012546
0.198897 0.020552 0.011008
0.246480 0.017443 0.008694
0.297827 0.011101 0.005156
0.346762 0.002245 0.001141
0.390105 0.000000 0.000000
0.432196 0.000000 0.000000
0.467240 0.000000 0.000000
0.496329 0.000000 0.000000
0.518543 0.000000 0.000000
0.535180 0.000000 0.000000
0.549685 0.000000 0.000000
0.562552 0.000000 0.000000
0.573176 0.000000 0.000000
0.579823 0.000000 0.000000
0.584739 0.000000 0.000000
0.588824 0.000000 0.000000
0.592682 0.000000 0.000000
0.596016 0.000000 0.000000
0.598648 0.000000 0.000000
0.601158 0.000000 0.000000
0.603479 0.000000 0.000000
0.605813 0.000000 0.000000
0.608850 0.000000 0.000000
0.007875 0.012272 0.011945
0.010818 0.012189 0.011823
0.015838 0.012818 0.012011
0.023520 0.013702 0.012228
0.035518 0.014951 0.012560
0.053270 0.016619 0.013111
0.078871 0.019053 0.013553
0.110218 0.021615 0.013631
0.145803 0.023717 0.013123
0.189111 0.024596 0.011782
0.236706 0.023208 0.009560
0.288138 0.018508 0.006140
0.338711 0.010294 0.001934
0.383347 0.001186 0.000000
0.426567 0.000000 0.000000
0.464512 0.000000 0.000000
0.496785 0.000000 0.000000
0.522301 0.000000 0.000000
0.541135 0.000000 0.000000
0.557336 0.000000 0.000000
0.571836 0.000000 0.000000
0.584228 0.000000 0.000000
0.591546 0.000000 0.000000
0.596782 0.000000 0.000000
0.601171 0.000000 0.000000
0.604846 0.000000 0.000000
0.608088 0.000000 0.000000
0.611198 0.000000 0.000000
0.613753 0.000000 0.000000
0.615525 0.000000 0.000000
0.617198 0.000000 0.000000
0.618966 0.000000 0.000000
0.007955 0.017081 0.012786
0.011288 0.016792 0.012604
0.016062 0.016969 0.012635
0.024157 0.018139 0.012867
0.036424 0.019634 0.013367
0.053426 0.021239 0.013844
0.075919 0.023533 0.014200
0.106855 0.026959 0.014295
0.141944 0.029959 0.013814
0.181431 0.031552 0.012649
0.227694 0.031550 0.010553
0.278264 0.029103 0.007272
0.330729 0.022770 0.002922
0.377120 0.013540 0.000000
0.420218 0.002923 0.000000
0.461948 0.000000 0.000000
0.494839 0.000000 0.000000
0.525281 0.000000 0.000000
0.545764 0.000000 0.000000
0.563751 0.000000 0.000000
0.580168 0.000000 0.000000
0.594125 0.000000 0.000000
0.604031 0.000000 0.000000
0.609492 0.000000 0.000000
0.614368 0.000000 0.000000
0.618136 0.000000 0.000000
0.621374 0.000000 0.000000
0.624457 0.000000 0.000000
0.627101 0.000000 0.000000
0.628702 0.000000 0.000000
0.630221 0.000000 0.000000
0.631888 0.000000 0.000000
0.007509 0.024803 0.013817
0.011453 0.024045 0.013541
0.016994 0.024141 0.013549
0.024412 0.024655 0.013776
0.037097 0.026468 0.014293
0.054592 0.028384 0.014743
0.075608 0.030671 0.015001
0.103430 0.034018 0.015045
0.137954 0.038181 0.014592
0.176458 0.040790 0.013456
0.220396 0.041630 0.011527
0.268379 0.041156 0.008462
0.322008 0.037541 0.004196
0.370767 0.030243 0.000301
0.413867 0.020375 0.000000
0.457859 0.007546 0.000000
0.492553 0.000189 0.000000
0.524975 0.000000 0.000000
0.550809 0.000000 0.000000
0.570129 0.000000 0.000000
0.588302 0.000000 0.000000
0.604064 0.000000 0.000000
0.616674 0.000000 0.000000
0.623172 0.000000 0.000000
0.627961 0.000000 0.000000
0.632121 0.000000 0.000000
0.635698 0.000000 0.000000
0.638817 0.000000 0.000000
0.641120 0.000000 0.000000
0.643191 0.000000 0.000000
0.644800 0.000000 0.000000
0.646204 0.000000 0.000000
0.005904 0.037534 0.014979
0.010647 0.036321 0.014684
0.017287 0.036197 0.014700
0.025876 0.036593 0.015034
0.037149 0.036964 0.015350
0.055472 0.039041 0.015712
0.077403 0.041732 0.015938
0.103837 0.044788 0.015886
0.134611 0.048603 0.015322
0.172998 0.051823 0.014207
0.216266 0.053991 0.012208
0.261609 0.054690 0.009450
0.313002 0.053351 0.005460
0.364190 0.049026 0.000921
0.409256 0.041625 0.000000
0.453092 0.030686 0.000000
0.491455 0.019026 0.000000
0.523682 0.007120 0.000000
0.554700 0.000748 0.000000
0.576908 0.000000 0.000000
0.596258 0.000000 0.000000
0.613819 0.000000 0.000000
0.628620 0.000000 0.000000
0.638633 0.000000 0.000000
0.643462 0.000000 0.000000
0.647707 0.000000 0.000000
0.651903 0.000000 0.000000
0.655041 0.000000 0.000000
0.657126 0.000000 0.000000
0.659170 0.000000 0.000000
0.661191 0.000000 0.000000
0.662272 0.000000 0.000000
0.002587 0.056489 0.016334
0.007312 0.056664 0.016177
0.015435 0.056279 0.016217
0.025873 0.056294 0.016503
0.038946 0.056106 0.016709
0.055926 0.055349 0.016787
0.078916 0.058287 0.016940
0.105651 0.061574 0.016737
0.135609 0.064367 0.016080
0.170416 0.066899 0.014883
0.213486 0.070062 0.012877
0.260084 0.072673 0.009964
0.308110 0.072859 0.006065
0.359668 0.071166 0.001258
0.407474 0.067408 0.000000
0.451843 0.061071 0.000000
0.493874 0.050902 0.000000
0.526831 0.040970 0.000000
0.560171 0.028491 0.000000
0.585445 0.017161 0.000000
0.606076 0.006934 0.000000
0.625032 0.003047 0.000000
0.641359 0.002373 0.000000
0.654550 0.001752 0.000000
0.661387 0.001821 0.000000
0.665728 0.001678 0.000000
0.670029 0.001516 0.000000
0.673140 0.001211 0.000000
0.675298 0.000714 0.000000
0.677267 0.000133 0.000000
0.679026 0.000000 0.000000
0.680328 0.000000 0.000000
0.000000 0.078536 0.017442
0.002758 0.078908 0.017226
0.010836 0.080043 0.017256
0.023135 0.080372 0.017570
0.039016 0.080105 0.017751
0.058785 0.078754 0.017825
0.079955 0.078327 0.017785
0.107775 0.082056 0.017417
0.139191 0.085135 0.016597
0.173737 0.087368 0.015202
0.212981 0.090681 0.013072
0.261276 0.094914 0.009760
0.309645 0.096702 0.005487
0.360194 0.096401 0.000780
0.408321 0.094808 0.000000
0.454376 0.091839 0.000000
0.498343 0.085506 0.000000
0.533693 0.077957 0.000000
0.567227 0.070656 0.000000
0.597035 0.062142 0.000000
0.618744 0.054305 0.000000
0.638723 0.047228 0.000000
0.656111 0.043398 0.000000
0.670011 0.039885 0.000000
0.680586 0.036746 0.000000
0.685557 0.036611 0.000000
0.689759 0.035868 0.000000
0.692643 0.034254 0.000000
0.694961 0.031331 0.000000
0.696991 0.027762 0.000000
0.698410 0.024507 0.000000
0.699723 0.021360 0.000000
0.000000 0.104138 0.018006
0.000000 0.104720 0.017719
0.003869 0.105961 0.017677
0.016516 0.107819 0.017918
0.035424 0.107868 0.018075
0.059934 0.106103 0.018185
0.083154 0.105826 0.017975
0.109054 0.105445 0.017494
0.141998 0.109072 0.016485
0.178156 0.112640 0.014766
0.216841 0.116077 0.012254
0.262327 0.119663 0.008604
0.311918 0.123060 0.003978
0.363514 0.124537 0.000000
0.411318 0.124073 0.000000
0.457497 0.122682 0.000000
0.502249 0.119582 0.000000
0.541658 0.114729 0.000000
0.575069 0.109071 0.000000
0.608575 0.103455 0.000000
0.632067 0.098435 0.000000
0.653188 0.093489 0.000000
0.671236 0.089186 0.000000
0.686407 0.087279 0.000000
0.698760 0.084814 0.000000
0.706376 0.083555 0.000000
0.710592 0.084109 0.000000
0.713526 0.083570 0.000000
0.715871 0.081457 0.000000
0.717763 0.078267 0.000000
0.719091 0.075851 0.000000
0.720400 0.073395 0.000000
0.000000 0.138156 0.017649
0.000000 0.135190 0.017368
0.000000 0.136704 0.017115
0.005263 0.139283 0.016933
0.024245 0.140938 0.016828
0.053836 0.138840 0.016814
0.083665 0.138157 0.016519
0.112662 0.137695 0.015884
0.143353 0.137688 0.014950
0.181773 0.141912 0.013059
0.222274 0.146042 0.009938
0.267384 0.149631 0.005872
0.315038 0.152499 0.001403
0.367380 0.155552 0.000000
0.417749 0.156874 0.000000
0.463903 0.156140 0.000000
0.508433 0.154165 0.000000
0.550926 0.151574 0.000000
0.585606 0.147928 0.000000
0.621228 0.143144 0.000000
0.647177 0.139758 0.000000
0.669060 0.136942 0.000000
0.688516 0.133943 0.000000
0.703939 0.130919 0.000000
0.716765 0.129654 0.000000
0.727333 0.128724 0.000000
0.731866 0.129036 0.000000
0.734613 0.127460 0.000000
0.736909 0.125527 0.000000
0.738574 0.123662 0.000000
0.739989 0.121875 0.000000
0.741507 0.120199 0.000000
0.000000 0.185526 0.014699
0.000000 0.176694 0.014937
0.000000 0.172766 0.015052
0.000000 0.175766 0.014426
0.006054 0.178012 0.013714
0.040092 0.174994 0.013634
0.078198 0.174680 0.013052
0.113546 0.174708 0.012127
0.148319 0.174888 0.011004
0.184819 0.176329 0.008960
0.227542 0.181213 0.005237
0.274546 0.185611 0.001260
0.323176 0.188789 0.000000
0.373563 0.191548 0.000000
0.426770 0.194490 0.000000
0.474895 0.195116 0.000000
0.520198 0.193370 0.000000
0.563937 0.191499 0.000000
0.600389 0.189359 0.000000
0.636676 0.186259 0.000000
0.665549 0.182622 0.000000
0.687828 0.180675 0.000000
0.708473 0.179104 0.000000
0.724567 0.176567 0.000000
0.736820 0.173655 0.000000
0.748273 0.173192 0.000000
0.754566 0.173623 0.000000
0.757202 0.171725 0.000000
0.759012 0.168263 0.000000
0.760233 0.165809 0.000000
0.761649 0.164134 0.000000
0.763310 0.163029 0.000000
0.000000 0.231475 0.008478
0.000000 0.224452 0.008744
0.000000 0.217195 0.009500
0.000000 0.214658 0.009332
0.000000 0.217477 0.008185
0.018343 0.214516 0.008195
0.067264 0.213836 0.007195
0.110544 0.213546 0.006038
0.151027 0.213885 0.004462
0.191191 0.215511 0.002667
0.231967 0.218586 0.000000
0.281376 0.224115 0.000000
0.332732 0.228566 0.000000
0.383797 0.232131 0.000000
0.437341 0.235606 0.000000
0.487611 0.237705 0.000000
0.534770 0.237231 0.000000
0.579520 0.235912 0.000000
0.617488 0.234366 0.000000
0.654502 0.232704 0.000000
0.686225 0.230208 0.000000
0.708171 0.227828 0.000000
0.729461 0.226639 0.000000
0.746512 0.224838 0.000000
0.759015 0.222161 0.000000
0.769781 0.219931 0.000000
0.778201 0.220111 0.000000
0.780963 0.218405 0.000000
0.782657 0.214765 0.000000
0.783445 0.210814 0.000000
0.784513 0.207748 0.000000
0.785939 0.206333 0.000000
0.000000 0.277925 0.000650
0.000000 0.272173 0.000532
0.000000 0.265293 0.001004
0.000000 0.257928 0.001792
0.000000 0.255699 0.001162
0.001108 0.254433 0.000827
0.050113 0.255429 0.000039
0.102184 0.256800 0.000000
0.149444 0.258296 0.000000
0.195003 0.260664 0.000000
0.239711 0.264349 0.000000
0.286380 0.267412 0.000000
0.340659 0.272452 0.000000
0.393496 0.276767 0.000000
0.448703 0.281045 0.000000
0.498744 0.283160 0.000000
0.547787 0.283970 0.000000
0.593830 0.283888 0.000000
0.633728 0.282554 0.000000
0.670793 0.280980 0.000000
0.705518 0.279580 0.000000
0.728128 0.277928 0.000000
0.749725 0.276089 0.000000
0.767124 0.274455 0.000000
0.780453 0.272256 0.000000
0.791629 0.270124 0.000000
0.800772 0.268263 0.000000
0.804045 0.266377 0.000000
0.805761 0.262741 0.000000
0.806619 0.258709 0.000000
0.807498 0.254875 0.000000
0.808449 0.252155 0.000000
0.000000 0.312508 0.000000
0.000000 0.313446 0.000000
0.000000 0.309022 0.000000
0.000000 0.303442 0.000000
0.000000 0.298347 0.000000
0.000000 0.297462 0.000000
0.017589 0.298940 0.000000
0.088668 0.301055 0.000000
0.143834 0.302073 0.000000
0.194675 0.305094 0.000000
0.243846 0.310681 0.000000
0.294590 0.315794 0.000000
0.345610 0.318893 0.000000
0.401103 0.324886 0.000000
0.458939 0.330985 0.000000
0.510517 0.334352 0.000000
0.558737 0.334991 0.000000
0.606253 0.335974 0.000000
0.648945 0.335682 0.000000
0.685885 0.333650 0.000000
0.722197 0.331584 0.000000
0.746229 0.330519 0.000000
0.768488 0.329169 0.000000
0.786762 0.327100 0.000000
0.801141 0.325029 0.000000
0.812933 0.323173 0.000000
0.822716 0.321440 0.000000
0.827211 0.318041 0.000000
0.828955 0.314445 0.000000
0.829853 0.310298 0.000000
0.830766 0.306271 0.000000
0.832255 0.304581 0.000000
0.000000 0.340790 0.000000
0.000000 0.344574 0.000000
0.000000 0.347106 0.000000
0.000000 0.343345 0.000000
0.000000 0.339848 0.000000
0.000000 0.340338 0.000000
0.000000 0.343023 0.000000
0.062522 0.346938 0.000000
0.135830 0.349269 0.000000
0.191672 0.350720 0.000000
0.245180 0.356577 0.000000
0.300099 0.362756 0.000000
0.354598 0.366896 0.000000
0.406303 0.370090 0.000000
0.466557 0.377571 0.000000
0.520399 0.382476 0.000000
0.569831 0.384062 0.000000
0.616338 0.385327 0.000000
0.661579 0.386574 0.000000
0.699787 0.385818 0.000000
0.737521 0.383442 0.000000
0.761764 0.381652 0.000000
0.784722 0.381102 0.000000
0.804560 0.379728 0.000000
0.820190 0.378031 0.000000
0.832770 0.377281 0.000000
0.843322 0.376768 0.000000
0.849917 0.374084 0.000000
0.851481 0.368560 0.000000
0.852532 0.364269 0.000000
0.853661 0.360394 0.000000
0.855431 0.358945 0.000000
0.000000 0.367258 0.000000
0.000000 0.372007 0.000000
0.000000 0.377083 0.000000
0.000000 0.380719 0.000000
0.000000 0.379193 0.000000
0.000000 0.381459 0.000000
0.000000 0.385008 0.000000
0.028879 0.390018 0.000000
0.122783 0.394007 0.000000
0.189111 0.397246 0.000000
0.245179 0.402755 0.000000
0.303597 0.409719 0.000000
0.361961 0.415517 0.000000
0.416511 0.420030 0.000000
0.473220 0.425058 0.000000
0.529272 0.430927 0.000000
0.580567 0.433504 0.000000
0.627871 0.435430 0.000000
0.672391 0.436769 0.000000
0.712056 0.436918 0.000000
0.751173 0.435544 0.000000
0.776795 0.433117 0.000000
0.798906 0.431550 0.000000
0.820193 0.430945 0.000000
0.836724 0.430428 0.000000
0.850145 0.430805 0.000000
0.861289 0.430869 0.000000
0.869229 0.428711 0.000000
0.872839 0.423714 0.000000
0.873298 0.417521 0.000000
0.874520 0.413625 0.000000
0.876440 0.412296 0.000000
0.000000 0.391096 0.000000
0.000000 0.397667 0.000000
0.000000 0.403916 0.000000
0.000000 0.410631 0.000000
0.000000 0.416079 0.000000
0.000000 0.420648 0.000000
0.000000 0.426331 0.000000
0.005031 0.432221 0.000000
0.099273 0.437574 0.000000
0.183558 0.442537 0.000000
0.246049 0.449553 0.000000
0.305800 0.456208 0.000000
0.366560 0.462955 0.000000
0.424302 0.469083 0.000000
0.483775 0.475608 0.000000
0.536227 0.479426 0.000000
0.589218 0.483215 0.000000
0.638176 0.486200 0.000000
0.683561 0.488254 0.000000
0.722435 0.488295 0.000000
0.762665 0.487804 0.000000
0.791175 0.486317 0.000000
0.812302 0.483770 0.000000
0.833404 0.482472 0.000000
0.850954 0.482496 0.000000
0.865100 0.483198 0.000000
0.877122 0.483844 0.000000
0.885869 0.481608 0.000000
0.891321 0.477311 0.000000
0.892215 0.471147 0.000000
0.892949 0.465258 0.000000
0.895007 0.463973 0.000000
0.000000 0.413759 0.000000
0.000000 0.420992 0.000000
0.000000 0.428107 0.000000
0.000000 0.436101 0.000000
0.000000 0.444136 0.000000
0.000000 0.452269 0.000000
0.000000 0.460781 0.000000
0.000000 0.469245 0.000000
0.072009 0.476939 0.000000
0.173057 0.484433 0.000000
0.243376 0.492914 0.000000
0.308215 0.501114 0.000000
0.368936 0.508473 0.000000
0.428400 0.515729 0.000000
0.490597 0.523725 0.000000
0.545006 0.528843 0.000000
0.595319 0.531185 0.000000
0.645896 0.535358 0.000000
0.692933 0.538594 0.000000
0.732687 0.539583 0.000000
0.771963 0.539241 0.000000
0.803398 0.539226 0.000000
0.824696 0.537626 0.000000
0.846514 0.536448 0.000000
0.864363 0.536285 0.000000
0.879546 0.537409 0.000000
0.892328 0.538420 0.000000
0.901709 0.535601 0.000000
0.907641 0.530979 0.000000
0.910128 0.525688 0.000000
0.910876 0.519666 0.000000
0.913055 0.518594 0.000000
0.000000 0.436294 0.000000
0.000000 0.444557 0.000000
0.000000 0.453279 0.000000
0.000000 0.462052 0.000000
0.000000 0.471362 0.000000
0.000000 0.480399 0.000000
0.000000 0.490440 0.000000
0.000000 0.499995 0.000000
0.062739 0.509499 0.000000
0.167235 0.518919 0.000000
0.240601 0.529353 0.000000
0.309940 0.540330 0.000000
0.373496 0.550073 0.000000
0.432236 0.558258 0.000000
0.495939 0.567804 0.000000
0.551945 0.574454 0.000000
0.603974 0.577970 0.000000
0.652090 0.580630 0.000000
0.700243 0.584756 0.000000
0.741012 0.586662 0.000000
0.780498 0.586902 0.000000
0.813459 0.587201 0.000000
0.835188 0.586297 0.000000
0.857594 0.585738 0.000000
0.876009 0.585543 0.000000
0.891573 0.586450 0.000000
0.904900 0.587709 0.000000
0.915020 0.585214 0.000000
0.920701 0.578473 0.000000
0.924265 0.572622 0.000000
0.925465 0.567541 0.000000
0.927755 0.566741 0.000000
0.000000 0.455813 0.000000
0.000000 0.464746 0.000000
0.000000 0.474784 0.000000
0.000000 0.484937 0.000000
0.000000 0.496072 0.000000
0.000000 0.506983 0.000000
0.000000 0.518240 0.000000
0.000000 0.529206 0.000000
0.054213 0.540059 0.000000
0.166668 0.550617 0.000000
0.242489 0.561167 0.000000
0.312159 0.572478 0.000000
0.377824 0.583221 0.000000
0.438722 0.593022 0.000000
0.501096 0.602846 0.000000
0.557271 0.610670 0.000000
0.610575 0.616545 0.000000
0.659989 0.621558 0.000000
0.705895 0.625594 0.000000
0.747836 0.629282 0.000000
0.787919 0.631058 0.000000
0.822426 0.632689 0.000000
0.844510 0.632482 0.000000
0.867402 0.633010 0.000000
0.886738 0.633619 0.000000
0.902659 0.634494 0.000000
0.916179 0.635604 0.000000
0.926591 0.633693 0.000000
0.932789 0.627252 0.000000
0.936869 0.618736 0.000000
0.938146 0.612281 0.000000
0.940439 0.611438 0.000000
0.000000 0.473374 0.000000
0.000000 0.483551 0.000000
0.000000 0.494291 0.000000
0.000000 0.505498 0.000000
0.000000 0.517511 0.000000
0.000000 0.529826 0.000000
0.000000 0.541904 0.000000
0.000000 0.553656 0.000000
0.050342 0.565724 0.000000
0.166198 0.578047 0.000000
0.249808 0.590467 0.000000
0.318464 0.602589 0.000000
0.382692 0.613805 0.000000
0.446297 0.625092 0.000000
0.509684 0.635713 0.000000
0.562896 0.642927 0.000000
0.615891 0.649266 0.000000
0.666108 0.655148 0.000000
0.712481 0.659978 0.000000
0.752418 0.663198 0.000000
0.793122 0.666361 0.000000
0.828805 0.669240 0.000000
0.851505 0.669961 0.000000
0.873903 0.670246 0.000000
0.894102 0.671617 0.000000
0.910573 0.673088 0.000000
0.924350 0.674178 0.000000
0.934931 0.673026 0.000000
0.942298 0.669206 0.000000
0.947602 0.663717 0.000000
0.949796 0.656643 0.000000
0.952069 0.655863 0.000000
0.000000 0.485817 0.000000
0.000000 0.498960 0.000000
0.000000 0.511478 0.000000
0.000000 0.524090 0.000000
0.000000 0.536965 0.000000
0.000000 0.550997 0.000000
0.000000 0.563890 0.000000
0.000000 0.576176 0.000000
0.052341 0.589063 0.000000
0.172468 0.602829 0.000000
0.260354 0.616273 0.000000
0.330835 0.629054 0.000000
0.391618 0.640145 0.000000
0.454406 0.651853 0.000000
0.518025 0.663614 0.000000
0.570935 0.672028 0.000000
0.621088 0.678644 0.000000
0.670954 0.685518 0.000000
0.717725 0.691347 0.000000
0.758354 0.695721 0.000000
0.797903 0.699801 0.000000
0.834272 0.703471 0.000000
0.857606 0.704732 0.000000
0.879905 0.705030 0.000000
0.899620 0.705105 0.000000
0.916544 0.706816 0.000000
0.930787 0.708221 0.000000
0.941499 0.707034 0.000000
0.949162 0.703058 0.000000
0.954928 0.698346 0.000000
0.958745 0.693240 0.000000
0.961062 0.692640 0.000000
0.000000 0.495522 0.000000
0.000000 0.509602 0.000000
0.000000 0.523181 0.000000
0.000000 0.537736 0.000000
0.000000 0.552660 0.000000
0.000000 0.567785 0.000000
0.000000 0.582019 0.000000
0.000000 0.596059 0.000000
0.059529 0.610318 0.000000
0.189202 0.625248 0.000000
0.271118 0.640118 0.000000
0.341761 0.653725 0.000000
0.403225 0.665904 0.000000
0.465223 0.677737 0.000000
0.526213 0.689248 0.000000
0.578971 0.698152 0.000000
0.629464 0.705463 0.000000
0.676714 0.711662 0.000000
0.722997 0.717975 0.000000
0.764070 0.723241 0.000000
0.804113 0.728096 0.000000
0.839117 0.731957 0.000000
0.862988 0.734105 0.000000
0.885635 0.735491 0.000000
0.905430 0.735960 0.000000
0.922047 0.736640 0.000000
0.936524 0.738345 0.000000
0.947637 0.737986 0.000000
0.955288 0.733922 0.000000
0.961058 0.729221 0.000000
0.965388 0.724942 0.000000
0.968176 0.724690 0.000000
0.000000 0.505689 0.000000
0.000000 0.519854 0.000000
0.000000 0.534253 0.000000
0.000000 0.548924 0.000000
0.000000 0.564640 0.000000
0.000000 0.580138 0.000000
0.000000 0.594572 0.000000
0.000000 0.609530 0.000000
0.075017 0.625718 0.000000
0.211635 0.642083 0.000000
0.287037 0.657996 0.000000
0.353001 0.672581 0.000000
0.415761 0.685865 0.000000
0.479255 0.698876 0.000000
0.536225 0.710207 0.000000
0.586784 0.719686 0.000000
0.637723 0.728372 0.000000
0.685077 0.735601 0.000000
0.728665 0.741683 0.000000
0.769229 0.747247 0.000000
0.809639 0.752590 0.000000
0.844534 0.756906 0.000000
0.867477 0.759019 0.000000
0.890335 0.761001 0.000000
0.910368 0.762142 0.000000
0.926989 0.762876 0.000000
0.941074 0.763663 0.000000
0.952375 0.763799 0.000000
0.960377 0.761086 0.000000
0.965943 0.756046 0.000000
0.970270 0.752061 0.000000
0.973974 0.752411 0.000000
0.000000 0.512419 0.000000
0.000000 0.527468 0.000000
0.000000 0.542465 0.000000
0.000000 0.557487 0.000000
0.000000 0.573824 0.000000
0.000000 0.589759 0.000000
0.000000 0.604551 0.000000
0.002812 0.619401 0.000000
0.104020 0.635045 0.000000
0.224228 0.651737 0.000000
0.299950 0.667835 0.000000
0.362701 0.682240 0.000000
0.423597 0.696882 0.000000
0.489410 0.712362 0.000000
0.545394 0.724981 0.000000
0.594431 0.735515 0.000000
0.644436 0.745034 0.000000
0.691814 0.753243 0.000000
0.735073 0.760118 0.000000
0.773298 0.765455 0.000000
0.813584 0.771589 0.000000
0.848332 0.776686 0.000000
0.871241 0.779539 0.000000
0.893727 0.781986 0.000000
0.914051 0.784078 0.000000
0.930827 0.785402 0.000000
0.944923 0.786306 0.000000
0.956335 0.786741 0.000000
0.964619 0.785334 0.000000
0.970379 0.781534 0.000000
0.974723 0.777513 0.000000
0.979009 0.777399 0.000000
0.000000 0.515190 0.000000
0.000000 0.531424 0.000000
0.000000 0.547627 0.000000
0.000000 0.562896 0.000000
0.000000 0.579549 0.000000
0.000000 0.596892 0.000000
0.000000 0.612174 0.000000
0.008352 0.627054 0.000000
0.128831 0.642648 0.000000
0.231272 0.659025 0.000000
0.307424 0.675087 0.000000
0.368858 0.689289 0.000000
0.428618 0.703751 0.000000
0.492116 0.718943 0.000000
0.547602 0.731671 0.000000
0.597454 0.742836 0.000000
0.647033 0.753858 0.000000
0.694806 0.764156 0.000000
0.739083 0.772924 0.000000
0.777680 0.779500 0.000000
0.816173 0.785661 0.000000
0.850646 0.791231 0.000000
0.873741 0.794670 0.000000
0.896451 0.797723 0.000000
0.916450 0.800000 0.000000
0.933458 0.802078 0.000000
0.947787 0.803636 0.000000
0.959355 0.804674 0.000000
0.968147 0.804681 0.000000
0.974332 0.803050 0.000000
0.978909 0.801117 0.000000
0.983255 0.800560 0.000000
0.000000 0.516574 0.000000
0.000000 0.532807 0.000000
0.000000 0.550319 0.000000
0.000000 0.567383 0.000000
0.000000 0.584541 0.000000
0.000000 0.602066 0.000000
0.000000 0.617808 0.000000
0.011963 0.632874 0.000000
0.143369 0.648514 0.000000
0.237285 0.664856 0.000000
0.309514 0.680627 0.000000
0.369959 0.694735 0.000000
0.430788 0.709310 0.000000
0.493064 0.724524 0.000000
0.546452 0.737266 0.000000
0.596968 0.748598 0.000000
0.646885 0.759704 0.000000
0.694226 0.770259 0.000000
0.738882 0.779721 0.000000
0.778421 0.787634 0.000000
0.818070 0.795278 0.000000
0.852461 0.801895 0.000000
0.875786 0.806331 0.000000
0.898976 0.810461 0.000000
0.918901 0.813037 0.000000
0.935609 0.814998 0.000000
0.950081 0.816989 0.000000
0.961569 0.818185 0.000000
0.970849 0.819641 0.000000
0.977778 0.820747 0.000000
0.982464 0.820566 0.000000
0.986617 0.820389 0.000000
0.000000 0.517942 0.000000
0.000000 0.535016 0.000000
0.000000 0.552925 0.000000
0.000000 0.571179 0.000000
0.000000 0.589333 0.000000
0.000000 0.606816 0.000000
0.000000 0.622564 0.000000
0.015560 0.638159 0.000000
0.159146 0.653921 0.000000
0.245143 0.670335 0.000000
0.315608 0.685880 0.000000
0.371416 0.699785 0.000000
0.432827 0.714498 0.000000
0.495050 0.729792 0.000000
0.547082 0.742663 0.000000
0.596103 0.754236 0.000000
0.646352 0.765462 0.000000
0.694088 0.776082 0.000000
0.738289 0.785851 0.000000
0.777920 0.794003 0.000000
0.818083 0.801767 0.000000
0.852561 0.808424 0.000000
0.875769 0.812990 0.000000
0.899176 0.817544 0.000000
0.919648 0.821352 0.000000
0.936702 0.824284 0.000000
0.951276 0.826825 0.000000
0.963080 0.829195 0.000000
0.972445 0.831704 0.000000
0.979740 0.833776 0.000000
0.985142 0.835131 0.000000
0.988769 0.835085 0.000000
0.000000 0.519708 0.000000
0.000000 0.537010 0.000000
0.000000 0.554897 0.000000
0.000000 0.573197 0.000000
0.000000 0.592377 0.000000
0.000000 0.610371 0.000000
0.000000 0.626145 0.000000
0.017386 0.641788 0.000000
0.168074 0.657969 0.000000
0.249045 0.674458 0.000000
0.319273 0.689942 0.000000
0.373997 0.703881 0.000000
0.433092 0.718559 0.000000
0.495325 0.733933 0.000000
0.547501 0.746783 0.000000
0.595142 0.758490 0.000000
0.644240 0.769889 0.000000
0.692321 0.780631 0.000000
