LUTs/SPK Cube Block1 S32/TheBrim_SPK_Type-C_Block1_S32.cube
TITLE "TheBrim® SPK Block 1"
# TheBrim® d.o.o. Croatia
# Copyright: (C) Copyright 2020 TheBrim® d.o.o. Croatia
LUT_3D_SIZE 8
DOMAIN_MIN 0.000000 0.000000 0.000000
DOMAIN_MAX 0.903226 0.903226 0.903226
0.0000000000 0.0000000000 0.0000000000
0.0014399677 0.0000000000 0.0000000000
0.0130195806 0.0000000000 0.0000000000
0.0798880968 0.0000000000 0.0000000000
0.2511570323 0.0000610000 0.0000610000
0.4868733548 0.0002833548 0.0002833548
0.7006598387 0.0007792258 0.0007792258
0.8395796452 0.0013370968 0.0013370968
0.0000000000 0.0019898387 0.0000000000
0.0025513226 0.0025513226 0.0000000000
0.0214977419 0.0033707742 0.0000427419
0.1173449355 0.0046789677 0.0002794839
0.3112252258 0.0065763871 0.0007648387
0.5510252903 0.0090489355 0.0013100968
0.7460741613 0.0121167419 0.0018678387
0.8638549355 0.0158571290 0.0023898387
0.0000387419 0.0213260000 0.0000387419
0.0046219677 0.0277402903 0.0002533548
0.0362955161 0.0362955161 0.0007492258
0.1623522581 0.0469910968 0.0012877097
0.3762053226 0.0599011613 0.0018489677
0.6117878065 0.0751500968 0.0023598387
0.7859375806 0.0926672258 0.0030861935
0.8835959355 0.1121611290 0.0042347419
0.0007302258 0.1378187097 0.0007302258
0.0088353226 0.1615302903 0.0012760968
0.0594238065 0.1869524839 0.0018329677
0.2139594516 0.2139594516 0.0023598387
0.4428334516 0.2421298710 0.0030598065
0.6665491935 0.2714145161 0.0041857419
0.8200812581 0.3022902903 0.0059064194
0.9002128710 0.3345458710 0.0082446129
0.0018184516 0.3739758387 0.0018184516
0.0154711613 0.4078447742 0.0023288387
0.0914977742 0.4417418387 0.0030329355
0.2704516774 0.4751802903 0.0041327419
0.5082125484 0.5082125484 0.0058418065
0.7162346452 0.5407615806 0.0081677419
0.8480599677 0.5726366452 0.0110826774
0.9128345806 0.6033815806 0.0146189355
0.0030064194 0.6375485484 0.0030064194
0.0253768065 0.6648149355 0.0040787419
0.1313841290 0.6908774839 0.0057878065
0.3323867742 0.7154324839 0.0080722581
0.5715826774 0.7382981290 0.0109766774
0.7596937097 0.7596937097 0.0144968065
0.8706918065 0.7798088710 0.0186010645
0.9234512581 0.7985620323 0.0238321290
0.0056948065 0.8185887097 0.0056948065
0.0427029032 0.8335932258 0.0079721613
0.1785306452 0.8471696452 0.0108849355
0.3982179355 0.8593866129 0.0143746774
0.6306250323 0.8703458065 0.0184441935
0.7979835161 0.8803082581 0.0236212581
0.8894833548 0.8894833548 0.0307610645
0.9329714516 0.8978096774 0.0401925484
0.0107931613 0.9062535484 0.0107931613
0.0691046452 0.9122617742 0.0142554516
0.2322363871 0.9178179355 0.0182882258
0.4646077097 0.9231042581 0.0233893871
0.6835926452 0.9281260968 0.0304170000
0.8298841935 0.9328190968 0.0397842258
0.9047506774 0.9372566774 0.0516586452
0.9410815806 0.9410815806 0.0657091290
0.0000000000 0.0000000000 0.0010969677
0.0016539677 0.0000000000 0.0016539677
0.0143946774 0.0000000000 0.0022029677
0.0864098065 0.0000000000 0.0027666774
0.2619800323 0.0000958710 0.0037382581
0.4989404516 0.0004703548 0.0053435806
0.7094842903 0.0009932258 0.0075075161
0.8443563871 0.0015239677 0.0102442903
0.0000000000 0.0021768387 0.0021768387
0.0027588065 0.0027588065 0.0027588065
0.0234088710 0.0037231290 0.0037231290
0.1250326129 0.0053061935 0.0053061935
0.3230204194 0.0074511290 0.0074511290
0.5627164839 0.0101721613 0.0101721613
0.7539763226 0.0134783226 0.0134783226
0.8679315806 0.0173380968 0.0173380968
0.0000997419 0.0232022581 0.0036805161
0.0052453226 0.0304283871 0.0052453226
0.0399444839 0.0399444839 0.0073701290
0.1715175484 0.0516551935 0.0100765484
0.3886315484 0.0655150000 0.0133479355
0.6224465484 0.0814496452 0.0171880968
0.7928526452 0.0994331290 0.0219312581
0.8869806774 0.1195837097 0.0286344516
0.0009362258 0.1461833548 0.0072751290
0.0099735484 0.1706581935 0.0099735484
0.0649995161 0.1968149032 0.0132183226
0.2243213226 0.2243213226 0.0170660968
0.4551323871 0.2527848065 0.0217983871
0.6761021290 0.2823979032 0.0283787097
0.8255823226 0.3138258065 0.0372616774
0.9027677742 0.3466098387 0.0483882258
0.0020199677 0.3863986774 0.0130805806
0.0169203548 0.4202930645 0.0169203548
0.0981382903 0.4540326452 0.0216015484
0.2813899032 0.4873371290 0.0281717097
0.5202657419 0.5202657419 0.0369528065
0.7249026129 0.5525896452 0.0479597419
0.8527278387 0.5841389355 0.0611465161
0.9149190000 0.6141821290 0.0764651613
0.0033192903 0.6475734839 0.0213823226
0.0279274839 0.6743756129 0.0279274839
0.1396425806 0.7000429355 0.0366240645
0.3444184839 0.7241820968 0.0475660000
0.5831203226 0.7464234516 0.0606687742
0.7672590645 0.7672590645 0.0759568065
0.8744623226 0.7867991613 0.0934114194
0.9253294194 0.8048303548 0.1129915484
0.0065137742 0.8241053871 0.0362598387
0.0471497742 0.8387293226 0.0471497742
0.1882769677 0.8519644194 0.0601536452
0.4106542258 0.8636623226 0.0753892258
0.6407204516 0.8741159677 0.0927761935
0.8042540968 0.8837237097 0.1123400645
0.8925385806 0.8925385806 0.1338943548
0.9346017419 0.9004705806 0.1572879355
0.0119127742 0.9085676452 0.0596532903
0.0747870645 0.9143850968 0.0747870645
0.2426174839 0.9198142258 0.0921510000
0.4768705484 0.9249945484 0.1116824516
0.6930324839 0.9298589032 0.1331306452
0.8352696452 0.9344533871 0.1564835484
0.9071892258 0.9386821290 0.1815773548
0.9423139355 0.9423139355 0.2083401935
0.0000000000 0.0000000000 0.0089841935
0.0018678387 0.0000000000 0.0121213548
0.0158320000 0.0000000000 0.0158320000
0.0930379677 0.0000310000 0.0202754516
0.2728894839 0.0001614839 0.0261762903
0.5109520323 0.0006493548 0.0341344194
0.7183022581 0.0011842258 0.0444484516
0.8491833871 0.0017417419 0.0569829677
0.0000000000 0.0023834516 0.0156973871
0.0031031613 0.0031031613 0.0201653226
0.0260175161 0.0042322258 0.0260175161
0.1332445806 0.0059530323 0.0338882581
0.3350818710 0.0083333548 0.0440448065
0.5742356452 0.0113182581 0.0566615484
0.7615139355 0.0148494194 0.0715324839
0.8716389032 0.0190580323 0.0884783548
0.0001457419 0.0257727742 0.0257727742
0.0058921613 0.0335951290 0.0335951290
0.0436474516 0.0436474516 0.0436474516
0.1807199677 0.0563301613 0.0563301613
0.4010720323 0.0711068387 0.0711068387
0.6329339032 0.0879682258 0.0879682258
0.7995063871 0.1068518387 0.1068518387
0.8902658387 0.1276504194 0.1276504194
0.0011272258 0.1548686774 0.0433022258
0.0111003871 0.1798460968 0.0558519355
0.0705950968 0.2066924516 0.0705950968
0.2346279677 0.2346279677 0.0873493548
0.4674109677 0.2635919355 0.1061686129
0.6856729355 0.2939581935 0.1269195806
0.8310743871 0.3257750968 0.1495802581
0.9053234839 0.3587560323 0.1742771613
0.0022069677 0.3988205484 0.0700269032
0.0185961613 0.4327401290 0.0867517742
0.1055151290 0.4662702258 0.1055151290
0.2928624516 0.4994395806 0.1261524516
0.5321429677 0.5321429677 0.1488047742
0.7330901613 0.5642170323 0.1734745484
0.8570362581 0.5955112581 0.1997945161
0.9169152903 0.6249606774 0.2275260645
0.0037025161 0.6575986774 0.1047649032
0.0306504194 0.6839488065 0.1253984839
0.1480467097 0.7089548387 0.1480467097
0.3565459032 0.7323775161 0.1726250968
0.5945702258 0.7541769032 0.1989350323
0.7747260323 0.7747260323 0.2266058387
0.8781099677 0.7937514194 0.2551632581
0.9271545806 0.8110696774 0.2849790968
0.0073535161 0.8296058387 0.1472128710
0.0516720323 0.8436114194 0.1717412581
0.1980382903 0.8562749677 0.1980382903
0.4231212903 0.8676028065 0.2256595806
0.6507773548 0.8778125806 0.2542154194
0.8105092903 0.8871214194 0.2839708710
0.8955790968 0.8955790968 0.3154306452
0.9362281613 0.9030612258 0.3481722258
0.0132675806 0.9107095484 0.1971000968
0.0810920645 0.9163782903 0.2247430968
0.2532209677 0.9217365161 0.2532209677
0.4890167419 0.9268463226 0.2829176129
0.7020274839 0.9315953226 0.3143438387
0.8402386774 0.9360912903 0.3470733548
0.9093783548 0.9400750000 0.3806742903
0.9433584516 0.9433584516 0.4146774194
0.0000000000 0.0000000000 0.0517391290
0.0020547097 0.0000000000 0.0655990645
0.0172648387 0.0000000000 0.0816141935
0.0997345161 0.0000730000 0.0997345161
0.2839315161 0.0003364839 0.1200305161
0.5229955806 0.0008443548 0.1422947419
0.7269671613 0.0013832258 0.1663955806
0.8539271290 0.0019441935 0.1922245484
0.0000000000 0.0025899355 0.0810723226
0.0034739032 0.0034739032 0.0991243871
0.0286974839 0.0048515806 0.1193900000
0.1416093548 0.0068203871 0.1416093548
0.3471974516 0.0093474194 0.1656444516
0.5857180645 0.0124730968 0.1913512903
0.7690026774 0.0162395161 0.2186167742
0.8753462258 0.0207903226 0.2468743226
0.0003064839 0.0284522581 0.1187096452
0.0067363871 0.0372552258 0.1408640000
0.0482954194 0.0482954194 0.1648737097
0.1905200323 0.0614352258 0.1905200323
0.4134590968 0.0767803871 0.2177044194
0.6430173226 0.0944706774 0.2459400645
0.8057575806 0.1142361935 0.2752989355
0.8932937097 0.1358891290 0.3064526129
0.0013408387 0.1640103548 0.1640103548
0.0122552258 0.1896448065 0.1896448065
0.0762726452 0.2167544194 0.2167544194
0.2449774516 0.2449774516 0.2449774516
0.4796100323 0.2744141935 0.2744141935
0.6951056452 0.3054507097 0.3054507097
0.8364249032 0.3378629355 0.3378629355
0.9077423548 0.3711547419 0.3711547419
0.0023939677 0.4112230968 0.2158141935
0.0203236129 0.4450782903 0.2440492258
0.1129074516 0.4785611613 0.2733626129
0.3044266129 0.5115320323 0.3044266129
0.5439549355 0.5439549355 0.3367249677
0.7412688387 0.5757583226 0.3700256129
0.8613301935 0.6063184194 0.4038687742
0.9189119677 0.6351713226 0.4377924839
0.0042467419 0.6674401613 0.2723252903
0.0340528710 0.6934746129 0.3033515484
0.1569706129 0.7178780323 0.3356403548
0.3689296452 0.7404961935 0.3689296452
0.6053053871 0.7617477419 0.4027131613
0.7817168065 0.7817168065 0.4366673548
0.8815412903 0.8002212258 0.4701931935
0.9289030000 0.8171483871 0.5032725484
0.0082172581 0.8350615161 0.3345356452
0.0563405161 0.8485057097 0.3677811613
0.2079043548 0.8605621613 0.4016291613
0.4355647419 0.8713693226 0.4355647419
0.6607665806 0.8812335161 0.4691054516
0.8166652258 0.8902962903 0.5022121613
0.8985465806 0.8985465806 0.5348411935
0.9377894516 0.9056691290 0.5668727742
0.0146215806 0.9128544516 0.4005068065
0.0874997097 0.9183715806 0.4344209677
0.2638882581 0.9236263871 0.4679959355
0.5010905161 0.9285946129 0.5010905161
0.7110484839 0.9332613548 0.5337501935
0.8451885806 0.9376684516 0.5658432581
0.9115744839 0.9414536129 0.5970083871
0.9443943548 0.9443943548 0.6263877097
0.0000000000 0.0000000000 0.1811426129
0.0022455806 0.0000000000 0.2079868065
0.0189504194 0.0000000000 0.2360091935
0.1070940000 0.0001074839 0.2649677097
0.2954210968 0.0005194839 0.2954210968
0.5348689355 0.0010318387 0.3273491290
0.7350877419 0.0015887097 0.3604617419
0.8581276129 0.0021460968 0.3942203548
0.0000040000 0.0028316774 0.2350889677
0.0038308710 0.0038308710 0.2639590968
0.0313689677 0.0054701935 0.2943556129
0.1499968710 0.0076876129 0.3262586129
0.3593288710 0.0104850323 0.3593288710
0.5971068387 0.0138479355 0.3931247419
0.7764368710 0.0178155806 0.4270501613
0.8789704194 0.0226449355 0.4607080968
0.0004744839 0.0311317419 0.2933201290
0.0076076129 0.0409415806 0.3251973871
0.0529283871 0.0529283871 0.3582250323
0.2003903226 0.0670373226 0.3920442581
0.4259061613 0.0832299677 0.4259061613
0.6530486452 0.1014590645 0.4595888710
0.8119223226 0.1217157097 0.4928213226
0.8962872258 0.1441158387 0.5256543226
0.0015277097 0.1731519032 0.3570999032
0.0135959355 0.1994699677 0.3908915161
0.0826310968 0.2271148065 0.4248105484
0.2557807097 0.2557807097 0.4585048710
0.4917327419 0.2855303226 0.4917327419
0.7040700000 0.3170276129 0.5245774839
0.8413893226 0.3499074194 0.5568670000
0.9099351290 0.3835614839 0.5883475484
0.0025969677 0.4236704194 0.4236704194
0.0221427419 0.4573371290 0.4573371290
0.1203557419 0.4906526129 0.4906526129
0.3160301290 0.5234587419 0.5234587419
0.5558284194 0.5558284194 0.5558284194
0.7493010968 0.5872737097 0.5872737097
0.8655041290 0.6170660645 0.6170660645
0.9208708710 0.6452665806 0.6452665806
0.0048346129 0.6769982581 0.4895742258
0.0375945484 0.7024583548 0.5224254839
0.1659949677 0.7264315161 0.5547751613
0.3813132581 0.7486412258 0.5862289355
0.6161094194 0.7693480968 0.6161094194
0.7886605806 0.7886605806 0.6443087097
0.8849734839 0.8064958065 0.6712812258
0.9306514194 0.8227387742 0.6971142903
0.0092889355 0.8400543871 0.5537001613
0.0616581290 0.8531563226 0.5852345484
0.2181661613 0.8648120968 0.6152392581
0.4478480323 0.8751398710 0.6434434516
0.6704227419 0.8846374839 0.6704227419
0.8222057742 0.8933520323 0.6962596774
0.9011613548 0.9011613548 0.7206865806
0.9391954194 0.9079719032 0.7431768387
0.0159698065 0.9149427419 0.6142964516
0.0939638065 0.9203439677 0.6425859355
0.2747190000 0.9254938065 0.6695901935
0.5131465161 0.9303430323 0.6955053871
0.7199138065 0.9348988710 0.7199138065
0.8500542581 0.9390693226 0.7424954194
0.9137181290 0.9425986129 0.7635609677
0.9453856129 0.9453856129 0.7833842903
0.0000000000 0.0000000000 0.3801092903
0.0024481935 0.0000000000 0.4141118387
0.0207696774 0.0000387419 0.4479171613
0.1145887742 0.0001959677 0.4813053871
0.3069960968 0.0006918387 0.5142716452
0.5467049032 0.0012493548 0.5467049032
0.7431610968 0.0018065806 0.5784232903
0.8623399677 0.0023330968 0.6089779677
0.0000348710 0.0031905484 0.4468039032
0.0044043548 0.0044043548 0.4802130323
0.0348826129 0.0061782903 0.5131541290
0.1590006129 0.0085745806 0.5456042903
0.3716961290 0.0116162581 0.5773924194
0.6079386129 0.0152390323 0.6079386129
0.7834431290 0.0195320000 0.6366496452
0.8823706452 0.0251564516 0.6639073226
0.0006614839 0.0345498710 0.5120930323
0.0085057097 0.0448964194 0.5445588065
0.0575846129 0.0575846129 0.5763333871
0.2101911290 0.0726359032 0.6069640968
0.4383613548 0.0897296774 0.6356880323
0.6629798065 0.1088542903 0.6629798065
0.8179776129 0.1298985161 0.6891658387
0.8992220968 0.1528527097 0.7138522903
0.0017452258 0.1824546129 0.5753223871
0.0149790323 0.2093355161 0.6060191935
0.0891488065 0.2374603226 0.6347649032
0.2665110000 0.2665110000 0.6621170645
0.5038286774 0.2970826129 0.6882993548
0.7129821935 0.3290850645 0.7129821935
0.8462828710 0.3621237097 0.7360965806
0.9120651290 0.3959194516 0.7576404194
0.0028768065 0.4361337097 0.6338760323
0.0244567097 0.4696349677 0.6612255484
0.1284172903 0.5027140645 0.6874113226
0.3279627097 0.5353403226 0.7121894194
0.5673895484 0.5673895484 0.7353339677
0.7569256774 0.5984026774 0.7569256774
0.8693228710 0.6278026452 0.7772840645
0.9227568710 0.6553372581 0.7962193548
0.0054224839 0.6865492258 0.6865492258
0.0412541613 0.7113707742 0.7113707742
0.1751481290 0.7345679355 0.7345679355
0.3936706129 0.7562580645 0.7562580645
0.6268537742 0.7766044516 0.7766044516
0.7956473548 0.7956473548 0.7956473548
0.8883164516 0.8127431290 0.8127431290
0.9323574839 0.8283018065 0.8283018065
0.0103811935 0.8449561935 0.7339222903
0.0671119032 0.8574462581 0.7556046452
0.2284921935 0.8686267097 0.7760342903
0.4601390968 0.8787428387 0.7950300968
0.6800646452 0.8880544516 0.8121889677
0.8278110645 0.8964113871 0.8278110645
0.9037459032 0.9037459032 0.8419850000
0.9405885484 0.9101601613 0.8548308387
0.0175626129 0.9169116774 0.7754690968
0.1010832258 0.9222470000 0.7944190645
0.2860599677 0.9273148387 0.8117037742
0.5251080968 0.9320718387 0.8273550000
0.7282436774 0.9365212903 0.8415753226
0.8544393226 0.9404395484 0.8544393226
0.9157102903 0.9436260000 0.8659953871
0.9462951613 0.9462951613 0.8763307742
0.0000000000 0.0000000000 0.5966341935
0.0026546774 0.0000000000 0.6259074516
0.0225961935 0.0000850000 0.6535311290
0.1220829355 0.0003828387 0.6801157419
0.3186618387 0.0009014839 0.7054749355
0.5584855161 0.0014363548 0.7292424516
0.7511658065 0.0019934516 0.7511658065
0.8665261935 0.0025200968 0.7717302258
0.0000650000 0.0035613871 0.6526280968
0.0050277097 0.0050277097 0.6792162258
0.0385507097 0.0070456452 0.7046854516
0.1681045161 0.0096525484 0.7284702258
0.3841149677 0.0128320968 0.7504163226
0.6185954516 0.0166292581 0.7710679677
0.7903253226 0.0212649355 0.7903253226
0.8857667419 0.0277022258 0.8080270323
0.0008564839 0.0382207097 0.7038831613
0.0095568065 0.0495132903 0.7276738387
0.0629903226 0.0629903226 0.7496973548
0.2204992581 0.0785307097 0.7703631935
0.4506562903 0.0962671290 0.7896769355
0.6726479677 0.1162381290 0.8074549032
0.8235903871 0.1381416129 0.8235903871
0.9018527419 0.1618896452 0.8383080645
0.0019444516 0.1922910000 0.7490125806
0.0163928710 0.2195826452 0.7696995806
0.0956985161 0.2479102903 0.7890743226
0.2773213871 0.2773213871 0.8068768710
0.5158701290 0.3086161613 0.8230846129
0.7218718387 0.3411203871 0.8378011935
0.8510831613 0.3745184516 0.8510831613
0.9141826129 0.4083793871 0.8629131290
0.0032091613 0.4484270323 0.7884429032
0.0270061290 0.4818649032 0.8063323548
0.1366598710 0.5148060323 0.8226013548
0.3400424194 0.5472212903 0.8373234194
0.5788434516 0.5788434516 0.8506782903
0.7645187742 0.6092305806 0.8625053871
0.8730931613 0.6379235806 0.8730931613
0.9246474194 0.6651335806 0.8827985484
0.0062166452 0.6960124839 0.8220757097
0.0454997742 0.7202945484 0.8369051613
0.1847375161 0.7427474839 0.8502717742
0.4061435161 0.7638173871 0.8621056129
0.6369747097 0.7835952258 0.8727465161
0.8019344194 0.8019344194 0.8824788065
0.8914078065 0.8186370645 0.8914078065
0.9339920968 0.8338337419 0.8995043871
0.0114951613 0.8498417742 0.8498417742
0.0726281613 0.8617299677 0.8617299677
0.2388494194 0.8723931290 0.8723931290
0.4724249355 0.8821589355 0.8821589355
0.6895813548 0.8911419355 0.8911419355
0.8333540968 0.8992576452 0.8992576452
0.9063604516 0.9063604516 0.9063604516
0.9419208710 0.9123571613 0.9123571613
0.0191732258 0.9189080968 0.8721169677
0.1083597419 0.9241374194 0.8818775484
0.2974686774 0.9290631290 0.8908837742
0.5370199355 0.9337068387 0.8990617097
0.7364944516 0.9380598387 0.9061356774
0.8588158387 0.9418267419 0.9121519032
0.9177224194 0.9446540323 0.9177224194
0.9471808065 0.9471808065 0.9229970000
0.0000000000 0.0000000000 0.7633119355
0.0029654194 0.0000040000 0.7832569355
0.0249742258 0.0001220000 0.8017343226
0.1301515484 0.0005697097 0.8182878387
0.3306788387 0.0010965806 0.8333502258
0.5700861290 0.0016534516 0.8469846129
0.7587595161 0.0021803226 0.8592640645
0.8702684839 0.0027622903 0.8702684839
0.0001260000 0.0039537419 0.8011224516
0.0056509355 0.0056509355 0.8177373548
0.0422411613 0.0079363548 0.8328559355
0.1772470645 0.0107952581 0.8465556129
0.3965217097 0.0142303226 0.8589102903
0.6292372903 0.0182780645 0.8699505806
0.7971427419 0.0233055161 0.8799181935
0.8891159355 0.0302716452 0.8891159355
0.0010664839 0.0418806774 0.8323609355
0.0106720323 0.0541776129 0.8461107097
0.0685531613 0.0685531613 0.8585035161
0.2308515161 0.0849916774 0.8696121935
0.4628974839 0.1034791613 0.8795904516
0.6822264194 0.1239328710 0.8887911935
0.8290878065 0.1464017742 0.8971241290
0.9043975484 0.1709484839 0.9043975484
0.0021502258 0.2021611935 0.8581266452
0.0179729355 0.2299114194 0.8692894194
0.1028120323 0.2586480323 0.8792708065
0.2887045161 0.2887045161 0.8884885806
0.5277827097 0.3203301935 0.8968389032
0.7301538387 0.3531967097 0.9041529032
0.8555031935 0.3869136774 0.9105159032
0.9161989032 0.4208460645 0.9161989032
0.0035254516 0.4606981290 0.8789571935
0.0295871613 0.4939347097 0.8882070645
0.1449200323 0.5267326129 0.8965841290
0.3521237419 0.5590219032 0.9039256452
0.5904018387 0.5904018387 0.9103229032
0.7720624839 0.6200345161 0.9160087742
0.8768406774 0.6479777419 0.9213816129
0.9265028387 0.6747751290 0.9265028387
0.0070563871 0.7049362581 0.8962953548
0.0500223226 0.7286748065 0.9036986129
0.1945013871 0.7507502258 0.9101250000
0.4186066774 0.7714026129 0.9158296452
0.6470690000 0.7905930968 0.9212184839
0.8081674839 0.8081674839 0.9263395806
0.8944713226 0.8242313226 0.9311265484
0.9356425161 0.8388251613 0.9356425161
0.0127785806 0.8543230323 0.9099390000
0.0787744516 0.8659148387 0.9156385161
0.2493238710 0.8761717742 0.9210538387
0.4846083871 0.8855829032 0.9261789355
0.6987377097 0.8941895484 0.9309674194
0.8383717419 0.9018762903 0.9354856452
0.9085645806 0.9085645806 0.9395780968
0.9429805161 0.9144217742 0.9429805161
0.0207838387 0.9208986129 0.9208986129
0.1156572581 0.9260119355 0.9260119355
0.3089432258 0.9308144194 0.9308144194
0.5488970323 0.9353452581 0.9353452581
0.7446586129 0.9394414516 0.9394414516
0.8630806452 0.9428857419 0.9428857419
0.9197265806 0.9456404839 0.9456404839
0.9480864516 0.9480864516 0.9480864516
