LUTs/SPK Cube Block1 S32/TheBrim_SPK_Type-N_Block1_S32.cube
TITLE "TheBrim® SPK Block 1"
# TheBrim® d.o.o. Croatia
# Copyright: (C) Copyright 2020 TheBrim® d.o.o. Croatia
LUT_3D_SIZE 8
DOMAIN_MIN 0.000000 0.000000 0.000000
DOMAIN_MAX 0.903226 0.903226 0.903226
0.0000920000 0.0000310000 0.0002750000
0.0040098065 0.0002828710 0.0005190000
0.0273735484 0.0014354839 0.0002355161
0.1198838065 0.0001869355 0.0000000000
0.2662206774 0.0000000000 0.0000000000
0.4100369032 0.0000000000 0.0000000000
0.5333806774 0.0000000000 0.0000000000
0.6013600323 0.0000000000 0.0000000000
0.0000000000 0.0036280645 0.0008048710
0.0099294516 0.0074540000 0.0009848710
0.0375117097 0.0099753226 0.0002262903
0.1376926774 0.0137684839 0.0000000000
0.2920091935 0.0057015161 0.0000000000
0.4419569032 0.0000000000 0.0000000000
0.5654127742 0.0000000000 0.0000000000
0.6121110645 0.0000000000 0.0000000000
0.0000000000 0.0246790645 0.0027671613
0.0059083226 0.0314216129 0.0050372258
0.0673010323 0.0536249677 0.0016192258
0.1950429677 0.0744762903 0.0000000000
0.3696041613 0.0857465806 0.0000000000
0.5200124839 0.0755790323 0.0000000000
0.6104814194 0.0679597742 0.0000000000
0.6546177742 0.0665620645 0.0000000000
0.0000000000 0.1149332258 0.0124087742
0.0000000000 0.1269190000 0.0155431613
0.0418632903 0.1735003548 0.0204478065
0.2397007097 0.2107602903 0.0000000000
0.4400853226 0.2350583226 0.0000000000
0.6069906774 0.2494161935 0.0000000000
0.6950209677 0.2536781290 0.0000000000
0.7349659032 0.2570538387 0.0000000000
0.0000000000 0.2369541290 0.0161882581
0.0000000000 0.2559479032 0.0170659355
0.0000000000 0.3320628387 0.0143086452
0.2059583226 0.3953279677 0.0000000000
0.5124838065 0.4497857742 0.0000000000
0.6821109677 0.4483936452 0.0000000000
0.7729337097 0.4583812581 0.0000000000
0.8072557097 0.4609746774 0.0000000000
0.0000000000 0.3290126774 0.0027325806
0.0000000000 0.3537108065 0.0008122258
0.0000000000 0.4540738710 0.0000000000
0.1030875161 0.5321279677 0.0000000000
0.4867387419 0.6144380645 0.0000000000
0.7498822903 0.6507677419 0.0000000000
0.8301213548 0.6310080645 0.0000000000
0.8622542581 0.6300621290 0.0000000000
0.0000000000 0.3694046129 0.0000000000
0.0000000000 0.3963663871 0.0000000000
0.0000000000 0.5076478065 0.0000000000
0.0167276129 0.5940965806 0.0000000000
0.4559187419 0.6797689677 0.0000000000
0.7388848065 0.7391644194 0.0000000000
0.8679397097 0.7474692258 0.0000000000
0.9081127742 0.7443604194 0.0000000000
0.0000000000 0.3817591613 0.0000000000
0.0000000000 0.4093717742 0.0000000000
0.0000000000 0.5234521935 0.0000000000
0.0000000000 0.6123381613 0.0000000000
0.4421731613 0.6985030323 0.0000000000
0.7305643226 0.7634938065 0.0000000000
0.8644982581 0.7784328387 0.0000000000
0.9136998387 0.7805611935 0.0000000000
0.0000571290 0.0001870000 0.0027415806
0.0049342903 0.0002867419 0.0064425161
0.0298797419 0.0017759677 0.0075348065
0.1264969677 0.0010933871 0.0082260968
0.2770974839 0.0000000000 0.0038964194
0.4226290000 0.0000000000 0.0000000000
0.5451247419 0.0000000000 0.0000000000
0.6127594516 0.0000000000 0.0045263548
0.0000000000 0.0052122903 0.0050784194
0.0096157097 0.0099255806 0.0103334516
0.0392247742 0.0129211290 0.0115511290
0.1445479355 0.0166211290 0.0103347419
0.3031961613 0.0068016129 0.0011171935
0.4545585161 0.0000000000 0.0000000000
0.5771533226 0.0000000000 0.0000000000
0.6234436452 0.0000000000 0.0015710968
0.0000000000 0.0276752903 0.0077769032
0.0037203548 0.0348599677 0.0129171935
0.0679879677 0.0575350968 0.0140744194
0.2008457742 0.0780256452 0.0039945484
0.3798464839 0.0880106129 0.0000000000
0.5318740323 0.0763078387 0.0000000000
0.6225783548 0.0672753548 0.0000000000
0.6666208065 0.0647080645 0.0000000000
0.0000000000 0.1193314839 0.0183235484
0.0000000000 0.1314422581 0.0217667097
0.0352840323 0.1787209355 0.0325807742
0.2433432903 0.2171383548 0.0037775161
0.4506758710 0.2415170000 0.0000000000
0.6201970645 0.2551692581 0.0000000000
0.7089648387 0.2590143871 0.0000000000
0.7489524839 0.2622255806 0.0000000000
0.0000000000 0.2387682258 0.0210569355
0.0000000000 0.2577822258 0.0220610323
0.0000000000 0.3341449032 0.0238773226
0.2044441935 0.3973959677 0.0027909677
0.5159527097 0.4552237742 0.0000000000
0.6947583871 0.4590810000 0.0000000000
0.7869507419 0.4690914839 0.0000000000
0.8218915806 0.4718020000 0.0000000000
0.0000000000 0.3308156452 0.0081746129
0.0000000000 0.3555129032 0.0053483226
0.0000000000 0.4561789677 0.0000000000
0.0967673226 0.5343097742 0.0000000000
0.4864904839 0.6166145161 0.0000000000
0.7508437742 0.6536431935 0.0000000000
0.8427457097 0.6436625484 0.0000000000
0.8754916452 0.6428319032 0.0000000000
0.0000000000 0.3712135806 0.0000000000
0.0000000000 0.3983834516 0.0000000000
0.0000000000 0.5097436452 0.0000000000
0.0108367742 0.5962464194 0.0000000000
0.4551716129 0.6819495484 0.0000000000
0.7391802903 0.7414648387 0.0000000000
0.8690841935 0.7504815484 0.0000000000
0.9149565484 0.7525508065 0.0000000000
0.0000000000 0.3835311290 0.0000000000
0.0000000000 0.4112487419 0.0000000000
0.0000000000 0.5255300323 0.0000000000
0.0000000000 0.6144605161 0.0000000000
0.4412015806 0.7006648710 0.0000000000
0.7306637097 0.7656396452 0.0000000000
0.8651056452 0.7808136774 0.0000000000
0.9149280645 0.7835355161 0.0000000000
0.0000000000 0.0005800000 0.0166429677
0.0050115161 0.0009651290 0.0239241290
0.0381265161 0.0034305484 0.0459681613
0.1527905806 0.0077473871 0.0604186129
0.3178788710 0.0000000000 0.0674141935
0.4690894194 0.0000000000 0.0688623871
0.5780765806 0.0000000000 0.0812119032
0.6342127097 0.0000000000 0.0948614516
0.0000000000 0.0063808387 0.0210269032
0.0082635484 0.0112316129 0.0303371935
0.0465503871 0.0156190000 0.0526968710
0.1702989355 0.0243390000 0.0664812258
0.3443190645 0.0104597419 0.0726328710
0.5023303871 0.0000000000 0.0725740323
0.6090719677 0.0000000000 0.0827625161
0.6437505806 0.0000000000 0.0953172258
0.0000000000 0.0375279355 0.0343088065
0.0000000000 0.0448831290 0.0435572258
0.0670294839 0.0701471613 0.0713136774
0.2177734516 0.0911324194 0.0808920000
0.4126732903 0.0976453871 0.0805594516
0.5712919677 0.0791017742 0.0727069355
0.6546787742 0.0645517742 0.0807576452
0.6883397097 0.0616868387 0.0932235806
0.0000000000 0.1284269032 0.0468709355
0.0000000000 0.1410889032 0.0555352258
0.0169045161 0.1889646774 0.0834949677
0.2484282258 0.2317000323 0.0859308710
0.4814276129 0.2628290968 0.0593290000
0.6591640000 0.2741117419 0.0380868065
0.7472890645 0.2753766452 0.0362736774
0.7808333871 0.2758474839 0.0469647097
0.0000000000 0.2485430323 0.0548784194
0.0000000000 0.2679392581 0.0627343871
0.0000000000 0.3452283871 0.0861887097
0.1938331613 0.4085651613 0.0879684194
0.5194789355 0.4687382581 0.0028745806
0.7308900323 0.4939141290 0.0000000000
0.8283050000 0.5040635806 0.0000000000
0.8649145161 0.5069214516 0.0000000000
0.0000000000 0.3415418065 0.0484107419
0.0000000000 0.3665931290 0.0534389355
0.0000000000 0.4685631935 0.0659187097
0.0469125484 0.5468294194 0.0427246129
0.4843978387 0.6288106452 0.0022603871
0.7550322258 0.6695242258 0.0000000000
0.8704578387 0.6793112903 0.0000000000
0.9110400968 0.6839807742 0.0000000000
0.0000000000 0.3820237097 0.0352289677
0.0000000000 0.4094860000 0.0379254194
0.0000000000 0.5223233871 0.0355842903
0.0000000000 0.6089084194 0.0016301935
0.4503753226 0.6944038387 0.0000000000
0.7395423548 0.7544369032 0.0000000000
0.8736334194 0.7670326774 0.0000000000
0.9214043226 0.7707303548 0.0000000000
0.0000000000 0.3941482903 0.0256397742
0.0000000000 0.4221730323 0.0260893871
0.0000000000 0.5379589032 0.0151328065
0.0000000000 0.6270851290 0.0000000000
0.4353490645 0.7130926452 0.0000000000
0.7306024516 0.7778762581 0.0000000000
0.8679684839 0.7954908065 0.0000000000
0.9196257419 0.7997485484 0.0000000000
0.0000000000 0.0000000000 0.0734893871
0.0053319677 0.0000000000 0.0882035806
0.0430542903 0.0000000000 0.1413553548
0.1951385161 0.0341631290 0.2006088065
0.3944769355 0.0282969355 0.2311363871
0.5487889355 0.0000000000 0.2457108387
0.6258153226 0.0000000000 0.2557125161
0.6556523548 0.0000000000 0.2632260645
0.0000000000 0.0068539032 0.0855656774
0.0038522581 0.0105912903 0.1033480968
0.0476380000 0.0140952581 0.1571380968
0.2073382258 0.0498806129 0.2126364839
0.4030761290 0.0438182581 0.2359322903
0.5565066129 0.0000000000 0.2488866774
0.6336838387 0.0000000000 0.2586049677
0.6636824839 0.0000000000 0.2660728387
0.0000000000 0.0493526452 0.1214421613
0.0000000000 0.0557626452 0.1399810000
0.0528239032 0.0783543871 0.1988270968
0.2261913548 0.1074003871 0.2299411613
0.4332844194 0.1175615806 0.2507450645
0.5953943226 0.0981171613 0.2636926129
0.6758991613 0.0754974194 0.2731020323
0.7064593548 0.0650370323 0.2802822581
0.0000000000 0.1504357097 0.1402151613
0.0000000000 0.1647005161 0.1593969677
0.0000000000 0.2127027097 0.2198092258
0.2473259677 0.2521737419 0.2543976129
0.4908202903 0.2829723226 0.2736992581
0.6729666129 0.2929230968 0.2856631935
0.7615769032 0.2928227419 0.2947593226
0.7943186452 0.2916665806 0.3013669032
0.0000000000 0.2743036129 0.1544168065
0.0000000000 0.2944701613 0.1700164839
0.0000000000 0.3733640645 0.2296645161
0.1709320000 0.4378142903 0.2625416129
0.5204527419 0.4974492581 0.2744327419
0.7386379032 0.5246473871 0.2729551935
0.8379140968 0.5341068065 0.2824411613
0.8746140645 0.5365809032 0.2889995806
0.0000000000 0.3705112581 0.1583505161
0.0000000000 0.3961544516 0.1730100323
0.0000000000 0.5002489677 0.2293245484
0.0000000000 0.5784330323 0.2548798065
0.4800730645 0.6606773871 0.2762912258
0.7550344839 0.7048398065 0.2456607742
0.8749794194 0.7187735161 0.2283076774
0.9164005161 0.7239968387 0.2332978710
0.0000000000 0.4124943226 0.1525701613
0.0000000000 0.4405990645 0.1665461935
0.0000000000 0.5559908065 0.2186299032
0.0000000000 0.6424195161 0.2389121290
0.4397920000 0.7288967097 0.2530290968
0.7366369355 0.7874451935 0.2442645806
0.8739010645 0.8050958387 0.2013410645
0.9231714839 0.8109584516 0.1918677419
0.0000000000 0.4248277419 0.1450825161
0.0000000000 0.4535810323 0.1584828065
0.0000000000 0.5718579032 0.2066876129
0.0000000000 0.6610800000 0.2231013548
0.4204504839 0.7481283871 0.2321640645
0.7275114194 0.8107456129 0.2240730323
0.8671866129 0.8313736774 0.1797407742
0.9200711613 0.8380759355 0.1610386452
0.0002794194 0.0000000000 0.1478492258
0.0086278387 0.0000000000 0.1680280000
0.0522286129 0.0000000000 0.2442514516
0.1970305161 0.0000000000 0.3517415484
0.4300714839 0.0465997419 0.4195604194
0.5914127742 0.0102686129 0.4410213226
0.6677696452 0.0000000000 0.4529006774
0.6953802903 0.0000000000 0.4583068710
0.0000000000 0.0010207742 0.1702536774
0.0018981613 0.0006479355 0.1958696452
0.0531626129 0.0000000000 0.2727432581
0.2087285161 0.0114550968 0.3755799355
0.4343073871 0.0619830645 0.4236453226
0.5965823871 0.0306828710 0.4449259032
0.6735014194 0.0000000000 0.4569939355
0.7012880645 0.0000000000 0.4624360000
0.0000000000 0.0541134516 0.2396660968
0.0000000000 0.0568690645 0.2666203226
0.0396383871 0.0672960968 0.3533068065
0.2241515161 0.0915585484 0.4077936129
0.4562311613 0.1386274516 0.4446963871
0.6253986129 0.1325938065 0.4651458387
0.7055760000 0.1126274839 0.4781947742
0.7345846774 0.1000345161 0.4840273871
0.0000000000 0.1703630323 0.2822865806
0.0000000000 0.1836193548 0.3115758065
0.0000000000 0.2269198387 0.4042181290
0.2368609355 0.2625280323 0.4571276129
0.4992111290 0.3070620968 0.4866095161
0.6868936774 0.3211563548 0.5058979355
0.7753218065 0.3201913548 0.5191413871
0.8075380968 0.3181496774 0.5260499677
0.0000000000 0.3111161290 0.3060479032
0.0000000000 0.3341250968 0.3336889355
0.0000000000 0.4122148065 0.4258216129
0.1488045161 0.4742361935 0.4798346452
0.5208167742 0.5225277419 0.5186881290
0.7380609677 0.5491983226 0.5379848710
0.8382778387 0.5574254839 0.5511513871
0.8746688387 0.5593605484 0.5581498387
0.0000000000 0.4146334516 0.3191873226
0.0000000000 0.4427971613 0.3451489355
0.0000000000 0.5432543226 0.4332866129
0.0000000000 0.6245618387 0.4845255806
0.4928252258 0.6971189677 0.5245480323
0.7501864194 0.7378676774 0.5405962581
0.8685393871 0.7522089677 0.5478173226
0.9097784516 0.7568658710 0.5546639677
0.0000000000 0.4546136129 0.3134246774
0.0000000000 0.4835803871 0.3369799677
0.0000000000 0.5985994516 0.4268335161
0.0000000000 0.6871219032 0.4758459677
0.4538856129 0.7735015484 0.5159263548
0.7356990000 0.8237346129 0.5360779355
0.8668586452 0.8425086129 0.5382593548
0.9144300323 0.8487049032 0.5416927742
0.0000000000 0.4673504516 0.3073132581
0.0000000000 0.4966844839 0.3299420645
0.0000000000 0.6155651290 0.4186705484
0.0000000000 0.7061678065 0.4656322903
0.4331105161 0.7962539677 0.5044315484
0.7278647419 0.8495554516 0.5254399677
0.8612209677 0.8701958710 0.5282819355
0.9116342903 0.8771678710 0.5306816774
0.0030131290 0.0000000000 0.2009672903
0.0136038065 0.0000000000 0.2246672581
0.0634256129 0.0000000000 0.3141608710
0.2039852581 0.0000000000 0.4497583871
0.4332631935 0.0000000000 0.5531291935
0.6152206452 0.0033606774 0.5809319677
0.6956794516 0.0000000000 0.5899694839
0.7237155161 0.0000000000 0.5947283871
0.0000000000 0.0000000000 0.2325736774
0.0053542258 0.0000000000 0.2627662903
0.0640920645 0.0000000000 0.3537892581
0.2162859032 0.0000000000 0.4840578387
0.4370540323 0.0002047742 0.5588584516
0.6196771290 0.0257827742 0.5856098065
0.7004495161 0.0000000000 0.5944437419
0.7287075484 0.0000000000 0.5992213871
0.0000000000 0.0475386774 0.3318099677
0.0000000000 0.0445735161 0.3635698387
0.0440250323 0.0348321613 0.4665576452
0.2306311290 0.0495970968 0.5317667419
0.4575755806 0.1051615806 0.5894135484
0.6443696452 0.1384500968 0.6109580968
0.7277743548 0.1254054516 0.6195747742
0.7568821290 0.1167069677 0.6243268065
0.0000000000 0.1780492903 0.3958955806
0.0000000000 0.1897441290 0.4321114516
0.0000000000 0.2266602258 0.5453521613
0.2353385806 0.2578078065 0.6079595484
0.4963782903 0.3012487742 0.6520612258
0.6981970323 0.3353330645 0.6656809355
0.7890932258 0.3379682581 0.6739238065
0.8208245484 0.3372784516 0.6788499032
0.0000000000 0.3290513871 0.4353945161
0.0000000000 0.3497833548 0.4683482581
0.0000000000 0.4268109677 0.5875530645
0.0712524516 0.4866728710 0.6577711290
0.5168832258 0.5318827742 0.7036389355
0.7400112581 0.5672784516 0.7178326774
0.8419364839 0.5775981935 0.7259855484
0.8777001613 0.5796487742 0.7310345484
0.0000000000 0.4451106452 0.4562728710
0.0000000000 0.4739803548 0.4898309677
0.0000000000 0.5756075484 0.6028543226
0.0000000000 0.6581481935 0.6709140645
0.4953652903 0.7223000645 0.7184802903
0.7506134839 0.7562150323 0.7448431935
0.8637942903 0.7704302258 0.7547096129
0.9039516129 0.7747103548 0.7595547742
0.0000000000 0.5076488710 0.4761801290
0.0000000000 0.5407518065 0.5104579355
0.0000000000 0.6419193226 0.6086623871
0.0000000000 0.7312032903 0.6733780968
0.4681593226 0.8054149677 0.7204098065
0.7431178065 0.8469346129 0.7483469677
0.8641634194 0.8641547097 0.7584464516
0.9080534839 0.8697358710 0.7627810968
0.0000000000 0.5262186452 0.4768911935
0.0000000000 0.5599924194 0.5106270968
0.0000000000 0.6608238065 0.6046369677
0.0000000000 0.7526146774 0.6683637097
0.4519889355 0.8309120968 0.7161400645
0.7372202581 0.8756976774 0.7451497419
0.8606953871 0.8942515161 0.7555995161
0.9065514194 0.9005287419 0.7594134839
0.0052076774 0.0000000000 0.2270472258
0.0171872258 0.0000000000 0.2521063871
0.0712704839 0.0000000000 0.3475540323
0.2121994839 0.0000000000 0.4991013871
0.4330780968 0.0000000000 0.6109530323
0.6197251935 0.0000000000 0.6541266452
0.7046795161 0.0000000000 0.6612865806
0.7327813548 0.0000000000 0.6638989355
0.0000000000 0.0000000000 0.2626077419
0.0092250968 0.0000000000 0.2947576452
0.0726269677 0.0000000000 0.3920159677
0.2245857742 0.0000000000 0.5378763226
0.4372983226 0.0000000000 0.6184072258
0.6239043548 0.0000000000 0.6591868065
0.7093879355 0.0000000000 0.6663624194
0.7376266452 0.0000000000 0.6689315806
0.0000000000 0.0383880968 0.3764118387
0.0000000000 0.0312037742 0.4103923226
0.0530061290 0.0060692903 0.5219973871
0.2385800645 0.0100738387 0.5922899677
0.4581033548 0.0576370000 0.6549338710
0.6473375806 0.1220455806 0.6876003548
0.7351416774 0.1193878065 0.6936101290
0.7643471935 0.1122170645 0.6960938065
0.0000000000 0.1783852903 0.4516397097
0.0000000000 0.1889767742 0.4909855161
0.0000000000 0.2214189032 0.6140660323
0.2409293548 0.2494951290 0.6811878065
0.4975751290 0.2879157419 0.7299115161
0.6982934516 0.3321216129 0.7496005161
0.7930346452 0.3399144194 0.7539624194
0.8249581613 0.3393780968 0.7565415484
0.0000000000 0.3336230968 0.5029286129
0.0000000000 0.3548711935 0.5406445161
0.0000000000 0.4295190323 0.6718808387
0.0650587097 0.4865505484 0.7463900323
0.5189811290 0.5306041613 0.7932463871
0.7379783226 0.5683472581 0.8103304194
0.8430715161 0.5831916452 0.8137599032
0.8791997097 0.5858764194 0.8165688710
0.0000000000 0.4529486452 0.5237477097
0.0000000000 0.4796683226 0.5581719677
0.0000000000 0.5846123226 0.6884627742
0.0000000000 0.6680476129 0.7660376774
0.4904447419 0.7309796774 0.8182747419
0.7496789032 0.7623344516 0.8443679677
0.8624461935 0.7782620323 0.8511846774
0.9022041613 0.7832158710 0.8542392903
0.0000000000 0.5096925161 0.5380994839
0.0000000000 0.5415878710 0.5742787742
0.0000000000 0.6536845484 0.6965816129
0.0000000000 0.7459558710 0.7715602903
0.4603192258 0.8196430000 0.8221505484
0.7454391935 0.8574327097 0.8513108387
0.8642322903 0.8729996452 0.8622495484
0.9062472903 0.8784041613 0.8659329677
0.0000000000 0.5321684194 0.5457688387
0.0000000000 0.5655407742 0.5823124839
0.0000000000 0.6746255806 0.6967702581
0.0000000000 0.7686256452 0.7698853548
0.4450258387 0.8458393226 0.8205318710
0.7407760645 0.8874382258 0.8501703226
0.8623411613 0.9043015484 0.8624941613
0.9056594194 0.9101484839 0.8665937097
0.0062780968 0.0000000000 0.2360617742
0.0189267742 0.0000000000 0.2616339032
0.0749656129 0.0000000000 0.3593513226
0.2162484516 0.0000000000 0.5149061613
0.4343724516 0.0000000000 0.6293018710
0.6199250968 0.0000000000 0.6778525806
0.7068563548 0.0000000000 0.6865483871
0.7353163871 0.0000000000 0.6886840000
0.0000000000 0.0000000000 0.2730604516
0.0116687742 0.0000000000 0.3059723226
0.0766660968 0.0000000000 0.4052019677
0.2288090323 0.0000000000 0.5554865484
0.4387530000 0.0000000000 0.6374700000
0.6240892581 0.0000000000 0.6832207419
0.7115618710 0.0000000000 0.6918757742
0.7401538065 0.0000000000 0.6940231613
0.0000000000 0.0331423226 0.3920622581
0.0000000000 0.0239003871 0.4269654516
0.0587690323 0.0025594839 0.5414260323
0.2432289677 0.0044495484 0.6128897097
0.4599236129 0.0324108387 0.6762340323
0.6473868387 0.1066488387 0.7130480000
0.7365483871 0.1137437742 0.7198229355
0.7660391935 0.1075471290 0.7216215161
0.0000000000 0.1770827742 0.4720991613
0.0000000000 0.1870884516 0.5125062903
0.0000000000 0.2175743871 0.6388755484
0.2459557419 0.2442240645 0.7071164516
0.5002335806 0.2809027097 0.7563820968
0.6979863548 0.3268627419 0.7787564516
0.7933400323 0.3388624839 0.7827246129
0.8255361613 0.3390386129 0.7844080968
0.0000000000 0.3341318710 0.5281271613
0.0000000000 0.3556460000 0.5675248387
0.0000000000 0.4293437742 0.7029528387
0.0725480323 0.4851280323 0.7783372581
0.5224903548 0.5284336774 0.8250564839
0.7375546129 0.5659513226 0.8435972903
0.8425326129 0.5831345806 0.8457859355
0.8787821290 0.5865124194 0.8472909032
0.0000000000 0.4564633226 0.5514498710
0.0000000000 0.4827693871 0.5862386452
0.0000000000 0.5876711290 0.7213772581
0.0000000000 0.6705183871 0.8017972903
0.4915430323 0.7324680968 0.8553419355
0.7499270323 0.7629230000 0.8807065161
0.8617847097 0.7797320000 0.8864735484
0.9013801613 0.7852191613 0.8882987097
0.0000000000 0.5124805161 0.5637329355
0.0000000000 0.5435524839 0.6001254516
0.0000000000 0.6576757742 0.7296208065
0.0000000000 0.7504430323 0.8078538065
0.4580512903 0.8241549032 0.8605482903
0.7457394194 0.8605781290 0.8896413871
0.8641269677 0.8755940323 0.8997083548
0.9055902258 0.8810635484 0.9026026129
0.0000000000 0.5363487742 0.5740712258
0.0000000000 0.5688095806 0.6109954839
0.0000000000 0.6791045806 0.7313834194
0.0000000000 0.7735257097 0.8077491290
0.4415960645 0.8508041935 0.8599694194
0.7413636774 0.8915167097 0.8898524839
0.8627504516 0.9077170968 0.9017621613
0.9053717419 0.9134582581 0.9051586452
