LUTs/SPK Cube Block1 S32/TheBrim_SPK_Type-Q_Block1_S32.cube
TITLE "TheBrim® SPK Block 1"
# © Copyright 2021 - TheBrim® d.o.o. Croatia
LUT_3D_SIZE 32
DOMAIN_MIN 0.000000 0.000000 0.000000
DOMAIN_MAX 1.000000 1.000000 1.000000
0.000000 0.000000 0.000000
0.000000 0.000000 0.000000
0.000000 0.000000 0.000000
0.002286 0.000000 0.000000
0.052671 0.000000 0.000000
0.105082 0.000000 0.000000
0.157512 0.000000 0.000000
0.210475 0.000000 0.000000
0.263574 0.000000 0.000000
0.316637 0.000000 0.000000
0.369840 0.000000 0.000000
0.422918 0.000000 0.000000
0.475721 0.000000 0.000000
0.528385 0.000000 0.000000
0.580275 0.000000 0.000000
0.632075 0.000000 0.000000
0.687039 0.000000 0.000000
0.745186 0.000000 0.000000
0.803906 0.000000 0.000000
0.863108 0.000000 0.000000
0.921778 0.000000 0.000000
0.967840 0.000000 0.000000
0.998884 0.000000 0.000000
1.000000 0.000000 0.000000
1.000000 0.000000 0.000000
1.000000 0.000000 0.000000
1.000000 0.000000 0.000000
1.000000 0.000000 0.000000
1.000000 0.000000 0.000000
1.000000 0.000000 0.000000
1.000000 0.000443 0.000000
1.000000 0.007019 0.000000
0.000000 0.000000 0.000000
0.000000 0.000000 0.000000
0.000000 0.000000 0.000000
0.000551 0.000000 0.000000
0.036370 0.000000 0.000000
0.088712 0.000000 0.000000
0.141292 0.000000 0.000000
0.193775 0.000000 0.000000
0.246471 0.000000 0.000000
0.299534 0.000000 0.000000
0.352767 0.000000 0.000000
0.405749 0.000000 0.000000
0.458563 0.000000 0.000000
0.511484 0.000000 0.000000
0.563769 0.000000 0.000000
0.615676 0.000000 0.000000
0.670800 0.000000 0.000000
0.728904 0.000000 0.000000
0.787545 0.000000 0.000000
0.848990 0.000000 0.000000
0.910722 0.000000 0.000000
0.962353 0.000000 0.000000
0.997333 0.000000 0.000000
1.000000 0.000173 0.000000
1.000000 0.000469 0.000000
1.000000 0.004096 0.000000
1.000000 0.013935 0.000000
1.000000 0.021796 0.000000
1.000000 0.028441 0.000000
1.000000 0.035053 0.000000
1.000000 0.041659 0.000000
1.000000 0.048323 0.000000
0.000000 0.000000 0.000000
0.000000 0.000000 0.000000
0.000000 0.000000 0.000000
0.000000 0.000000 0.000000
0.021974 0.000000 0.000000
0.073003 0.000000 0.000000
0.125565 0.000000 0.000000
0.178274 0.000000 0.000000
0.230639 0.000000 0.000000
0.283368 0.000000 0.000000
0.336592 0.000000 0.000000
0.389520 0.000000 0.000000
0.442144 0.000000 0.000000
0.495102 0.000000 0.000000
0.547665 0.000000 0.000000
0.599777 0.000000 0.000000
0.654930 0.000000 0.000000
0.712935 0.000000 0.000000
0.771197 0.000000 0.000000
0.832546 0.000000 0.000000
0.896797 0.000341 0.000000
0.955867 0.003417 0.000000
0.995765 0.015435 0.000000
1.000000 0.024997 0.000000
1.000000 0.034189 0.000000
1.000000 0.043502 0.000000
1.000000 0.053725 0.000000
1.000000 0.062933 0.000000
1.000000 0.069642 0.000000
1.000000 0.076255 0.000000
1.000000 0.082807 0.000000
1.000000 0.089382 0.000000
0.000000 0.000310 0.000000
0.000000 0.000109 0.000000
0.000000 0.000000 0.000000
0.000000 0.000000 0.000000
0.006205 0.000000 0.000000
0.058456 0.000000 0.000000
0.109768 0.000000 0.000000
0.162470 0.000000 0.000000
0.215130 0.000000 0.000000
0.267508 0.000000 0.000000
0.320444 0.000000 0.000000
0.373550 0.000000 0.000000
0.426183 0.000000 0.000000
0.479068 0.000000 0.000000
0.531831 0.000000 0.000000
0.584084 0.000000 0.000000
0.639581 0.000000 0.000000
0.697673 0.000620 0.000000
0.755383 0.001397 0.000000
0.815212 0.005538 0.000000
0.879173 0.022175 0.000000
0.944058 0.040318 0.000000
0.994052 0.055101 0.000000
1.000000 0.065145 0.000000
1.000000 0.074177 0.000000
1.000000 0.083710 0.000000
1.000000 0.093850 0.000000
1.000000 0.104098 0.000000
1.000000 0.110717 0.000000
1.000000 0.117321 0.000000
1.000000 0.123899 0.000000
1.000000 0.130537 0.000000
0.000000 0.029551 0.000000
0.000000 0.027505 0.000000
0.000000 0.025864 0.000000
0.000000 0.022726 0.000000
0.000626 0.020101 0.000000
0.042619 0.018530 0.000000
0.095203 0.017051 0.000000
0.146706 0.015691 0.000000
0.199222 0.014922 0.000000
0.251958 0.014294 0.000000
0.304490 0.013818 0.000000
0.357414 0.014293 0.000000
0.410221 0.015468 0.000000
0.462990 0.016361 0.000000
0.516121 0.016203 0.000000
0.568477 0.016843 0.000000
0.624327 0.020587 0.000000
0.683154 0.027922 0.000000
0.741097 0.035968 0.000000
0.799458 0.044578 0.000000
0.861389 0.058416 0.000000
0.926497 0.076398 0.000000
0.987814 0.092957 0.000000
1.000000 0.104828 0.000000
1.000000 0.114179 0.000000
1.000000 0.123749 0.000000
1.000000 0.134160 0.000000
1.000000 0.145032 0.000000
1.000000 0.151936 0.000000
1.000000 0.158578 0.000000
1.000000 0.165176 0.000000
1.000000 0.171783 0.000000
0.000000 0.077014 0.000000
0.000000 0.074877 0.000000
0.000000 0.073029 0.000000
0.000000 0.070403 0.000000
0.000000 0.067198 0.000000
0.026445 0.064377 0.000000
0.080264 0.062600 0.000000
0.133121 0.061232 0.000000
0.184816 0.060015 0.000000
0.237455 0.059246 0.000000
0.290310 0.058676 0.000000
0.342854 0.058497 0.000000
0.395431 0.059285 0.000000
0.448256 0.060387 0.000000
0.501599 0.059833 0.000000
0.554311 0.059677 0.000000
0.610247 0.063524 0.000000
0.669908 0.070362 0.000000
0.728694 0.077837 0.000000
0.786897 0.086211 0.000000
0.846402 0.096861 0.000000
0.909203 0.111813 0.000000
0.973580 0.128797 0.000000
1.000000 0.142776 0.000000
1.000000 0.153817 0.000000
1.000000 0.163424 0.000000
1.000000 0.173652 0.000000
1.000000 0.185237 0.000000
1.000000 0.192926 0.000000
1.000000 0.199448 0.000000
1.000000 0.206042 0.000000
1.000000 0.212588 0.000000
0.000000 0.124898 0.000000
0.000000 0.122558 0.000000
0.000000 0.120595 0.000000
0.000000 0.118439 0.000000
0.000000 0.114945 0.000000
0.008643 0.111526 0.000000
0.064406 0.108687 0.000000
0.118465 0.106815 0.000000
0.171455 0.105528 0.000000
0.223308 0.104390 0.000000
0.276099 0.103707 0.000000
0.329026 0.103310 0.000000
0.381334 0.103451 0.000000
0.433808 0.104319 0.000000
0.487267 0.104155 0.000000
0.540358 0.103277 0.000000
0.596426 0.106404 0.000000
0.656198 0.113252 0.000000
0.715607 0.120305 0.000000
0.774406 0.127934 0.000000
0.833696 0.138131 0.000000
0.894183 0.150199 0.000000
0.956704 0.164614 0.000000
0.999480 0.179161 0.000000
1.000000 0.191889 0.000000
1.000000 0.203071 0.000000
1.000000 0.213334 0.000000
1.000000 0.225001 0.000000
1.000000 0.233638 0.000000
1.000000 0.240282 0.000000
1.000000 0.246835 0.000000
1.000000 0.253402 0.000000
0.000000 0.173524 0.000000
0.000000 0.170788 0.000000
0.000000 0.168533 0.000000
0.000000 0.166693 0.000000
0.000000 0.163682 0.000000
0.000000 0.159430 0.000000
0.046517 0.155955 0.000000
0.102666 0.152950 0.000000
0.156649 0.151023 0.000000
0.209764 0.149845 0.000000
0.261869 0.148850 0.000000
0.314714 0.148167 0.000000
0.367422 0.148157 0.000000
0.419581 0.148413 0.000000
0.472420 0.148450 0.000000
0.525893 0.147487 0.000000
0.582258 0.149931 0.000000
0.642052 0.156229 0.000000
0.701634 0.163180 0.000000
0.760931 0.170368 0.000000
0.820388 0.179609 0.000000
0.880823 0.191352 0.000000
0.942107 0.203694 0.000000
0.995787 0.217636 0.000000
1.000000 0.230659 0.000000
1.000000 0.242860 0.000000
1.000000 0.253586 0.000000
1.000000 0.264729 0.000000
1.000000 0.274310 0.000000
1.000000 0.281077 0.000000
1.000000 0.287682 0.000000
1.000000 0.294286 0.000000
0.000000 0.221319 0.000000
0.000000 0.218421 0.000000
0.000000 0.215721 0.000000
0.000000 0.213593 0.000000
0.000000 0.211051 0.000000
0.000000 0.208006 0.000000
0.021122 0.203342 0.000000
0.084811 0.200039 0.000000
0.140694 0.197116 0.000000
0.194800 0.195405 0.000000
0.247964 0.194435 0.000000
0.300297 0.193314 0.000000
0.353326 0.192458 0.000000
0.405942 0.192592 0.000000
0.458259 0.192590 0.000000
0.511416 0.191360 0.000000
0.568102 0.193677 0.000000
0.628144 0.199340 0.000000
0.687767 0.205951 0.000000
0.747369 0.212924 0.000000
0.806856 0.221088 0.000000
0.867145 0.232054 0.000000
0.928251 0.244167 0.000000
0.990723 0.257532 0.000000
1.000000 0.270912 0.000000
1.000000 0.283283 0.000000
1.000000 0.294716 0.000000
1.000000 0.305091 0.000000
1.000000 0.314703 0.000000
1.000000 0.321993 0.000000
1.000000 0.328614 0.000000
1.000000 0.335220 0.000000
0.000000 0.268610 0.000000
0.000000 0.265322 0.000000
0.000000 0.262580 0.000000
0.000000 0.260110 0.000000
0.000000 0.257769 0.000000
0.000000 0.254743 0.000000
0.001040 0.251856 0.000000
0.059682 0.247280 0.000000
0.122719 0.243968 0.000000
0.178738 0.241299 0.000000
0.232904 0.239704 0.000000
0.286213 0.238906 0.000000
0.339116 0.237230 0.000000
0.392407 0.236064 0.000000
0.445075 0.236159 0.000000
0.497862 0.234841 0.000000
0.554202 0.236915 0.000000
0.614582 0.242404 0.000000
0.674184 0.248618 0.000000
0.733704 0.255355 0.000000
0.793223 0.263020 0.000000
0.853485 0.273060 0.000000
0.914365 0.284501 0.000000
0.977065 0.297669 0.000000
1.000000 0.311394 0.000000
1.000000 0.324115 0.000000
1.000000 0.336173 0.000000
1.000000 0.345930 0.000000
1.000000 0.355242 0.000000
1.000000 0.362993 0.000000
1.000000 0.369692 0.000000
1.000000 0.376372 0.000000
0.000000 0.318549 0.000000
0.000000 0.313114 0.000000
0.000000 0.309659 0.000000
0.000000 0.307167 0.000000
0.000000 0.305072 0.000000
0.000000 0.301872 0.000000
0.000189 0.298957 0.000000
0.024595 0.296658 0.000000
0.098248 0.291874 0.000000
0.160365 0.288849 0.000000
0.216610 0.286388 0.000000
0.270824 0.284531 0.000000
0.324465 0.283373 0.000000
0.378384 0.280184 0.000000
0.431786 0.279099 0.000000
0.484794 0.278427 0.000000
0.540777 0.280084 0.000000
0.600898 0.285361 0.000000
0.660808 0.291413 0.000000
0.720190 0.297952 0.000000
0.779447 0.304992 0.000000
0.839645 0.314629 0.000000
0.900467 0.325516 0.000000
0.962744 0.337836 0.000000
1.000000 0.351584 0.000000
1.000000 0.364474 0.000000
1.000000 0.377022 0.000000
1.000000 0.386937 0.000000
1.000000 0.396128 0.000000
1.000000 0.404268 0.000000
1.000000 0.410897 0.000000
1.000000 0.417555 0.000000
0.000000 0.372120 0.000000
0.000000 0.365860 0.000000
0.000000 0.359058 0.000000
0.000000 0.355458 0.000000
0.000000 0.353189 0.000000
0.000000 0.350109 0.000000
0.000000 0.346781 0.000000
0.019302 0.344130 0.000000
0.062351 0.341813 0.000000
0.136477 0.336715 0.000000
0.198262 0.333954 0.000000
0.254473 0.331286 0.000000
0.308780 0.329419 0.000000
0.363373 0.326878 0.000000
0.417639 0.323291 0.000000
0.471088 0.321996 0.000000
0.527510 0.323739 0.000000
0.587178 0.328676 0.000000
0.647203 0.334330 0.000000
0.706825 0.340887 0.000000
0.765871 0.347449 0.000000
0.825670 0.356146 0.000000
0.886603 0.366778 0.000000
0.948495 0.378232 0.000000
0.997747 0.391196 0.000000
1.000000 0.404106 0.000000
1.000000 0.416687 0.000000
1.000000 0.427319 0.000000
1.000000 0.436693 0.000000
1.000000 0.445314 0.000000
1.000000 0.452006 0.000000
1.000000 0.458611 0.000000
0.000000 0.425103 0.000000
0.000000 0.418974 0.000000
0.000000 0.411682 0.000000
0.000000 0.404249 0.000000
0.000000 0.400375 0.000000
0.000000 0.397499 0.000000
0.000000 0.393925 0.000000
0.015358 0.390721 0.000000
0.050406 0.389307 0.000000
0.104228 0.385747 0.000000
0.175332 0.381267 0.000000
0.236377 0.378351 0.000000
0.292461 0.375611 0.000000
0.347309 0.373287 0.000000
0.402773 0.369516 0.000000
0.456994 0.366143 0.000000
0.513740 0.367539 0.000000
0.573803 0.372402 0.000000
0.633606 0.377678 0.000000
0.693397 0.384272 0.000000
0.752762 0.390990 0.000000
0.812005 0.398440 0.000000
0.872413 0.407890 0.000000
0.934197 0.419072 0.000000
0.994441 0.431077 0.000000
1.000000 0.443146 0.000000
1.000000 0.455723 0.000000
1.000000 0.467228 0.000000
1.000000 0.476752 0.000000
1.000000 0.486157 0.000000
1.000000 0.492899 0.000000
1.000000 0.499523 0.000000
0.000000 0.474810 0.000000
0.000000 0.470476 0.000000
0.000000 0.463639 0.000000
0.000000 0.456038 0.000000
0.000000 0.447993 0.000000
0.000000 0.442964 0.000000
0.000000 0.439424 0.000000
0.012397 0.436026 0.000000
0.046705 0.434775 0.000000
0.081715 0.433158 0.000000
0.145344 0.428876 0.000000
0.214545 0.424811 0.000000
0.274911 0.421461 0.000000
0.331313 0.418585 0.000000
0.387094 0.414898 0.000000
0.442566 0.411246 0.000000
0.499592 0.411880 0.000000
0.559763 0.416391 0.000000
0.620091 0.421355 0.000000
0.679741 0.428197 0.000000
0.739324 0.435240 0.000000
0.798590 0.442409 0.000000
0.858371 0.450310 0.000000
0.919543 0.460155 0.000000
0.982461 0.472027 0.000000
1.000000 0.483292 0.000000
1.000000 0.494766 0.000000
1.000000 0.506508 0.000000
1.000000 0.516486 0.000000
1.000000 0.526519 0.000000
1.000000 0.533548 0.000000
1.000000 0.540090 0.000000
0.000000 0.521746 0.000000
0.000000 0.518490 0.000000
0.000000 0.513948 0.000000
0.000000 0.506479 0.000000
0.000000 0.498316 0.000000
0.000000 0.489608 0.000000
0.000000 0.484941 0.000000
0.009586 0.481703 0.000000
0.043828 0.480313 0.000000
0.078137 0.479244 0.000000
0.112934 0.477460 0.000000
0.185466 0.472913 0.000000
0.253992 0.467427 0.000000
0.314068 0.463875 0.000000
0.370956 0.460521 0.000000
0.426959 0.456417 0.000000
0.485293 0.456836 0.000000
0.545451 0.460905 0.000000
0.605928 0.465397 0.000000
0.666064 0.471612 0.000000
0.725602 0.479160 0.000000
0.784997 0.486497 0.000000
0.844730 0.494196 0.000000
0.905194 0.502214 0.000000
0.967610 0.512904 0.000000
1.000000 0.524135 0.000000
1.000000 0.534567 0.000000
1.000000 0.545240 0.000000
1.000000 0.555734 0.000000
1.000000 0.565941 0.000000
1.000000 0.573456 0.000000
1.000000 0.579937 0.000000
0.000000 0.563935 0.000000
0.000000 0.560826 0.000000
0.000000 0.557176 0.000000
0.000000 0.552035 0.000000
0.000000 0.544282 0.000000
0.000000 0.535469 0.000000
0.000000 0.529154 0.000000
0.006960 0.527573 0.000000
0.040922 0.526177 0.000000
0.075211 0.525391 0.000000
0.109478 0.523760 0.000000
0.144134 0.521842 0.000000
0.225080 0.516530 0.000000
0.293516 0.509810 0.000000
0.353450 0.506289 0.000000
0.410792 0.501990 0.000000
0.469747 0.501681 0.000000
0.530890 0.506020 0.000000
0.591447 0.509710 0.000000
0.651899 0.514868 0.000000
0.712044 0.522194 0.000000
0.771435 0.529699 0.000000
0.831169 0.537095 0.000000
0.891709 0.544588 0.000000
0.952975 0.552960 0.000000
0.998795 0.563292 0.000000
1.000000 0.573500 0.000000
1.000000 0.583800 0.000000
1.000000 0.594054 0.000000
1.000000 0.604940 0.000000
1.000000 0.613032 0.000340
1.000000 0.619421 0.003797
0.000000 0.610584 0.000000
0.000000 0.605268 0.000000
0.000000 0.601773 0.000000
0.000000 0.597788 0.000000
0.000000 0.592941 0.000000
0.000000 0.586079 0.000000
0.000000 0.577673 0.000000
0.007950 0.575888 0.000000
0.040808 0.574956 0.000000
0.074795 0.574258 0.000000
0.109079 0.572911 0.000000
0.143360 0.570996 0.000000
0.185716 0.568325 0.000000
0.270284 0.560829 0.000000
0.336609 0.554804 0.000000
0.396683 0.550861 0.000000
0.453881 0.546527 0.000000
0.515725 0.550036 0.000000
0.577241 0.553831 0.000000
0.637829 0.558340 0.000000
0.698257 0.564693 0.000000
0.758182 0.572298 0.000000
0.817496 0.579199 0.000000
0.877925 0.585992 0.000000
0.939173 0.593830 0.000000
0.995954 0.602268 0.000000
1.000000 0.611826 0.000000
1.000000 0.621853 0.000000
1.000000 0.631951 0.000000
1.000000 0.643475 0.000000
1.000000 0.652037 0.006879
1.000000 0.658429 0.012014
0.000000 0.664017 0.000000
0.000000 0.655640 0.000000
0.000000 0.649644 0.000000
0.000000 0.645670 0.000000
0.000000 0.641620 0.000000
0.000000 0.637872 0.000000
0.000000 0.631888 0.000000
0.011509 0.627793 0.000000
0.044362 0.626782 0.000000
0.077403 0.625952 0.000000
0.111219 0.624917 0.000000
0.145521 0.623206 0.000000
0.180372 0.620884 0.000000
0.239298 0.615995 0.000000
0.318297 0.608164 0.000000
0.383132 0.603356 0.000000
0.443268 0.598175 0.000000
0.499983 0.594368 0.000000
0.561162 0.599417 0.000000
0.622760 0.603718 0.000000
0.683364 0.609022 0.000000
0.743902 0.615210 0.000000
0.803611 0.622485 0.000000
0.863699 0.627894 0.000000
0.924966 0.634586 0.000000
0.985668 0.642826 0.000000
1.000000 0.650829 0.000000
1.000000 0.659813 0.000000
1.000000 0.669806 0.000000
1.000000 0.681357 0.002405
1.000000 0.690868 0.014222
1.000000 0.697303 0.018777
0.000000 0.718920 0.010141
0.000000 0.709708 0.009599
0.000000 0.700671 0.008936
0.000000 0.694061 0.007775
0.000000 0.689861 0.006458
0.000000 0.686838 0.004670
0.000000 0.683340 0.003373
0.015301 0.679203 0.001746
0.048332 0.677600 0.000000
0.081514 0.676371 0.000000
0.114637 0.675404 0.000000
0.147728 0.676309 0.000000
0.182536 0.674236 0.000000
0.217805 0.671806 0.000000
0.289609 0.664352 0.000000
0.365149 0.658184 0.000000
0.429845 0.650958 0.000000
0.489533 0.645817 0.000000
0.545344 0.643754 0.000000
0.606302 0.649986 0.000000
0.667498 0.655585 0.000000
0.728800 0.659782 0.000000
0.789190 0.665596 0.000000
0.849553 0.671709 0.000000
0.910459 0.675990 0.000000
0.971553 0.683207 0.000000
1.000000 0.691233 0.000000
1.000000 0.698994 0.000000
1.000000 0.707994 0.000000
1.000000 0.718787 0.007071
1.000000 0.729717 0.020049
1.000000 0.736095 0.024412
0.000000 0.773543 0.026329
0.000000 0.764857 0.025901
0.000000 0.755430 0.025308
0.000000 0.746821 0.024382
0.000000 0.741318 0.022959
0.000000 0.738578 0.021265
0.000136 0.735612 0.019199
0.019327 0.732468 0.016704
0.052014 0.730529 0.013204
0.085072 0.729243 0.008998
0.118321 0.727920 0.004536
0.151079 0.728616 0.001349
0.184890 0.728191 0.000000
0.220051 0.726008 0.000000
0.255377 0.723370 0.000000
0.337862 0.714670 0.000000
0.412372 0.708196 0.000000
0.476532 0.699387 0.000000
0.535317 0.695467 0.000000
0.589770 0.696386 0.000000
0.651468 0.701514 0.000000
0.713380 0.706141 0.000000
0.774618 0.709983 0.000000
0.835188 0.715563 0.000000
0.896398 0.720104 0.000000
0.957182 0.724511 0.000000
0.999468 0.731701 0.000000
1.000000 0.739451 0.000000
1.000000 0.747645 0.003268
1.000000 0.757221 0.012227
1.000000 0.768558 0.025650
1.000000 0.774989 0.029826
0.000000 0.819924 0.041761
0.000000 0.818103 0.041801
0.000000 0.811268 0.041383
0.000000 0.802484 0.040492
0.000000 0.796068 0.039182
0.000000 0.793742 0.037493
0.000898 0.791082 0.035545
0.023484 0.788119 0.033159
0.055736 0.786526 0.030160
0.088124 0.785593 0.026445
0.120985 0.784478 0.022199
0.154206 0.783495 0.017482
0.187969 0.782664 0.013147
0.222475 0.780841 0.009193
0.257784 0.778347 0.004918
0.297988 0.774594 0.001491
0.387133 0.765870 0.000000
0.460512 0.756905 0.000000
0.522161 0.751086 0.000000
0.579724 0.749466 0.000000
0.635119 0.748275 0.000000
0.697414 0.752375 0.000000
0.759705 0.755945 0.000000
0.820716 0.760050 0.000000
0.882036 0.764493 0.000000
0.943355 0.768518 0.000000
0.997204 0.773464 0.001595
1.000000 0.780499 0.005381
1.000000 0.788509 0.011167
1.000000 0.797682 0.018734
1.000000 0.807750 0.031003
1.000000 0.814564 0.035753
0.000000 0.858263 0.055612
0.000000 0.858222 0.056231
0.000000 0.858182 0.056866
0.000000 0.856486 0.056592
0.000000 0.851995 0.055349
0.000000 0.849416 0.053741
0.001630 0.847426 0.051831
0.027364 0.844855 0.049586
0.059715 0.843517 0.046941
0.091773 0.842817 0.043511
0.124023 0.842104 0.039624
0.156794 0.840993 0.035307
0.190834 0.838861 0.031326
0.225517 0.836131 0.027791
0.260408 0.833450 0.024175
0.295609 0.830450 0.019687
0.351989 0.824754 0.014335
0.437953 0.816408 0.009608
0.506933 0.808620 0.004708
0.567562 0.803843 0.000780
0.624880 0.802509 0.000000
0.681229 0.798981 0.000000
0.743936 0.802126 0.000000
0.805894 0.805975 0.000000
0.867322 0.809713 0.001054
0.929063 0.813479 0.004454
0.988921 0.818050 0.009726
1.000000 0.823401 0.014371
1.000000 0.830174 0.019327
1.000000 0.838695 0.026144
1.000000 0.848458 0.037170
1.000000 0.855469 0.042941
0.000000 0.896574 0.060376
0.000000 0.896531 0.061176
0.000000 0.896529 0.062147
0.000000 0.896495 0.062995
0.000000 0.896439 0.063185
0.000000 0.896381 0.062894
0.002315 0.896314 0.062674
0.031066 0.895895 0.062384
0.063364 0.895441 0.061917
0.095477 0.895187 0.059993
0.127547 0.894948 0.056349
0.159793 0.894658 0.052429
0.193141 0.894111 0.048614
0.227832 0.892730 0.045221
0.262905 0.889385 0.041990
0.298089 0.885869 0.038499
0.333554 0.882590 0.034286
0.406460 0.875155 0.029045
0.486718 0.866911 0.023848
0.552873 0.860907 0.017655
0.612908 0.856743 0.011914
0.671358 0.852859 0.007814
0.727804 0.848976 0.004267
0.790467 0.852138 0.007324
0.852626 0.856025 0.011189
0.914523 0.859502 0.014448
0.975499 0.863730 0.018907
1.000000 0.869002 0.023719
1.000000 0.874508 0.028505
1.000000 0.879372 0.035046
1.000000 0.889095 0.044893
1.000000 0.896247 0.051577
0.000000 0.934943 0.059219
0.000000 0.934882 0.060556
0.000000 0.934874 0.061577
0.000000 0.934874 0.062567
0.000000 0.934828 0.063555
0.000000 0.934750 0.064381
0.002888 0.934685 0.064771
0.034170 0.934601 0.065204
0.066101 0.934538 0.065592
0.097973 0.934443 0.065750
0.130066 0.934349 0.064926
0.162334 0.934223 0.064031
0.195326 0.934107 0.063053
0.229334 0.933987 0.060854
0.264163 0.933854 0.057644
0.299356 0.933716 0.054335
0.334718 0.933402 0.050813
0.370477 0.932468 0.046798
0.455321 0.926092 0.041871
0.533785 0.918080 0.036951
0.598674 0.912306 0.030924
0.659517 0.907484 0.026906
0.717700 0.903549 0.022954
0.774462 0.899531 0.019180
0.837386 0.902957 0.023047
0.900041 0.906621 0.026366
0.961971 0.910171 0.029152
1.000000 0.914995 0.033400
1.000000 0.920458 0.038417
1.000000 0.924970 0.044449
1.000000 0.930758 0.053503
1.000000 0.937343 0.060527
0.000000 0.973280 0.057398
0.000000 0.973278 0.058992
0.000000 0.973233 0.060596
0.000000 0.973195 0.061743
0.000000 0.973188 0.062745
0.000000 0.973116 0.063806
0.004938 0.973030 0.064863
0.037487 0.972978 0.065397
0.069442 0.972898 0.065786
0.101059 0.972791 0.066183
0.132897 0.972701 0.066484
0.165098 0.972593 0.066576
0.198128 0.972475 0.066980
0.231527 0.972339 0.067629
0.265622 0.972232 0.067829
0.300455 0.972106 0.068070
0.335857 0.971967 0.066164
0.371426 0.971829 0.062771
0.407129 0.971701 0.058760
0.502418 0.971581 0.054589
0.580307 0.969703 0.049829
0.645281 0.963984 0.045429
0.705921 0.958868 0.041830
0.764112 0.954848 0.038028
0.821234 0.950891 0.034864
0.884496 0.954381 0.038754
0.947602 0.958005 0.041396
0.998452 0.962134 0.044091
1.000000 0.967324 0.048097
1.000000 0.972136 0.054015
1.000000 0.975040 0.062401
1.000000 0.979925 0.069315
0.000000 0.999303 0.055322
0.000000 0.999291 0.056975
0.000000 0.999291 0.058824
0.000000 0.999291 0.060491
0.000000 0.999285 0.061834
0.000000 0.999273 0.062932
0.008434 0.999256 0.064142
0.041068 0.999250 0.065334
0.073017 0.999232 0.065962
0.104659 0.999214 0.066363
0.136383 0.999197 0.066755
0.168239 0.999179 0.067150
0.201123 0.999161 0.067686
0.234537 0.999132 0.068604
0.268058 0.999108 0.069673
0.302042 0.999090 0.070804
0.336928 0.999061 0.071979
0.372541 0.999037 0.072444
0.408112 0.999008 0.072803
0.461375 0.998990 0.071049
0.553395 0.998966 0.067725
0.627108 0.998937 0.063734
0.691793 0.998913 0.060287
0.751934 0.998228 0.056783
0.810666 0.997407 0.053824
0.868146 0.996645 0.050986
0.932073 0.997342 0.054205
0.992462 0.998130 0.056508
1.000000 0.999087 0.059274
1.000000 0.999935 0.063613
1.000000 1.000000 0.071244
1.000000 1.000000 0.079104
0.000000 1.000000 0.051268
0.000000 1.000000 0.053002
0.000000 1.000000 0.054858
0.000000 1.000000 0.056712
0.000000 1.000000 0.058383
0.000000 1.000000 0.059873
0.009992 1.000000 0.061154
0.042633 1.000000 0.062382
0.074942 1.000000 0.063534
0.106988 1.000000 0.064450
0.138689 1.000000 0.064842
0.170530 1.000000 0.065294
0.203053 1.000000 0.066229
0.236274 1.000000 0.067320
0.269802 1.000000 0.068482
0.303520 1.000000 0.069687
0.337778 1.000000 0.071167
0.373011 1.000000 0.072728
0.408537 1.000000 0.074056
0.444204 1.000000 0.075354
0.516150 1.000000 0.077331
0.602466 1.000000 0.078278
0.674153 1.000000 0.077289
0.737862 1.000000 0.074158
0.797993 1.000000 0.071175
0.857062 1.000000 0.068543
0.915193 1.000000 0.065800
0.977944 1.000000 0.068681
1.000000 1.000000 0.071323
1.000000 1.000000 0.074835
1.000000 1.000000 0.081024
1.000000 1.000000 0.089354
0.000000 1.000000 0.045259
0.000000 1.000000 0.047114
0.000000 1.000000 0.049064
0.000000 1.000000 0.050921
0.000000 1.000000 0.052731
0.000000 1.000000 0.054490
0.010123 1.000000 0.056216
0.042951 1.000000 0.057587
0.075305 1.000000 0.058777
0.107775 1.000000 0.060187
0.140306 1.000000 0.061466
0.172249 1.000000 0.062046
0.204773 1.000000 0.063034
0.237906 1.000000 0.064529
0.271342 1.000000 0.066012
0.305028 1.000000 0.067373
0.339189 1.000000 0.068956
0.373962 1.000000 0.071024
