LUTs/SPK Cube Block1 S32/TheBrim_SPK_Type-W_Block1_S32.cube
TITLE "TheBrim® Industrial Imaging Burau"
# © Copyright 2022 - TheBrim® d.o.o. Croatia
LUT_3D_SIZE 5
DOMAIN_MIN 0.000000 0.000000 0.000000
DOMAIN_MAX 0.903226 0.903226 0.903226
0.038086 0.065277 0.119720
0.077709 0.065649 0.118435
0.402543 0.063171 0.118164
0.564298 0.063171 0.118164
0.586875 0.063171 0.118164
0.036133 0.103400 0.119034
0.078931 0.099173 0.118188
0.371334 0.098584 0.118164
0.621675 0.067285 0.118164
0.658735 0.063405 0.118164
0.036133 0.303022 0.118164
0.093546 0.329445 0.118164
0.472710 0.346861 0.118164
0.720017 0.314075 0.118164
0.780893 0.260101 0.118164
0.036133 0.431517 0.118164
0.126889 0.539640 0.118164
0.570062 0.615536 0.118164
0.812038 0.641542 0.118164
0.906511 0.624453 0.118164
0.036133 0.454892 0.118164
0.174836 0.582976 0.118164
0.591022 0.662684 0.118164
0.831638 0.710641 0.118164
0.945260 0.720847 0.118164
0.036133 0.064160 0.186261
0.075116 0.065820 0.157382
0.440673 0.063171 0.140560
0.598521 0.063171 0.120153
0.614138 0.063171 0.118164
0.036133 0.115435 0.180688
0.067856 0.102384 0.153251
0.348513 0.102276 0.141938
0.635087 0.070332 0.122072
0.685689 0.063523 0.118164
0.036133 0.362210 0.192726
0.051356 0.317617 0.162624
0.438648 0.357130 0.141937
0.718077 0.327295 0.119086
0.800890 0.270977 0.118164
0.036133 0.513363 0.209974
0.038717 0.589161 0.179489
0.529576 0.648306 0.126470
0.802731 0.666903 0.118164
0.914583 0.644436 0.118164
0.036133 0.555549 0.219481
0.113872 0.653707 0.235314
0.574439 0.719399 0.237891
0.824630 0.757911 0.169646
0.944742 0.764025 0.120121
0.036133 0.063171 0.339402
0.067026 0.063171 0.367744
0.404733 0.063171 0.375226
0.623792 0.063171 0.283210
0.641367 0.063171 0.194725
0.036133 0.122764 0.415917
0.047404 0.111198 0.355069
0.338146 0.111359 0.336753
0.647537 0.079539 0.296602
0.710088 0.064999 0.233008
0.036133 0.415367 0.479993
0.036133 0.372915 0.411527
0.403658 0.405271 0.398087
0.718081 0.380147 0.360236
0.816018 0.326208 0.289019
0.036133 0.559975 0.489686
0.036133 0.630785 0.462260
0.471345 0.688264 0.446444
0.784975 0.707477 0.403024
0.909106 0.686298 0.332610
0.036133 0.615698 0.500080
0.039035 0.700155 0.527772
0.553935 0.761580 0.537208
0.810618 0.800532 0.508269
0.931233 0.804722 0.425633
0.036133 0.063171 0.391195
0.056564 0.063171 0.430819
0.265825 0.063171 0.483561
0.614534 0.063171 0.486739
0.657753 0.063171 0.439126
0.036133 0.125401 0.513177
0.036229 0.121243 0.533384
0.307387 0.118784 0.555018
0.647155 0.087560 0.552543
0.726435 0.065809 0.524707
0.036133 0.406069 0.590903
0.036133 0.410141 0.602463
0.361932 0.445739 0.619661
0.714295 0.430062 0.615962
0.821601 0.381645 0.590600
0.036133 0.574843 0.613016
0.036133 0.653496 0.639478
0.406142 0.714086 0.652604
0.764833 0.737012 0.649990
0.896734 0.720019 0.628665
0.036133 0.641172 0.632056
0.036133 0.722034 0.659291
0.528631 0.785809 0.673150
0.794103 0.826564 0.671582
0.913750 0.835078 0.652219
0.036133 0.063171 0.408605
0.058283 0.063171 0.454533
0.203932 0.063171 0.504556
0.575879 0.063171 0.525045
0.661372 0.063171 0.509889
0.036133 0.118619 0.524997
0.036147 0.131992 0.565041
0.273215 0.140186 0.598644
0.642242 0.114738 0.612340
0.736031 0.068285 0.605887
0.036133 0.380102 0.609716
0.036133 0.436772 0.644098
0.310162 0.484779 0.671680
0.709974 0.483782 0.683351
0.826775 0.431624 0.678925
0.036133 0.582936 0.647782
0.036133 0.658846 0.686841
0.348120 0.722624 0.714200
0.752332 0.755293 0.726356
0.889670 0.742053 0.724700
0.036133 0.643173 0.670168
0.036133 0.724230 0.705162
0.499854 0.792437 0.725186
0.782296 0.833647 0.732844
0.905728 0.845488 0.733275
