LUTs/SPK Cube Block1 S32/TheBrim_SPK_Type-C_Block1_S32.cube
TITLE "TheBrim® SPK Block 1"
# TheBrim® d.o.o. Croatia
# Copyright: (C) Copyright 2020 TheBrim® d.o.o. Croatia
LUT_3D_SIZE 5
DOMAIN_MIN 0.000000 0.000000 0.000000
DOMAIN_MAX 0.903226 0.903226 0.903226
0.0000000000 0.0000000000 0.0000000000
0.0076346452 0.0000000000 0.0000000000
0.1542369032 0.0000000000 0.0000000000
0.5457791290 0.0004073226 0.0004073226
0.8395796452 0.0013370968 0.0013370968
0.0000000000 0.0126136774 0.0000000000
0.0198953226 0.0198953226 0.0003773226
0.2464325161 0.0310390323 0.0013060968
0.6488182581 0.0495457742 0.0022561935
0.8790483226 0.0743705161 0.0035599677
0.0012760968 0.2447945161 0.0012760968
0.0488191290 0.2973801935 0.0022358710
0.3541289355 0.3541289355 0.0035087419
0.7350845161 0.4132401935 0.0064362258
0.9070229032 0.4721924839 0.0111291613
0.0034409677 0.6920806129 0.0034409677
0.1038641935 0.7337902903 0.0063004516
0.4702021613 0.7709695806 0.0109558387
0.8035696129 0.8035696129 0.0174530645
0.9259544194 0.8315408065 0.0270876452
0.0107931613 0.9062535484 0.0107931613
0.1828261290 0.9164753548 0.0171948387
0.5818883548 0.9256768710 0.0267075484
0.8541271935 0.9339410645 0.0426635806
0.9410815806 0.9410815806 0.0657091290
0.0000000000 0.0000000000 0.0052413548
0.0093010645 0.0000000000 0.0093010645
0.1702161613 0.0000750000 0.0152638710
0.5663168710 0.0007193226 0.0234312258
0.8479870645 0.0016790968 0.0376481613
0.0000680000 0.0150568710 0.0150568710
0.0230514516 0.0230514516 0.0230514516
0.2653091935 0.0372394516 0.0372394516
0.6662309677 0.0577031935 0.0577031935
0.8850066129 0.0854970968 0.0854970968
0.0016180968 0.2636050000 0.0365797097
0.0569968710 0.3176163226 0.0569968710
0.3756930323 0.3756930323 0.0844824516
0.7492322258 0.4350090323 0.1180016774
0.9108544516 0.4934120000 0.1578781935
0.0042971613 0.7078746129 0.0833890323
0.1167717097 0.7480044516 0.1167717097
0.4915026774 0.7834028065 0.1564398710
0.8144934516 0.8144934516 0.2014406452
0.9290653548 0.8404836129 0.2506705806
0.0129256774 0.9101738710 0.1549564516
0.1999137742 0.9199591613 0.1999137742
0.6014582258 0.9287839032 0.2489837097
0.8617202258 0.9367870968 0.3017610968
0.9430813548 0.9430813548 0.3589085806
0.0000000000 0.0000000000 0.1054670968
0.0113102581 0.0000000000 0.1432909032
0.1866512258 0.0001805484 0.1866512258
0.5863805806 0.0010693226 0.2348582581
0.8560366129 0.0020526452 0.2862403226
0.0001495484 0.0175748387 0.1851184516
0.0276804516 0.0276804516 0.2332372581
0.2844806452 0.0437151935 0.2844806452
0.6829883548 0.0673117097 0.3406263871
0.8907569032 0.0969168387 0.3993700000
0.0019916452 0.2826727742 0.2826727742
0.0664393871 0.3386903871 0.3386903871
0.3973991290 0.3973991290 0.3973991290
0.7625397419 0.4565141935 0.4565141935
0.9145605484 0.5145625161 0.5145625161
0.0053314839 0.7233532903 0.3954310323
0.1307146129 0.7613465161 0.4545946452
0.5126370645 0.7955638387 0.5126370645
0.8244024839 0.8244024839 0.5689963548
0.9321041613 0.8491280968 0.6220929032
0.0152860000 0.9139170000 0.5107590645
0.2175823548 0.9232805161 0.5672062258
0.6204565484 0.9318433871 0.6204565484
0.8686552581 0.9393192903 0.6684854194
0.9449079355 0.9449079355 0.7129878387
0.0000000000 0.0000000000 0.4359936774
0.0134652258 0.0000210000 0.4943758710
0.2039330323 0.0005058710 0.5513875806
0.6058951935 0.0014353226 0.6058951935
0.8633813871 0.0023644194 0.6552261613
0.0004755484 0.0207066452 0.5495193548
0.0325848710 0.0325848710 0.6042378387
0.3047160000 0.0517795161 0.6536048387
0.6993899677 0.0772548710 0.6993899677
0.8960282581 0.1097384516 0.7402836774
0.0023034194 0.3028730323 0.6520187097
0.0763069032 0.3599261290 0.6979111935
0.4191952903 0.4191952903 0.7389476774
0.7756163871 0.4780184839 0.7756163871
0.9180477097 0.5353788065 0.8076113226
0.0067105484 0.7376490000 0.7376490000
0.1451966774 0.7744950323 0.7744950323
0.5334927097 0.8065567742 0.8065567742
0.8341284194 0.8341284194 0.8341284194
0.9349636452 0.8568492581 0.8568492581
0.0179646129 0.9174108065 0.8056883871
0.2356411613 0.9265580968 0.8332815161
0.6384101290 0.9347099677 0.8561894516
0.8752963871 0.9417309355 0.8752963871
0.9465151935 0.9465151935 0.8913816129
0.0000000000 0.0000000000 0.7633119355
0.0159319677 0.0000920000 0.7971849355
0.2216964516 0.0008176452 0.8259639032
0.6245688387 0.0017783226 0.8502761290
0.8702684839 0.0027622903 0.8702684839
0.0007875484 0.0242360000 0.8251080000
0.0389711935 0.0389711935 0.8495205484
0.3251943871 0.0602425806 0.8697006774
0.7149518710 0.0885887419 0.8866054194
0.9009693548 0.1228838065 0.9009693548
0.0026736452 0.3233152903 0.8691217742
0.0875501935 0.3816116774 0.8860737419
0.4408974516 0.4408974516 0.9005804516
0.7878318387 0.4991530968 0.9118721613
0.9214811613 0.5561039032 0.9214811613
0.0082170968 0.7517247742 0.9001436774
0.1607588387 0.7867273871 0.9115372581
0.5542769032 0.8173324839 0.9211759355
0.8428100000 0.8428100000 0.9299020323
0.9377631290 0.8643769677 0.9377631290
0.0207838387 0.9208986129 0.9208986129
0.2540487742 0.9296278065 0.9296278065
0.6560669355 0.9375434516 0.9375434516
0.8814045806 0.9435918387 0.9435918387
0.9480864516 0.9480864516 0.9480864516
