LUTs/SPK Cube Block1 S32/TheBrim_SPK_Type-O_Block1_S32.cube
TITLE "TheBrim® SPK Block 1"
# © Copyright 2021 - TheBrim® d.o.o. Croatia
LUT_3D_SIZE 5
DOMAIN_MIN 0.000000 0.000000 0.000000
DOMAIN_MAX 0.903226 0.903226 0.903226
0.001770 0.000977 0.001221
0.016400 0.005464 0.004917
0.249029 0.000000 0.000000
0.545574 0.000000 0.000000
0.623581 0.000000 0.000000
0.001701 0.041741 0.022395
0.031704 0.046203 0.016645
0.296960 0.066783 0.000050
0.593806 0.000000 0.000000
0.671610 0.000000 0.000000
0.000000 0.295720 0.217369
0.000000 0.289058 0.179323
0.384541 0.354130 0.096899
0.750106 0.358037 0.000000
0.832416 0.314578 0.000000
0.000000 0.503739 0.393932
0.000000 0.517168 0.372223
0.301568 0.668469 0.310544
0.851234 0.735330 0.023951
0.973910 0.702268 0.000000
0.000000 0.606201 0.380522
0.000000 0.647776 0.373371
0.490692 0.745920 0.325636
0.861814 0.809182 0.168152
0.998691 0.813703 0.000000
0.004265 0.006417 0.026950
0.018901 0.006260 0.022039
0.265787 0.000000 0.021786
0.558420 0.000000 0.002782
0.631730 0.000000 0.000000
0.000000 0.058254 0.079452
0.023480 0.052186 0.056772
0.309701 0.066007 0.042717
0.603109 0.000000 0.009835
0.673013 0.000000 0.000000
0.000000 0.295250 0.222694
0.000000 0.290546 0.189987
0.390821 0.358140 0.143790
0.754332 0.359722 0.033890
0.835713 0.314215 0.000000
0.000000 0.504153 0.394892
0.000000 0.515763 0.372038
0.303403 0.667118 0.309862
0.853109 0.736049 0.077400
0.974815 0.720944 0.000000
0.000000 0.615609 0.379300
0.000000 0.656426 0.371301
0.511362 0.749960 0.321405
0.864933 0.819751 0.248706
0.993747 0.840413 0.141196
0.000000 0.019482 0.179167
0.023333 0.019236 0.200379
0.279595 0.006607 0.219641
0.581258 0.000000 0.198450
0.644967 0.000000 0.140298
0.000000 0.079412 0.258509
0.000000 0.070654 0.258781
0.324762 0.075862 0.259266
0.623714 0.000000 0.226056
0.694094 0.000000 0.178525
0.000000 0.330569 0.404461
0.000000 0.328182 0.384254
0.386594 0.395725 0.384230
0.762482 0.391572 0.339472
0.846044 0.341637 0.274697
0.000000 0.527634 0.515798
0.000000 0.546710 0.511475
0.254810 0.707299 0.518820
0.846484 0.783091 0.448133
0.967815 0.765566 0.360766
0.000000 0.654621 0.518004
0.000000 0.696720 0.525880
0.506402 0.791894 0.532182
0.855463 0.859401 0.514818
0.981477 0.876331 0.447959
0.000000 0.056531 0.341490
0.044157 0.049970 0.346172
0.305352 0.042513 0.354888
0.577531 0.000000 0.331858
0.692005 0.000000 0.306821
0.000000 0.114153 0.394362
0.000000 0.115997 0.403645
0.337962 0.125682 0.419047
0.627278 0.057745 0.386928
0.731111 0.001785 0.351012
0.000000 0.345523 0.537430
0.000000 0.360641 0.549577
0.399047 0.425194 0.585452
0.772258 0.416433 0.560625
0.849542 0.363407 0.500779
0.000000 0.543263 0.611891
0.000000 0.582294 0.628948
0.293901 0.742295 0.681151
0.840108 0.812357 0.663657
0.955557 0.796129 0.615536
0.000000 0.695699 0.652394
0.000000 0.738243 0.666851
0.528775 0.825510 0.689676
0.851670 0.887027 0.696612
0.968274 0.904049 0.664501
0.000000 0.148551 0.425567
0.004069 0.155537 0.436427
0.275311 0.168574 0.452056
0.527790 0.147514 0.433486
0.690207 0.086243 0.396196
0.000000 0.188833 0.455474
0.000000 0.196780 0.465731
0.291775 0.213275 0.481232
0.554111 0.205497 0.469499
0.724633 0.179387 0.438646
0.000000 0.346006 0.561155
0.000000 0.358240 0.570354
0.359853 0.400890 0.589551
0.690948 0.449510 0.595160
0.848039 0.470687 0.578770
0.000000 0.576239 0.676360
0.000000 0.639806 0.712341
0.433299 0.773059 0.760139
0.852693 0.822309 0.751428
0.944872 0.814375 0.719995
0.000000 0.728318 0.737866
0.000000 0.771339 0.756093
0.565465 0.849320 0.783452
0.857459 0.903720 0.801614
0.960437 0.918258 0.790687
