LUTs/SPK Cube Block1 S32/TheBrim_SPK_Type-P_Block 1_S32.cube
TITLE "TheBrim® Industrial Imaging Burau"
# © Copyright 2022 - TheBrim® d.o.o. Croatia
LUT_3D_SIZE 5
DOMAIN_MIN 0.000000 0.000000 0.000000
DOMAIN_MAX 0.903226 0.903226 0.903226
0.0000000000 0.0000000000 0.0000000000
0.1401467327 0.0052619014 0.0000000000
0.4882955919 0.0441241691 0.0271886237
0.8499801879 0.1394723824 0.1123999242
1.0000000000 0.2454024813 0.1960538200
0.0000000000 0.1279966135 0.0367811339
0.1067403038 0.1313417849 0.0084259334
0.4266747392 0.1571994280 0.0151507321
0.8086331608 0.2150921571 0.0886194769
1.0000000000 0.3334184885 0.1650022027
0.0000000000 0.4129987177 0.2003499731
0.0131326034 0.3819707273 0.1588897339
0.3132155435 0.3720818966 0.0919863063
0.7143835970 0.4232370292 0.0832069542
1.0000000000 0.5237127661 0.1208061686
0.0000000000 0.7932855381 0.3626035829
0.0111814175 0.7638316881 0.3223748945
0.2166800798 0.7342902217 0.2494643345
0.6201980227 0.7182593886 0.1554293815
1.0000000000 0.7829468125 0.1169028123
0.1191453963 0.8375957688 0.3172409720
0.1630293589 0.8519136536 0.3065655633
0.2887991396 0.9006962544 0.2776305200
0.5813200038 0.9823064258 0.2334650039
0.9888412250 1.0000000000 0.1449193610
0.0117100687 0.0000000000 0.1218831602
0.1494468605 0.0000000000 0.0787463975
0.4768867658 0.0000000000 0.1083400399
0.8549595513 0.0993313103 0.1701124984
1.0000000000 0.2026900179 0.2449033636
0.0000000000 0.1409136216 0.1520330186
0.1276983242 0.1282181154 0.1276244902
0.4185973021 0.1365396968 0.1224630030
0.8241570006 0.2038093410 0.1663863437
1.0000000000 0.3170362057 0.2419756003
0.0000000000 0.4046476027 0.2055902165
0.0112079977 0.3801809917 0.1667584669
0.3192029868 0.3609378884 0.1223291174
0.7240115476 0.4136838971 0.1378962731
1.0000000000 0.5152799415 0.1944718040
0.0000000000 0.7898537349 0.3667560058
0.0084475914 0.7622073406 0.3222459311
0.2169084729 0.7303691453 0.2485970314
0.6254313750 0.7093983269 0.1654836002
1.0000000000 0.7768353281 0.2034106375
0.1288530876 0.8406111484 0.3150554862
0.1725687087 0.8551387217 0.3042205962
0.2958783413 0.9037598722 0.2759382453
0.5966823933 0.9834050753 0.2671854734
0.9903356246 1.0000000000 0.3060359276
0.1198049799 0.0631457704 0.3249669593
0.2094955417 0.0421532941 0.3301018663
0.4304215674 0.0000000000 0.2898170640
0.8517344832 0.0192194764 0.3439265401
1.0000000000 0.0451164977 0.4235146450
0.0592650566 0.1568095846 0.3841493218
0.1862742637 0.1410543984 0.3742703357
0.4226689998 0.0730926838 0.3025598240
0.8325228824 0.1298838099 0.3480848697
1.0000000000 0.2255755974 0.4076708580
0.0000000000 0.3965150363 0.4110061848
0.0487589739 0.3703266169 0.3896937613
0.3658572002 0.3652458548 0.3669991657
0.7447205015 0.4008259561 0.3806200577
1.0000000000 0.4975524037 0.4411619499
0.0000000000 0.7675627650 0.5224329772
0.0026462097 0.7479770721 0.4971212132
0.2190850986 0.7017550336 0.4487451916
0.6453783622 0.6865885503 0.4128057650
1.0000000000 0.7615064100 0.4566336137
0.1372721299 0.8375741109 0.4578070817
0.1813923611 0.8498167687 0.4611000770
0.3045572792 0.8955741453 0.4745831457
0.6233797749 0.9769539547 0.5082361801
0.9980921300 1.0000000000 0.5435258677
0.1876633269 0.1591092669 0.5867600913
0.2988484361 0.1301318921 0.5603235897
0.4767203932 0.0762882183 0.5019553698
0.7181048295 0.0439312163 0.4472340562
1.0000000000 0.1406714462 0.4978310039
0.1422613378 0.2277778188 0.6543063667
0.2821028901 0.2178161386 0.6275656692
0.4789767595 0.1595158460 0.5529470832
0.7250087985 0.1188323403 0.4863877219
1.0000000000 0.2143262527 0.5350448049
0.0000000000 0.4375184893 0.7385952348
0.1806333479 0.4325735817 0.7511273218
0.4726536177 0.4124690820 0.7037534733
0.7461607563 0.3449651381 0.6036887455
1.0000000000 0.4275430268 0.6450731818
0.0000000000 0.7459884770 0.7801519503
0.0016469899 0.7258288479 0.7661382615
0.3252573729 0.6863099501 0.7195765868
0.6899652242 0.6822746772 0.6885613942
1.0000000000 0.7492312652 0.7255532011
0.1424178659 0.8481638721 0.7073792138
0.1899393823 0.8615681844 0.7114912741
0.3530829377 0.9063667038 0.7298946389
0.6685435264 0.9893177002 0.7680668050
1.0000000000 1.0000000000 0.8034185131
0.2278467305 0.2561379416 0.6657880423
0.3035511682 0.2517659857 0.6500732187
0.4361274571 0.2151207062 0.5997322288
0.5945480991 0.1624229358 0.5327736718
0.8377828149 0.1654186263 0.5129044564
0.2323545409 0.2919799073 0.6966496602
0.3038051571 0.2868696117 0.6806030759
0.4398988967 0.2574275750 0.6307119810
0.5991947174 0.2098115511 0.5635713002
0.8402547764 0.2162882675 0.5402722505
0.2086449742 0.4238592035 0.8244572587
0.2867701819 0.4133245717 0.8006108531
0.4642060263 0.4051703473 0.7568696363
0.6535444001 0.3866616460 0.6904525284
0.9042412697 0.4096112149 0.6599748472
0.0136238454 0.7337694460 1.0000000000
0.2050497518 0.7163554565 1.0000000000
0.4743390013 0.7095450104 1.0000000000
0.7732863749 0.7072817529 0.9526428872
1.0000000000 0.6987485141 0.8651476556
0.1849078429 0.8781572024 0.9994772554
0.2754607855 0.8879869658 1.0000000000
0.4707900482 0.9231978972 1.0000000000
0.7398917594 1.0000000000 1.0000000000
1.0000000000 1.0000000000 1.0000000000
