LUTs/SPK Cube Block1 S32/TheBrim_SPK_Type-S_Block1_S32.cube
TITLE "TheBrim® Industrial Imaging Burau"
# © Copyright 2022 - TheBrim® d.o.o. Croatia
LUT_3D_SIZE 5
DOMAIN_MIN 0.000000 0.000000 0.000000
DOMAIN_MAX 0.903226 0.903226 0.903226
0.000061 0.000061 0.000031
0.089871 0.000061 0.000031
0.414170 0.000061 0.000031
0.817016 0.000061 0.000031
0.998509 0.000061 0.000031
0.000061 0.123867 0.000031
0.089871 0.123867 0.000031
0.414170 0.123867 0.000031
0.817016 0.123867 0.000031
0.998509 0.123867 0.000031
0.000061 0.415301 0.000031
0.089871 0.415301 0.000031
0.414170 0.415301 0.000031
0.817016 0.415301 0.000031
0.998509 0.415301 0.000031
0.000061 0.803467 0.000031
0.089871 0.803467 0.000031
0.414170 0.803467 0.000031
0.817016 0.803467 0.000031
0.998509 0.803467 0.000031
0.000061 0.995363 0.000031
0.089871 0.995363 0.000031
0.414170 0.995363 0.000031
0.817016 0.995363 0.000031
0.998509 0.995363 0.000031
0.000061 0.000061 0.136947
0.089871 0.000061 0.136947
0.414170 0.000061 0.136947
0.817016 0.000061 0.136947
0.998509 0.000061 0.136947
0.000061 0.123867 0.136947
0.089871 0.123867 0.136947
0.414170 0.123867 0.136947
0.817016 0.123867 0.136947
0.998509 0.123867 0.136947
0.000061 0.415301 0.136947
0.089871 0.415301 0.136947
0.414170 0.415301 0.136947
0.817016 0.415301 0.136947
0.998509 0.415301 0.136947
0.000061 0.803467 0.136947
0.089871 0.803467 0.136947
0.414170 0.803467 0.136947
0.817016 0.803467 0.136947
0.998509 0.803467 0.136947
0.000061 0.995363 0.136947
0.089871 0.995363 0.136947
0.414170 0.995363 0.136947
0.817016 0.995363 0.136947
0.998509 0.995363 0.136947
0.000061 0.000061 0.421344
0.089871 0.000061 0.421344
0.414170 0.000061 0.421344
0.817016 0.000061 0.421344
0.998509 0.000061 0.421344
0.000061 0.123867 0.421344
0.089871 0.123867 0.421344
0.414170 0.123867 0.421344
0.817016 0.123867 0.421344
0.998509 0.123867 0.421344
0.000061 0.415301 0.421344
0.089871 0.415301 0.421344
0.414170 0.415301 0.421344
0.817016 0.415301 0.421344
0.998509 0.415301 0.421344
0.000061 0.803467 0.421344
0.089871 0.803467 0.421344
0.414170 0.803467 0.421344
0.817016 0.803467 0.421344
0.998509 0.803467 0.421344
0.000061 0.995363 0.421344
0.089871 0.995363 0.421344
0.414170 0.995363 0.421344
0.817016 0.995363 0.421344
0.998509 0.995363 0.421344
0.000061 0.000061 0.738127
0.089871 0.000061 0.738127
0.414170 0.000061 0.738127
0.817016 0.000061 0.738127
0.998509 0.000061 0.738127
0.000061 0.123867 0.738127
0.089871 0.123867 0.738127
0.414170 0.123867 0.738127
0.817016 0.123867 0.738127
0.998509 0.123867 0.738127
0.000061 0.415301 0.738127
0.089871 0.415301 0.738127
0.414170 0.415301 0.738127
0.817016 0.415301 0.738127
0.998509 0.415301 0.738127
0.000061 0.803467 0.738127
0.089871 0.803467 0.738127
0.414170 0.803467 0.738127
0.817016 0.803467 0.738127
0.998509 0.803467 0.738127
0.000061 0.995363 0.738127
0.089871 0.995363 0.738127
0.414170 0.995363 0.738127
0.817016 0.995363 0.738127
0.998509 0.995363 0.738127
0.000061 0.000061 0.983692
0.089871 0.000061 0.983692
0.414170 0.000061 0.983692
0.817016 0.000061 0.983692
0.998509 0.000061 0.983692
0.000061 0.123867 0.983692
0.089871 0.123867 0.983692
0.414170 0.123867 0.983692
0.817016 0.123867 0.983692
0.998509 0.123867 0.983692
0.000061 0.415301 0.983692
0.089871 0.415301 0.983692
0.414170 0.415301 0.983692
0.817016 0.415301 0.983692
0.998509 0.415301 0.983692
0.000061 0.803467 0.983692
0.089871 0.803467 0.983692
0.414170 0.803467 0.983692
0.817016 0.803467 0.983692
0.998509 0.803467 0.983692
0.000061 0.995363 0.983692
0.089871 0.995363 0.983692
0.414170 0.995363 0.983692
0.817016 0.995363 0.983692
0.998509 0.995363 0.983692
