LUTs/SPK Cube Block1 S32/TheBrim_SPK_Type-H_Block1_S32.cube
TITLE "TheBrim® SPK Block 1"
# © Copyright 2021 - TheBrim® d.o.o. Croatia
LUT_3D_SIZE 8
DOMAIN_MIN 0.000000 0.000000 0.000000
DOMAIN_MAX 0.903226 0.903226 0.903226
0.068330 0.020264 0.046204
0.083622 0.021359 0.045336
0.134722 0.023723 0.041081
0.319664 0.019494 0.021766
0.534699 0.015027 0.016370
0.695955 0.019735 0.015536
0.785188 0.022349 0.015313
0.801357 0.022825 0.015503
0.069174 0.047887 0.058777
0.079019 0.043626 0.051638
0.142964 0.037740 0.040794
0.284491 0.030456 0.024113
0.494688 0.013851 0.016604
0.685650 0.019430 0.015586
0.788080 0.022429 0.015348
0.805617 0.022931 0.015538
0.073087 0.116925 0.083712
0.074136 0.103553 0.070368
0.122242 0.101708 0.050552
0.251517 0.093237 0.029258
0.430906 0.063984 0.017873
0.657494 0.018611 0.015737
0.805633 0.022937 0.015538
0.836549 0.023871 0.015855
0.091205 0.286511 0.180878
0.086954 0.258652 0.162821
0.085026 0.210438 0.109639
0.221263 0.217595 0.046817
0.414243 0.200544 0.020471
0.587168 0.166214 0.015771
0.786226 0.113486 0.016065
0.885448 0.053395 0.016753
0.112242 0.388594 0.238328
0.111948 0.387249 0.233498
0.105514 0.357919 0.186757
0.221793 0.380402 0.102420
0.408108 0.402273 0.034011
0.598397 0.403367 0.027438
0.744377 0.354640 0.026032
0.841811 0.303333 0.027963
0.133807 0.476424 0.263859
0.133576 0.475293 0.258633
0.130378 0.460743 0.209519
0.207927 0.504407 0.140836
0.447436 0.565727 0.058370
0.644021 0.598005 0.059512
0.809257 0.624555 0.069603
0.869666 0.617850 0.071270
0.143262 0.513779 0.242282
0.144370 0.518106 0.233054
0.255070 0.542436 0.202552
0.389064 0.584847 0.158981
0.524514 0.650764 0.072630
0.681207 0.726698 0.078403
0.841503 0.765263 0.089883
0.915835 0.775354 0.093812
0.303253 0.554580 0.187989
0.329149 0.562315 0.179887
0.385203 0.583281 0.160144
0.461936 0.617513 0.122272
0.586525 0.685708 0.073027
0.717139 0.755396 0.083517
0.837258 0.800654 0.093192
0.921413 0.829072 0.098340
0.068142 0.023118 0.071999
0.074040 0.021234 0.061919
0.126877 0.022235 0.051067
0.352066 0.016061 0.024097
0.551530 0.015511 0.016291
0.701259 0.019900 0.015505
0.786131 0.022380 0.015344
0.801496 0.022825 0.015503
0.066296 0.038306 0.073809
0.073499 0.032465 0.059181
0.149166 0.029715 0.044527
0.295640 0.025606 0.026046
0.505901 0.014178 0.016547
0.695763 0.019725 0.015540
0.786603 0.022387 0.015344
0.804252 0.022893 0.015534
0.075151 0.139645 0.102774
0.072448 0.110183 0.079634
0.120591 0.096877 0.052849
0.261291 0.085119 0.030429
0.436775 0.056863 0.017565
0.667213 0.018886 0.015687
0.808432 0.023028 0.015568
0.834331 0.023786 0.015824
0.091130 0.286168 0.180914
0.088646 0.271297 0.171053
0.082611 0.208075 0.110301
0.221384 0.214619 0.045677
0.417794 0.195680 0.020284
0.594883 0.159525 0.015740
0.794502 0.102797 0.016065
0.888206 0.043596 0.016602
0.112182 0.388414 0.238872
0.111853 0.386832 0.233474
0.105353 0.357092 0.186367
0.222457 0.378987 0.101804
0.407880 0.399460 0.033541
0.599628 0.398824 0.026661
0.749235 0.345687 0.025349
0.843326 0.295796 0.027332
0.133866 0.476625 0.263709
0.133626 0.475492 0.258673
0.130144 0.459773 0.208888
0.209205 0.503948 0.139633
0.447938 0.564300 0.058151
0.644754 0.595522 0.059095
0.809350 0.621276 0.069115
0.869709 0.615112 0.070873
0.143350 0.514021 0.240398
0.144578 0.519002 0.232187
0.261083 0.543968 0.200979
0.391539 0.585881 0.158169
0.525906 0.651522 0.072030
0.684425 0.727909 0.078656
0.843657 0.765473 0.089999
0.916200 0.774691 0.093743
0.310039 0.556380 0.185335
0.334966 0.564320 0.178587
0.388911 0.584729 0.158641
0.465636 0.619197 0.119811
0.588772 0.686995 0.073177
0.720585 0.756688 0.083823
0.839563 0.805074 0.093610
0.923699 0.842276 0.099379
0.069779 0.032840 0.165540
0.070481 0.035060 0.182157
0.120582 0.031858 0.143340
0.302011 0.027312 0.114745
0.573466 0.012934 0.081193
0.732813 0.019677 0.038134
0.800474 0.022792 0.015488
0.815687 0.023237 0.015633
0.069052 0.040444 0.166247
0.069401 0.033983 0.150037
0.116510 0.031500 0.117839
0.276230 0.029359 0.092279
0.535985 0.012800 0.061750
0.722018 0.019896 0.027320
0.799226 0.022754 0.015478
0.817595 0.023303 0.015664
0.074279 0.127021 0.199303
0.071697 0.102540 0.160866
0.108991 0.089007 0.119678
0.237354 0.080548 0.086713
0.430106 0.053672 0.056009
0.676910 0.018571 0.027693
0.820125 0.023364 0.015681
0.844843 0.024103 0.015946
0.090493 0.285890 0.235051
0.088722 0.275847 0.227480
0.081679 0.211912 0.164164
0.213723 0.211140 0.112349
0.419188 0.190082 0.063750
0.603505 0.154282 0.021143
0.817482 0.086644 0.016165
0.904172 0.035885 0.016976
0.112393 0.389491 0.246466
0.112185 0.388489 0.241746
0.104884 0.354985 0.189040
0.222142 0.375630 0.116125
0.406976 0.403204 0.040329
0.602538 0.395952 0.026258
0.757247 0.335733 0.024817
0.852718 0.287138 0.027222
0.133768 0.476252 0.264643
0.133639 0.475594 0.260260
0.129867 0.458679 0.208896
0.207804 0.501876 0.139667
0.447800 0.562955 0.057941
0.643731 0.595170 0.059037
0.811518 0.629651 0.070465
0.877106 0.622827 0.072445
0.143607 0.514998 0.238258
0.147006 0.522486 0.229702
0.278710 0.548258 0.196302
0.399039 0.589318 0.158574
0.529010 0.656149 0.086718
0.688108 0.735586 0.079815
0.849343 0.788245 0.092643
0.921942 0.808305 0.096759
0.324050 0.560642 0.181114
0.349223 0.569268 0.174591
0.397591 0.588343 0.156169
0.475742 0.624371 0.113862
0.594053 0.694407 0.074105
0.724135 0.773139 0.085902
0.843386 0.837764 0.096248
0.925762 0.883464 0.102592
0.074043 0.060450 0.273921
0.074711 0.063447 0.288197
0.094160 0.064470 0.288548
0.238437 0.058839 0.256874
0.501520 0.017465 0.231797
0.783877 0.013558 0.191050
0.853873 0.018583 0.131852
0.856897 0.020000 0.105342
0.074206 0.063654 0.274401
0.074804 0.064269 0.289402
0.091513 0.066014 0.295731
0.253796 0.057753 0.251366
0.533090 0.011349 0.213738
0.778814 0.014290 0.173328
0.851414 0.019114 0.119926
0.860087 0.020381 0.099628
0.078340 0.108613 0.324425
0.076504 0.096972 0.294432
0.099941 0.084981 0.237061
0.234158 0.082682 0.197309
0.435690 0.064958 0.178052
0.736058 0.014067 0.152811
0.867851 0.019858 0.114715
0.889265 0.021386 0.097188
0.095620 0.297588 0.400022
0.093612 0.287998 0.390990
0.081621 0.213146 0.287619
0.197538 0.205600 0.230104
0.412885 0.183491 0.178651
0.640271 0.144406 0.150438
0.859001 0.083321 0.120393
0.939224 0.043996 0.094634
0.122305 0.423724 0.414369
0.122250 0.423582 0.415329
0.108497 0.373497 0.340637
0.174288 0.397096 0.305452
0.386880 0.407935 0.240928
0.624751 0.390873 0.187571
0.789751 0.333325 0.134723
0.883914 0.292301 0.084139
0.138704 0.491959 0.377826
0.138677 0.491793 0.378249
0.131715 0.467871 0.333718
0.145127 0.523072 0.313028
0.425986 0.574557 0.249375
0.628959 0.620328 0.203287
0.809588 0.658572 0.157179
0.878607 0.653594 0.090395
0.147631 0.530740 0.348571
0.149374 0.538231 0.343857
0.172558 0.567990 0.343989
0.364679 0.605386 0.306547
0.513361 0.679335 0.288495
0.675665 0.768465 0.246181
0.850137 0.830315 0.174686
0.922879 0.855991 0.104579
0.298222 0.569921 0.261503
0.327277 0.579576 0.261154
0.379216 0.600490 0.262437
0.464424 0.645710 0.261888
0.587876 0.717485 0.272553
0.717392 0.797440 0.299529
0.846196 0.857854 0.310116
0.926639 0.902703 0.302149
0.079617 0.078852 0.375941
0.080570 0.080650 0.392595
0.096351 0.081754 0.415853
0.224470 0.075121 0.400412
0.458033 0.040641 0.367605
0.761838 0.012116 0.333439
0.900658 0.013128 0.273700
0.894776 0.014443 0.239043
0.080901 0.085131 0.394713
0.081406 0.082484 0.406660
0.094823 0.083595 0.429229
0.228596 0.077019 0.412036
0.484899 0.034037 0.373422
0.779059 0.012141 0.327497
0.904833 0.013541 0.265822
0.912081 0.014798 0.242279
0.084580 0.115161 0.442617
0.084471 0.110636 0.445036
0.085516 0.104540 0.431301
0.225855 0.096364 0.392424
0.476072 0.073831 0.350915
0.777943 0.011884 0.313864
0.936545 0.014211 0.273964
0.950606 0.015755 0.246719
0.097444 0.283288 0.529414
0.096007 0.274062 0.521847
0.088433 0.209209 0.430835
0.207416 0.199726 0.384820
0.422536 0.184017 0.333218
0.675229 0.150456 0.310505
0.920467 0.085606 0.280124
0.993860 0.044798 0.254428
0.127175 0.447655 0.569347
0.127158 0.447541 0.569275
0.116364 0.400016 0.497077
0.119658 0.419303 0.488331
0.389841 0.414821 0.403018
0.636884 0.386989 0.355420
0.818658 0.329245 0.306206
0.922609 0.281521 0.261262
0.137776 0.499045 0.526102
0.137689 0.498754 0.526573
0.137694 0.495246 0.497856
0.152238 0.553803 0.498462
0.407732 0.599799 0.450876
0.619049 0.638869 0.414671
0.820661 0.677450 0.398165
0.886334 0.653613 0.355251
0.153118 0.556366 0.490709
0.155430 0.565599 0.490035
0.163185 0.597253 0.494915
0.321937 0.644615 0.470538
0.506128 0.707498 0.447106
0.684969 0.781636 0.432755
0.842347 0.833980 0.412008
0.922378 0.856250 0.394684
0.231887 0.608164 0.433842
0.274215 0.615594 0.428207
0.355135 0.636602 0.418855
0.468842 0.684191 0.416501
0.594864 0.740112 0.426350
0.729314 0.806689 0.443680
0.852021 0.862610 0.454551
0.930836 0.907281 0.449485
0.083908 0.095513 0.447930
0.089591 0.095010 0.448048
0.129957 0.094200 0.443480
0.235560 0.088822 0.427070
0.413553 0.070192 0.398908
0.674667 0.012478 0.373599
0.879969 0.012934 0.333967
0.948435 0.013724 0.305898
0.084867 0.108241 0.461100
0.086480 0.106098 0.460223
0.128131 0.100662 0.450638
0.231880 0.096822 0.434695
0.422023 0.077963 0.404410
0.682850 0.013283 0.382640
0.891533 0.013171 0.344011
0.961845 0.013880 0.315904
0.087480 0.144534 0.493054
0.087074 0.138481 0.488384
0.113973 0.127394 0.477772
0.235189 0.117997 0.452839
0.442394 0.100151 0.419695
0.718530 0.031775 0.395575
0.936109 0.013984 0.363922
0.995691 0.014281 0.343133
0.097567 0.271133 0.589732
0.097294 0.269188 0.588318
0.093018 0.223482 0.557686
0.208705 0.215236 0.534843
0.454917 0.196818 0.487709
0.701789 0.158139 0.450808
0.949219 0.099965 0.425278
1.000000 0.047837 0.399825
0.132420 0.459388 0.677161
0.132371 0.459134 0.677113
0.122929 0.415007 0.630192
0.125622 0.429058 0.634467
0.391696 0.420204 0.573470
0.646139 0.388636 0.520460
0.850831 0.339932 0.476760
0.957981 0.292073 0.429821
0.140979 0.510353 0.649880
0.141078 0.510756 0.650390
0.142879 0.522275 0.639958
0.155531 0.585837 0.660995
0.388999 0.630727 0.624084
0.636007 0.674055 0.590539
0.834198 0.698638 0.575135
0.905733 0.659535 0.538541
0.154840 0.579726 0.622394
0.157954 0.592387 0.624080
0.166946 0.629105 0.635737
0.242593 0.687106 0.639299
0.486085 0.744642 0.618181
0.687558 0.807187 0.604938
0.847491 0.854748 0.600096
0.933229 0.870548 0.587954
0.172875 0.646926 0.592671
0.175876 0.659066 0.596487
0.334870 0.684080 0.572718
0.457864 0.725676 0.576037
0.603342 0.774683 0.574128
0.741462 0.836410 0.592507
0.863682 0.888438 0.601542
0.939227 0.920724 0.598065
0.086081 0.124592 0.476906
0.094160 0.122719 0.475480
0.132725 0.117884 0.466452
0.218562 0.113823 0.451193
0.363070 0.102669 0.427007
0.534389 0.075121 0.403936
0.775233 0.013936 0.385220
0.942008 0.013715 0.357070
0.086754 0.133745 0.484879
0.090026 0.130012 0.482046
0.132684 0.126124 0.474229
0.216979 0.119941 0.456638
0.363254 0.110065 0.432667
0.540768 0.082051 0.408144
0.792781 0.014532 0.389388
0.952366 0.013941 0.361304
0.088745 0.161569 0.509328
0.088331 0.155579 0.504526
0.123821 0.151911 0.498098
0.209204 0.146026 0.478920
0.371189 0.135472 0.450871
0.542521 0.114606 0.426279
0.804178 0.050479 0.406506
0.988390 0.016408 0.394040
0.096338 0.262217 0.585923
0.094466 0.243421 0.572671
0.093443 0.229107 0.563586
0.215404 0.219258 0.536971
0.395006 0.206839 0.503769
0.588893 0.190645 0.473321
0.818556 0.165424 0.455873
0.980188 0.133766 0.443566
0.128019 0.432201 0.693979
0.127864 0.431435 0.693683
0.126327 0.421092 0.703205
0.132433 0.448330 0.731944
0.401777 0.432870 0.657723
0.654222 0.401445 0.590139
0.822508 0.368120 0.556046
0.949390 0.332988 0.528731
0.145632 0.519633 0.733716
0.145606 0.519615 0.733140
0.149408 0.536763 0.750107
0.164983 0.606982 0.806918
0.363551 0.654199 0.792507
0.648635 0.699759 0.751573
0.837772 0.719308 0.711108
0.904893 0.666788 0.673547
0.161500 0.601626 0.747578
0.162578 0.605964 0.752191
0.172152 0.643780 0.777001
0.187552 0.703105 0.810245
0.476296 0.762353 0.776623
0.690393 0.821612 0.755552
0.853263 0.872802 0.737926
0.934466 0.887351 0.731946
0.179341 0.679178 0.715707
0.182728 0.691976 0.722476
0.256897 0.710216 0.717578
0.450790 0.748492 0.701447
0.607150 0.795917 0.707943
0.754964 0.857648 0.699547
0.868368 0.909725 0.723576
0.939707 0.936623 0.733485
0.087575 0.145265 0.495139
0.092554 0.143447 0.493518
0.128389 0.141180 0.488121
0.193578 0.136207 0.472912
0.322789 0.126316 0.449328
0.466040 0.110758 0.425947
0.640526 0.073856 0.406994
0.869137 0.015208 0.389072
0.088166 0.153420 0.502533
0.090943 0.151618 0.501160
0.127672 0.149395 0.495426
0.190279 0.144030 0.479548
0.324933 0.133874 0.454904
0.466303 0.119843 0.431930
0.645725 0.083588 0.411556
0.875177 0.016000 0.396930
0.090108 0.180803 0.525485
0.089956 0.178189 0.523920
0.123811 0.171876 0.515253
0.194956 0.165472 0.497691
0.328637 0.156383 0.471953
0.477279 0.143650 0.446796
0.645160 0.115529 0.426057
0.862330 0.076430 0.416281
0.094318 0.241825 0.571990
0.094025 0.238002 0.569435
0.093715 0.232927 0.566746
0.201120 0.225070 0.545088
0.331867 0.219267 0.519597
0.506217 0.212854 0.493774
0.674258 0.211720 0.485148
0.871253 0.199682 0.476011
0.119609 0.389404 0.677737
0.119255 0.387139 0.679383
0.120995 0.395207 0.686686
0.191469 0.412938 0.686167
0.382491 0.414252 0.646358
0.579782 0.417275 0.611591
0.743996 0.408827 0.584432
0.868747 0.399360 0.565433
0.146957 0.521379 0.760014
0.149267 0.531624 0.771152
0.159896 0.578978 0.813980
0.170960 0.620171 0.842811
0.413982 0.658776 0.806479
0.662099 0.702765 0.762016
0.815221 0.720404 0.724251
0.891792 0.713082 0.710264
0.165731 0.607116 0.817446
0.169562 0.619334 0.829946
0.182883 0.661009 0.864643
0.199518 0.718529 0.904262
0.481856 0.776720 0.867756
0.707960 0.837249 0.832211
0.856119 0.881762 0.793139
0.927411 0.894035 0.786218
0.188352 0.697088 0.837302
0.191229 0.707262 0.843670
0.205781 0.728896 0.852829
0.448480 0.763514 0.817550
0.605503 0.811105 0.817801
0.761737 0.875425 0.787413
0.875543 0.926849 0.797776
0.943177 0.946832 0.806149
