LUTs/SPK Cube Block1 S32/TheBrim_SPK_Type-S_Block1_S32.cube
TITLE "TheBrim® Industrial Imaging Burau"
# © Copyright 2022 - TheBrim® d.o.o. Croatia
LUT_3D_SIZE 8
DOMAIN_MIN 0.000000 0.000000 0.000000
DOMAIN_MAX 0.903226 0.903226 0.903226
0.000061 0.000061 0.000031
0.023674 0.000061 0.000031
0.120294 0.000061 0.000031
0.305330 0.000061 0.000031
0.535585 0.000061 0.000031
0.762139 0.000061 0.000031
0.949504 0.000061 0.000031
0.998509 0.000061 0.000031
0.000061 0.049025 0.000031
0.023674 0.049025 0.000031
0.120294 0.049025 0.000031
0.305330 0.049025 0.000031
0.535585 0.049025 0.000031
0.762139 0.049025 0.000031
0.949504 0.049025 0.000031
0.998509 0.049025 0.000031
0.000061 0.153284 0.000031
0.023674 0.153284 0.000031
0.120294 0.153284 0.000031
0.305330 0.153284 0.000031
0.535585 0.153284 0.000031
0.762139 0.153284 0.000031
0.949504 0.153284 0.000031
0.998509 0.153284 0.000031
0.000061 0.318154 0.000031
0.023674 0.318154 0.000031
0.120294 0.318154 0.000031
0.305330 0.318154 0.000031
0.535585 0.318154 0.000031
0.762139 0.318154 0.000031
0.949504 0.318154 0.000031
0.998509 0.318154 0.000031
0.000061 0.516770 0.000031
0.023674 0.516770 0.000031
0.120294 0.516770 0.000031
0.305330 0.516770 0.000031
0.535585 0.516770 0.000031
0.762139 0.516770 0.000031
0.949504 0.516770 0.000031
0.998509 0.516770 0.000031
0.000061 0.744253 0.000031
0.023674 0.744253 0.000031
0.120294 0.744253 0.000031
0.305330 0.744253 0.000031
0.535585 0.744253 0.000031
0.762139 0.744253 0.000031
0.949504 0.744253 0.000031
0.998509 0.744253 0.000031
0.000061 0.939762 0.000031
0.023674 0.939762 0.000031
0.120294 0.939762 0.000031
0.305330 0.939762 0.000031
0.535585 0.939762 0.000031
0.762139 0.939762 0.000031
0.949504 0.939762 0.000031
0.998509 0.939762 0.000031
0.000061 0.995363 0.000031
0.023674 0.995363 0.000031
0.120294 0.995363 0.000031
0.305330 0.995363 0.000031
0.535585 0.995363 0.000031
0.762139 0.995363 0.000031
0.949504 0.995363 0.000031
0.998509 0.995363 0.000031
0.000061 0.000061 0.056777
0.023674 0.000061 0.056777
0.120294 0.000061 0.056777
0.305330 0.000061 0.056777
0.535585 0.000061 0.056777
0.762139 0.000061 0.056777
0.949504 0.000061 0.056777
0.998509 0.000061 0.056777
0.000061 0.049025 0.056777
0.023674 0.049025 0.056777
0.120294 0.049025 0.056777
0.305330 0.049025 0.056777
0.535585 0.049025 0.056777
0.762139 0.049025 0.056777
0.949504 0.049025 0.056777
0.998509 0.049025 0.056777
0.000061 0.153284 0.056777
0.023674 0.153284 0.056777
0.120294 0.153284 0.056777
0.305330 0.153284 0.056777
0.535585 0.153284 0.056777
0.762139 0.153284 0.056777
0.949504 0.153284 0.056777
0.998509 0.153284 0.056777
0.000061 0.318154 0.056777
0.023674 0.318154 0.056777
0.120294 0.318154 0.056777
0.305330 0.318154 0.056777
0.535585 0.318154 0.056777
0.762139 0.318154 0.056777
0.949504 0.318154 0.056777
0.998509 0.318154 0.056777
0.000061 0.516770 0.056777
0.023674 0.516770 0.056777
0.120294 0.516770 0.056777
0.305330 0.516770 0.056777
0.535585 0.516770 0.056777
0.762139 0.516770 0.056777
0.949504 0.516770 0.056777
0.998509 0.516770 0.056777
0.000061 0.744253 0.056777
0.023674 0.744253 0.056777
0.120294 0.744253 0.056777
0.305330 0.744253 0.056777
0.535585 0.744253 0.056777
0.762139 0.744253 0.056777
0.949504 0.744253 0.056777
0.998509 0.744253 0.056777
0.000061 0.939762 0.056777
0.023674 0.939762 0.056777
0.120294 0.939762 0.056777
0.305330 0.939762 0.056777
0.535585 0.939762 0.056777
0.762139 0.939762 0.056777
0.949504 0.939762 0.056777
0.998509 0.939762 0.056777
0.000061 0.995363 0.056777
0.023674 0.995363 0.056777
0.120294 0.995363 0.056777
0.305330 0.995363 0.056777
0.535585 0.995363 0.056777
0.762139 0.995363 0.056777
0.949504 0.995363 0.056777
0.998509 0.995363 0.056777
0.000061 0.000061 0.167549
0.023674 0.000061 0.167549
0.120294 0.000061 0.167549
0.305330 0.000061 0.167549
0.535585 0.000061 0.167549
0.762139 0.000061 0.167549
0.949504 0.000061 0.167549
0.998509 0.000061 0.167549
0.000061 0.049025 0.167549
0.023674 0.049025 0.167549
0.120294 0.049025 0.167549
0.305330 0.049025 0.167549
0.535585 0.049025 0.167549
0.762139 0.049025 0.167549
0.949504 0.049025 0.167549
0.998509 0.049025 0.167549
0.000061 0.153284 0.167549
0.023674 0.153284 0.167549
0.120294 0.153284 0.167549
0.305330 0.153284 0.167549
0.535585 0.153284 0.167549
0.762139 0.153284 0.167549
0.949504 0.153284 0.167549
0.998509 0.153284 0.167549
0.000061 0.318154 0.167549
0.023674 0.318154 0.167549
0.120294 0.318154 0.167549
0.305330 0.318154 0.167549
0.535585 0.318154 0.167549
0.762139 0.318154 0.167549
0.949504 0.318154 0.167549
0.998509 0.318154 0.167549
0.000061 0.516770 0.167549
0.023674 0.516770 0.167549
0.120294 0.516770 0.167549
0.305330 0.516770 0.167549
0.535585 0.516770 0.167549
0.762139 0.516770 0.167549
0.949504 0.516770 0.167549
0.998509 0.516770 0.167549
0.000061 0.744253 0.167549
0.023674 0.744253 0.167549
0.120294 0.744253 0.167549
0.305330 0.744253 0.167549
0.535585 0.744253 0.167549
0.762139 0.744253 0.167549
0.949504 0.744253 0.167549
0.998509 0.744253 0.167549
0.000061 0.939762 0.167549
0.023674 0.939762 0.167549
0.120294 0.939762 0.167549
0.305330 0.939762 0.167549
0.535585 0.939762 0.167549
0.762139 0.939762 0.167549
0.949504 0.939762 0.167549
0.998509 0.939762 0.167549
0.000061 0.995363 0.167549
0.023674 0.995363 0.167549
0.120294 0.995363 0.167549
0.305330 0.995363 0.167549
0.535585 0.995363 0.167549
0.762139 0.995363 0.167549
0.949504 0.995363 0.167549
0.998509 0.995363 0.167549
0.000061 0.000061 0.330866
0.023674 0.000061 0.330866
0.120294 0.000061 0.330866
0.305330 0.000061 0.330866
0.535585 0.000061 0.330866
0.762139 0.000061 0.330866
0.949504 0.000061 0.330866
0.998509 0.000061 0.330866
0.000061 0.049025 0.330866
0.023674 0.049025 0.330866
0.120294 0.049025 0.330866
0.305330 0.049025 0.330866
0.535585 0.049025 0.330866
0.762139 0.049025 0.330866
0.949504 0.049025 0.330866
0.998509 0.049025 0.330866
0.000061 0.153284 0.330866
0.023674 0.153284 0.330866
0.120294 0.153284 0.330866
0.305330 0.153284 0.330866
0.535585 0.153284 0.330866
0.762139 0.153284 0.330866
0.949504 0.153284 0.330866
0.998509 0.153284 0.330866
0.000061 0.318154 0.330866
0.023674 0.318154 0.330866
0.120294 0.318154 0.330866
0.305330 0.318154 0.330866
0.535585 0.318154 0.330866
0.762139 0.318154 0.330866
0.949504 0.318154 0.330866
0.998509 0.318154 0.330866
0.000061 0.516770 0.330866
0.023674 0.516770 0.330866
0.120294 0.516770 0.330866
0.305330 0.516770 0.330866
0.535585 0.516770 0.330866
0.762139 0.516770 0.330866
0.949504 0.516770 0.330866
0.998509 0.516770 0.330866
0.000061 0.744253 0.330866
0.023674 0.744253 0.330866
0.120294 0.744253 0.330866
0.305330 0.744253 0.330866
0.535585 0.744253 0.330866
0.762139 0.744253 0.330866
0.949504 0.744253 0.330866
0.998509 0.744253 0.330866
0.000061 0.939762 0.330866
0.023674 0.939762 0.330866
0.120294 0.939762 0.330866
0.305330 0.939762 0.330866
0.535585 0.939762 0.330866
0.762139 0.939762 0.330866
0.949504 0.939762 0.330866
0.998509 0.939762 0.330866
0.000061 0.995363 0.330866
0.023674 0.995363 0.330866
0.120294 0.995363 0.330866
0.305330 0.995363 0.330866
0.535585 0.995363 0.330866
0.762139 0.995363 0.330866
0.949504 0.995363 0.330866
0.998509 0.995363 0.330866
0.000061 0.000061 0.505710
0.023674 0.000061 0.505710
0.120294 0.000061 0.505710
0.305330 0.000061 0.505710
0.535585 0.000061 0.505710
0.762139 0.000061 0.505710
0.949504 0.000061 0.505710
0.998509 0.000061 0.505710
0.000061 0.049025 0.505710
0.023674 0.049025 0.505710
0.120294 0.049025 0.505710
0.305330 0.049025 0.505710
0.535585 0.049025 0.505710
0.762139 0.049025 0.505710
0.949504 0.049025 0.505710
0.998509 0.049025 0.505710
0.000061 0.153284 0.505710
0.023674 0.153284 0.505710
0.120294 0.153284 0.505710
0.305330 0.153284 0.505710
0.535585 0.153284 0.505710
0.762139 0.153284 0.505710
0.949504 0.153284 0.505710
0.998509 0.153284 0.505710
0.000061 0.318154 0.505710
0.023674 0.318154 0.505710
0.120294 0.318154 0.505710
0.305330 0.318154 0.505710
0.535585 0.318154 0.505710
0.762139 0.318154 0.505710
0.949504 0.318154 0.505710
0.998509 0.318154 0.505710
0.000061 0.516770 0.505710
0.023674 0.516770 0.505710
0.120294 0.516770 0.505710
0.305330 0.516770 0.505710
0.535585 0.516770 0.505710
0.762139 0.516770 0.505710
0.949504 0.516770 0.505710
0.998509 0.516770 0.505710
0.000061 0.744253 0.505710
0.023674 0.744253 0.505710
0.120294 0.744253 0.505710
0.305330 0.744253 0.505710
0.535585 0.744253 0.505710
0.762139 0.744253 0.505710
0.949504 0.744253 0.505710
0.998509 0.744253 0.505710
0.000061 0.939762 0.505710
0.023674 0.939762 0.505710
0.120294 0.939762 0.505710
0.305330 0.939762 0.505710
0.535585 0.939762 0.505710
0.762139 0.939762 0.505710
0.949504 0.939762 0.505710
0.998509 0.939762 0.505710
0.000061 0.995363 0.505710
0.023674 0.995363 0.505710
0.120294 0.995363 0.505710
0.305330 0.995363 0.505710
0.535585 0.995363 0.505710
0.762139 0.995363 0.505710
0.949504 0.995363 0.505710
0.998509 0.995363 0.505710
0.000061 0.000061 0.686808
0.023674 0.000061 0.686808
0.120294 0.000061 0.686808
0.305330 0.000061 0.686808
0.535585 0.000061 0.686808
0.762139 0.000061 0.686808
0.949504 0.000061 0.686808
0.998509 0.000061 0.686808
0.000061 0.049025 0.686808
0.023674 0.049025 0.686808
0.120294 0.049025 0.686808
0.305330 0.049025 0.686808
0.535585 0.049025 0.686808
0.762139 0.049025 0.686808
0.949504 0.049025 0.686808
0.998509 0.049025 0.686808
0.000061 0.153284 0.686808
0.023674 0.153284 0.686808
0.120294 0.153284 0.686808
0.305330 0.153284 0.686808
0.535585 0.153284 0.686808
0.762139 0.153284 0.686808
0.949504 0.153284 0.686808
0.998509 0.153284 0.686808
0.000061 0.318154 0.686808
0.023674 0.318154 0.686808
0.120294 0.318154 0.686808
0.305330 0.318154 0.686808
0.535585 0.318154 0.686808
0.762139 0.318154 0.686808
0.949504 0.318154 0.686808
0.998509 0.318154 0.686808
0.000061 0.516770 0.686808
0.023674 0.516770 0.686808
0.120294 0.516770 0.686808
0.305330 0.516770 0.686808
0.535585 0.516770 0.686808
0.762139 0.516770 0.686808
0.949504 0.516770 0.686808
0.998509 0.516770 0.686808
0.000061 0.744253 0.686808
0.023674 0.744253 0.686808
0.120294 0.744253 0.686808
0.305330 0.744253 0.686808
0.535585 0.744253 0.686808
0.762139 0.744253 0.686808
0.949504 0.744253 0.686808
0.998509 0.744253 0.686808
0.000061 0.939762 0.686808
0.023674 0.939762 0.686808
0.120294 0.939762 0.686808
0.305330 0.939762 0.686808
0.535585 0.939762 0.686808
0.762139 0.939762 0.686808
0.949504 0.939762 0.686808
0.998509 0.939762 0.686808
0.000061 0.995363 0.686808
0.023674 0.995363 0.686808
0.120294 0.995363 0.686808
0.305330 0.995363 0.686808
0.535585 0.995363 0.686808
0.762139 0.995363 0.686808
0.949504 0.995363 0.686808
0.998509 0.995363 0.686808
0.000061 0.000061 0.907327
0.023674 0.000061 0.907327
0.120294 0.000061 0.907327
0.305330 0.000061 0.907327
0.535585 0.000061 0.907327
0.762139 0.000061 0.907327
0.949504 0.000061 0.907327
0.998509 0.000061 0.907327
0.000061 0.049025 0.907327
0.023674 0.049025 0.907327
0.120294 0.049025 0.907327
0.305330 0.049025 0.907327
0.535585 0.049025 0.907327
0.762139 0.049025 0.907327
0.949504 0.049025 0.907327
0.998509 0.049025 0.907327
0.000061 0.153284 0.907327
0.023674 0.153284 0.907327
0.120294 0.153284 0.907327
0.305330 0.153284 0.907327
0.535585 0.153284 0.907327
0.762139 0.153284 0.907327
0.949504 0.153284 0.907327
0.998509 0.153284 0.907327
0.000061 0.318154 0.907327
0.023674 0.318154 0.907327
0.120294 0.318154 0.907327
0.305330 0.318154 0.907327
0.535585 0.318154 0.907327
0.762139 0.318154 0.907327
0.949504 0.318154 0.907327
0.998509 0.318154 0.907327
0.000061 0.516770 0.907327
0.023674 0.516770 0.907327
0.120294 0.516770 0.907327
0.305330 0.516770 0.907327
0.535585 0.516770 0.907327
0.762139 0.516770 0.907327
0.949504 0.516770 0.907327
0.998509 0.516770 0.907327
0.000061 0.744253 0.907327
0.023674 0.744253 0.907327
0.120294 0.744253 0.907327
0.305330 0.744253 0.907327
0.535585 0.744253 0.907327
0.762139 0.744253 0.907327
0.949504 0.744253 0.907327
0.998509 0.744253 0.907327
0.000061 0.939762 0.907327
0.023674 0.939762 0.907327
0.120294 0.939762 0.907327
0.305330 0.939762 0.907327
0.535585 0.939762 0.907327
0.762139 0.939762 0.907327
0.949504 0.939762 0.907327
0.998509 0.939762 0.907327
0.000061 0.995363 0.907327
0.023674 0.995363 0.907327
0.120294 0.995363 0.907327
0.305330 0.995363 0.907327
0.535585 0.995363 0.907327
0.762139 0.995363 0.907327
0.949504 0.995363 0.907327
0.998509 0.995363 0.907327
0.000061 0.000061 0.983692
0.023674 0.000061 0.983692
0.120294 0.000061 0.983692
0.305330 0.000061 0.983692
0.535585 0.000061 0.983692
0.762139 0.000061 0.983692
0.949504 0.000061 0.983692
0.998509 0.000061 0.983692
0.000061 0.049025 0.983692
0.023674 0.049025 0.983692
0.120294 0.049025 0.983692
0.305330 0.049025 0.983692
0.535585 0.049025 0.983692
0.762139 0.049025 0.983692
0.949504 0.049025 0.983692
0.998509 0.049025 0.983692
0.000061 0.153284 0.983692
0.023674 0.153284 0.983692
0.120294 0.153284 0.983692
0.305330 0.153284 0.983692
0.535585 0.153284 0.983692
0.762139 0.153284 0.983692
0.949504 0.153284 0.983692
0.998509 0.153284 0.983692
0.000061 0.318154 0.983692
0.023674 0.318154 0.983692
0.120294 0.318154 0.983692
0.305330 0.318154 0.983692
0.535585 0.318154 0.983692
0.762139 0.318154 0.983692
0.949504 0.318154 0.983692
0.998509 0.318154 0.983692
0.000061 0.516770 0.983692
0.023674 0.516770 0.983692
0.120294 0.516770 0.983692
0.305330 0.516770 0.983692
0.535585 0.516770 0.983692
0.762139 0.516770 0.983692
0.949504 0.516770 0.983692
0.998509 0.516770 0.983692
0.000061 0.744253 0.983692
0.023674 0.744253 0.983692
0.120294 0.744253 0.983692
0.305330 0.744253 0.983692
0.535585 0.744253 0.983692
0.762139 0.744253 0.983692
0.949504 0.744253 0.983692
0.998509 0.744253 0.983692
0.000061 0.939762 0.983692
0.023674 0.939762 0.983692
0.120294 0.939762 0.983692
0.305330 0.939762 0.983692
0.535585 0.939762 0.983692
0.762139 0.939762 0.983692
0.949504 0.939762 0.983692
0.998509 0.939762 0.983692
0.000061 0.995363 0.983692
0.023674 0.995363 0.983692
0.120294 0.995363 0.983692
0.305330 0.995363 0.983692
0.535585 0.995363 0.983692
0.762139 0.995363 0.983692
0.949504 0.995363 0.983692
0.998509 0.995363 0.983692
