LUTs/SPK Cube Block1 S32/TheBrim_SPK_Type-W_Block1_S32.cube
TITLE "TheBrim® Industrial Imaging Burau"
# © Copyright 2022 - TheBrim® d.o.o. Croatia
LUT_3D_SIZE 8
DOMAIN_MIN 0.000000 0.000000 0.000000
DOMAIN_MAX 0.903226 0.903226 0.903226
0.038086 0.065277 0.119720
0.045534 0.065293 0.119098
0.099906 0.065068 0.118187
0.287515 0.063171 0.118164
0.482846 0.063171 0.118164
0.555758 0.063171 0.118164
0.576736 0.063171 0.118164
0.586875 0.063171 0.118164
0.037443 0.077234 0.120022
0.047088 0.074631 0.119338
0.090510 0.076440 0.118209
0.246298 0.072328 0.118164
0.477368 0.063187 0.118164
0.580686 0.063171 0.118164
0.614636 0.063171 0.118164
0.623870 0.063171 0.118164
0.036133 0.118885 0.118316
0.047367 0.115902 0.118187
0.097878 0.112715 0.118164
0.248504 0.115106 0.118164
0.487394 0.107677 0.118164
0.613847 0.089957 0.118164
0.662182 0.073979 0.118164
0.671852 0.067505 0.118164
0.036133 0.252085 0.118164
0.036697 0.228544 0.118164
0.116730 0.227522 0.118164
0.303061 0.233491 0.118164
0.545577 0.230980 0.118164
0.670244 0.208219 0.118164
0.725895 0.184023 0.118164
0.739169 0.163981 0.118164
0.036133 0.353137 0.118164
0.036216 0.389764 0.118164
0.133606 0.424407 0.118164
0.375266 0.459163 0.118164
0.603985 0.468654 0.118164
0.731324 0.453071 0.118164
0.800531 0.424327 0.118164
0.824286 0.392179 0.118164
0.036133 0.420426 0.118164
0.036546 0.481226 0.118164
0.167584 0.535708 0.118164
0.433222 0.579882 0.118164
0.644269 0.609616 0.118164
0.779288 0.618276 0.118164
0.861959 0.611178 0.118164
0.894171 0.595397 0.118164
0.036133 0.452908 0.118164
0.038559 0.524114 0.118164
0.218238 0.583538 0.118164
0.480350 0.627641 0.118164
0.669298 0.662648 0.118164
0.804884 0.683131 0.118164
0.893968 0.689368 0.118164
0.932535 0.684755 0.118164
0.036133 0.454892 0.118164
0.040204 0.535079 0.118164
0.239040 0.597254 0.118164
0.484552 0.641440 0.118164
0.665569 0.679370 0.118164
0.805207 0.706638 0.118164
0.901081 0.719527 0.118164
0.945260 0.720847 0.118164
0.036678 0.065857 0.135737
0.044694 0.066060 0.128993
0.102193 0.065673 0.125184
0.308117 0.063171 0.119109
0.513428 0.063171 0.118164
0.577421 0.063171 0.118164
0.592752 0.063171 0.118164
0.600268 0.063171 0.118164
0.036133 0.078066 0.134058
0.043654 0.075357 0.128066
0.084734 0.077296 0.125333
0.230890 0.073857 0.120613
0.473519 0.063265 0.118168
0.590113 0.063171 0.118164
0.630341 0.063171 0.118164
0.638736 0.063171 0.118164
0.036133 0.130085 0.139387
0.040614 0.111458 0.130869
0.090084 0.111278 0.127036
0.233318 0.114172 0.121242
0.478703 0.108160 0.118172
0.618097 0.090953 0.118164
0.673618 0.073732 0.118164
0.686571 0.067154 0.118164
0.036133 0.270669 0.138246
0.036141 0.207792 0.129346
0.102226 0.223814 0.122486
0.282104 0.229124 0.118317
0.531831 0.226833 0.118164
0.666630 0.207249 0.118164
0.731715 0.183304 0.118164
0.752538 0.165361 0.118164
0.036133 0.396200 0.135743
0.036133 0.406794 0.121036
0.103925 0.426157 0.118282
0.345009 0.456759 0.118164
0.588289 0.462537 0.118164
0.726278 0.453011 0.118164
0.804453 0.424112 0.118164
0.832920 0.393003 0.118164
0.036133 0.468165 0.144266
0.036133 0.515910 0.124597
0.122505 0.559272 0.118184
0.398474 0.596733 0.118164
0.631070 0.620493 0.118164
0.772852 0.624464 0.118164
0.863907 0.616546 0.118164
0.900645 0.602922 0.118164
0.036133 0.511928 0.153390
0.036133 0.571031 0.143497
0.172034 0.619074 0.123915
0.448892 0.655412 0.118310
0.655951 0.684820 0.118164
0.798025 0.702787 0.118164
0.893360 0.707539 0.118164
0.936363 0.700200 0.118164
0.036133 0.515601 0.145410
0.036133 0.584729 0.142071
0.197775 0.636098 0.138679
0.461581 0.675298 0.131206
0.656234 0.709543 0.119562
0.800923 0.734910 0.118227
0.899929 0.746725 0.118164
0.946908 0.747068 0.118164
0.036133 0.063262 0.209886
0.042600 0.063638 0.192981
0.096025 0.064357 0.174838
0.305142 0.063171 0.161794
0.530377 0.063171 0.147725
0.598633 0.063171 0.132787
0.611915 0.063171 0.121615
0.618686 0.063171 0.118369
0.036133 0.082763 0.204509
0.038199 0.078674 0.168354
0.081784 0.080461 0.160865
0.230112 0.077205 0.154747
0.482307 0.063466 0.145152
0.605572 0.063171 0.134011
0.646974 0.063171 0.122467
0.655646 0.063171 0.118666
0.036133 0.137265 0.210985
0.036225 0.114122 0.169212
0.082014 0.117530 0.167304
0.223340 0.119878 0.160558
0.474341 0.113847 0.150898
0.623661 0.096716 0.139006
0.686187 0.078481 0.125620
0.702334 0.069123 0.118668
0.036133 0.284519 0.220440
0.036133 0.237374 0.187040
0.083412 0.232169 0.175983
0.265230 0.242541 0.168557
0.526295 0.240694 0.155500
0.669453 0.221878 0.141083
0.742185 0.196863 0.125576
0.767221 0.176860 0.118440
0.036133 0.433521 0.224419
0.036133 0.435611 0.196057
0.060879 0.452824 0.182132
0.313145 0.479141 0.168241
0.580152 0.486361 0.149585
0.723776 0.474468 0.129438
0.808442 0.447392 0.119644
0.842727 0.413510 0.118164
0.036133 0.508268 0.235534
0.036133 0.547197 0.208786
0.054741 0.585969 0.191341
0.353941 0.619011 0.167366
0.617397 0.641210 0.139096
0.766058 0.644930 0.120230
0.862678 0.636564 0.118408
0.904461 0.619181 0.118164
0.036133 0.553426 0.261662
0.036133 0.606484 0.256759
0.100341 0.648230 0.243966
0.413366 0.681454 0.211369
0.643233 0.710689 0.174655
0.789712 0.727309 0.135292
0.888924 0.728565 0.119109
0.936202 0.718661 0.118164
0.036133 0.567412 0.257743
0.036133 0.627642 0.270616
0.154251 0.671171 0.284001
0.449667 0.708829 0.291837
0.652163 0.740025 0.269777
0.795431 0.761716 0.227522
0.894961 0.770123 0.178457
0.943701 0.769537 0.139369
0.036133 0.063171 0.304526
0.042159 0.063171 0.312394
0.087967 0.063171 0.318131
0.285287 0.063171 0.308693
0.525156 0.063171 0.265612
0.613368 0.063171 0.219797
0.627378 0.063171 0.177584
0.634822 0.063171 0.154455
0.036133 0.082419 0.341634
0.036133 0.078722 0.286570
0.075764 0.079072 0.276502
0.219051 0.076662 0.262051
0.476439 0.063601 0.241708
0.613413 0.063171 0.216971
0.660161 0.063171 0.182444
0.670545 0.063171 0.164066
0.036133 0.140517 0.353005
0.036133 0.124540 0.287156
0.071079 0.125068 0.275003
0.216198 0.127657 0.266292
0.474269 0.121752 0.250123
0.629806 0.104504 0.229253
0.696899 0.086530 0.201644
0.716644 0.076049 0.176384
0.036133 0.305685 0.388915
0.036133 0.254958 0.323772
0.053025 0.254785 0.305088
0.245081 0.266909 0.298248
0.520533 0.263677 0.279046
0.670702 0.244519 0.255248
0.749022 0.218144 0.226495
0.778614 0.197162 0.191038
0.036133 0.473611 0.404464
0.036133 0.463171 0.353525
0.036952 0.485095 0.338642
0.271701 0.508206 0.325601
0.567739 0.514963 0.305264
0.719448 0.503781 0.278077
0.809142 0.478241 0.246899
0.848398 0.446177 0.201751
0.036133 0.537797 0.407003
0.036133 0.575025 0.371447
0.036322 0.612647 0.362470
0.295196 0.644056 0.347325
0.598935 0.665045 0.323746
0.756024 0.669180 0.292652
0.856922 0.660481 0.258077
0.903596 0.643292 0.208271
0.036133 0.579990 0.422297
0.036133 0.632132 0.416810
0.040264 0.670744 0.413708
0.358541 0.705418 0.400134
0.625014 0.735966 0.373483
0.776332 0.752480 0.337605
0.878780 0.754151 0.293896
0.929697 0.744221 0.233077
0.036133 0.602571 0.423107
0.036133 0.657751 0.438765
0.109359 0.696970 0.456369
0.428738 0.732592 0.461829
0.645758 0.763045 0.445947
0.788231 0.785623 0.422302
0.886333 0.795490 0.383410
0.936297 0.793832 0.320935
0.036133 0.063171 0.365199
0.040594 0.063171 0.373621
0.077195 0.063171 0.406047
0.223020 0.063171 0.429220
0.499654 0.063171 0.423843
0.617891 0.063171 0.390557
0.638380 0.063171 0.311836
0.646712 0.063171 0.253920
0.036133 0.080341 0.424130
0.036133 0.075966 0.402559
0.070509 0.073249 0.417539
0.201486 0.069488 0.426252
0.464729 0.063340 0.417545
0.609256 0.063171 0.383443
0.668915 0.063171 0.328288
0.682076 0.063171 0.286556
0.036133 0.145132 0.475901
0.036133 0.131880 0.443650
0.057558 0.130698 0.434358
0.205953 0.132987 0.438667
0.470468 0.126802 0.430593
0.631188 0.110539 0.406721
0.704334 0.092231 0.370596
0.727151 0.082089 0.327833
0.036133 0.308128 0.514394
0.036133 0.269567 0.477964
0.036987 0.276994 0.477258
0.224377 0.287565 0.477760
0.511934 0.286501 0.468570
0.670356 0.267715 0.449493
0.753122 0.241351 0.418881
0.786135 0.221990 0.372603
0.036133 0.490767 0.537820
0.036133 0.488393 0.517221
0.036133 0.506925 0.512216
0.228043 0.532243 0.513046
0.551793 0.538512 0.504307
0.712728 0.528936 0.487045
0.806505 0.506732 0.459853
0.849619 0.480619 0.411317
0.036133 0.555093 0.537014
0.036133 0.596591 0.535005
0.036133 0.633241 0.535137
0.232623 0.664574 0.534322
0.577975 0.685117 0.526552
0.743661 0.689480 0.510950
0.848025 0.681780 0.486240
0.898249 0.666455 0.440603
0.036133 0.596338 0.546750
0.036133 0.646129 0.555976
0.036338 0.689677 0.559837
0.297735 0.724953 0.559553
0.605267 0.756380 0.552904
0.762088 0.773944 0.537285
0.866894 0.776206 0.511394
0.919771 0.768293 0.469572
0.036133 0.624958 0.550298
0.036133 0.677455 0.565917
0.043570 0.716253 0.580358
0.398225 0.752308 0.585340
0.635751 0.783740 0.583458
0.778271 0.806553 0.575837
0.875131 0.817455 0.558939
0.925248 0.815796 0.522966
0.036133 0.063171 0.387194
0.038265 0.063171 0.400891
0.068086 0.063171 0.434286
0.167821 0.063171 0.467019
0.423733 0.063171 0.482303
0.594078 0.063171 0.474108
0.646825 0.063171 0.449759
0.655893 0.063171 0.406113
0.036133 0.082914 0.457611
0.036133 0.079979 0.468298
0.062730 0.076341 0.489304
0.179224 0.071075 0.508776
0.430081 0.063548 0.513954
0.603672 0.063171 0.505412
0.675501 0.063171 0.487640
0.691599 0.063171 0.456164
0.036133 0.146021 0.520123
0.036133 0.137332 0.520679
0.043530 0.138150 0.534540
0.194156 0.139744 0.547613
0.461773 0.133187 0.550347
0.632867 0.115698 0.543125
0.710625 0.094683 0.527996
0.735776 0.084753 0.504106
0.036133 0.305247 0.567408
0.036133 0.287603 0.566587
0.036180 0.294648 0.576397
0.202529 0.308602 0.585523
0.502446 0.308459 0.586335
0.669682 0.290123 0.579696
0.756382 0.263501 0.566850
0.791239 0.243960 0.546165
0.036133 0.489638 0.594753
0.036133 0.499660 0.599909
0.036133 0.522381 0.607765
0.187600 0.549249 0.615857
0.536287 0.556901 0.615116
0.706734 0.549392 0.608834
0.804059 0.530247 0.598043
0.849179 0.509200 0.579014
0.036133 0.563891 0.603407
0.036133 0.608007 0.617956
0.036133 0.644961 0.625894
0.176242 0.677577 0.631396
0.558739 0.699029 0.631829
0.732972 0.704672 0.626621
0.839818 0.698169 0.617161
0.891900 0.685452 0.599768
0.036133 0.605664 0.613030
0.036133 0.655707 0.628137
0.036133 0.700858 0.638564
0.246704 0.737430 0.643963
0.588207 0.769167 0.643493
0.750272 0.787847 0.637162
0.856617 0.791611 0.627678
0.910474 0.787243 0.612651
0.036133 0.639674 0.623005
0.036133 0.688916 0.639299
0.038149 0.728793 0.651145
0.373110 0.766309 0.658797
0.626784 0.797571 0.659978
0.769195 0.820138 0.656050
0.865821 0.831101 0.646608
0.915850 0.831647 0.630360
0.036133 0.063171 0.401301
0.038442 0.063171 0.420604
0.064700 0.063171 0.452644
0.140559 0.063171 0.484396
0.360398 0.063171 0.506252
0.569812 0.063171 0.513713
0.648425 0.063171 0.505101
0.661332 0.063171 0.492811
0.036133 0.081693 0.472152
0.036133 0.083152 0.492031
0.057359 0.082906 0.518128
0.158873 0.080064 0.543297
0.401704 0.065972 0.559879
0.600147 0.063171 0.565315
0.679270 0.063171 0.559834
0.699378 0.063171 0.546410
0.036133 0.144000 0.535491
0.036133 0.147026 0.552657
0.036448 0.152666 0.573530
0.174194 0.155929 0.593164
0.446948 0.149817 0.604463
0.632360 0.130983 0.606160
0.716218 0.106688 0.600218
0.743672 0.091251 0.589326
0.036133 0.296424 0.586859
0.036133 0.302874 0.602158
0.036133 0.319360 0.618161
0.174138 0.337744 0.633210
0.488401 0.341039 0.641063
0.668227 0.322925 0.641415
0.760055 0.293841 0.636615
0.796467 0.267477 0.627754
0.036133 0.479740 0.618847
0.036133 0.505746 0.634840
0.036133 0.535718 0.649901
0.148459 0.563240 0.663745
0.519300 0.575537 0.670779
0.701843 0.570652 0.671348
0.803189 0.553227 0.667178
0.849693 0.533140 0.660029
0.036133 0.565638 0.632335
0.036133 0.610121 0.652418
0.036133 0.650788 0.668840
0.135705 0.683655 0.680236
0.541424 0.709291 0.688318
0.724823 0.716467 0.689440
0.834089 0.711490 0.686727
0.887576 0.700255 0.680842
0.036133 0.607578 0.642395
0.036133 0.658898 0.662936
0.036133 0.705184 0.678550
0.203825 0.742200 0.688164
0.573421 0.774640 0.693450
0.741600 0.795271 0.696120
0.849336 0.801877 0.694670
0.904174 0.799521 0.689705
0.036133 0.644263 0.656121
0.036133 0.691396 0.674610
0.037298 0.734093 0.688465
0.350631 0.772932 0.698447
0.618403 0.804463 0.702775
0.762262 0.827308 0.703299
0.859535 0.838626 0.700571
0.909895 0.841170 0.695351
0.036133 0.063171 0.408605
0.041456 0.063171 0.430348
0.066292 0.063171 0.462359
0.132251 0.063171 0.492667
0.322415 0.063171 0.514516
0.544120 0.063171 0.524830
0.640684 0.063171 0.521873
0.661372 0.063171 0.509889
0.036133 0.077783 0.477315
0.036133 0.080636 0.501648
0.061230 0.083595 0.528857
0.153862 0.083795 0.553220
0.373858 0.074864 0.570277
0.583845 0.063602 0.578921
0.676838 0.063171 0.577539
0.701253 0.063171 0.568911
0.036133 0.137694 0.539408
0.036133 0.146310 0.561021
0.036976 0.158442 0.582993
0.169528 0.167920 0.603079
0.428499 0.166644 0.616451
0.624733 0.148635 0.622257
0.716072 0.123958 0.621734
0.747330 0.096193 0.616118
0.036133 0.279994 0.590098
0.036133 0.303147 0.610338
0.036133 0.332072 0.628746
0.158700 0.358608 0.646521
0.472501 0.367935 0.658465
0.663497 0.355474 0.663556
0.760864 0.326051 0.662950
0.799846 0.288268 0.658552
0.036133 0.469857 0.625020
0.036133 0.508871 0.646681
0.036133 0.544220 0.665389
0.121113 0.574132 0.682175
0.500548 0.591862 0.694362
0.696085 0.591090 0.699779
0.803584 0.575763 0.699724
0.849800 0.551488 0.696339
0.036133 0.569191 0.644389
0.036133 0.614430 0.668339
0.036133 0.653797 0.688032
0.104794 0.687813 0.704121
0.521790 0.715910 0.716218
0.716872 0.727537 0.722324
0.831386 0.724347 0.723520
0.884130 0.711304 0.720992
0.036133 0.610954 0.656433
0.036133 0.658109 0.679798
0.036133 0.705592 0.700643
0.158913 0.745002 0.714906
0.557906 0.778721 0.724414
0.734041 0.800908 0.730336
0.844815 0.809086 0.732014
0.899698 0.806910 0.730786
0.036133 0.643173 0.670168
0.036133 0.687707 0.690841
0.036188 0.734818 0.708854
0.313910 0.774524 0.720698
0.606416 0.806758 0.728227
0.754718 0.829924 0.732250
0.855437 0.842403 0.734220
0.905728 0.845488 0.733275
