LUTs/SPK Cube Block1 S32/TheBrim_SPK_Type-T_Block1_S32.cube
TITLE "TheBrim® SPK Block 1"
# TheBrim® d.o.o. Croatia
# Copyright: (C) Copyright 2020 TheBrim® d.o.o. Croatia
LUT_3D_SIZE 5
DOMAIN_MIN 0.000000 0.000000 0.000000
DOMAIN_MAX 0.903226 0.903226 0.903226
0.0000000000 0.0000000000 0.0000000000
0.0496483548 0.0109387742 0.0060363226
0.2844996774 0.0287395806 0.0115071935
0.6031531935 0.0210960323 0.0279397419
0.7431464516 0.0186936774 0.0320626774
0.0218668387 0.0584745806 0.0184621290
0.0533449032 0.0530146452 0.0134623226
0.2812163548 0.0603991613 0.0117977097
0.6031660968 0.0455084516 0.0264608065
0.7442227097 0.0379851935 0.0353954839
0.0580506774 0.2568625806 0.0721660323
0.0910958387 0.2688480000 0.0766245484
0.2788610645 0.2248790968 0.0299753871
0.5886527097 0.2219277742 0.0335200323
0.7261077097 0.2222063871 0.0359623871
0.0795332903 0.5201937419 0.1345577742
0.1175624516 0.5389454516 0.1413030323
0.3202337742 0.5031190323 0.0775788387
0.5833027419 0.4499660000 0.0448218065
0.7107291290 0.4512524194 0.0363879355
0.1208429677 0.6257228710 0.1723688065
0.1696748065 0.6421644194 0.1814723871
0.3489259355 0.6102450968 0.1140370323
0.5952167097 0.5495415484 0.0486585484
0.7094215484 0.5364255161 0.0464410645
0.0116950000 0.0088738387 0.0693847742
0.0333276774 0.0111271935 0.0447950968
0.2620160323 0.0299208387 0.0268513548
0.5704947097 0.0198452258 0.0406634516
0.7118896129 0.0177279355 0.0425132581
0.0239789677 0.0497269032 0.0517586129
0.0737827742 0.0819034516 0.0779367742
0.2983139032 0.0860212581 0.0522039355
0.6173094194 0.0585197097 0.0529981290
0.7560765806 0.0461936129 0.0604170323
0.0614564194 0.2433474516 0.1031531290
0.0981560968 0.2726378387 0.1249624194
0.3042800000 0.2638333226 0.0905248710
0.6102087097 0.2550961935 0.0634815484
0.7452246774 0.2560780000 0.0563810000
0.0724378065 0.5029280000 0.1644365806
0.1237301935 0.5384718387 0.1911069032
0.3539007419 0.5489336452 0.1744307742
0.6081315161 0.4906604839 0.0840316452
0.7327210323 0.4900628387 0.0724998065
0.1089670645 0.6101232258 0.2007495484
0.1702003226 0.6439259032 0.2311620645
0.3839160000 0.6531018387 0.2199519355
0.6216275161 0.5925126452 0.1089250645
0.7325359032 0.5763045806 0.0826525161
0.0220138710 0.0124332903 0.3022846129
0.0292781935 0.0121998387 0.2752489032
0.1806690323 0.0230013226 0.1639939355
0.4585003871 0.0352851613 0.1385310645
0.5983276774 0.0226518710 0.1328471935
0.0253361613 0.0494767097 0.2788361613
0.0383889677 0.0741341290 0.3047227742
0.2244053548 0.1011343226 0.2081428387
0.5127427419 0.0850503226 0.1729936129
0.6487420000 0.0638890323 0.1617127097
0.0608335806 0.2062627097 0.2173785806
0.1043660323 0.2359549032 0.2448829032
0.3973918065 0.3997044194 0.3938000323
0.7017224194 0.3929206774 0.3386083548
0.8273563871 0.3919671935 0.3167813548
0.0596097742 0.4507861290 0.2735723548
0.1056647419 0.4906674839 0.3068070645
0.4434587742 0.6532250645 0.4687381935
0.6952692581 0.6294153871 0.4015083548
0.8140868387 0.6257028065 0.3757748065
0.0762190000 0.5595487097 0.3082351290
0.1351129032 0.5955889677 0.3396438387
0.4668034839 0.7458564516 0.4992012258
0.7069344516 0.7274663548 0.4404919032
0.8121584839 0.7083839032 0.4013188387
0.0000000000 0.0136856129 0.5671474516
0.0084061613 0.0137730645 0.5478517097
0.0980089355 0.0149081935 0.4008190323
0.3693441935 0.0357735484 0.2689936774
0.4985830968 0.0335937097 0.2539327097
0.0001713548 0.0393969677 0.5400003226
0.0084363871 0.0563875484 0.5656660000
0.1140262581 0.0867190000 0.4722564516
0.4234223871 0.0974733548 0.3197503871
0.5555155806 0.0829447742 0.2998134839
0.0088008065 0.1983237742 0.4502180323
0.0192190645 0.2244745484 0.4798101935
0.3142743548 0.3894268710 0.6476341613
0.6228281935 0.4160922581 0.5272136452
0.7503025161 0.4181783548 0.5062898065
0.0498181290 0.4008946452 0.4068409032
0.1032003871 0.4406415484 0.4425540968
0.4448981935 0.6180595484 0.6009100968
0.7725002903 0.7572483548 0.7179060968
0.8853327742 0.7517067419 0.6936302903
0.0621966129 0.5071331290 0.4375076452
0.1098779677 0.5447672258 0.4709284839
0.4642157419 0.7126366129 0.6246881613
0.7854269355 0.8498879355 0.7511342903
0.8819320323 0.8310527097 0.7138109677
0.0000000000 0.0015068065 0.7053757419
0.0083659355 0.0033447419 0.6846316129
0.0509279032 0.0176186129 0.5619195161
0.3303822903 0.0329554516 0.3747637742
0.4469952903 0.0342390323 0.3323324194
0.0000000000 0.0257480968 0.6792830645
0.0083659355 0.0454295806 0.7032207097
0.0567834194 0.0780657742 0.6239790323
0.3823999355 0.0992995484 0.4348233871
0.5032917742 0.0896461613 0.3867155484
0.0004291935 0.1910871613 0.5861363226
0.0096307097 0.2163038710 0.6132764516
0.2637084194 0.3834408387 0.7712626452
0.5823126129 0.4174950968 0.6455858065
0.7041181935 0.4220618387 0.5984062581
0.0371559677 0.3919816774 0.5030740968
0.0678560968 0.4294343226 0.5368268387
0.4282375161 0.6093681290 0.6940130323
0.7784630000 0.7864557097 0.8458362903
0.8895499677 0.7908986452 0.8108335161
0.0561018710 0.4774758387 0.5056378387
0.1147996129 0.5196414516 0.5427366452
0.4673744839 0.6913766774 0.6925701290
0.8070234839 0.8656145161 0.8428316129
0.9189101935 0.8922952903 0.8577187419
