LUTs/SPK Cube Block1 S32/TheBrim_SPK_Type-R_Block1_S32.cube
TITLE "TheBrim® SPK Block 1"
# © Copyright 2021 - TheBrim® d.o.o. Croatia
LUT_3D_SIZE 32
DOMAIN_MIN 0.000000 0.000000 0.000000
DOMAIN_MAX 1.000000 1.000000 1.000000
0.001068 0.004303 0.006806
0.001512 0.005441 0.009637
0.003401 0.006188 0.011390
0.006169 0.007033 0.012700
0.009118 0.007994 0.013695
0.012397 0.009067 0.015545
0.015445 0.009873 0.016872
0.018856 0.010693 0.018473
0.028796 0.012269 0.020924
0.058937 0.015484 0.024352
0.118543 0.019113 0.028081
0.209600 0.018300 0.025260
0.332130 0.000000 0.008833
0.392080 0.000000 0.006203
0.445820 0.000000 0.000584
0.491285 0.000000 0.006383
0.526693 0.000000 0.011014
0.557629 0.000000 0.013817
0.586633 0.000000 0.017397
0.608468 0.000000 0.020163
0.621935 0.000000 0.025103
0.628400 0.000000 0.027515
0.636445 0.000000 0.030967
0.643267 0.000000 0.032519
0.645761 0.000000 0.034007
0.646511 0.000000 0.036777
0.650361 0.000000 0.038517
0.655106 0.000000 0.039370
0.659700 0.000000 0.046524
0.663611 0.000000 0.051146
0.664176 0.000000 0.051601
0.664179 0.000000 0.051606
0.001096 0.005406 0.010615
0.001562 0.005687 0.011016
0.003411 0.006221 0.011786
0.006466 0.007035 0.012313
0.009575 0.008036 0.013270
0.013564 0.009200 0.014744
0.017360 0.010121 0.016013
0.021463 0.011028 0.017687
0.034750 0.012980 0.020409
0.068818 0.016327 0.023453
0.128755 0.019672 0.027093
0.221403 0.016844 0.021853
0.337266 0.000000 0.007552
0.393118 0.000000 0.005639
0.446462 0.000000 0.000673
0.492143 0.000000 0.006554
0.526947 0.000000 0.011141
0.557516 0.000000 0.013926
0.586295 0.000000 0.017427
0.608702 0.000000 0.020177
0.621949 0.000000 0.025157
0.628377 0.000000 0.027667
0.636380 0.000000 0.030997
0.643189 0.000000 0.032512
0.645775 0.000000 0.034000
0.646568 0.000000 0.036816
0.650259 0.000000 0.038489
0.655071 0.000000 0.039366
0.659609 0.000000 0.046374
0.663519 0.000000 0.051047
0.664174 0.000000 0.051600
0.664179 0.000000 0.051606
0.000603 0.006758 0.010947
0.001562 0.006594 0.010561
0.004136 0.006696 0.010799
0.006946 0.007100 0.011973
0.009268 0.008046 0.013771
0.013314 0.009208 0.015136
0.017795 0.010198 0.015857
0.024215 0.011392 0.017520
0.038842 0.013398 0.019609
0.073928 0.016575 0.022992
0.136356 0.020211 0.025890
0.227892 0.016127 0.019349
0.338014 0.000000 0.007541
0.395036 0.000000 0.005625
0.447045 0.000000 0.000768
0.492829 0.000000 0.006721
0.527406 0.000000 0.011283
0.557484 0.000000 0.014029
0.585854 0.000000 0.017390
0.608862 0.000000 0.020336
0.622049 0.000000 0.025368
0.628228 0.000000 0.027734
0.636347 0.000000 0.031008
0.643037 0.000000 0.032550
0.645780 0.000000 0.034003
0.646580 0.000000 0.036839
0.650213 0.000000 0.038481
0.655063 0.000000 0.039370
0.659545 0.000000 0.046098
0.663459 0.000000 0.050982
0.664169 0.000000 0.051598
0.664179 0.000000 0.051606
0.000000 0.010118 0.012282
0.000433 0.009485 0.011224
0.002543 0.008936 0.010628
0.007231 0.008465 0.010477
0.011799 0.008394 0.011314
0.016158 0.009689 0.013897
0.018756 0.010405 0.016142
0.025167 0.011524 0.017709
0.039810 0.013519 0.019788
0.077075 0.016752 0.022805
0.141370 0.020523 0.025064
0.229494 0.015925 0.019264
0.337078 0.000000 0.007391
0.395812 0.000000 0.005738
0.447839 0.000000 0.000951
0.492876 0.000000 0.006806
0.527573 0.000000 0.011431
0.557802 0.000000 0.014156
0.585502 0.000000 0.017382
0.608646 0.000000 0.020380
0.622197 0.000000 0.025633
0.628024 0.000000 0.027857
0.636271 0.000000 0.031053
0.642856 0.000000 0.032550
0.645779 0.000000 0.033998
0.646631 0.000000 0.036851
0.650146 0.000000 0.038501
0.655059 0.000000 0.039430
0.659428 0.000000 0.045754
0.663404 0.000000 0.050940
0.664081 0.000000 0.051563
0.664179 0.000000 0.051606
0.000000 0.015307 0.015545
0.000000 0.014957 0.014757
0.000376 0.014089 0.013196
0.004071 0.013170 0.012141
0.010524 0.012120 0.011862
0.018924 0.012033 0.012666
0.028166 0.012495 0.014181
0.036591 0.013116 0.016034
0.051709 0.014694 0.019041
0.083941 0.017143 0.022575
0.142819 0.020561 0.025327
0.230176 0.015707 0.019365
0.339240 0.000000 0.006608
0.395478 0.000000 0.005941
0.449018 0.000000 0.001197
0.493799 0.000000 0.006936
0.527400 0.000000 0.011607
0.558216 0.000000 0.014217
0.585041 0.000000 0.017392
0.608037 0.000000 0.020405
0.622186 0.000000 0.025851
0.628001 0.000000 0.027887
0.635990 0.000000 0.030937
0.642745 0.000000 0.032616
0.645814 0.000000 0.033878
0.646583 0.000000 0.036831
0.650029 0.000000 0.038513
0.655070 0.000000 0.039519
0.659310 0.000000 0.045470
0.663375 0.000000 0.050930
0.664077 0.000000 0.051501
0.664179 0.000000 0.051606
0.000000 0.024234 0.019485
0.000000 0.023876 0.019125
0.000000 0.023009 0.018556
0.000000 0.022476 0.017778
0.005836 0.021771 0.016570
0.017061 0.020634 0.014903
0.033776 0.019694 0.014538
0.054646 0.018528 0.015274
0.085165 0.018571 0.015598
0.119821 0.019958 0.017969
0.161485 0.021320 0.021020
0.240007 0.014406 0.017391
0.341961 0.000000 0.007132
0.396620 0.000000 0.006302
0.450894 0.000000 0.001617
0.493743 0.000000 0.007169
0.527666 0.000000 0.011873
0.558314 0.000000 0.014295
0.585052 0.000000 0.017400
0.607501 0.000000 0.020512
0.621840 0.000000 0.025619
0.628060 0.000000 0.027986
0.635819 0.000000 0.030852
0.642536 0.000000 0.032683
0.645914 0.000000 0.033899
0.646439 0.000000 0.036596
0.649820 0.000000 0.038486
0.654911 0.000000 0.039529
0.659162 0.000000 0.045171
0.663372 0.000000 0.050912
0.664050 0.000000 0.051449
0.664179 0.000000 0.051606
0.000000 0.042503 0.026434
0.000000 0.042603 0.026115
0.000000 0.042351 0.025540
0.000000 0.039709 0.023323
0.000000 0.037179 0.021915
0.008422 0.036341 0.021241
0.025459 0.035750 0.020174
0.054771 0.035205 0.019383
0.090509 0.033411 0.019253
0.137858 0.033408 0.017694
0.190785 0.029159 0.016408
0.264861 0.016454 0.012347
0.342355 0.000000 0.007707
0.400506 0.000000 0.007031
0.450142 0.000000 0.002956
0.494397 0.000000 0.007780
0.527646 0.000000 0.012325
0.556939 0.000000 0.014653
0.584679 0.000000 0.017439
0.607280 0.000000 0.020923
0.621585 0.000000 0.025640
0.627859 0.000000 0.028244
0.635871 0.000000 0.030975
0.642294 0.000000 0.032804
0.645988 0.000000 0.033934
0.646285 0.000000 0.036459
0.649751 0.000000 0.038470
0.654599 0.000000 0.039467
0.659053 0.000000 0.044888
0.663316 0.000000 0.050865
0.664056 0.000000 0.051473
0.664179 0.000000 0.051606
0.000000 0.074491 0.037920
0.000000 0.073856 0.037503
0.000000 0.073343 0.037137
0.000000 0.072837 0.036087
0.000000 0.068983 0.033238
0.000000 0.062649 0.028777
0.014582 0.061132 0.026872
0.046547 0.060702 0.025654
0.086434 0.060998 0.026996
0.131797 0.058699 0.025455
0.187849 0.054337 0.021430
0.259596 0.043434 0.017171
0.328533 0.024309 0.011793
0.397400 0.000000 0.006835
0.451002 0.000000 0.005299
0.494259 0.000000 0.008821
0.527090 0.000000 0.013555
0.556524 0.000000 0.015195
0.583994 0.000000 0.017446
0.607033 0.000000 0.021486
0.621624 0.000000 0.026166
0.627706 0.000000 0.028454
0.635681 0.000000 0.030940
0.642425 0.000000 0.032833
0.646073 0.000000 0.033909
0.646328 0.000000 0.036472
0.649452 0.000000 0.038408
0.654188 0.000000 0.039333
0.658919 0.000000 0.044506
0.663180 0.000000 0.050931
0.664110 0.000000 0.051581
0.664179 0.000000 0.051606
0.000000 0.120478 0.048678
0.000000 0.118329 0.048478
0.000000 0.115980 0.048296
0.000000 0.113456 0.048324
0.000000 0.111155 0.047214
0.000000 0.106655 0.043054
0.000000 0.095106 0.039002
0.022736 0.093139 0.035848
0.069798 0.093207 0.032485
0.125210 0.091977 0.033027
0.182210 0.089105 0.030598
0.249499 0.083423 0.027882
0.319284 0.068713 0.021787
0.391685 0.043764 0.014869
0.450949 0.008044 0.011113
0.494536 0.000000 0.011172
0.528936 0.000000 0.013901
0.557651 0.000000 0.016068
0.583880 0.000000 0.017616
0.606935 0.000000 0.022488
0.621714 0.000000 0.026837
0.627732 0.000000 0.028778
0.635411 0.000000 0.030928
0.642317 0.000000 0.032956
0.646128 0.000000 0.033986
0.646294 0.000000 0.036414
0.649261 0.000000 0.038398
0.653815 0.000000 0.039294
0.658596 0.000000 0.043797
0.662847 0.000000 0.051003
0.664105 0.000000 0.051627
0.664179 0.000000 0.051606
0.000000 0.173956 0.066582
0.000000 0.172479 0.065989
0.000000 0.170317 0.065547
0.000000 0.166580 0.064565
0.000000 0.160919 0.063318
0.000000 0.157392 0.062125
0.000000 0.150911 0.056471
0.000000 0.132915 0.049446
0.028380 0.130672 0.046871
0.091264 0.131142 0.044009
0.165498 0.131191 0.038721
0.235827 0.128494 0.036679
0.315533 0.121953 0.030797
0.385547 0.104615 0.023752
0.451282 0.079267 0.018668
0.501630 0.040183 0.014700
0.538846 0.004439 0.013956
0.564693 0.000000 0.016187
0.587337 0.000000 0.017311
0.608018 0.000000 0.023069
0.621690 0.000000 0.027568
0.627628 0.000000 0.029314
0.635455 0.000000 0.031025
0.642100 0.000000 0.033041
0.646232 0.000000 0.034028
0.646259 0.000000 0.036349
0.649057 0.000000 0.038389
0.653587 0.000000 0.039308
0.658333 0.000000 0.043200
0.662288 0.000000 0.050432
0.664088 0.000000 0.051569
0.664179 0.000000 0.051606
0.000000 0.232949 0.090815
0.000000 0.231053 0.090389
0.000000 0.229145 0.089504
0.000000 0.226135 0.088682
0.000000 0.222003 0.087400
0.000000 0.215804 0.085815
0.000000 0.210676 0.083259
0.000000 0.201895 0.073988
0.000000 0.175821 0.065946
0.021619 0.177726 0.062393
0.122272 0.177282 0.057661
0.205563 0.177742 0.049991
0.292449 0.176198 0.042101
0.374889 0.168663 0.032305
0.450401 0.151218 0.024745
0.512184 0.124892 0.018224
0.555657 0.088732 0.016549
0.584115 0.048800 0.016100
0.607477 0.011409 0.018897
0.621467 0.000000 0.021250
0.629036 0.000000 0.025655
0.630741 0.000000 0.029803
0.638829 0.000000 0.030440
0.642348 0.000000 0.033101
0.646417 0.000000 0.034062
0.646262 0.000000 0.036249
0.648991 0.000000 0.038379
0.653341 0.000000 0.039341
0.658156 0.000000 0.042841
0.661737 0.000000 0.049854
0.664038 0.000000 0.051567
0.664179 0.000000 0.051606
0.000000 0.293011 0.113886
0.000000 0.291875 0.113486
0.000000 0.290148 0.112922
0.000000 0.287313 0.111728
0.000000 0.283118 0.109631
0.000000 0.277838 0.107637
0.000000 0.271905 0.106263
0.000000 0.264995 0.104233
0.000000 0.258911 0.097293
0.000000 0.225116 0.083972
0.019935 0.228292 0.079505
0.153584 0.235366 0.069593
0.251493 0.235880 0.059496
0.351389 0.234519 0.048898
0.439924 0.224342 0.033374
0.512983 0.205760 0.022891
0.568053 0.182387 0.015542
0.608434 0.149405 0.015610
0.634602 0.111078 0.018971
0.651589 0.075937 0.021854
0.662702 0.039277 0.024898
0.662714 0.010526 0.028237
0.658882 0.000563 0.029062
0.655928 0.000000 0.031464
0.652145 0.000000 0.033393
0.649680 0.000000 0.035494
0.651073 0.000000 0.037455
0.653180 0.000000 0.039348
0.657942 0.000000 0.042373
0.661564 0.000000 0.049855
0.664085 0.000000 0.051568
0.664179 0.000000 0.051606
0.000000 0.343058 0.136461
0.000000 0.342821 0.136197
0.000000 0.342609 0.135803
0.000000 0.341503 0.134951
0.000000 0.338852 0.133545
0.000000 0.334885 0.131806
0.000000 0.329848 0.129835
0.000000 0.324065 0.127778
0.000000 0.314906 0.123849
0.000000 0.310922 0.115481
0.000000 0.280416 0.101344
0.035213 0.289549 0.095557
0.194031 0.304241 0.085883
0.302278 0.307541 0.069077
0.409238 0.304412 0.047558
0.511453 0.294788 0.027157
0.577229 0.274349 0.013218
0.629632 0.249293 0.008793
0.662404 0.218136 0.011262
0.686942 0.181819 0.013753
0.701313 0.149729 0.018516
0.709071 0.117464 0.021208
0.702989 0.083796 0.021846
0.694507 0.056806 0.024893
0.683985 0.025132 0.030582
0.672576 0.007502 0.034077
0.665382 0.000000 0.035686
0.663237 0.000000 0.037533
0.663460 0.000000 0.041787
0.665282 0.000000 0.049094
0.667628 0.000000 0.051497
0.667143 0.000000 0.051584
0.000000 0.388352 0.156807
0.000000 0.388120 0.156630
0.000000 0.387783 0.156306
0.000000 0.387468 0.155738
0.000000 0.386767 0.155049
0.000000 0.384186 0.154032
0.000000 0.380154 0.153732
0.000000 0.374446 0.152170
0.000000 0.367809 0.149126
0.000000 0.360657 0.142588
0.000000 0.359371 0.131963
0.000000 0.338464 0.118143
0.052812 0.363770 0.112305
0.238760 0.381234 0.098584
0.363812 0.390478 0.077554
0.472849 0.388977 0.052080
0.571358 0.374776 0.023631
0.641338 0.356940 0.000000
0.690764 0.331730 0.000000
0.722630 0.303285 0.000000
0.742601 0.264964 0.000269
0.754400 0.231542 0.002209
0.755866 0.200262 0.004403
0.740644 0.160649 0.010149
0.728904 0.131554 0.016952
0.718048 0.102425 0.023470
0.707695 0.074412 0.029006
0.699843 0.051201 0.033281
0.693822 0.032669 0.039263
0.688610 0.017400 0.047828
0.687848 0.014590 0.049574
0.686384 0.014026 0.049752
0.000000 0.428406 0.178337
0.000000 0.428314 0.178278
0.000000 0.428080 0.178144
0.000000 0.427644 0.177917
0.000000 0.426948 0.176970
0.000000 0.425604 0.175631
0.000000 0.422140 0.173400
0.000000 0.417885 0.170370
0.000000 0.413241 0.167589
0.000000 0.406337 0.164237
0.000000 0.403658 0.159576
0.000000 0.404406 0.147884
0.000000 0.414785 0.136104
0.121823 0.442092 0.126463
0.292922 0.460743 0.109476
0.426743 0.474148 0.082370
0.542780 0.473960 0.041652
0.635795 0.466435 0.002054
0.709538 0.450941 0.000000
0.753057 0.427837 0.000000
0.784500 0.402864 0.000000
0.800392 0.362943 0.000000
0.809033 0.330364 0.000000
0.802135 0.288927 0.000000
0.783529 0.244152 0.000256
0.768856 0.209645 0.003754
0.755685 0.179737 0.009792
0.743328 0.151707 0.020956
0.736698 0.135897 0.029257
0.729697 0.118262 0.036959
0.722982 0.102333 0.040219
0.721499 0.099026 0.041147
0.000000 0.459270 0.196199
0.000000 0.459068 0.195999
0.000000 0.458883 0.195798
0.000000 0.458596 0.195543
0.000000 0.458180 0.195096
0.000000 0.457585 0.194462
0.000000 0.456111 0.193512
0.000000 0.453516 0.192944
0.000000 0.450256 0.191578
0.000000 0.446368 0.189420
0.000000 0.442380 0.183669
0.000000 0.441763 0.173315
0.000000 0.454224 0.160441
0.000000 0.485857 0.152270
0.202086 0.513806 0.139461
0.369423 0.538254 0.112164
0.503717 0.555179 0.075792
0.617479 0.563941 0.029983
0.703320 0.562995 0.000000
0.768248 0.548504 0.000000
0.814883 0.529553 0.000000
0.840018 0.506961 0.000000
0.854484 0.468997 0.000000
0.857020 0.431514 0.000000
0.845536 0.385968 0.000000
0.828697 0.340735 0.000000
0.813732 0.303597 0.000000
0.798896 0.267710 0.001099
0.786168 0.238551 0.006206
0.774414 0.212038 0.013444
0.766235 0.194404 0.020930
0.760180 0.182050 0.024075
0.000000 0.485494 0.213279
0.000000 0.485292 0.213140
0.000000 0.485099 0.212964
0.000000 0.484762 0.212727
0.000000 0.484323 0.212387
0.000000 0.483820 0.211778
0.000000 0.483417 0.210728
0.000000 0.481516 0.208510
0.000000 0.478689 0.206523
0.000000 0.475754 0.204669
0.000000 0.473433 0.202318
0.000000 0.474029 0.196490
0.000000 0.478774 0.186167
0.000000 0.510989 0.169313
0.041319 0.553868 0.159456
0.309570 0.587624 0.138657
0.460585 0.614065 0.110054
0.590263 0.632531 0.058803
0.688463 0.643442 0.002329
0.767052 0.646647 0.000000
0.824748 0.637021 0.000000
0.864524 0.626515 0.000000
0.888080 0.609649 0.000000
0.900743 0.580728 0.000000
0.901361 0.545261 0.000000
0.885940 0.490814 0.000000
0.871860 0.447696 0.000000
0.857187 0.405521 0.000000
0.842099 0.365494 0.000000
0.829546 0.332891 0.000000
0.819668 0.309297 0.001828
0.816041 0.300994 0.003500
0.000000 0.501184 0.223524
0.000000 0.501228 0.223492
0.000000 0.501321 0.223458
0.000000 0.501420 0.223379
0.000000 0.501556 0.223273
0.000000 0.501790 0.223363
0.000000 0.502225 0.223283
0.000000 0.502706 0.222891
0.000000 0.501521 0.221775
0.000000 0.498810 0.218697
0.000000 0.497749 0.213605
0.000000 0.498305 0.207406
0.000000 0.499684 0.201130
0.000000 0.523527 0.188666
0.000000 0.579482 0.176877
0.235017 0.620724 0.158717
0.423136 0.655077 0.130399
0.566549 0.682304 0.093036
0.676051 0.700000 0.032214
0.760630 0.710188 0.000000
0.822695 0.714495 0.000000
0.872570 0.712132 0.000000
0.905053 0.705269 0.000000
0.922910 0.692316 0.000000
0.934868 0.677797 0.000000
0.935367 0.650299 0.000000
0.922385 0.601735 0.000000
0.910134 0.559082 0.000000
0.896726 0.514048 0.000000
0.885103 0.477547 0.000000
0.875731 0.451184 0.000000
0.869960 0.435073 0.000000
0.000000 0.508497 0.228527
0.000000 0.508731 0.228545
0.000000 0.508932 0.228514
0.000000 0.509256 0.228506
0.000000 0.509730 0.228539
0.000000 0.510438 0.228578
0.000000 0.511263 0.228584
0.000000 0.511754 0.228354
0.000000 0.511252 0.228059
0.000000 0.510505 0.226154
0.000000 0.511907 0.220225
0.000000 0.515151 0.213297
0.000000 0.517318 0.207439
0.000000 0.531719 0.203871
0.000000 0.603012 0.197789
0.159473 0.654280 0.185256
0.407301 0.693928 0.159298
0.562206 0.724809 0.120960
0.668426 0.742093 0.071159
0.761182 0.758505 0.003674
0.824664 0.767572 0.000000
0.880492 0.774728 0.000000
0.915225 0.772031 0.000000
0.939116 0.769624 0.000000
0.953988 0.764448 0.000000
0.960556 0.752444 0.000000
0.956847 0.728458 0.000000
0.950516 0.701366 0.000000
0.942750 0.670218 0.000000
0.931877 0.629379 0.000000
0.925074 0.603844 0.000000
0.917332 0.578253 0.000000
0.000000 0.513068 0.231343
0.000000 0.513304 0.231409
0.000000 0.513533 0.231423
0.000000 0.513835 0.231475
0.000000 0.514285 0.231573
0.000000 0.514935 0.231788
0.000000 0.515049 0.231904
0.000000 0.514111 0.231192
0.000000 0.514154 0.229666
0.000000 0.515443 0.226484
0.000000 0.518791 0.221615
0.000000 0.523119 0.216231
0.000000 0.527438 0.211897
0.000000 0.552571 0.212160
0.000000 0.625305 0.213041
0.198377 0.682784 0.202885
0.417234 0.720013 0.181298
0.560033 0.749152 0.149825
0.676683 0.772558 0.125810
0.763233 0.787692 0.074206
0.834336 0.799738 0.000000
0.885775 0.805716 0.000000
0.923267 0.809870 0.000000
0.948451 0.810830 0.000000
0.965682 0.809796 0.000000
0.974694 0.803826 0.000000
0.973206 0.793387 0.000000
0.970444 0.780931 0.000000
0.966491 0.764458 0.000000
0.961611 0.743978 0.000000
0.956093 0.721117 0.000000
0.952504 0.706288 0.000000
0.000000 0.516689 0.234006
0.000000 0.516816 0.234039
0.000000 0.516941 0.234087
0.000000 0.517122 0.234122
0.000000 0.517072 0.234220
0.000000 0.516448 0.234123
0.000000 0.515502 0.233695
0.000000 0.515741 0.232681
0.000000 0.516932 0.230316
0.000000 0.519585 0.225701
0.000000 0.523302 0.220161
0.000000 0.527230 0.216167
0.000000 0.537935 0.213266
0.000000 0.584229 0.215585
0.004273 0.652594 0.219433
0.245856 0.696742 0.208733
0.426715 0.730874 0.194456
0.563498 0.760132 0.170720
0.679276 0.787836 0.150103
0.772818 0.805358 0.110263
0.836940 0.815512 0.045657
0.889242 0.823836 0.000000
0.927376 0.829902 0.000000
0.954076 0.832394 0.000000
0.971098 0.831709 0.000000
0.980761 0.828120 0.000000
0.980732 0.822350 0.000000
0.978988 0.816326 0.000000
0.976402 0.806276 0.000000
0.974521 0.798372 0.000000
0.971664 0.785828 0.000000
0.969416 0.776493 0.000000
0.000000 0.517488 0.235605
0.000000 0.517400 0.235504
0.000000 0.517179 0.235598
0.000000 0.516896 0.235527
0.000000 0.516355 0.235366
0.000000 0.516216 0.234848
0.000000 0.516801 0.233691
0.000000 0.518065 0.231896
0.000000 0.519953 0.228939
0.000000 0.523314 0.224585
0.000000 0.527202 0.219670
0.000000 0.529711 0.215847
0.000000 0.555492 0.214717
0.000000 0.608742 0.218685
0.072068 0.670198 0.220240
0.308713 0.708615 0.209666
0.455943 0.738774 0.199407
0.586879 0.767880 0.175724
0.694597 0.794722 0.156999
0.776433 0.811570 0.130362
0.841445 0.823647 0.065460
0.892751 0.834671 0.033064
0.930240 0.840971 0.000000
0.954846 0.842027 0.000000
0.972629 0.840841 0.000000
0.983098 0.837915 0.000000
0.984033 0.836448 0.000000
0.983479 0.833818 0.000000
0.982578 0.830494 0.000000
0.981396 0.826146 0.000000
0.979779 0.820401 0.000000
0.978318 0.814867 0.000000
0.000000 0.516449 0.235770
0.000000 0.516206 0.235579
0.000000 0.516379 0.235418
0.000000 0.516271 0.235186
0.000000 0.517000 0.234584
0.000000 0.517593 0.233611
0.000000 0.518874 0.232019
0.000000 0.520788 0.229342
0.000000 0.523535 0.226080
0.000000 0.526452 0.222620
0.000000 0.529448 0.219389
0.000000 0.538507 0.215301
0.000000 0.574099 0.217055
0.000000 0.634820 0.220819
0.112127 0.680503 0.220235
0.352649 0.717581 0.209303
0.489657 0.747023 0.199702
0.616024 0.775811 0.176221
0.713666 0.799555 0.155966
0.783530 0.813340 0.130982
0.843083 0.825310 0.073906
0.893316 0.836798 0.049464
0.931291 0.845039 0.029600
0.954952 0.846463 0.000000
0.973002 0.845318 0.000000
0.983935 0.841780 0.000000
0.984704 0.841552 0.000000
0.984590 0.840437 0.000000
0.984498 0.839533 0.000000
0.984232 0.837662 0.000000
0.983725 0.834409 0.000000
0.983154 0.831839 0.000000
0.000000 0.517052 0.234326
0.000000 0.517052 0.233962
0.000000 0.517668 0.233542
0.000000 0.518334 0.233024
0.000000 0.518930 0.231775
0.000000 0.520404 0.230149
0.000000 0.521928 0.227803
0.000000 0.524184 0.225461
0.000000 0.526979 0.222223
0.000000 0.529637 0.219605
0.000000 0.535802 0.215976
0.000000 0.560772 0.216363
0.000000 0.607523 0.219528
0.031060 0.661749 0.222669
0.235153 0.697132 0.215120
0.385805 0.724793 0.208227
0.514882 0.752572 0.196472
0.631808 0.779827 0.175088
0.723813 0.801942 0.153926
0.788624 0.814531 0.130486
0.843287 0.825543 0.075779
0.892445 0.836938 0.053498
0.930034 0.845023 0.033908
0.954136 0.847189 0.000000
0.971600 0.846363 0.000000
0.984419 0.846414 0.000000
0.985155 0.845288 0.000000
0.984935 0.843448 0.000000
0.984852 0.842635 0.000000
0.984734 0.841682 0.000000
0.984604 0.840610 0.000000
0.984533 0.839788 0.000000
0.000000 0.520449 0.230197
0.000000 0.520897 0.229569
0.000000 0.521209 0.228674
0.000000 0.522063 0.227552
0.000000 0.523323 0.226682
0.000000 0.524566 0.224998
0.000000 0.526399 0.222840
0.000000 0.528552 0.220873
0.000000 0.529976 0.218745
0.000000 0.535711 0.215562
0.000000 0.560955 0.216322
0.000000 0.595444 0.218230
0.000000 0.644091 0.221983
0.111409 0.680381 0.220847
0.315542 0.710299 0.211494
0.432658 0.734374 0.205302
0.538844 0.758129 0.193549
0.648709 0.784402 0.173779
0.729578 0.802991 0.151517
0.790166 0.814887 0.130073
0.842743 0.825451 0.076897
0.891133 0.836633 0.053204
0.929168 0.844929 0.036139
0.952697 0.847530 0.000000
0.970577 0.846253 0.000000
0.984033 0.847229 0.000000
0.985143 0.845228 0.000000
0.985264 0.845878 0.000000
0.984981 0.843937 0.000000
0.985046 0.844318 0.000000
0.985288 0.846553 0.000000
0.985126 0.844772 0.000000
0.000000 0.524159 0.225634
0.000000 0.524672 0.225115
0.000000 0.525235 0.224421
0.000000 0.526010 0.223203
0.000000 0.527300 0.221748
0.000000 0.528712 0.220767
0.000000 0.529922 0.219798
0.000000 0.530320 0.217163
0.000000 0.543361 0.214802
0.000000 0.564121 0.216957
0.000000 0.594773 0.218005
0.000000 0.643463 0.221923
0.087086 0.676409 0.221663
0.260965 0.700716 0.213929
0.373622 0.722255 0.209291
0.478891 0.744552 0.202153
0.579184 0.767250 0.184641
0.670734 0.790332 0.169329
0.744437 0.805683 0.145956
0.797522 0.816392 0.125888
0.846350 0.826265 0.072156
0.890976 0.836581 0.053107
0.928969 0.844896 0.036486
0.952242 0.847568 0.000000
0.968936 0.846101 0.000000
0.983384 0.848371 0.000000
0.985063 0.844807 0.000000
0.985403 0.847694 0.000000
0.984985 0.844019 0.000000
0.985073 0.844691 0.000000
0.985432 0.848604 0.000000
0.985645 0.854672 0.000000
0.000000 0.527876 0.221138
0.000000 0.528305 0.220821
0.000000 0.528763 0.220631
0.000000 0.529396 0.220413
0.000000 0.530063 0.219693
0.000000 0.530271 0.217558
0.000000 0.532918 0.215433
0.000000 0.550776 0.214945
0.000000 0.566924 0.217598
0.000000 0.594520 0.217984
0.000000 0.640295 0.221733
0.037122 0.669382 0.223176
0.223742 0.695167 0.215987
0.351332 0.717489 0.210349
0.435749 0.735035 0.205000
0.521471 0.754263 0.196749
0.617979 0.776277 0.176821
0.698154 0.796701 0.162746
0.759813 0.808513 0.140058
0.807029 0.818212 0.118036
0.854613 0.828097 0.060833
0.894844 0.837562 0.055032
0.929032 0.844912 0.036316
0.952223 0.847565 0.000027
0.969182 0.846078 0.000000
0.983340 0.848198 0.000000
0.985113 0.845148 0.000000
0.985431 0.848188 0.000000
0.984985 0.843904 0.000000
0.985047 0.844428 0.000000
0.985350 0.846443 0.000000
0.985631 0.854991 0.000000
0.000000 0.530176 0.219281
0.000000 0.530248 0.218536
0.000000 0.530232 0.217490
0.000000 0.530351 0.216688
0.000000 0.531328 0.215512
0.000000 0.545582 0.214400
0.000000 0.556069 0.215413
0.000000 0.568346 0.217875
0.000000 0.594246 0.217830
0.000000 0.636676 0.221474
0.000000 0.661994 0.223715
0.163832 0.686932 0.219095
0.309723 0.708766 0.211247
0.395838 0.727040 0.208633
0.487731 0.746392 0.200969
0.567987 0.764609 0.187029
0.643809 0.783033 0.173704
0.713859 0.800175 0.157983
