LUTs/SPK Cube Block1 S32/TheBrim_SPK_Type-R_Block1_S32.cube
TITLE "TheBrim® SPK Block 1"
# © Copyright 2021 - TheBrim® d.o.o. Croatia
LUT_3D_SIZE 5
DOMAIN_MIN 0.000000 0.000000 0.000000
DOMAIN_MAX 0.903226 0.903226 0.903226
0.001068 0.004303 0.006806
0.018856 0.010693 0.018473
0.445820 0.000000 0.000584
0.628400 0.000000 0.027515
0.659700 0.000000 0.046524
0.000000 0.074491 0.037920
0.046547 0.060702 0.025654
0.451002 0.000000 0.005299
0.627706 0.000000 0.028454
0.658919 0.000000 0.044506
0.000000 0.428406 0.178337
0.000000 0.417885 0.170370
0.292922 0.460743 0.109476
0.800392 0.362943 0.000000
0.736698 0.135897 0.029257
0.000000 0.517488 0.235605
0.000000 0.518065 0.231896
0.072068 0.670198 0.220240
0.892751 0.834671 0.033064
0.982578 0.830494 0.000000
0.000000 0.537365 0.214869
0.000000 0.606955 0.217952
0.531249 0.756697 0.195841
0.903961 0.839568 0.055517
0.984982 0.843913 0.000000
0.000000 0.009019 0.071386
0.006585 0.011215 0.072648
0.448427 0.000000 0.134154
0.637871 0.000000 0.118782
0.663036 0.000000 0.120112
0.000000 0.053682 0.088609
0.035024 0.032614 0.070502
0.467717 0.000000 0.097407
0.636194 0.000000 0.095430
0.661509 0.000000 0.103261
0.000000 0.424865 0.176693
0.000000 0.417107 0.170441
0.321860 0.456855 0.129354
0.794157 0.328320 0.083711
0.726670 0.103014 0.085137
0.000000 0.517477 0.235653
0.000000 0.517926 0.232262
0.072089 0.669808 0.220289
0.897271 0.835979 0.041209
0.982917 0.846523 0.019536
0.000000 0.552003 0.214827
0.000000 0.633784 0.221552
0.557141 0.762376 0.189804
0.913440 0.845153 0.110201
0.983715 0.877808 0.272641
0.000000 0.042922 0.256039
0.000000 0.047544 0.287852
0.201393 0.046255 0.349684
0.653908 0.000000 0.378926
0.645617 0.000000 0.327235
0.000000 0.044018 0.259344
0.000000 0.046940 0.281997
0.281112 0.042036 0.341737
0.652888 0.000000 0.343113
0.651623 0.000000 0.304814
0.000000 0.434404 0.420937
0.000000 0.416814 0.414717
0.345059 0.407076 0.428126
0.771838 0.255363 0.368471
0.725354 0.047687 0.294218
0.000000 0.544626 0.398297
0.000000 0.552249 0.404939
0.000000 0.718129 0.480495
0.898775 0.884829 0.549556
0.972327 0.886301 0.523824
0.000000 0.605870 0.369631
0.000000 0.684280 0.402766
0.592682 0.810713 0.461413
0.916245 0.887895 0.511210
0.974794 0.909565 0.553554
0.000000 0.063000 0.388941
0.000000 0.059118 0.400646
0.147220 0.052926 0.438849
0.600596 0.000000 0.482829
0.644942 0.000000 0.407312
0.000000 0.063543 0.393983
0.000000 0.057723 0.401545
0.194824 0.049372 0.447628
0.630984 0.000000 0.486505
0.639426 0.000000 0.402946
0.000000 0.316723 0.521245
0.000000 0.286416 0.506521
0.310734 0.261412 0.568952
0.746534 0.156717 0.560868
0.725249 0.002743 0.491692
0.000000 0.578306 0.589456
0.000000 0.584822 0.593756
0.051381 0.768935 0.724268
0.898302 0.910008 0.801626
0.958223 0.906272 0.794507
0.000000 0.667956 0.590463
0.000000 0.748048 0.637818
0.640767 0.850657 0.695609
0.920674 0.917054 0.748077
0.963571 0.932787 0.778719
0.000000 0.059717 0.401778
0.000000 0.056701 0.399810
0.116204 0.055229 0.431761
0.474321 0.000000 0.476203
0.668384 0.000000 0.466109
0.000000 0.057401 0.402324
0.000000 0.057331 0.399398
0.144732 0.052999 0.438532
0.495409 0.000000 0.477411
0.667167 0.000000 0.462227
0.000000 0.240082 0.498202
0.000000 0.219138 0.485198
0.254182 0.216769 0.557598
0.678453 0.246829 0.609342
0.817413 0.268449 0.607759
0.000000 0.616975 0.702397
0.000000 0.620861 0.704405
0.275556 0.818793 0.851831
0.911276 0.920346 0.901989
0.954293 0.919284 0.886383
0.000000 0.735578 0.755873
0.085678 0.791783 0.792069
0.695613 0.879317 0.837578
0.929373 0.934489 0.884015
0.957881 0.944465 0.905933
