LUTs/SPK Cube Block1 S32/TheBrim_SPK_Type-Q_Block1_S32.cube
TITLE "TheBrim® SPK Block 1"
# © Copyright 2021 - TheBrim® d.o.o. Croatia
LUT_3D_SIZE 8
DOMAIN_MIN 0.000000 0.000000 0.000000
DOMAIN_MAX 0.903226 0.903226 0.903226
0.000000 0.000000 0.000000
0.052671 0.000000 0.000000
0.263574 0.000000 0.000000
0.475721 0.000000 0.000000
0.687039 0.000000 0.000000
0.921778 0.000000 0.000000
1.000000 0.000000 0.000000
1.000000 0.000000 0.000000
0.000000 0.029551 0.000000
0.000626 0.020101 0.000000
0.199222 0.014922 0.000000
0.410221 0.015468 0.000000
0.624327 0.020587 0.000000
0.861389 0.058416 0.000000
1.000000 0.114179 0.000000
1.000000 0.151936 0.000000
0.000000 0.221319 0.000000
0.000000 0.211051 0.000000
0.140694 0.197116 0.000000
0.353326 0.192458 0.000000
0.568102 0.193677 0.000000
0.806856 0.221088 0.000000
1.000000 0.270912 0.000000
1.000000 0.314703 0.000000
0.000000 0.425103 0.000000
0.000000 0.400375 0.000000
0.050406 0.389307 0.000000
0.292461 0.375611 0.000000
0.513740 0.367539 0.000000
0.752762 0.390990 0.000000
0.994441 0.431077 0.000000
1.000000 0.476752 0.000000
0.000000 0.610584 0.000000
0.000000 0.592941 0.000000
0.040808 0.574956 0.000000
0.185716 0.568325 0.000000
0.453881 0.546527 0.000000
0.698257 0.564693 0.000000
0.939173 0.593830 0.000000
1.000000 0.631951 0.000000
0.000000 0.819924 0.041761
0.000000 0.796068 0.039182
0.055736 0.786526 0.030160
0.187969 0.782664 0.013147
0.387133 0.765870 0.000000
0.635119 0.748275 0.000000
0.882036 0.764493 0.000000
1.000000 0.788509 0.011167
0.000000 0.973280 0.057398
0.000000 0.973188 0.062745
0.069442 0.972898 0.065786
0.198128 0.972475 0.066980
0.335857 0.971967 0.066164
0.580307 0.969703 0.049829
0.821234 0.950891 0.034864
1.000000 0.967324 0.048097
0.000000 1.000000 0.037071
0.000000 1.000000 0.044568
0.075003 1.000000 0.051666
0.206145 1.000000 0.057923
0.340487 1.000000 0.065270
0.480559 1.000000 0.074179
0.766305 1.000000 0.090993
0.998742 1.000000 0.095279
0.000000 0.000000 0.001926
0.037375 0.000000 0.000000
0.243111 0.000000 0.000000
0.450391 0.000000 0.000000
0.667611 0.000000 0.000000
0.896472 0.000000 0.005956
1.000000 0.000000 0.041234
1.000000 0.000000 0.073020
0.000000 0.013068 0.021136
0.007670 0.006488 0.007750
0.210505 0.003957 0.001524
0.416749 0.003971 0.000362
0.624445 0.013485 0.000000
0.859790 0.050130 0.005587
1.000000 0.109628 0.036045
1.000000 0.148185 0.068599
0.000000 0.201709 0.053162
0.000000 0.192493 0.041699
0.154726 0.182320 0.025587
0.363423 0.178006 0.011191
0.573839 0.181694 0.003268
0.808663 0.211989 0.023718
1.000000 0.261707 0.056972
1.000000 0.311460 0.089458
0.000000 0.394375 0.083114
0.000000 0.374889 0.076885
0.059537 0.366578 0.062477
0.307073 0.354597 0.047072
0.521332 0.354837 0.033261
0.757513 0.381359 0.048841
0.995224 0.419875 0.076157
1.000000 0.469994 0.106322
0.000000 0.601293 0.120217
0.000000 0.573593 0.114472
0.049582 0.552216 0.103893
0.211093 0.545617 0.086932
0.462540 0.533996 0.069452
0.704361 0.555500 0.081802
0.944102 0.583204 0.099840
1.000000 0.625671 0.126977
0.000000 0.811015 0.183079
0.000000 0.787630 0.180708
0.059809 0.772855 0.169333
0.194262 0.764627 0.154140
0.401709 0.749668 0.136008
0.644577 0.733189 0.120884
0.888172 0.753486 0.131679
1.000000 0.783768 0.151901
0.000000 0.973188 0.199816
0.000000 0.973046 0.204281
0.073425 0.972806 0.206395
0.202319 0.972375 0.208710
0.339707 0.971883 0.204369
0.588469 0.962676 0.187959
0.826484 0.941701 0.171154
1.000000 0.958913 0.186370
0.000000 1.000000 0.181582
0.000000 1.000000 0.188175
0.082126 1.000000 0.194622
0.210603 1.000000 0.199692
0.344051 1.000000 0.205689
0.484200 1.000000 0.213598
0.772708 1.000000 0.225258
0.999114 1.000000 0.227959
0.000000 0.000000 0.166654
0.058766 0.000000 0.142358
0.227304 0.000000 0.117550
0.431364 0.000000 0.111915
0.647374 0.000000 0.122875
0.873597 0.000000 0.144454
1.000000 0.000000 0.171090
1.000000 0.000000 0.201394
0.000000 0.008064 0.171892
0.037828 0.005263 0.163942
0.198961 0.000000 0.120879
0.399973 0.000000 0.111223
0.604453 0.000067 0.104798
0.838449 0.016982 0.128003
1.000000 0.075858 0.162730
1.000000 0.118319 0.196031
0.000000 0.188738 0.196778
0.000000 0.178564 0.189740
0.173691 0.174057 0.173416
0.375534 0.170803 0.159154
0.582313 0.174229 0.152116
0.814936 0.207087 0.171123
1.000000 0.258136 0.202784
1.000000 0.308965 0.235173
0.000000 0.379084 0.227853
0.000000 0.362470 0.223324
0.097957 0.354394 0.208962
0.320854 0.347572 0.191438
0.531210 0.347330 0.179559
0.764850 0.375210 0.193920
0.996299 0.415571 0.218371
1.000000 0.467555 0.252162
0.000000 0.587311 0.265825
0.000000 0.554320 0.259402
0.055778 0.539663 0.248534
0.241493 0.533769 0.231165
0.474381 0.525053 0.213912
0.712628 0.548226 0.224985
0.950263 0.577733 0.241979
1.000000 0.622400 0.271856
0.000000 0.801426 0.329244
0.000000 0.781647 0.323708
0.066694 0.756487 0.313828
0.200074 0.749364 0.297540
0.422496 0.736822 0.280058
0.653910 0.725090 0.261735
0.895562 0.746594 0.273631
1.000000 0.779541 0.295582
0.000000 0.972936 0.346496
0.000000 0.972814 0.349170
0.078915 0.972554 0.353157
0.207995 0.972158 0.354564
0.345506 0.970423 0.348686
0.602808 0.949572 0.330871
0.835061 0.931328 0.312849
1.000000 0.949257 0.327777
0.000000 1.000000 0.326205
0.000000 1.000000 0.331989
0.090794 1.000000 0.338712
0.216386 1.000000 0.344650
0.348512 1.000000 0.350876
0.488654 1.000000 0.358290
0.784117 1.000000 0.368538
0.999811 1.000000 0.368081
0.000000 0.000000 0.355563
0.083958 0.000000 0.327425
0.247264 0.000000 0.301039
0.415039 0.000000 0.269238
0.630464 0.000000 0.279826
0.854568 0.000000 0.288753
1.000000 0.000000 0.305296
1.000000 0.000000 0.330330
0.000000 0.005743 0.330175
0.069075 0.004965 0.322633
0.222153 0.000000 0.282449
0.386431 0.000000 0.241588
0.587130 0.000000 0.234079
0.818948 0.000520 0.260246
1.000000 0.042531 0.293454
1.000000 0.087038 0.324211
0.000000 0.179359 0.351860
0.021073 0.175472 0.343300
0.202461 0.171817 0.330121
0.364178 0.137304 0.284303
0.566574 0.141629 0.277051
0.796206 0.173926 0.295678
1.000000 0.224831 0.323929
1.000000 0.276676 0.354365
0.000000 0.365519 0.376532
0.000000 0.352321 0.368615
0.142192 0.343538 0.357133
0.340707 0.339367 0.340433
0.544919 0.340120 0.328903
0.774931 0.368475 0.344334
0.998367 0.411742 0.367553
1.000000 0.464674 0.399424
0.000000 0.566744 0.413836
0.000000 0.541768 0.406362
0.060894 0.529303 0.395731
0.278181 0.522263 0.378809
0.490918 0.516448 0.361789
0.724442 0.540628 0.373491
0.959893 0.572084 0.389468
1.000000 0.618333 0.417664
0.000000 0.790342 0.476733
0.000000 0.764168 0.470557
0.073270 0.742547 0.459484
0.206280 0.736767 0.443840
0.448272 0.724537 0.425906
0.667968 0.715679 0.408070
0.905713 0.739442 0.419725
1.000000 0.775113 0.441469
0.000000 0.972487 0.498515
0.000000 0.972389 0.500727
0.085117 0.970765 0.502077
0.215038 0.967645 0.503878
0.351900 0.957464 0.493012
0.622979 0.935828 0.475565
0.846542 0.919857 0.456557
1.000000 0.940757 0.471672
0.000000 1.000000 0.474525
0.000000 1.000000 0.478716
0.099944 1.000000 0.485180
0.223849 1.000000 0.492562
0.355236 1.000000 0.500073
0.496892 1.000000 0.507372
0.800244 1.000000 0.515494
1.000000 1.000000 0.510368
0.000000 0.000000 0.554220
0.114567 0.000000 0.517320
0.273004 0.000000 0.484870
0.439155 0.000000 0.460775
0.615360 0.000000 0.448075
0.833578 0.000000 0.436153
1.000000 0.000000 0.443204
1.000000 0.000000 0.463156
0.000000 0.009117 0.494571
0.103799 0.008050 0.485370
0.251550 0.000000 0.447019
0.410791 0.000000 0.410301
0.573516 0.000000 0.377828
0.804129 0.000000 0.404321
1.000000 0.008179 0.429541
1.000000 0.054192 0.455241
0.000000 0.179023 0.512049
0.064815 0.175920 0.502041
0.236985 0.173888 0.491427
0.391684 0.140352 0.446844
0.553321 0.109465 0.404208
0.779177 0.141675 0.420693
0.999001 0.191504 0.446722
1.000000 0.243269 0.473371
0.000000 0.354748 0.535057
0.012813 0.346708 0.526851
0.185482 0.343778 0.514554
0.372695 0.340537 0.499848
0.534375 0.306513 0.453141
0.760508 0.335084 0.468383
0.994432 0.378121 0.490291
1.000000 0.430304 0.518265
0.000000 0.550025 0.564474
0.000000 0.529307 0.556107
0.104387 0.517587 0.544040
0.312131 0.512040 0.527704
0.511035 0.508587 0.510780
0.739263 0.533540 0.523245
0.970909 0.565918 0.539058
1.000000 0.616059 0.565059
0.000000 0.774072 0.624738
0.000000 0.748254 0.617337
0.078562 0.730415 0.607048
0.233362 0.723353 0.592303
0.476918 0.713079 0.573807
0.685593 0.707452 0.556626
0.918540 0.732747 0.568915
1.000000 0.771280 0.588160
0.000000 0.971859 0.656429
0.000000 0.971600 0.657858
0.090818 0.959993 0.658893
0.221483 0.952654 0.655458
0.390977 0.941175 0.639981
0.646993 0.922329 0.621714
0.862075 0.909527 0.603909
1.000000 0.933186 0.617583
0.000000 1.000000 0.631532
0.000000 1.000000 0.635384
0.105207 1.000000 0.640670
0.230258 1.000000 0.646662
0.362840 1.000000 0.653866
0.555596 1.000000 0.660304
0.820449 1.000000 0.662649
1.000000 1.000000 0.653028
0.040580 0.000000 0.755758
0.178190 0.000000 0.735480
0.328782 0.000000 0.709902
0.486565 0.000000 0.670911
0.643994 0.000000 0.620309
0.812360 0.000000 0.584886
0.998822 0.000000 0.586903
1.000000 0.000000 0.601559
0.004308 0.032839 0.702628
0.164639 0.033255 0.683662
0.306697 0.002867 0.636637
0.460513 0.000000 0.596706
0.622342 0.000000 0.573408
0.792261 0.000000 0.557433
0.998794 0.000000 0.566156
1.000000 0.017946 0.590344
0.000000 0.200278 0.710316
0.129004 0.199684 0.695855
0.296737 0.198378 0.681449
0.446062 0.166521 0.633744
0.602484 0.136474 0.590442
0.763773 0.110115 0.545487
0.995121 0.158778 0.569362
1.000000 0.209155 0.591850
0.000000 0.371796 0.731834
0.086597 0.368650 0.718599
0.251600 0.365650 0.705127
0.431229 0.364195 0.689611
0.586331 0.332358 0.639563
0.748449 0.302211 0.594714
0.980175 0.344496 0.613427
1.000000 0.396061 0.639343
0.000000 0.559582 0.759939
0.023587 0.541572 0.748750
0.196524 0.537477 0.733904
0.377680 0.533993 0.715844
0.567221 0.532166 0.697964
0.729293 0.499798 0.647694
0.957624 0.532993 0.663584
1.000000 0.582666 0.685151
0.000000 0.755316 0.788949
0.000000 0.733163 0.771380
0.086747 0.716974 0.763086
0.305393 0.708709 0.745531
0.507202 0.702937 0.724792
0.706145 0.699458 0.705463
0.934116 0.725949 0.717816
1.000000 0.766962 0.737805
0.000000 0.971028 0.826522
0.000000 0.957958 0.823252
0.099124 0.943681 0.820538
0.229382 0.937482 0.811009
0.454865 0.923497 0.790381
0.673644 0.909972 0.767913
0.880058 0.899882 0.750038
1.000000 0.926407 0.765757
0.000000 1.000000 0.798902
0.000437 1.000000 0.801563
0.113759 1.000000 0.805287
0.238112 1.000000 0.810936
0.370880 1.000000 0.815524
0.612569 1.000000 0.815457
0.843407 1.000000 0.810078
1.000000 1.000000 0.796351
0.108744 0.000000 0.896336
0.239007 0.000000 0.876058
0.380923 0.000000 0.855765
0.531403 0.000000 0.835472
0.687028 0.000000 0.815211
0.850717 0.000000 0.791072
0.995845 0.000000 0.737879
1.000000 0.000000 0.746466
0.075582 0.049650 0.891950
0.231851 0.051099 0.889722
0.369851 0.022247 0.859487
0.517329 0.001701 0.819087
0.671171 0.000000 0.781314
0.829801 0.000000 0.746520
0.995824 0.000000 0.714957
1.000000 0.000000 0.731094
0.048641 0.214032 0.915748
0.195957 0.216382 0.913041
0.361802 0.217409 0.906508
0.505476 0.187766 0.853015
0.656623 0.159711 0.798372
0.813736 0.134618 0.745972
0.983951 0.124834 0.696314
1.000000 0.173456 0.718893
0.010389 0.380966 0.941815
0.160184 0.383308 0.937059
0.319561 0.383695 0.923661
0.493781 0.383535 0.903547
0.642983 0.353700 0.848050
0.799072 0.326503 0.795964
0.965336 0.308928 0.746941
1.000000 0.360719 0.766283
0.000000 0.554446 0.968399
0.115734 0.555690 0.960540
0.272669 0.554493 0.946796
0.445316 0.551966 0.929241
0.627583 0.551116 0.908226
0.783304 0.521909 0.851032
0.945683 0.498357 0.797291
1.000000 0.548362 0.812590
0.000000 0.749978 0.995212
0.029916 0.737253 0.982817
0.208239 0.734234 0.977728
0.387698 0.728754 0.958516
0.572691 0.723953 0.933221
0.763380 0.721609 0.909549
0.924598 0.690460 0.850851
1.000000 0.733445 0.865528
0.000000 0.933938 0.998346
0.000000 0.925890 0.996520
0.112473 0.921717 0.993171
0.288789 0.919160 0.985793
0.504394 0.907952 0.961866
0.702669 0.899141 0.928042
0.900496 0.891057 0.902609
1.000000 0.920374 0.913935
0.000000 1.000000 0.991464
0.001713 1.000000 0.991367
0.125557 1.000000 0.991591
0.251704 1.000000 0.993190
0.406905 1.000000 0.993585
0.661793 1.000000 0.991290
0.869995 1.000000 0.971113
1.000000 1.000000 0.939856
0.158268 0.000000 0.976358
0.288300 0.000000 0.964709
0.428137 0.000000 0.953085
0.575449 0.000000 0.941440
0.729432 0.000000 0.929783
0.888776 0.000000 0.918157
1.000000 0.000000 0.906493
1.000000 0.000000 0.894280
0.129924 0.069368 0.980297
0.284229 0.072898 0.977920
0.422389 0.044041 0.956942
0.568311 0.015517 0.941487
0.721594 0.001110 0.929783
0.879639 0.000000 0.918157
1.000000 0.000000 0.906493
1.000000 0.000000 0.878919
0.107804 0.230619 1.000000
0.252540 0.235910 1.000000
0.416419 0.238499 0.999829
0.559447 0.209423 0.982593
0.709669 0.182180 0.959311
0.864615 0.159039 0.934292
1.000000 0.147100 0.892254
1.000000 0.133990 0.867450
0.091870 0.371478 1.000000
0.235183 0.379423 1.000000
0.389222 0.388765 1.000000
0.555985 0.396468 1.000000
0.697550 0.375165 0.999510
0.851358 0.349316 0.980354
0.999253 0.332267 0.945446
1.000000 0.321470 0.905341
0.053425 0.543979 1.000000
0.199961 0.545523 1.000000
0.354662 0.549867 1.000000
0.522151 0.553301 1.000000
0.698025 0.556638 1.000000
0.841255 0.537811 1.000000
0.995641 0.520665 0.996723
1.000000 0.508169 0.954074
0.001032 0.735412 1.000000
0.145660 0.733448 1.000000
0.301952 0.734419 1.000000
0.470962 0.733628 1.000000
0.648258 0.732678 1.000000
0.830829 0.732496 1.000000
0.989156 0.701465 1.000000
1.000000 0.689823 0.998588
0.000000 0.937156 1.000000
0.024612 0.930218 1.000000
0.216631 0.930785 1.000000
0.402314 0.928723 1.000000
0.588065 0.922929 1.000000
0.774070 0.917445 1.000000
0.964163 0.911313 1.000000
1.000000 0.873831 1.000000
0.000000 1.000000 1.000000
0.005330 1.000000 1.000000
0.135818 1.000000 1.000000
0.264723 1.000000 1.000000
0.502612 1.000000 1.000000
0.705815 1.000000 1.000000
0.899414 1.000000 1.000000
1.000000 1.000000 1.000000
