LUTs/SPK Cube Block1 S32/TheBrim_SPK_Type-U_Block 1_S32.cube
TITLE "TheBrim® Industrial Imaging Burau"
# © Copyright 2022 - TheBrim® d.o.o. Croatia
LUT_3D_SIZE 32
0.0127260243 0.0152590219 0.0176394293
0.0214738738 0.0198455885 0.0224701403
0.0324209915 0.0245817920 0.0269671217
0.0452041140 0.0277586220 0.0292313637
0.0600910127 0.0301163870 0.0305652975
0.0752122112 0.0336358065 0.0332026472
0.0928063556 0.0374485931 0.0354747648
0.1130772279 0.0412347994 0.0372448113
0.1414471952 0.0447601257 0.0379319595
0.1785758410 0.0459838008 0.0368982839
0.2222314105 0.0451607981 0.0343091724
0.2780823840 0.0383976058 0.0270734427
0.3297494321 0.0281612633 0.0195591127
0.3621280921 0.0233778060 0.0174080829
0.3927711614 0.0181936764 0.0173982383
0.4231563041 0.0159501079 0.0193179217
0.4566946497 0.0110524541 0.0210544969
0.4866062705 0.0060159924 0.0226325751
0.5157957949 0.0008958523 0.0238109653
0.5443301659 0.0000000000 0.0262159841
0.5676597337 0.0000000000 0.0299628123
0.5902066613 0.0000000000 0.0333709887
0.6121107411 0.0000000000 0.0355456454
0.6319159671 0.0000000000 0.0375381783
0.6468934354 0.0000000000 0.0400465646
0.6542492684 0.0000000000 0.0409857328
0.6594471804 0.0000000000 0.0400879117
0.6629035950 0.0000000000 0.0383769323
0.6653214116 0.0000000000 0.0368549679
0.6656403744 0.0000000000 0.0337391741
0.6659445704 0.0000000000 0.0337795367
0.6711680781 0.0000000000 0.0336003662
0.0206577623 0.0281957191 0.0280874293
0.0251035522 0.0277891400 0.0271187275
0.0336673090 0.0296212071 0.0280273776
0.0465715193 0.0314217717 0.0279958751
0.0616238060 0.0333867399 0.0287765464
0.0773730855 0.0360979235 0.0308803225
0.0979422471 0.0395504003 0.0327192808
0.1195322864 0.0435718909 0.0346714511
0.1520477853 0.0465449391 0.0343869442
0.1885257078 0.0474063354 0.0323254995
0.2284541380 0.0480403232 0.0311707361
0.2810898879 0.0435019947 0.0244577510
0.3268246222 0.0375401472 0.0196447601
0.3598874770 0.0311786118 0.0174454921
0.3899339678 0.0232124179 0.0180873554
0.4225036117 0.0174760101 0.0197392676
0.4566985876 0.0113792925 0.0213015946
0.4862292250 0.0065042811 0.0229328332
0.5151883874 0.0011518100 0.0241752129
0.5445910459 0.0000000000 0.0265684183
0.5676370912 0.0000000000 0.0301990810
0.5902686818 0.0000000000 0.0337027493
0.6119807933 0.0000000000 0.0356765776
0.6317417189 0.0000000000 0.0375913388
0.6468107414 0.0000000000 0.0400229378
0.6543742940 0.0000000000 0.0411678566
0.6594265069 0.0000000000 0.0401341809
0.6629282063 0.0000000000 0.0384369839
0.6652003239 0.0000000000 0.0368490612
0.6655458669 0.0000000000 0.0336761691
0.6660735337 0.0000000000 0.0337450808
0.6771505992 0.0000000000 0.0337559098
0.0240177005 0.0396960994 0.0326040998
0.0289074786 0.0385944964 0.0314188183
0.0369642422 0.0385826830 0.0308645713
0.0478749351 0.0396813326 0.0308399599
0.0623946328 0.0406972881 0.0311667983
0.0782394042 0.0428552091 0.0322398521
0.0981903292 0.0445337015 0.0329201092
0.1232298919 0.0479044687 0.0339232668
0.1565162176 0.0505034247 0.0319139982
0.1900998481 0.0524851286 0.0319701120
0.2315325226 0.0529005678 0.0294046274
0.2785391702 0.0509533197 0.0241190991
0.3194353177 0.0484813582 0.0215536145
0.3552251075 0.0423432935 0.0190944509
0.3854901469 0.0357838830 0.0201478156
0.4186061622 0.0263597142 0.0208792642
0.4553390579 0.0143080403 0.0217357384
0.4858265837 0.0074227758 0.0232380137
0.5143584935 0.0016568344 0.0245591496
0.5447692319 0.0000000000 0.0269090390
0.5678822200 0.0000000000 0.0304343653
0.5900836047 0.0000000000 0.0339646138
0.6121008966 0.0000000000 0.0359039863
0.6314070049 0.0000000000 0.0376661572
0.6468235393 0.0000000000 0.0400514869
0.6545249153 0.0000000000 0.0413923119
0.6595003409 0.0000000000 0.0402483775
0.6631940086 0.0000000000 0.0385698851
0.6653558675 0.0000000000 0.0367673516
0.6658736898 0.0000000000 0.0336279309
0.6706768361 0.0000000000 0.0335993818
0.6833674200 0.0027800953 0.0341477221
0.0259629796 0.0512752358 0.0364493733
0.0315359682 0.0510369982 0.0360634677
0.0394037168 0.0510783452 0.0361717575
0.0493732726 0.0505004713 0.0358153855
0.0634420908 0.0521070986 0.0359965249
0.0787109572 0.0532224839 0.0356785466
0.0983379972 0.0548123756 0.0359916026
0.1222247654 0.0566641317 0.0355988059
0.1524071107 0.0598399772 0.0346458553
0.1876170576 0.0622883118 0.0335954440
0.2315689474 0.0628740614 0.0296261294
0.2695393006 0.0622223535 0.0268046870
0.3101007342 0.0612477450 0.0237105511
0.3479244039 0.0567497791 0.0220704524
0.3800402149 0.0510685007 0.0227516939
0.4131158677 0.0418884762 0.0232173402
0.4488889217 0.0304963858 0.0235993079
0.4828535355 0.0196477135 0.0241378037
0.5113185025 0.0106872220 0.0250001846
0.5435819816 0.0016863680 0.0274209546
0.5685526326 0.0002155952 0.0307277323
0.5901879567 0.0002687557 0.0341920225
0.6124306884 0.0000000000 0.0359975093
0.6314621342 0.0000000000 0.0376691106
0.6473069057 0.0000000000 0.0398693631
0.6559011806 0.0000000000 0.0416020004
0.6615056717 0.0000000000 0.0403802942
0.6668463293 0.0000000000 0.0390247024
0.6704897900 0.0000000000 0.0368805637
0.6731566732 0.0000000000 0.0335078276
0.6809535412 0.0010661626 0.0338366349
0.6927148015 0.0251448992 0.0333257038
0.0290964936 0.0634027127 0.0414759904
0.0356844533 0.0637088776 0.0409758883
0.0424309099 0.0638929703 0.0408154224
0.0508932681 0.0639766488 0.0406293608
0.0633446299 0.0646126054 0.0402080149
0.0791165519 0.0661916681 0.0399402437
0.0985240588 0.0678327513 0.0396901926
0.1221873562 0.0695555441 0.0398132493
0.1497323518 0.0719507183 0.0392127329
0.1845150461 0.0738851685 0.0359256443
0.2251778784 0.0754140240 0.0332193829
0.2636040333 0.0757014843 0.0303083553
0.3017161477 0.0738408681 0.0260092489
0.3380828270 0.0716849160 0.0255248980
0.3739651553 0.0672056547 0.0255071779
0.4093660861 0.0613009055 0.0259708553
0.4435167615 0.0539362124 0.0263252584
0.4806503297 0.0435551552 0.0262573311
0.5099609418 0.0373068319 0.0271157741
0.5408845803 0.0275627158 0.0291624520
0.5711634020 0.0157985022 0.0311707361
0.5935055634 0.0139044145 0.0342973590
0.6154706793 0.0095718368 0.0356824844
0.6361579752 0.0066155243 0.0369908224
0.6545446043 0.0073203927 0.0388317496
0.6669713549 0.0106517817 0.0414051098
0.6736410241 0.0136740525 0.0405003975
0.6791677434 0.0155622334 0.0395090533
0.6826448315 0.0139241036 0.0374594221
0.6853845643 0.0095393498 0.0339429559
0.6936136071 0.0275321978 0.0330352902
0.7041502078 0.0524103102 0.0316019266
0.0311136379 0.0767075953 0.0462387742
0.0377803538 0.0770472316 0.0457672212
0.0440591952 0.0767971805 0.0450751507
0.0524585484 0.0769310661 0.0444254117
0.0648587187 0.0781084720 0.0441497648
0.0793341160 0.0795595557 0.0438918381
0.0998973708 0.0821703251 0.0433533423
0.1237024294 0.0848539441 0.0435325128
0.1535697497 0.0866269440 0.0419623102
0.1837255148 0.0890969366 0.0401784813
0.2206621923 0.0916821103 0.0371138791
0.2624453321 0.0922314351 0.0319602675
0.2986200430 0.0917165661 0.0303398578
0.3332511315 0.0894375574 0.0293603270
0.3706377041 0.0853294349 0.0285205886
0.4062276498 0.0812006389 0.0284428168
0.4410132975 0.0750852167 0.0285304331
0.4773937591 0.0676604720 0.0284132832
0.5106658102 0.0638368564 0.0297039011
0.5410361860 0.0584528828 0.0314591809
0.5735379027 0.0491242060 0.0328019748
0.6003219161 0.0428443801 0.0353477703
0.6234900336 0.0435305439 0.0366088547
0.6451726115 0.0423432935 0.0376100434
0.6652574222 0.0434232385 0.0388898323
0.6801699166 0.0434763990 0.0400317978
0.6879372510 0.0478513082 0.0391822149
0.6934186854 0.0493132210 0.0377823227
0.6970463948 0.0478404792 0.0355919147
0.7007617205 0.0459148891 0.0315901131
0.7078104042 0.0610626678 0.0308931204
0.7172690289 0.0824420342 0.0295532798
0.0325027011 0.0924982218 0.0505290204
0.0390207646 0.0928841274 0.0501549283
0.0462692922 0.0932168725 0.0497562248
0.0554601456 0.0936992545 0.0492866407
0.0681310405 0.0947801839 0.0488564348
0.0821339004 0.0957912172 0.0479310489
0.0996207395 0.0978201749 0.0468855598
0.1244260024 0.1010216161 0.0465606903
0.1536908374 0.1045469424 0.0459769097
0.1846833876 0.1070956913 0.0428414268
0.2180780031 0.1089779655 0.0390119045
0.2556427617 0.1108789443 0.0372881273
0.2941850821 0.1104044379 0.0346173062
0.3314239867 0.1080958956 0.0332223363
0.3662391679 0.1061584920 0.0319139982
0.4061616915 0.1025140469 0.0311992853
0.4429634989 0.0985211054 0.0305219816
0.4782354664 0.0952566592 0.0305505307
0.5143338822 0.0901758971 0.0310063325
0.5457723895 0.0867687052 0.0323835823
0.5780772156 0.0836450358 0.0339124378
0.6085647413 0.0784392482 0.0351055949
0.6335560658 0.0762153688 0.0366866265
0.6562969307 0.0793725096 0.0374052772
0.6772106508 0.0805046306 0.0384635642
0.6942249524 0.0817460259 0.0386476569
0.7038184472 0.0823298065 0.0372950184
0.7105225723 0.0875109828 0.0357041423
0.7141000746 0.0857114027 0.0333896933
0.7178980943 0.0852044094 0.0287568573
0.7235419635 0.0969784676 0.0270635981
0.7293088894 0.1097133519 0.0251891996
0.0314700099 0.1124796649 0.0548054844
0.0383759478 0.1128517881 0.0543762629
0.0454886210 0.1129069175 0.0538190625
0.0561541850 0.1137614227 0.0533386494
0.0694443009 0.1154241639 0.0525146622
0.0838261751 0.1168535897 0.0517664779
0.1032740446 0.1195224418 0.0499875713
0.1234612384 0.1202312480 0.0493378323
0.1526768508 0.1232052806 0.0482697008
0.1821740168 0.1260739767 0.0459897075
0.2127324232 0.1279011215 0.0434222541
0.2490341285 0.1287585801 0.0411806545
0.2867800264 0.1297174374 0.0397620577
0.3249078921 0.1299320481 0.0382312332
0.3635269999 0.1288196162 0.0358616548
0.4025389044 0.1258721639 0.0336230086
0.4422251592 0.1234976632 0.0324839965
0.4800252020 0.1215484462 0.0324150848
0.5182520052 0.1187191282 0.0325607838
0.5515688490 0.1155304848 0.0338740442
0.5844308754 0.1137033400 0.0349480824
0.6171521251 0.1115355744 0.0351075638
0.6433306999 0.1085861532 0.0364099952
0.6672578307 0.1091433536 0.0377340845
0.6886371971 0.1145312650 0.0380737208
0.7069962615 0.1167088751 0.0372448113
0.7197045656 0.1181717723 0.0347059070
0.7256605065 0.1195037372 0.0311205290
0.7312295572 0.1217246633 0.0281543721
0.7340529685 0.1206023868 0.0236091525
0.7379651848 0.1270111760 0.0224179643
0.7417366244 0.1342921906 0.0211056884
0.0247560402 0.1346662827 0.0588378040
0.0309610477 0.1346062311 0.0584046446
0.0375726342 0.1353662288 0.0581595158
0.0510448738 0.1368566907 0.0577854237
0.0659898552 0.1383530593 0.0570884310
0.0820541597 0.1403209809 0.0561581228
0.1019617688 0.1423519075 0.0547769353
0.1233086482 0.1428461029 0.0533150225
0.1478786268 0.1428815432 0.0522970981
0.1778000920 0.1454312766 0.0510901587
0.2095930025 0.1482556723 0.0488387146
0.2428143543 0.1496919893 0.0466168041
0.2796604622 0.1497175850 0.0447168098
0.3192275982 0.1513852485 0.0427124634
0.3600863365 0.1518686149 0.0394066702
0.4004626929 0.1506380486 0.0367348647
0.4412229860 0.1481828228 0.0350859058
0.4808265468 0.1474838611 0.0344036799
0.5200112228 0.1468744847 0.0338159614
0.5572668631 0.1453731938 0.0337244073
0.5907362970 0.1432999358 0.0343839908
0.6259442750 0.1424385394 0.0340276188
0.6530324845 0.1420664161 0.0346468398
0.6779420994 0.1415082313 0.0354659047
0.7003177322 0.1441721611 0.0358685460
0.7198482958 0.1494557205 0.0348850774
0.7341051445 0.1501970137 0.0327763790
0.7415456405 0.1517780452 0.0286210028
0.7464619989 0.1515693412 0.0232744384
0.7498258749 0.1512346272 0.0179593765
0.7530853988 0.1559166857 0.0155208864
0.7559846130 0.1613872912 0.0137665911
0.0138532230 0.1553850811 0.0664397502
0.0217180182 0.1544941511 0.0657142084
0.0294479434 0.1542529601 0.0650703761
0.0427656239 0.1562356485 0.0647750402
0.0583810178 0.1586436206 0.0644314661
0.0758895148 0.1610515927 0.0637728670
0.0991472176 0.1638956775 0.0627943207
0.1212097943 0.1661471216 0.0611315795
0.1460436063 0.1662278467 0.0601845357
0.1714365877 0.1661845308 0.0585897218
0.2045654009 0.1694027077 0.0561837186
0.2396227576 0.1727567392 0.0536782857
0.2777476699 0.1740818130 0.0511994330
0.3158863646 0.1742225898 0.0484961249
0.3548342796 0.1761009261 0.0453921446
0.3988206253 0.1776396262 0.0409709660
0.4408991009 0.1769377112 0.0378344987
0.4810076861 0.1760457968 0.0363194255
0.5207997696 0.1763992154 0.0346399486
0.5613690788 0.1763893709 0.0328128038
0.5958347792 0.1756835180 0.0334133201
0.6317239987 0.1741940406 0.0336801069
0.6629360819 0.1748211372 0.0327222341
0.6889039838 0.1766965202 0.0323963802
0.7125328254 0.1779516978 0.0326680892
0.7319974306 0.1804600841 0.0314995435
0.7478057773 0.1848320400 0.0284733349
0.7591584896 0.1868068528 0.0240413273
0.7642628785 0.1873118772 0.0175764243
0.7678177384 0.1868107906 0.0100177940
0.7707691285 0.1901303662 0.0066785293
0.7722595904 0.1929744510 0.0062522612
0.0000000000 0.1795908121 0.0771811172
0.0033697827 0.1777804030 0.0758924682
0.0119926068 0.1761678689 0.0745890524
0.0311412026 0.1754649695 0.0729942385
0.0474919829 0.1781781220 0.0724646028
0.0643605855 0.1820519447 0.0720531014
0.0881863176 0.1860084614 0.0711099954
0.1150500717 0.1881781958 0.0698203619
0.1428618542 0.1904542512 0.0679499012
0.1710014595 0.1912221246 0.0665598535
0.2005724594 0.1928484410 0.0640898609
0.2352714752 0.1965706579 0.0610026162
0.2769482941 0.2010016810 0.0578188951
0.3185365121 0.2026112617 0.0549944994
0.3567785744 0.2038575792 0.0510557028
0.4007176663 0.2066672081 0.0460546814
0.4444126138 0.2085268399 0.0423334490
0.4869478757 0.2082482397 0.0390434070
0.5258263868 0.2084018143 0.0366009790
0.5678999402 0.2098440380 0.0338533706
0.6044014895 0.2098558515 0.0319750343
0.6411629344 0.2097574062 0.0307749860
0.6744088975 0.2104642434 0.0298751960
0.7014134284 0.2126093666 0.0290039550
0.7257569828 0.2153372859 0.0286397074
0.7457689440 0.2163325679 0.0276129229
0.7620537659 0.2195212113 0.0243159897
0.7770135141 0.2247171543 0.0194616519
0.7837235459 0.2263483930 0.0127122419
0.7883593352 0.2284108221 0.0031226850
0.7906954422 0.2298963617 0.0002027973
0.7905605722 0.2294376066 0.0001447146
0.0000000000 0.2147023137 0.0907705068
0.0000000000 0.2098912918 0.0893164697
0.0000000000 0.2059790755 0.0876911377
0.0013782342 0.2024793449 0.0855312478
0.0246694084 0.1999581607 0.0832571613
0.0509917134 0.2033643682 0.0820305328
0.0760617941 0.2087552330 0.0815136950
0.1039011412 0.2142396208 0.0799257722
0.1346682516 0.2166603908 0.0774469195
0.1676503814 0.2191953573 0.0749089996
0.1993546910 0.2223712028 0.0722460542
0.2330052644 0.2244011449 0.0691794830
0.2734534858 0.2291806644 0.0652889247
0.3169190558 0.2327000839 0.0614485734
0.3601818285 0.2346837568 0.0569269807
0.4039171386 0.2367156678 0.0516197944
0.4490641543 0.2405501124 0.0454728697
0.4927812521 0.2425731633 0.0402877556
0.5347317489 0.2431628507 0.0366738286
0.5755806427 0.2445479761 0.0335097965
0.6148987121 0.2466025296 0.0298771649
0.6527115528 0.2478350647 0.0272860845
0.6878771993 0.2491079625 0.0249588376
0.7134375377 0.2504606010 0.0252915827
0.7388767883 0.2533913176 0.0243583212
0.7595020637 0.2561389260 0.0228934551
0.7764888006 0.2577268487 0.0171718141
0.7914455954 0.2607707775 0.0111696040
0.8021564444 0.2656684313 0.0041947543
0.8075354957 0.2693748969 0.0000413470
0.8092976666 0.2694605444 0.0000000000
0.8084461147 0.2675428299 0.0000000000
0.0000000000 0.2663427816 0.1076686430
0.0000000000 0.2598572051 0.1053000490
0.0000000000 0.2519746897 0.1026124922
0.0000000000 0.2412333228 0.0993677350
0.0000000000 0.2335043820 0.0961111644
0.0137065395 0.2296866732 0.0933842296
0.0529832618 0.2345528245 0.0921172385
0.0902152753 0.2417265337 0.0913503496
0.1232446587 0.2481756855 0.0892446046
0.1594676078 0.2520741195 0.0863453904
0.1979213274 0.2559075795 0.0831587160
0.2330111711 0.2585537893 0.0789039100
0.2734387190 0.2608918652 0.0736233040
0.3169190558 0.2656881204 0.0685100550
0.3618435852 0.2690825144 0.0633564434
0.4089683671 0.2726550944 0.0567547014
0.4547001479 0.2753003197 0.0497729605
0.5003802450 0.2787006205 0.0430284728
0.5421427112 0.2816352749 0.0367141911
0.5851386971 0.2830076024 0.0307671104
0.6249224128 0.2848199805 0.0257660890
0.6621790375 0.2869779015 0.0213360504
0.7005067472 0.2891279469 0.0168961673
0.7263939240 0.2907828124 0.0179170451
0.7512297049 0.2941417662 0.0192627924
0.7740965798 0.2969543485 0.0166756498
0.7918049208 0.2994814394 0.0084151045
0.8068640987 0.3015094126 0.0024040343
0.8195970142 0.3049668116 0.0000000000
0.8262450254 0.3116335275 0.0000000000
0.8278644507 0.3106441522 0.0000000000
0.8269292203 0.3083208431 0.0000000000
0.0000000000 0.3085325005 0.1281629860
0.0000000000 0.3072773229 0.1232062651
0.0000000000 0.3013558379 0.1197606795
0.0000000000 0.2895187747 0.1157519867
0.0000000000 0.2763635290 0.1113386838
0.0000000000 0.2651299355 0.1064302010
0.0134023435 0.2643344974 0.1033311429
0.0676299540 0.2714619374 0.1016910442
0.1136127703 0.2795836748 0.0996414130
0.1513557149 0.2872525639 0.0973279484
0.1915804655 0.2932153959 0.0936116382
0.2350775380 0.2978561074 0.0888065230
0.2782241452 0.3025736063 0.0839147759
0.3194855248 0.3051331842 0.0769202372
0.3648392757 0.3099304238 0.0699542475
0.4144921330 0.3146863163 0.0615401275
0.4621199704 0.3173925777 0.0524683929
0.5075076849 0.3204197708 0.0419544346
0.5505647069 0.3230659805 0.0320163813
0.5937083607 0.3276387648 0.0236249037
0.6368982839 0.3302318141 0.0160328020
0.6736292107 0.3315549189 0.0105700721
0.7125525144 0.3349197794 0.0040490553
0.7409244506 0.3361739725 0.0036227871
0.7656706463 0.3390958291 0.0040185373
0.7898242013 0.3433329149 0.0020141909
0.8097583906 0.3464506777 0.0000000000
0.8252684480 0.3502496819 0.0000000000
0.8382218809 0.3531794141 0.0000000000
0.8447074575 0.3557901835 0.0000000000
0.8471833568 0.3558197171 0.0000000000
0.8465316489 0.3540841264 0.0000000000
0.0000000000 0.3387453638 0.1479770721
0.0000000000 0.3446382997 0.1416637748
0.0000000000 0.3432777856 0.1370840994
0.0000000000 0.3359357349 0.1316538565
0.0000000000 0.3201096681 0.1263535614
0.0000000000 0.3057474829 0.1210621264
0.0000000000 0.3019986858 0.1174009456
0.0443811113 0.3069504845 0.1142684160
0.0976341133 0.3150466262 0.1122709609
0.1450906558 0.3238240093 0.1088204530
0.1854876857 0.3307791700 0.1052281839
0.2311850107 0.3360085844 0.1002724474
0.2792794788 0.3410450461 0.0945498219
0.3250811558 0.3454209398 0.0876527440
0.3684620629 0.3494010834 0.0807261326
0.4171934721 0.3549642274 0.0720688526
0.4687561682 0.3599563887 0.0604759338
0.5139095829 0.3627099038 0.0488515125
0.5597240578 0.3665719131 0.0356283394
0.6029592658 0.3706357352 0.0233364590
0.6469495492 0.3752981047 0.0125724496
0.6854662739 0.3777306881 0.0043375000
0.7243511839 0.3803197996 0.0000797407
0.7564325391 0.3844161086 0.0000000000
0.7809907043 0.3857953273 0.0000000000
0.8044846758 0.3893620006 0.0000000000
0.8254702609 0.3932466522 0.0000000000
0.8422207291 0.3971972622 0.0000000000
0.8559843669 0.4019314968 0.0000000000
0.8633677646 0.4033097311 0.0000000000
0.8655512814 0.4016184408 0.0000000000
0.8649064647 0.3997440422 0.0000000000
0.0000000000 0.3749594528 0.1625331945
0.0000000000 0.3808011971 0.1570862159
0.0000000000 0.3796385581 0.1530617720
0.0000000000 0.3765158731 0.1476689383
0.0000000000 0.3659674589 0.1420437737
0.0000000000 0.3534087917 0.1368625974
0.0000000000 0.3494680262 0.1328381535
0.0002205175 0.3513187979 0.1296495101
0.0673799029 0.3564714250 0.1269875491
0.1287516890 0.3655352840 0.1241090085
0.1820460379 0.3728478011 0.1198886584
0.2290704056 0.3780594954 0.1135468120
0.2806331017 0.3833588061 0.1061516008
0.3295909352 0.3873497786 0.0979530760
0.3763140602 0.3910375397 0.0896639816
0.4224376534 0.3952726566 0.0801118339
0.4742238203 0.4002756468 0.0682344081
0.5233770677 0.4052815905 0.0560252217
0.5677247076 0.4090244809 0.0419770770
0.6128805834 0.4131591836 0.0251281635
0.6588220527 0.4190678707 0.0099557734
0.6958266575 0.4224908138 0.0011714991
0.7355513060 0.4254884733 0.0000000000
0.7690994962 0.4290453021 0.0000000000
0.7951107140 0.4331386577 0.0000000000
0.8193233362 0.4358793750 0.0000000000
0.8408828575 0.4409434013 0.0000000000
0.8573891814 0.4442905416 0.0000000000
0.8717316775 0.4489263309 0.0000000000
0.8804854338 0.4502730627 0.0000000000
0.8832822648 0.4490484031 0.0000000000
0.8815919590 0.4438977449 0.0000000000
0.0000000000 0.4129957644 0.1788731458
0.0000000000 0.4190176635 0.1732017120
0.0000000000 0.4176955431 0.1690217244
0.0000000000 0.4152363795 0.1637489940
0.0000000000 0.4116746284 0.1602276055
0.0000000000 0.4027279193 0.1550572582
0.0000000000 0.3996820217 0.1503151480
0.0000000000 0.4022642420 0.1460573887
0.0244725178 0.4028686961 0.1415338270
0.1078478134 0.4077870234 0.1383599505
0.1715616132 0.4161922834 0.1342597036
0.2287671941 0.4220369810 0.1280734008
0.2819640822 0.4281976880 0.1204517655
0.3330975568 0.4327330631 0.1111152130
0.3829059577 0.4375746031 0.1008138965
0.4334694340 0.4413184779 0.0901365190
0.4819320875 0.4454748386 0.0788448428
0.5307840922 0.4497709916 0.0652741579
0.5765956138 0.4547828420 0.0488396991
0.6214847028 0.4602248983 0.0302355058
0.6680572066 0.4641479436 0.0104105907
0.7075071927 0.4692838350 0.0003248695
0.7474494053 0.4739698314 0.0000000000
0.7816995105 0.4770019468 0.0000000000
0.8071742014 0.4801984657 0.0000000000
0.8323624165 0.4830218770 0.0000000000
0.8541207973 0.4880721210 0.0000000000
0.8710750473 0.4923476005 0.0000000000
0.8855258333 0.4962312677 0.0000000000
0.8953743013 0.4974913676 0.0000000000
0.9005269285 0.4989188245 0.0000000000
0.8995562578 0.4958227197 0.0000000000
0.0000000000 0.4448841668 0.2006630291
0.0000000000 0.4522242486 0.1934371439
0.0000000000 0.4538200469 0.1872124474
0.0000000000 0.4533022246 0.1811295122
0.0000000000 0.4518649232 0.1759434136
0.0000000000 0.4496882976 0.1724072584
0.0000000000 0.4497700072 0.1689065434
0.0000000000 0.4535621202 0.1646084215
0.0000000000 0.4558696781 0.1597875550
0.0731497821 0.4542148126 0.1540206292
0.1549263260 0.4583888934 0.1487095051
0.2217805310 0.4647248331 0.1426561035
0.2817002488 0.4722874012 0.1347223966
0.3365008109 0.4783417873 0.1241267286
0.3869786398 0.4824705833 0.1122936033
0.4395612293 0.4877216558 0.1010659165
0.4916663590 0.4913597019 0.0874223820
0.5378239158 0.4942667917 0.0718650709
0.5850146560 0.4997994177 0.0529714484
0.6307602192 0.5057661875 0.0297629683
0.6767420512 0.5120410911 0.0067257831
0.7163465964 0.5146636739 0.0000000000
0.7566235230 0.5206186303 0.0000000000
0.7922223289 0.5251796011 0.0000000000
0.8176340148 0.5280975199 0.0000000000
0.8431087058 0.5308136258 0.0000000000
0.8648119572 0.5349443907 0.0000000000
0.8825350650 0.5393133932 0.0000000000
0.8975538803 0.5425286168 0.0000000000
0.9091054521 0.5467292779 0.0000000000
0.9168166727 0.5521624741 0.0000000000
0.9154600964 0.5469340441 0.0000000000
0.0000000000 0.4746874977 0.2177669160
0.0000000000 0.4802949421 0.2119468297
0.0000000000 0.4845359658 0.2062419244
0.0000000000 0.4863572039 0.2009908520
0.0000000000 0.4872205692 0.1933692166
0.0000000000 0.4874765269 0.1876623425
0.0000000000 0.4895566762 0.1841281561
0.0000000000 0.4956533938 0.1800023135
0.0000000000 0.5000716190 0.1754098401
0.0186475092 0.5008808393 0.1696340542
0.1392636784 0.5026193834 0.1632892544
0.2140151655 0.5084906612 0.1565339378
0.2791554377 0.5161748093 0.1476709072
0.3374744350 0.5235995540 0.1377387606
0.3935921953 0.5296155465 0.1257934076
0.4480531211 0.5353952702 0.1134916826
0.4992564919 0.5396677963 0.0992564919
0.5485327958 0.5423405863 0.0830622396
0.5920259305 0.5441569021 0.0654434838
0.6400052176 0.5511563631 0.0394726285
0.6861051839 0.5573229769 0.0085982127
0.7267532493 0.5630140998 0.0000000000
0.7651813732 0.5649849748 0.0000000000
0.8016110574 0.5703659950 0.0000000000
0.8290162607 0.5748738054 0.0000000000
0.8519677985 0.5759350458 0.0000000000
0.8737389772 0.5791355026 0.0000000000
0.8935963792 0.5851800442 0.0000000000
0.9096124455 0.5906713231 0.0000000000
0.9208027230 0.5939446294 0.0000000000
0.9297336808 0.5991582927 0.0000000000
0.9283751357 0.5925102814 0.0000000000
0.0000000000 0.5048368638 0.2291796799
0.0000000000 0.5099422372 0.2234373654
0.0000000000 0.5131003625 0.2190644251
0.0000000000 0.5147857461 0.2147584275
