LUTs/SPK Cube Block1 S32/TheBrim_SPK_Type-F_Block1_S32.cube
TITLE "TheBrim® SPK Block 1"
# © Copyright 2021 - TheBrim® d.o.o. Croatia
LUT_3D_SIZE 5
DOMAIN_MIN 0.000000 0.000000 0.000000
DOMAIN_MAX 0.903226 0.903226 0.903226
0.005615 0.006592 0.005554
0.107533 0.007754 0.000821
0.425883 0.000000 0.000000
0.560004 0.000000 0.000000
0.583039 0.000000 0.000000
0.000000 0.110335 0.003176
0.110558 0.100744 0.000000
0.402942 0.099666 0.000000
0.622043 0.008250 0.000000
0.665133 0.000000 0.000000
0.000000 0.344214 0.000000
0.138910 0.365424 0.000000
0.478680 0.377949 0.000000
0.738316 0.352604 0.000000
0.806920 0.308471 0.000000
0.000000 0.443371 0.000000
0.191959 0.538313 0.000000
0.566494 0.623246 0.000000
0.841025 0.655713 0.000000
0.940829 0.633966 0.000000
0.000000 0.462208 0.000000
0.247330 0.584390 0.000000
0.588194 0.682162 0.000000
0.861973 0.742548 0.000000
0.980905 0.754994 0.000000
0.000000 0.002923 0.181110
0.101871 0.008507 0.120248
0.453991 0.000000 0.075092
0.595695 0.000000 0.004269
0.613053 0.000000 0.000000
0.000000 0.135694 0.169823
0.085853 0.108211 0.110348
0.386163 0.108234 0.079141
0.637397 0.017941 0.010536
0.697595 0.000000 0.000000
0.000000 0.389908 0.190829
0.042552 0.354528 0.133074
0.452243 0.386340 0.079394
0.736075 0.362832 0.000000
0.828899 0.317243 0.000000
0.000000 0.512755 0.217337
0.000000 0.591471 0.167594
0.527187 0.664149 0.021009
0.831142 0.688356 0.000000
0.949274 0.658930 0.000000
0.000000 0.554325 0.230835
0.177510 0.670720 0.250818
0.571385 0.753672 0.254735
0.854580 0.799321 0.149727
0.980403 0.806509 0.000000
0.000000 0.000000 0.354950
0.083743 0.000000 0.379821
0.426879 0.000000 0.386250
0.624142 0.000000 0.301744
0.644565 0.000000 0.195097
0.000000 0.149733 0.421823
0.031486 0.127278 0.368894
0.378472 0.127833 0.351531
0.652098 0.048092 0.315019
0.726753 0.001592 0.248550
0.000000 0.431494 0.481138
0.000000 0.397474 0.417455
0.425948 0.422965 0.405670
0.736233 0.403625 0.372788
0.845499 0.361646 0.308657
0.000000 0.559237 0.490811
0.000000 0.641587 0.463432
0.477899 0.715143 0.448585
0.811782 0.739179 0.410028
0.943536 0.712192 0.348995
0.000000 0.623040 0.501241
0.001902 0.729785 0.531087
0.551010 0.804150 0.542277
0.839481 0.848689 0.509761
0.966464 0.853414 0.430213
0.000000 0.000000 0.400181
0.057363 0.000000 0.435069
0.324391 0.000000 0.484093
0.614015 0.000000 0.487431
0.664005 0.000000 0.443271
0.000000 0.154594 0.514590
0.000000 0.146876 0.536861
0.355724 0.142491 0.562356
0.651206 0.072070 0.560189
0.745759 0.003032 0.527256
0.000000 0.424317 0.609022
0.000000 0.426153 0.624805
0.395512 0.454575 0.649829
0.731770 0.442545 0.644639
0.851504 0.404457 0.608454
0.000000 0.575484 0.639724
0.000000 0.670331 0.678359
0.429046 0.747542 0.698012
0.789438 0.775237 0.693963
0.930676 0.753941 0.662474
0.000000 0.654615 0.667186
0.000000 0.756700 0.707408
0.526471 0.831916 0.727570
0.821475 0.878328 0.725743
0.948274 0.887718 0.697285
0.000000 0.000000 0.415459
0.062159 0.000000 0.456618
0.273778 0.000000 0.505133
0.571865 0.000000 0.527198
0.668364 0.000000 0.510768
0.000000 0.142308 0.527133
0.000000 0.165857 0.574825
0.330000 0.178967 0.619406
0.645902 0.135509 0.638763
0.756834 0.009163 0.629705
0.000000 0.403668 0.635109
0.000000 0.447118 0.684773
0.357501 0.486874 0.724916
0.726882 0.486682 0.741643
0.857158 0.444186 0.735456
0.000000 0.584597 0.690239
0.000000 0.677217 0.746413
0.387621 0.757796 0.784344
0.775585 0.797311 0.800891
0.923304 0.780716 0.798435
0.000000 0.657185 0.722771
0.000000 0.759320 0.771973
0.501655 0.839536 0.799023
0.808563 0.886040 0.809193
0.940003 0.899282 0.809804
