LUTs/Log/FILMY39_SLOG3-REC709.cube
TITLE "Generated by Resolve"
LUT_3D_SIZE 5
0.0233921 0.0204623 0.0166629
0.0995193 0.0151217 0.0102846
0.430472 0.0595712 0.0407111
0.610819 0.1178 0.0590829
0.817609 0.412345 0.639002
0.0152132 0.0488594 0.0216831
0.0386206 0.0724193 0.0218204
0.327962 0.0409552 0.0300908
0.610819 0.1178 0.0590829
0.817731 0.413352 0.639918
0.0420996 0.288396 0.14638
0.0487068 0.316579 0.162966
0.345418 0.455604 0.130831
0.673991 0.213092 0.0903487
0.818647 0.420905 0.646784
0.187076 0.744656 0.422217
0.187457 0.745968 0.423224
0.202426 0.759319 0.419471
0.821256 0.867811 0.507805
0.874067 0.832898 0.661845
0.579187 0.866819 0.727596
0.58436 0.867079 0.728634
0.62121 0.868894 0.736324
0.798154 0.879438 0.785458
0.898604 0.89752 0.844144
0 0.0175631 0.0671702
0.147127 0.0360113 0.15436
0.470359 0.0696574 0.045304
0.634974 0.130419 0.0916609
0.818753 0.421744 0.647547
0.0136721 0.0957504 0.116121
0.0957351 0.142473 0.169711
0.423667 0.0580148 0.0399481
0.64036 0.13341 0.0996262
0.81886 0.422721 0.648432
0.0554208 0.34313 0.178485
0.0609293 0.363577 0.190433
0.392462 0.489387 0.149432
0.688487 0.23856 0.0990616
0.819745 0.429892 0.654932
0.188128 0.748257 0.424994
0.188479 0.749523 0.425986
0.207141 0.765103 0.436408
0.823957 0.868177 0.543572
0.874342 0.834272 0.673121
0.581659 0.866987 0.729961
0.586786 0.867231 0.730983
0.623301 0.869032 0.738491
0.79881 0.87953 0.786603
0.898634 0.897551 0.844465
0 0.0767681 0.279759
0.0055848 0.172671 0.417624
0.71754 0.344335 0.58854
0.784344 0.268254 0.469886
0.82681 0.481849 0.701015
0.00877394 0.194965 0.442588
0.00184634 0.160922 0.40267
0.659846 0.337209 0.600671
0.785199 0.269947 0.473014
0.826917 0.482536 0.701595
0.158663 0.525185 0.531945
0.172564 0.549096 0.551095
0.551049 0.6383 0.627359
0.82945 0.412024 0.512337
0.827665 0.487495 0.705837
0.221286 0.783917 0.543481
0.221942 0.784604 0.545647
0.243488 0.796368 0.555718
0.837613 0.867277 0.707439
0.876204 0.842542 0.740246
0.600061 0.868193 0.746365
0.604837 0.868421 0.747219
0.63888 0.870115 0.753552
0.803571 0.880247 0.794614
0.898848 0.897734 0.846738
0.325536 0.623911 0.771344
0.32462 0.623178 0.771054
0.559258 0.740551 0.810147
0.828153 0.772457 0.833143
0.828138 0.765316 0.831647
0.402518 0.679667 0.789761
0.339117 0.634485 0.775296
0.525368 0.721706 0.804425
0.828153 0.772457 0.833143
0.828138 0.765545 0.831693
0.460899 0.718059 0.801251
0.460899 0.718059 0.801251
0.497444 0.730999 0.799893
0.840375 0.805783 0.838651
0.828138 0.767056 0.832013
0.688472 0.867109 0.828229
0.688197 0.867002 0.828153
0.716228 0.868055 0.830137
0.87602 0.882109 0.849744
0.880934 0.861448 0.838346
0.719554 0.87776 0.814893
0.722377 0.877913 0.815229
0.742473 0.879057 0.817746
0.833387 0.885939 0.832258
0.899748 0.898909 0.858412
0.480934 0.733303 0.803937
0.483879 0.735454 0.804334
0.496193 0.74313 0.805859
0.805097 0.799023 0.834516
0.833585 0.788235 0.835584
0.48719 0.73785 0.804776
0.490379 0.740124 0.805188
0.501732 0.747936 0.806668
0.804456 0.802853 0.834974
0.837125 0.797696 0.837186
0.528008 0.765072 0.810086
0.532708 0.767956 0.810697
0.552483 0.779568 0.813245
0.80415 0.825299 0.838239
0.856382 0.8392 0.846098
0.743755 0.851499 0.837583
0.748775 0.85243 0.838193
0.777905 0.858244 0.841993
0.847303 0.876524 0.8542
0.891188 0.888334 0.864897
0.873472 0.895399 0.864347
0.873716 0.89546 0.864408
0.875593 0.895857 0.864881
0.886519 0.898329 0.867826
0.902632 0.901991 0.87216
