LUTs/Log/FILMY56_SLOG3-REC709.cube
TITLE "Generated by Resolve"
LUT_3D_SIZE 65
0.0233921 0.0204623 0.0166629
0.0233921 0.0204623 0.0166629
0.0233921 0.0204623 0.0166629
0.0233921 0.0204623 0.0166629
0.0233921 0.0204623 0.0166629
0.0233921 0.0204623 0.0166629
0.0233921 0.0204623 0.0166629
0.0233921 0.0204623 0.0166629
0.0318151 0.0204318 0.0160983
0.023743 0.0354009 0.0327611
0.0445869 0.0183108 0.0134737
0.0557107 0.0160067 0.010956
0.0643168 0.0146029 0.00956741
0.0725109 0.0138094 0.00877394
0.0816815 0.0134279 0.00828565
0.0912947 0.0133669 0.0081178
0.101366 0.01355 0.00817884
0.111955 0.0139925 0.0084535
0.123644 0.0146334 0.00888075
0.136156 0.0155184 0.00953689
0.14963 0.0166629 0.0104067
0.164172 0.0180514 0.0115206
0.181109 0.0196689 0.0128634
0.200565 0.0216068 0.0144503
0.220661 0.0237583 0.0161593
0.242176 0.0261234 0.0181125
0.265263 0.028687 0.0203098
0.289967 0.0316014 0.0227512
0.31632 0.0349432 0.0254673
0.344274 0.0386206 0.0284886
0.373266 0.0431983 0.0321202
0.403922 0.049012 0.0365759
0.444633 0.0582742 0.0434424
0.481575 0.0684062 0.0506752
0.518563 0.0804303 0.0590066
0.556298 0.0946059 0.0687419
0.594324 0.109819 0.0800336
0.632349 0.126375 0.0929274
0.651774 0.135836 0.0999619
0.651774 0.135836 0.0999619
0.651774 0.135836 0.0999619
0.651774 0.135836 0.0999619
0.651774 0.135836 0.0999619
0.651774 0.135836 0.0999619
0.651774 0.135836 0.0999619
0.651774 0.135836 0.0999619
0.651774 0.135836 0.0999619
0.651774 0.135836 0.0999619
0.651774 0.135836 0.0999619
0.651774 0.135836 0.0999619
0.660197 0.140551 0.112215
0.676051 0.149279 0.135698
0.693233 0.158267 0.160601
0.708354 0.169818 0.189746
0.720073 0.178317 0.217914
0.731731 0.186648 0.247547
0.742992 0.195514 0.279088
0.75375 0.204974 0.312108
0.763882 0.215213 0.345739
0.773449 0.226398 0.379782
0.782544 0.238682 0.413901
0.791272 0.252201 0.447807
0.799847 0.267018 0.481254
0.808042 0.28365 0.513375
0.815534 0.302052 0.543938
0.0233921 0.0204623 0.0166629
0.0233921 0.0204623 0.0166629
0.0233921 0.0204623 0.0166629
0.0233921 0.0204623 0.0166629
0.0233921 0.0204623 0.0166629
0.0233921 0.0204623 0.0166629
0.0233921 0.0204623 0.0166629
0.0233921 0.0204623 0.0166629
0.037644 0.0196536 0.0150454
0.0234073 0.0390173 0.0366674
0.0463874 0.0179294 0.0130465
0.0568246 0.0158083 0.0107424
0.0651408 0.0145113 0.00947585
0.0732586 0.0137484 0.0087129
0.0823987 0.0134127 0.00825513
0.0919509 0.0133669 0.0081178
0.101961 0.0135805 0.00819409
0.11252 0.014023 0.00846876
0.124178 0.0146639 0.00889601
0.13666 0.0155642 0.00955215
0.150088 0.0166934 0.0104372
0.164599 0.0180972 0.0115663
0.181582 0.0197147 0.0128939
0.200992 0.0216526 0.0144808
0.221057 0.0238041 0.0161898
0.242542 0.0261692 0.018143
0.265614 0.0287327 0.0203403
0.290288 0.0316472 0.0227817
0.316625 0.0349889 0.0254978
0.344533 0.0386511 0.0285191
0.37351 0.0432441 0.0321508
0.403632 0.0489509 0.0365301
0.445304 0.0584421 0.0435645
0.482124 0.0685588 0.0507973
0.519036 0.0805982 0.0591135
0.55671 0.0947738 0.068864
0.59469 0.109972 0.0801556
0.63267 0.126528 0.0930343
0.651774 0.135836 0.0999619
0.651774 0.135836 0.0999619
0.651774 0.135836 0.0999619
0.651774 0.135836 0.0999619
0.651774 0.135836 0.0999619
0.651774 0.135836 0.0999619
0.651774 0.135836 0.0999619
0.651774 0.135836 0.0999619
0.651774 0.135836 0.0999619
0.651774 0.135836 0.0999619
0.651774 0.135836 0.0999619
0.651774 0.135836 0.0999619
0.660334 0.140627 0.112428
0.676204 0.149371 0.135927
0.693339 0.158358 0.1608
0.708431 0.169879 0.189929
0.720134 0.178363 0.218082
0.731792 0.186694 0.247715
0.743053 0.19556 0.279225
0.75378 0.205005 0.312215
0.763912 0.215244 0.345846
0.773465 0.226429 0.379843
0.782559 0.238712 0.413962
0.791287 0.252216 0.447868
0.799863 0.267048 0.481315
0.808057 0.283696 0.513436
0.815549 0.302098 0.543999
0.0233921 0.0204623 0.0166629
0.0233921 0.0204623 0.0166629
0.0233921 0.0204623 0.0166629
0.0233921 0.0204623 0.0166629
0.0233921 0.0204623 0.0166629
0.0233921 0.0204623 0.0166629
0.0233921 0.0204623 0.0166629
0.0233921 0.0204623 0.0166629
0.0438087 0.0184634 0.0136568
0.023209 0.0428168 0.0407874
0.0480354 0.0175784 0.012665
0.057847 0.01561 0.010544
0.0659342 0.0144045 0.0093843
0.0740063 0.0137026 0.00866712
0.0831159 0.0133974 0.00823987
0.092607 0.0133822 0.0081178
0.102556 0.0135958 0.00819409
0.113085 0.0140383 0.00848402
0.124697 0.0146944 0.00892653
0.137148 0.0155947 0.00958267
0.150546 0.0167391 0.0104677
0.165042 0.018143 0.0115969
0.18204 0.0197604 0.0129397
0.201404 0.0216983 0.0145113
0.221454 0.0238499 0.0162356
0.242908 0.026215 0.0181735
0.265949 0.0287633 0.0203708
0.290608 0.0316777 0.0228122
0.316915 0.0350195 0.0255283
0.344808 0.0386969 0.0285344
0.373754 0.0432746 0.0321813
0.409506 0.0501717 0.0374456
0.445991 0.0586099 0.0436866
0.482628 0.0687114 0.0509041
0.519509 0.080766 0.0592355
0.557137 0.0949264 0.0689708
0.595041 0.110109 0.0802625
0.632975 0.126665 0.0931411
0.651774 0.135836 0.0999619
0.651774 0.135836 0.0999619
0.651774 0.135836 0.0999619
0.651774 0.135836 0.0999619
0.651774 0.135836 0.0999619
0.651774 0.135836 0.0999619
0.651774 0.135836 0.0999619
0.651774 0.135836 0.0999619
0.651774 0.135836 0.0999619
0.651774 0.135836 0.0999619
0.651774 0.135836 0.0999619
0.651774 0.135836 0.0999619
0.660502 0.140719 0.112657
0.676341 0.149447 0.136126
0.693462 0.15845 0.161028
0.708507 0.169924 0.190097
0.720195 0.178393 0.218204
0.731838 0.186725 0.247852
0.743099 0.19559 0.279362
0.753811 0.205035 0.312322
0.763943 0.21529 0.345953
0.773495 0.226459 0.37995
0.782574 0.238758 0.414069
0.791302 0.252247 0.447929
0.799878 0.267079 0.481376
0.808072 0.283726 0.513497
0.815549 0.302129 0.54406
0.0233921 0.0204623 0.0166629
0.0233921 0.0204623 0.0166629
0.0233921 0.0204623 0.0166629
0.0233921 0.0204623 0.0166629
0.0233921 0.0204623 0.0166629
0.0233921 0.0204623 0.0166629
0.0233921 0.0204623 0.0166629
0.0233921 0.0204623 0.0166629
0.0238956 0.0233158 0.0199588
0.0231937 0.0467994 0.0451057
0.0495613 0.017258 0.0122988
0.0588388 0.0154421 0.0103761
0.0667277 0.0143282 0.00929274
0.0747539 0.0136568 0.00862135
0.0838331 0.0133822 0.00822461
0.0932631 0.0133822 0.0081178
0.103151 0.013611 0.00820935
0.113664 0.0140688 0.00849927
0.125231 0.0147402 0.00895705
0.137636 0.0156405 0.00961318
0.151003 0.0167849 0.0105135
0.165469 0.0181888 0.0116426
0.182513 0.0198062 0.0129702
0.201831 0.0217441 0.0145418
0.221836 0.0238956 0.0162661
0.243275 0.0262455 0.0182193
0.266285 0.028809 0.0204013
0.290913 0.0317235 0.0228428
0.317205 0.0350652 0.0255589
0.345068 0.0387274 0.0285649
0.373983 0.0433204 0.0322118
0.410483 0.05037 0.0376135
0.446647 0.0587778 0.0438087
0.483131 0.068864 0.0510109
0.519982 0.0809339 0.0593423
0.557549 0.0950942 0.0690929
0.595407 0.110262 0.0803845
0.63328 0.126818 0.0932479
0.651774 0.135836 0.0999619
0.651774 0.135836 0.0999619
0.651774 0.135836 0.0999619
0.651774 0.135836 0.0999619
0.651774 0.135836 0.0999619
0.651774 0.135836 0.0999619
0.651774 0.135836 0.0999619
0.651774 0.135836 0.0999619
0.651774 0.135836 0.0999619
0.651774 0.135836 0.0999619
0.651774 0.135836 0.0999619
0.651774 0.135836 0.0999619
0.660639 0.140795 0.112871
0.676478 0.149523 0.136339
0.693568 0.158526 0.161227
0.708583 0.169986 0.19028
0.720256 0.178439 0.218372
0.731884 0.18677 0.24799
0.74313 0.195621 0.279469
0.753857 0.205081 0.312459
0.763973 0.21532 0.346059
0.773526 0.226505 0.380056
0.782605 0.238773 0.41413
0.791333 0.252293 0.448051
0.799893 0.267109 0.481437
0.808087 0.283757 0.513558
0.815564 0.302144 0.544076
0.0233921 0.0204623 0.0166629
0.0233921 0.0204623 0.0166629
0.0233921 0.0204623 0.0166629
0.0233921 0.0204623 0.0166629
0.0233921 0.0204623 0.0166629
0.0233921 0.0204623 0.0166629
0.0233921 0.0204623 0.0166629
0.0233921 0.0204623 0.0166629
0.0242924 0.0267491 0.0235599
0.0231937 0.051133 0.0497139
0.0519265 0.0167697 0.0117494
0.0598001 0.0152743 0.0102235
0.0675212 0.0142367 0.00921645
0.0755016 0.0136263 0.00856031
0.084535 0.0133822 0.00820935
0.093904 0.0133974 0.0081178
0.103731 0.0136416 0.00822461
0.114229 0.0140993 0.00851453
0.12575 0.0147707 0.0089723
0.138125 0.015671 0.0096437
0.151461 0.0168307 0.010544
0.165911 0.0182345 0.0116732
0.182971 0.019852 0.0130159
0.202243 0.0217899 0.0145876
0.222232 0.0239414 0.0162966
0.243641 0.0262913 0.0182498
0.266621 0.0288396 0.0204318
0.291234 0.0317693 0.0228733
0.317494 0.0350958 0.0255894
0.345342 0.0387579 0.0285954
0.374228 0.0433661 0.0322423
0.411368 0.0505684 0.0377508
0.447303 0.0589456 0.0439307
0.483574 0.0690013 0.0511025
0.520455 0.0813458 0.0594644
0.557961 0.0952468 0.0691997
0.595773 0.110414 0.0804913
0.633585 0.126955 0.0933547
0.651774 0.135836 0.0999619
0.651774 0.135836 0.0999619
0.651774 0.135836 0.0999619
0.651774 0.135836 0.0999619
0.651774 0.135836 0.0999619
0.651774 0.135836 0.0999619
0.651774 0.135836 0.0999619
0.651774 0.135836 0.0999619
0.651774 0.135836 0.0999619
0.651774 0.135836 0.0999619
0.651774 0.135836 0.0999619
0.651774 0.135836 0.0999619
0.660807 0.140887 0.113115
0.676631 0.149599 0.136568
0.69369 0.158618 0.161456
0.708644 0.170031 0.190433
0.720317 0.178485 0.21854
0.731945 0.186801 0.248127
0.743175 0.195666 0.279606
0.753887 0.205112 0.312566
0.764004 0.215351 0.346166
0.773556 0.226535 0.380163
0.78262 0.238804 0.414191
0.791348 0.252323 0.448112
0.799908 0.26714 0.481498
0.808087 0.283772 0.513573
0.815579 0.302174 0.544137
0.0233921 0.0204623 0.0166629
0.0233921 0.0204623 0.0166629
0.0233921 0.0204623 0.0166629
0.0233921 0.0204623 0.0166629
0.0233921 0.0204623 0.0166629
0.0233921 0.0204623 0.0166629
0.0233921 0.0204623 0.0166629
0.0253452 0.0205844 0.0166476
0.0242466 0.0302739 0.0273136
0.02327 0.0558938 0.0547189
0.0532998 0.016495 0.0114595
0.0607309 0.0151217 0.010071
0.0682994 0.0141604 0.00914015
0.0762493 0.0135805 0.00852979
0.0852369 0.0133669 0.00819409
0.0945449 0.0133974 0.0081178
0.104326 0.0136568 0.00823987
0.114794 0.0141299 0.00852979
0.126284 0.0148013 0.00900282
0.138613 0.0157168 0.00967422
0.151919 0.0168612 0.0105745
0.166339 0.0182803 0.0117037
0.183444 0.0198978 0.0130465
0.20267 0.0218357 0.0146181
0.222614 0.0239719 0.0163272
0.244007 0.0263218 0.0182803
0.266957 0.0288853 0.0204776
0.291554 0.0317998 0.0229038
0.317784 0.0351263 0.0256199
0.345602 0.0388037 0.0286259
0.374456 0.0433967 0.0322881
0.412131 0.050721 0.0378729
0.447944 0.0591135 0.0440528
0.484077 0.0691539 0.0512093
0.520928 0.0815137 0.0595712
0.558358 0.0954147 0.0693217
0.596124 0.110567 0.0806134
0.63389 0.127092 0.0934615
0.651774 0.135836 0.0999619
0.651774 0.135836 0.0999619
0.651774 0.135836 0.0999619
0.651774 0.135836 0.0999619
0.651774 0.135836 0.0999619
0.651774 0.135836 0.0999619
0.651774 0.135836 0.0999619
0.651774 0.135836 0.0999619
0.651774 0.135836 0.0999619
0.651774 0.135836 0.0999619
0.651774 0.135836 0.0999619
0.651774 0.135836 0.0999619
0.66096 0.140978 0.113313
0.676768 0.149676 0.136767
0.693797 0.158709 0.161654
0.708721 0.170092 0.190631
0.720394 0.178531 0.218692
0.732006 0.186847 0.248295
0.743221 0.195712 0.279759
0.753933 0.205158 0.312718
0.764035 0.215381 0.346273
0.773571 0.226566 0.380224
0.78265 0.238834 0.414298
0.791363 0.252354 0.448173
0.799924 0.26717 0.481559
0.808103 0.283803 0.513634
0.815595 0.30222 0.544198
0.0233921 0.0204623 0.0166629
0.0233921 0.0204623 0.0166629
0.0233921 0.0204623 0.0166629
0.0233921 0.0204623 0.0166629
0.0233921 0.0204623 0.0166629
0.0233921 0.0204623 0.0166629
0.0233921 0.0204623 0.0166629
0.0293584 0.0205844 0.0163882
0.0239109 0.0338445 0.0310826
0.0437324 0.0184787 0.0136721
0.0545663 0.0162356 0.0111849
0.0616312 0.0149844 0.00993362
0.0690776 0.0140841 0.00906386
0.0769818 0.01355 0.00848402
0.0859388 0.0133669 0.00817884
0.0951858 0.0134127 0.0081178
0.104906 0.0136721 0.00825513
0.115343 0.0141604 0.00856031
0.126802 0.0148318 0.00903334
0.139101 0.0157473 0.00970474
0.152377 0.016907 0.010605
0.166781 0.0183261 0.0117494
0.183917 0.0199435 0.0130922
0.203082 0.0218814 0.0146487
0.223011 0.0240177 0.0163729
0.244373 0.0263676 0.0183108
0.267292 0.0289158 0.0205081
0.291859 0.0318456 0.0229496
0.318059 0.035172 0.0256504
0.345876 0.0388342 0.0286564
0.374701 0.0434424 0.0323186
0.412833 0.0508736 0.0379797
0.448569 0.059266 0.0441596
0.484581 0.0693065 0.0513161
0.521385 0.0816815 0.0596933
0.55877 0.0955673 0.0694285
0.596475 0.110704 0.0807202
0.634195 0.127245 0.0935683
0.651774 0.135836 0.0999619
0.651774 0.135836 0.0999619
0.651774 0.135836 0.0999619
0.651774 0.135836 0.0999619
0.651774 0.135836 0.0999619
0.651774 0.135836 0.0999619
0.651774 0.135836 0.0999619
0.651774 0.135836 0.0999619
0.651774 0.135836 0.0999619
0.651774 0.135836 0.0999619
0.651774 0.135836 0.0999619
0.651774 0.135836 0.0999619
0.661112 0.141054 0.113558
0.676905 0.149752 0.13698
0.693904 0.158785 0.161852
0.708812 0.170153 0.190814
0.720455 0.178576 0.21886
0.732052 0.186892 0.248432
0.743282 0.195743 0.279896
0.753964 0.205188 0.312825
0.764065 0.215412 0.34638
0.773602 0.226596 0.380331
0.782666 0.238865 0.414359
0.791379 0.252369 0.448234
0.799939 0.267201 0.481621
0.808118 0.283833 0.513695
0.815595 0.30222 0.544198
0.0265965 0.0206149 0.0166018
0.0262455 0.0206149 0.0166171
0.0259251 0.0205997 0.0166323
0.0255894 0.0205844 0.0166323
0.0252537 0.0205692 0.0166476
0.0249332 0.0205539 0.0166476
0.0233921 0.0204623 0.0166629
0.0311131 0.0252384 0.0161288
0.0121157 0.0190585 0.0366827
0.0112154 0.0408637 0.0640421
0.049012 0.01738 0.0124208
0.0570687 0.0157626 0.0106966
0.0649271 0.0145266 0.00949111
0.0728161 0.0137789 0.00874342
0.0818189 0.0134127 0.00828565
0.0913558 0.0133669 0.0081178
0.101427 0.0135653 0.00817884
0.112154 0.0140078 0.0084535
0.124102 0.0146639 0.00889601
0.136995 0.0155795 0.00958267
0.15111 0.0168002 0.0105135
0.166461 0.0182803 0.0117189
0.183871 0.0199435 0.013077
0.202838 0.0218509 0.0146334
0.223133 0.024033 0.0163729
0.244724 0.0264134 0.0183566
0.267643 0.0289616 0.0205386
0.29218 0.0318761 0.0229801
0.318349 0.0352026 0.0256809
0.346136 0.0388647 0.028687
0.374945 0.0434882 0.0323491
0.41355 0.0510262 0.0381018
0.44918 0.0594186 0.0442817
0.485084 0.0694591 0.0514229
0.521843 0.0818341 0.0598001
0.559182 0.0957198 0.0695506
0.596826 0.110857 0.0808423
0.634501 0.127382 0.0936751
0.651774 0.135836 0.0999619
0.651774 0.135836 0.0999619
0.651774 0.135836 0.0999619
0.651774 0.135836 0.0999619
0.651774 0.135836 0.0999619
0.651774 0.135836 0.0999619
0.651774 0.135836 0.0999619
0.651774 0.135836 0.0999619
0.651774 0.135836 0.0999619
0.651774 0.135836 0.0999619
0.651774 0.135836 0.0999619
0.651774 0.135836 0.0999619
0.661265 0.141146 0.113771
0.677058 0.149828 0.137209
0.694041 0.158877 0.162081
0.708873 0.170199 0.190967
0.720516 0.178622 0.219013
0.732113 0.186923 0.248569
0.743313 0.195773 0.280003
0.753994 0.205219 0.312917
0.764096 0.215457 0.346487
0.773632 0.226642 0.380438
0.782681 0.238911 0.414481
0.791409 0.252415 0.448341
0.799954 0.267231 0.481682
0.808133 0.283864 0.513756
0.81561 0.302266 0.544259
0.0540017 0.0210422 0.0362249
0.0535592 0.0210269 0.035874
0.0531167 0.0209964 0.035523
0.0526741 0.0209812 0.035172
0.0522469 0.0209659 0.0348211
0.0518044 0.0209354 0.0344701
0.0430304 0.0213016 0.0332799
0.0166323 0.0204623 0.0308995
0.0130312 0.0193484 0.0354772
0.00440986 0.0245823 0.0598154
0.0318608 0.0204318 0.0160983
0.0434119 0.018555 0.0137484
0.0538338 0.0163729 0.0113375
0.0674907 0.0142367 0.00921645
0.0754559 0.0136263 0.00857557
0.084947 0.0133669 0.00819409
0.0948043 0.0133974 0.0081178
0.105272 0.0136873 0.00825513
0.11664 0.0142214 0.00860609
0.129152 0.0149996 0.00914015
0.142687 0.0160525 0.00993362
0.157336 0.01738 0.0109865
0.173541 0.018967 0.0122835
0.192554 0.0207675 0.0137942
0.213016 0.0229343 0.0154879
0.235431 0.0253758 0.0174868
0.259861 0.0280919 0.019791
0.286336 0.0311437 0.022385
0.314778 0.0347448 0.0252995
0.344976 0.0387121 0.0285649
0.375311 0.0435492 0.0323949
0.414252 0.0511788 0.0382086
0.44979 0.0595865 0.0443885
0.485588 0.0696117 0.0515297
0.522301 0.082002 0.0599069
0.559579 0.0958724 0.0696574
0.597177 0.111009 0.0809491
0.634791 0.12752 0.0937819
0.651774 0.135836 0.0999619
0.651774 0.135836 0.0999619
0.651774 0.135836 0.0999619
0.651774 0.135836 0.0999619
0.651774 0.135836 0.0999619
0.651774 0.135836 0.0999619
0.651774 0.135836 0.0999619
0.651774 0.135836 0.0999619
0.651774 0.135836 0.0999619
0.651774 0.135836 0.0999619
0.651774 0.135836 0.0999619
0.651774 0.135836 0.0999619
0.661418 0.141238 0.114
0.677195 0.149905 0.137407
0.694148 0.158953 0.16228
0.708949 0.17026 0.191165
0.720592 0.178668 0.219181
0.732158 0.186969 0.248707
0.743358 0.195819 0.28014
0.75404 0.205264 0.313069
0.764126 0.215488 0.346593
0.773648 0.226658 0.380514
0.782712 0.238926 0.414542
0.791424 0.252445 0.448402
0.799969 0.267262 0.481758
0.808148 0.283909 0.513817
0.815625 0.302312 0.544335
0.0906691 0.0238804 0.0643015
0.0899825 0.0238193 0.0637827
0.0892958 0.023743 0.0632334
0.0885481 0.023682 0.0626535
0.0877394 0.0236057 0.0620432
0.0870222 0.0235447 0.0614786
0.0719005 0.0218967 0.0615854
0.0288701 0.0178836 0.0628061
0.00436408 0.016434 0.0474708
0.00508125 0.0191043 0.052018
0.0186465 0.026688 0.0334325
0.0312352 0.0255436 0.0160983
0.0476692 0.0176547 0.0127413
0.0589303 0.0154269 0.0103609
0.0681315 0.0141756 0.00915541
0.0769513 0.01355 0.00848402
0.0903029 0.0133516 0.00813306
0.0994278 0.0135042 0.00814832
0.109285 0.0138705 0.00836194
0.120348 0.014435 0.00874342
0.132555 0.0152438 0.00932326
0.145907 0.0163272 0.0101472
0.160555 0.0177005 0.0112306
0.177295 0.0193179 0.0125582
0.19675 0.02121 0.0141299
0.218036 0.0234836 0.0159304
0.241672 0.0260777 0.0180667
0.267918 0.0289921 0.0205692
0.296895 0.0324712 0.0234531
0.328649 0.0365454 0.0267796
0.364691 0.0417334 0.0309758
0.413077 0.0509346 0.0380255
0.449683 0.059556 0.0443732
0.486107 0.0697642 0.0516365
0.522759 0.0821698 0.0600137
0.559976 0.0960403 0.0697642
0.597543 0.111147 0.0813153
0.635096 0.127657 0.0938888
0.651774 0.135836 0.0999619
0.651774 0.135836 0.0999619
0.651774 0.135836 0.0999619
0.651774 0.135836 0.0999619
0.651774 0.135836 0.0999619
0.651774 0.135836 0.0999619
0.651774 0.135836 0.0999619
0.651774 0.135836 0.0999619
0.651774 0.135836 0.0999619
0.651774 0.135836 0.0999619
0.651774 0.135836 0.0999619
0.651774 0.135836 0.0999619
0.66157 0.141314 0.114214
0.677333 0.149981 0.137621
0.694255 0.159045 0.162478
0.70901 0.170321 0.191318
0.720638 0.178714 0.219303
0.732219 0.187015 0.248875
0.743404 0.195865 0.280278
0.754086 0.205295 0.313176
0.764157 0.215518 0.3467
0.773678 0.226688 0.380621
0.782727 0.238972 0.414649
0.79144 0.252476 0.448463
0.8 0.267292 0.481819
0.808164 0.28394 0.513878
0.815641 0.302342 0.544396
0.0803235 0.0228733 0.0640574
0.0799573 0.0228428 0.0637369
0.0795758 0.0228122 0.0634012
0.0791943 0.0227817 0.0630808
0.0788281 0.0227512 0.0627604
0.0784466 0.0227207 0.0624399
0.0630198 0.0195315 0.0675059
0.0314336 0.0178531 0.0783703
0.0105898 0.0175174 0.0789197
0.00282292 0.0176394 0.0754711
0.00248722 0.0251621 0.0785382
0.0282902 0.0230106 0.0165103
0.0385901 0.0217441 0.0149386
0.0497902 0.018265 0.0123293
0.060853 0.0151064 0.0100557
0.0708476 0.0139315 0.00889601
0.0813306 0.0134279 0.00830091
0.091783 0.0133669 0.0081178
0.102007 0.0135805 0.00819409
0.115404 0.0141604 0.00856031
0.125994 0.014786 0.00898756
0.137362 0.01561 0.00959792
0.14992 0.0166781 0.0104219
0.163836 0.0180209 0.0115053
0.180255 0.0195926 0.0128023
0.199344 0.0214847 0.0143435
0.221027 0.0238041 0.0161898
0.246296 0.0265812 0.0184939
0.273945 0.0296635 0.021149
0.304662 0.033463 0.0242466
0.343374 0.0384985 0.0283818
0.397192 0.0476387 0.0355383
0.445228 0.0584268 0.0435492
0.482597 0.0687114 0.0508888
0.521492 0.0817121 0.0597086
0.560372 0.0961929 0.0698863
0.597879 0.111299 0.0814221
0.635386 0.127794 0.0939956
0.651774 0.135836 0.0999619
0.651774 0.135836 0.0999619
0.651774 0.135836 0.0999619
0.651774 0.135836 0.0999619
0.651774 0.135836 0.0999619
0.651774 0.135836 0.0999619
0.651774 0.135836 0.0999619
0.651774 0.135836 0.0999619
0.651774 0.135836 0.0999619
0.651774 0.135836 0.0999619
0.651774 0.135836 0.0999619
0.651774 0.135836 0.0999619
0.661723 0.141405 0.114458
0.677485 0.150057 0.13785
0.694377 0.159136 0.162707
0.709102 0.170367 0.191501
0.720714 0.178759 0.219471
0.73228 0.18706 0.249012
0.74345 0.195895 0.28043
0.754116 0.205325 0.313283
0.764187 0.215549 0.346807
0.773709 0.226734 0.380728
0.782742 0.239002 0.41471
0.791455 0.252506 0.448539
0.800015 0.267323 0.48188
0.808164 0.28394 0.513893
0.815641 0.302358 0.544396
0.108186 0.0260319 0.089601
0.10782 0.0259709 0.08925
0.107439 0.0259251 0.0888991
0.107073 0.0258793 0.0885481
0.106706 0.0258183 0.0881971
0.106325 0.0257725 0.0878462
0.083238 0.0209964 0.0957961
0.0443427 0.0184939 0.106401
0.0189364 0.018967 0.109758
0.00628672 0.0181582 0.0858473
0.0237278 0.030869 0.0185092
0.0251774 0.0277409 0.017731
0.0346685 0.0261997 0.0155795
0.0443427 0.0241855 0.0136873
0.0551461 0.020798 0.0113527
0.0650645 0.0168002 0.00972
0.0745556 0.0136721 0.00862135
0.0860456 0.0133669 0.00817884
0.0974136 0.0134585 0.00813306
0.108721 0.0138399 0.00834669
0.120317 0.014435 0.00874342
0.132113 0.0152132 0.009308
0.146792 0.0164034 0.0102083
0.159014 0.0175479 0.0111086
0.172595 0.0188907 0.0122072
0.188876 0.0204166 0.013489
0.206943 0.0222782 0.0149691
0.227298 0.0244907 0.0167544
0.250416 0.027039 0.0188907
0.27689 0.0299992 0.0214389
0.313848 0.0346227 0.0252079
0.368994 0.0424659 0.0315404
0.426276 0.0538643 0.0402075
0.473625 0.0660716 0.0490425
0.513542 0.0786755 0.0578012
0.554681 0.0939956 0.0682994
0.596628 0.11078 0.080766
0.635706 0.127947 0.0941024
0.651774 0.135836 0.0999619
0.651774 0.135836 0.0999619
0.651774 0.135836 0.0999619
0.651774 0.135836 0.0999619
0.651774 0.135836 0.0999619
0.651774 0.135836 0.0999619
0.651774 0.135836 0.0999619
0.651774 0.135836 0.0999619
0.651774 0.135836 0.0999619
0.651774 0.135836 0.0999619
0.651774 0.135836 0.0999619
0.651774 0.135836 0.0999619
0.661891 0.141497 0.114702
0.677623 0.150134 0.138048
0.694499 0.159228 0.162936
0.709178 0.170428 0.191699
0.720775 0.178805 0.219638
0.732341 0.187106 0.24918
0.743511 0.195941 0.280568
0.754162 0.205371 0.313436
0.764218 0.215595 0.346914
0.773724 0.226749 0.380789
0.782773 0.239033 0.414816
0.79147 0.252522 0.4486
0.800031 0.267353 0.481941
0.808179 0.283986 0.513954
0.815656 0.302388 0.544457
0.140581 0.0318456 0.119371
0.140246 0.0317693 0.119066
0.13991 0.0317082 0.118761
0.139574 0.031632 0.118441
0.139239 0.0315557 0.118151
0.139376 0.0315862 0.118273
0.105852 0.0243992 0.128374
0.0611734 0.0215152 0.138415
0.0221408 0.0233616 0.0329442
0.0234379 0.0338445 0.0187686
0.0231022 0.0364843 0.0189517
0.0230869 0.0391852 0.0190585
0.0294652 0.0363622 0.0160525
0.0407568 0.0321508 0.0138857
0.0500954 0.0277104 0.0122988
0.0601816 0.0241245 0.0106203
0.0697337 0.0205081 0.0096437
0.0793469 0.0167086 0.00880446
0.0897383 0.0133516 0.00813306
0.1019 0.0135805 0.00819409
0.114305 0.0140993 0.00851453
0.127275 0.0148623 0.0090486
0.140475 0.0158694 0.00979629
0.153903 0.0170596 0.0107271
0.167559 0.0184024 0.0118105
0.185199 0.0200656 0.0131838
0.200961 0.0216526 0.0144808
0.218158 0.0234989 0.0159457
0.237537 0.0256199 0.0176852
0.259464 0.0280461 0.0197452
0.291875 0.0318456 0.0229496
0.341054 0.0381781 0.0281224
0.399969 0.0482032 0.0359655
0.455695 0.0611276 0.0455024
0.498726 0.0737163 0.0543984
0.537865 0.0876631 0.0638132
0.579934 0.103914 0.0755779
0.627497 0.124147 0.091249
0.651774 0.135836 0.0999619
0.651774 0.135836 0.0999619
0.651774 0.135836 0.0999619
0.651774 0.135836 0.0999619
0.651774 0.135836 0.0999619
0.651774 0.135836 0.0999619
0.651774 0.135836 0.0999619
0.651774 0.135836 0.0999619
0.651774 0.135836 0.0999619
0.651774 0.135836 0.0999619
0.651774 0.135836 0.0999619
0.651774 0.135836 0.0999619
0.662104 0.141604 0.115007
0.677836 0.15024 0.138354
0.694652 0.159335 0.16321
0.70927 0.170504 0.191928
0.720867 0.178866 0.219867
0.732403 0.187152 0.249363
0.743572 0.195987 0.280766
0.754208 0.205417 0.313588
0.764263 0.215641 0.347066
0.77377 0.22681 0.380941
0.782803 0.239078 0.414939
0.791501 0.252583 0.448707
