LUTs/Log/FILMY56_SLOG3-REC709.cube
TITLE "Generated by Resolve"
LUT_3D_SIZE 5
0.0233921 0.0204623 0.0166629
0.101366 0.01355 0.00817884
0.444633 0.0582742 0.0434424
0.651774 0.135836 0.0999619
0.815534 0.302052 0.543938
0.0216526 0.0483864 0.0195621
0.0524147 0.0707866 0.0117342
0.335378 0.0374304 0.0274968
0.651774 0.135836 0.0999619
0.815763 0.302693 0.54493
0.062089 0.294865 0.094316
0.0712291 0.323278 0.106844
0.439506 0.446769 0.122194
0.706477 0.229679 0.129656
0.817563 0.307622 0.552453
0.28098 0.776562 0.328771
0.282078 0.778164 0.329961
0.311696 0.790951 0.316518
0.845853 0.86923 0.489723
0.878996 0.831632 0.622049
0.698436 0.871046 0.716243
0.701503 0.871229 0.717266
0.724376 0.872679 0.724178
0.830503 0.88249 0.762051
0.900328 0.898024 0.840391
0.00198367 0.0160525 0.0528878
0.161227 0.033753 0.116197
0.488396 0.0704662 0.0521401
0.665843 0.143694 0.120516
0.817761 0.308186 0.553307
0.0282139 0.0988785 0.0933547
0.131212 0.136095 0.132753
0.437263 0.0564584 0.0421149
0.669078 0.14548 0.125307
0.81799 0.308858 0.554284
0.0806134 0.35021 0.118669
0.0884718 0.370993 0.127764
0.480751 0.47602 0.136782
0.71931 0.254658 0.137667
0.819715 0.313817 0.561578
0.284016 0.780987 0.332052
0.285115 0.782559 0.333257
0.322545 0.796948 0.344823
0.847913 0.870115 0.517617
0.879286 0.833143 0.632364
0.699886 0.871168 0.718517
0.702937 0.871351 0.719524
0.725368 0.872755 0.726589
0.8309 0.88249 0.763821
0.900359 0.898054 0.840711
0 0.0470436 0.216709
0 0.0969253 0.333959
0.707515 0.241627 0.490669
0.776074 0.22977 0.389456
0.831434 0.356893 0.617044
0 0.110597 0.354849
0 0.0898756 0.320394
0.6589 0.23946 0.505653
0.776761 0.230671 0.392004
0.831556 0.357519 0.617777
0.186862 0.509071 0.467613
0.202914 0.531914 0.485039
0.588052 0.60293 0.553475
0.838987 0.38349 0.438712
0.832471 0.362188 0.623224
0.326085 0.812253 0.488731
0.327504 0.812924 0.491249
0.384955 0.821988 0.514855
0.85771 0.871977 0.659007
0.881209 0.842145 0.69839
0.710781 0.872099 0.734646
0.713664 0.872267 0.735515
0.734279 0.873564 0.741955
0.833722 0.882612 0.775998
0.900587 0.898253 0.842985
0.0904707 0.414405 0.668116
0.0899977 0.413794 0.66772
0.360601 0.548012 0.774502
0.846433 0.598428 0.810605
0.847059 0.59057 0.807919
0.12845 0.462821 0.697322
0.097322 0.423194 0.673671
0.319387 0.525841 0.764736
0.846433 0.598428 0.810605
0.847028 0.590814 0.807996
0.165805 0.503105 0.719814
0.165805 0.503105 0.719814
0.282841 0.578882 0.755932
0.855634 0.683925 0.820142
0.846906 0.592432 0.808576
0.647074 0.860716 0.811948
0.646677 0.860578 0.811841
0.684627 0.861845 0.814633
0.877943 0.878386 0.841199
0.884504 0.853391 0.826276
0.778851 0.879423 0.807706
0.78056 0.879561 0.808042
0.792645 0.880568 0.810544
0.849699 0.886687 0.825467
0.901732 0.899458 0.855055
0.1953 0.538354 0.732311
0.199496 0.543374 0.734112
0.217319 0.561563 0.741604
0.808713 0.660716 0.816617
0.850843 0.638163 0.814939
0.204181 0.548989 0.736141
0.208606 0.55433 0.738079
0.223651 0.572869 0.744747
0.806104 0.671672 0.817578
0.853437 0.662577 0.81767
0.256107 0.614588 0.759564
0.261631 0.62179 0.762127
0.284962 0.651347 0.772274
0.791348 0.739849 0.823331
0.865171 0.775387 0.832197
0.626505 0.8206 0.819409
0.636332 0.822354 0.820401
0.693309 0.83328 0.82652
0.826078 0.865049 0.84567
0.892332 0.881086 0.860151
0.867002 0.893385 0.860136
0.867353 0.893446 0.860227
0.869963 0.893935 0.860868
0.884382 0.89691 0.864744
0.902953 0.901167 0.870222
