LUTs/Log/FILMY39_SLOG3-REC709.cube
TITLE "Generated by Resolve"
LUT_3D_SIZE 9
0.0233921 0.0204623 0.0166629
0.0310063 0.0206149 0.0164034
0.0995193 0.0151217 0.0102846
0.218097 0.0264439 0.0196231
0.430472 0.0595712 0.0407111
0.610819 0.1178 0.0590829
0.610819 0.1178 0.0590829
0.744823 0.208026 0.328588
0.817609 0.412345 0.639002
0.0486152 0.0198978 0.0479896
0.00675975 0.0173495 0.0436103
0.093019 0.0149081 0.0101167
0.210666 0.0255436 0.0189212
0.435203 0.0606699 0.0412604
0.610819 0.1178 0.0590829
0.610819 0.1178 0.0590829
0.745251 0.208499 0.330022
0.81767 0.412741 0.639368
0.0152132 0.0488594 0.0216831
0.012604 0.0562753 0.0227817
0.0386206 0.0724193 0.0218204
0.13666 0.0241855 0.013489
0.327962 0.0409552 0.0300908
0.610819 0.1178 0.0590829
0.610819 0.1178 0.0590829
0.745937 0.209277 0.332296
0.817731 0.413352 0.639918
0.0117189 0.0981308 0.0375677
0.0132753 0.116579 0.0457618
0.0163729 0.143084 0.0591135
0.107485 0.194736 0.0417487
0.344289 0.11902 0.0429847
0.574044 0.103685 0.0562753
0.610819 0.1178 0.0590829
0.748028 0.211688 0.339315
0.81796 0.415213 0.641611
0.0420996 0.288396 0.14638
0.0449073 0.300679 0.153628
0.0487068 0.316579 0.162966
0.0663005 0.366247 0.185397
0.345418 0.455604 0.130831
0.653208 0.34139 0.129305
0.673991 0.213092 0.0903487
0.749477 0.213413 0.344244
0.818647 0.420905 0.646784
0.113588 0.5299 0.286992
0.114992 0.533974 0.289433
0.11696 0.539696 0.292882
0.121981 0.554162 0.30164
0.20557 0.622858 0.268132
0.614374 0.705684 0.231891
0.821012 0.654108 0.233524
0.839216 0.582345 0.295094
0.835325 0.521737 0.660014
0.187076 0.744656 0.422217
0.187243 0.745205 0.422629
0.187457 0.745968 0.423224
0.188022 0.74789 0.424704
0.202426 0.759319 0.419471
0.544686 0.830655 0.46836
0.821256 0.867811 0.507805
0.866972 0.858534 0.364614
0.874067 0.832898 0.661845
0.22182 0.813764 0.566781
0.224414 0.815 0.566735
0.228458 0.816846 0.566583
0.240711 0.821988 0.565454
0.302983 0.843046 0.571588
0.564813 0.865827 0.63946
0.813046 0.880934 0.743862
0.88191 0.893492 0.76846
0.887938 0.896635 0.671214
0.579187 0.866819 0.727596
0.581201 0.866926 0.728008
0.58436 0.867079 0.728634
0.593927 0.867552 0.730587
0.62121 0.868894 0.736324
0.688319 0.872358 0.75198
0.798154 0.879438 0.785458
0.872587 0.889815 0.823438
0.898604 0.89752 0.844144
0.0124361 0.0195926 0.0363165
0.026215 0.0187076 0.0501717
0.102251 0.0152438 0.0103914
0.231266 0.0280766 0.0208896
0.451606 0.0646982 0.0431525
0.610819 0.1178 0.0590829
0.610819 0.1178 0.0590829
0.748898 0.212726 0.342275
0.818067 0.416052 0.64239
0.0590829 0.0162814 0.01149
0.0233921 0.0204623 0.0166629
0.103365 0.0153048 0.0104219
0.230945 0.0280308 0.0208591
0.454612 0.0654765 0.0434882
0.610819 0.1178 0.0590829
0.610819 0.1178 0.0590829
0.74931 0.213214 0.343648
0.818097 0.416403 0.642695
0.0109255 0.0657664 0.0253147
0.0109865 0.0759442 0.0291295
0.0661173 0.109545 0.0216983
0.18819 0.0290227 0.0177005
0.402335 0.0534218 0.0375525
0.610819 0.1178 0.0590829
0.610819 0.1178 0.0590829
0.74995 0.213993 0.345861
0.818173 0.416999 0.643244
0.0167239 0.145846 0.0606088
0.0199893 0.169482 0.073991
0.0232853 0.190951 0.0873884
0.178256 0.259831 0.0587625
0.398627 0.131533 0.0501717
0.597192 0.112352 0.0581674
0.610819 0.1178 0.0590829
0.751919 0.216419 0.352621
0.818402 0.418845 0.644923
0.0486152 0.316258 0.162768
0.051194 0.32668 0.168872
0.0544747 0.339529 0.176379
0.0704204 0.377279 0.190387
0.367453 0.469032 0.135775
0.669902 0.350713 0.133272
0.679927 0.223301 0.0938582
0.753613 0.21857 0.358495
0.819074 0.42443 0.649989
0.116686 0.538903 0.292409
0.118105 0.542977 0.294865
0.120027 0.548531 0.298222
0.124697 0.561929 0.306355
0.210056 0.628061 0.267735
0.621775 0.711818 0.237537
0.821469 0.657176 0.234516
0.84509 0.591287 0.310857
0.835447 0.524407 0.663142
0.187518 0.746151 0.423362
0.187671 0.746685 0.423774
0.187884 0.747433 0.424353
0.188418 0.749294 0.425803
0.203922 0.761334 0.42446
0.551186 0.831296 0.48397
0.822354 0.867994 0.522316
0.868009 0.859571 0.37734
0.874174 0.833432 0.666285
0.222919 0.814404 0.569894
0.225498 0.815595 0.569848
0.229526 0.817411 0.569696
0.241703 0.822461 0.568536
0.304646 0.843641 0.575067
0.566781 0.865934 0.642695
0.813657 0.880919 0.746258
0.882002 0.893462 0.770306
0.888045 0.896529 0.674083
0.580148 0.86688 0.728527
0.582147 0.866987 0.728923
0.585306 0.86714 0.729549
0.594858 0.867597 0.731472
0.622003 0.86894 0.737179
0.688914 0.872404 0.752697
0.798413 0.879469 0.785901
0.872648 0.88983 0.823697
0.898604 0.897536 0.844266
0 0.0175631 0.0671702
0 0.0182803 0.073167
0.147127 0.0360113 0.15436
0.291783 0.0398871 0.0762036
0.470359 0.0696574 0.045304
0.610819 0.1178 0.0590829
0.634974 0.130419 0.0916609
0.754894 0.220233 0.362997
0.818753 0.421744 0.647547
0 0.0218357 0.0985428
0 0.0200046 0.0863508
0.133074 0.032517 0.153964
0.280888 0.0382849 0.0778821
0.472679 0.0702983 0.0455787
0.610819 0.1178 0.0590829
0.637079 0.131594 0.0947738
0.755276 0.220722 0.364309
0.818799 0.422126 0.647898
0.0136721 0.0957504 0.116121
0.0151369 0.110857 0.133898
0.0957351 0.142473 0.169711
0.267491 0.0505226 0.0800031
0.423667 0.0580148 0.0399481
0.610819 0.1178 0.0590829
0.64036 0.13341 0.0996262
0.755856 0.221515 0.366384
0.81886 0.422721 0.648432
0.0234836 0.190448 0.0918746
0.0273136 0.21033 0.111284
0.0299535 0.222721 0.124376
0.213169 0.285801 0.164904
0.435004 0.139818 0.055436
0.610819 0.1178 0.0590829
0.64535 0.136172 0.107057
0.757687 0.223972 0.372824
0.819089 0.424491 0.65005
0.0554208 0.34313 0.178485
0.057435 0.350759 0.18294
0.0609293 0.363577 0.190433
0.0751965 0.393881 0.19971
0.392462 0.489387 0.149432
0.690242 0.362234 0.138064
0.688487 0.23856 0.0990616
0.759701 0.22678 0.379995
0.819745 0.429892 0.654932
0.12076 0.550622 0.299489
0.12224 0.554894 0.302083
0.124208 0.560555 0.305531
0.128588 0.573083 0.313176
0.21593 0.635554 0.267826
0.628626 0.726223 0.260761
0.82211 0.661418 0.235874
0.852247 0.604852 0.33846
0.83563 0.528557 0.667933
0.188128 0.748257 0.424994
0.188281 0.748775 0.425406
0.188479 0.749523 0.425986
0.188983 0.751308 0.427405
0.207141 0.765103 0.436408
0.56051 0.832273 0.506142
0.823957 0.868177 0.543572
0.869383 0.860945 0.399649
0.874342 0.834272 0.673121
0.224628 0.815366 0.574746
0.227192 0.816541 0.574685
0.231189 0.818311 0.574517
0.24329 0.823209 0.573312
0.30724 0.844572 0.580468
0.569848 0.866072 0.6477
0.814588 0.880903 0.749889
0.882155 0.893416 0.773129
0.888228 0.896361 0.678538
0.581659 0.866987 0.729961
0.583658 0.867079 0.730358
0.586786 0.867231 0.730983
0.596277 0.867689 0.732876
0.623301 0.869032 0.738491
0.689876 0.87248 0.753811
0.79881 0.87953 0.786603
0.872724 0.889845 0.824109
0.898634 0.897551 0.844465
0 0.0338293 0.157717
0 0.0375525 0.17232
0.0202792 0.0722515 0.290715
0.39588 0.13254 0.353857
0.59443 0.132601 0.232807
0.686442 0.159884 0.171511
0.707652 0.175387 0.220523
0.771023 0.244221 0.42118
0.820844 0.438544 0.66276
0 0.0509651 0.217334
0 0.042649 0.190661
0.0105898 0.0634012 0.269062
0.36672 0.122286 0.351553
0.58294 0.128908 0.233127
0.688121 0.161181 0.174731
0.708537 0.176013 0.222721
0.771344 0.244739 0.422339
0.820874 0.438865 0.66305
0 0.0447089 0.19762
0 0.0687877 0.263569
0.000854505 0.0693675 0.246113
0.315022 0.10721 0.357931
0.544411 0.120851 0.248676
0.692836 0.164782 0.184527
0.709926 0.17702 0.22623
0.771817 0.245548 0.424094
0.820951 0.439384 0.663508
0.0404822 0.246571 0.284642
0.0483101 0.274586 0.311116
0.0540322 0.293523 0.329946
0.276127 0.357229 0.391974
0.575082 0.233539 0.286152
0.69337 0.165179 0.185779
0.715282 0.180987 0.240146
0.773327 0.248096 0.429618
0.821149 0.441032 0.664988
0.0838331 0.415 0.278706
0.0864729 0.421958 0.285451
0.0894179 0.429191 0.293645
0.098436 0.448447 0.312062
0.446418 0.531197 0.389975
0.7355 0.3991 0.180331
0.765087 0.32398 0.226093
0.77615 0.253025 0.439994
0.82179 0.445945 0.669413
0.133059 0.581765 0.327993
0.134234 0.584649 0.330816
0.136049 0.589197 0.33492
0.141344 0.602808 0.346136
0.238544 0.663874 0.371221
0.649027 0.750866 0.400671
0.831174 0.679805 0.256474
0.859541 0.641657 0.434302
0.836057 0.54052 0.681636
0.194369 0.757366 0.448569
0.194659 0.758038 0.449577
0.195132 0.759014 0.45124
0.196674 0.761669 0.456901
0.216236 0.775082 0.470512
0.583032 0.835416 0.560174
0.828229 0.868269 0.598932
0.872663 0.863951 0.463844
0.874846 0.836652 0.692836
0.229908 0.818219 0.589319
0.23241 0.819287 0.589227
0.236301 0.82089 0.588998
0.248096 0.825376 0.587686
0.315114 0.847349 0.596704
0.578988 0.866514 0.66244
0.817273 0.880919 0.759869
0.882597 0.893187 0.781216
0.888731 0.895842 0.691752
0.586313 0.867277 0.73431
0.588266 0.867369 0.734691
0.591333 0.867521 0.735271
0.600671 0.867979 0.737102
0.627237 0.869291 0.742473
0.692805 0.872694 0.757183
0.800015 0.879698 0.788708
0.872984 0.889891 0.82533
0.89868 0.897597 0.84506
0 0.0767681 0.279759
0 0.0985733 0.316609
0.0055848 0.172671 0.417624
0.261402 0.298024 0.591165
0.71754 0.344335 0.58854
0.790158 0.280903 0.491707
0.784344 0.268254 0.469886
0.805219 0.328573 0.556176
0.82681 0.481849 0.701015
0.00326543 0.168887 0.412329
0 0.122789 0.352697
0.000915541 0.155428 0.395865
0.198596 0.278477 0.566155
0.691676 0.341863 0.592325
0.790494 0.281758 0.493034
0.784665 0.268894 0.471077
0.805356 0.329213 0.556924
0.826841 0.482094 0.701213
0.00877394 0.194965 0.442588
0.0104067 0.203159 0.450767
0.00184634 0.160922 0.40267
0.139666 0.246372 0.523125
0.659846 0.337209 0.600671
0.793164 0.288701 0.503655
0.785199 0.269947 0.473014
0.8056 0.33022 0.558099
0.826917 0.482536 0.701595
0.0124514 0.202197 0.408728
0.0183108 0.232013 0.453864
0.023743 0.253605 0.488182
0.104295 0.306554 0.502678
0.606027 0.358984 0.612833
0.795422 0.294972 0.512795
0.790326 0.281346 0.492393
0.806317 0.333318 0.561639
0.8271 0.483742 0.702632
0.158663 0.525185 0.531945
0.165255 0.536629 0.540993
0.172564 0.549096 0.551095
0.185733 0.570291 0.56939
0.551049 0.6383 0.627359
0.823087 0.563378 0.570047
0.82945 0.412024 0.512337
0.808881 0.345724 0.575219
0.827665 0.487495 0.705837
0.189837 0.669718 0.498833
0.190906 0.671641 0.501137
0.192355 0.674098 0.504341
0.195666 0.679072 0.512306
0.326589 0.720546 0.540719
0.707759 0.774655 0.648997
0.86685 0.74696 0.506157
0.86067 0.707942 0.619959
0.83801 0.571756 0.714885
0.221286 0.783917 0.543481
0.221546 0.784176 0.544335
0.221942 0.784604 0.545647
0.223072 0.785931 0.549477
0.243488 0.796368 0.555718
0.625544 0.841962 0.654948
0.837613 0.867277 0.707439
0.878264 0.867353 0.600778
0.876204 0.842542 0.740246
0.245502 0.825574 0.629526
0.247791 0.826368 0.629328
0.251362 0.827573 0.628946
0.274556 0.834928 0.6327
0.347036 0.853925 0.643381
0.603937 0.867735 0.700435
0.823468 0.881529 0.78172
0.88365 0.892332 0.800168
0.890043 0.894301 0.726665
0.600061 0.868193 0.746365
0.601923 0.868284 0.7467
0.604837 0.868421 0.747219
0.613657 0.868849 0.748821
0.63888 0.870115 0.753552
0.701503 0.873396 0.766552
0.803571 0.880247 0.794614
0.873716 0.890059 0.828702
0.898848 0.897734 0.846738
0.0452735 0.305699 0.550317
0.0455787 0.30634 0.550927
0.0664225 0.342489 0.584543
0.193988 0.4486 0.677012
0.607324 0.603662 0.779004
0.833295 0.59971 0.780697
0.831693 0.542397 0.746624
0.831342 0.53344 0.740383
0.833021 0.581827 0.771237
0.105058 0.392584 0.626871
0.059205 0.330968 0.57406
0.0730907 0.352331 0.593286
0.161318 0.420218 0.654185
0.573083 0.593729 0.773968
0.833326 0.604974 0.783291
0.831708 0.542733 0.746838
0.831342 0.533715 0.740581
0.833021 0.58201 0.771344
0.163348 0.455955 0.673701
0.104738 0.392248 0.626596
0.0787366 0.360052 0.6
0.135531 0.400565 0.637263
0.533883 0.578073 0.766674
0.833341 0.607797 0.784634
0.831785 0.544366 0.747951
0.831373 0.534173 0.740902
0.833036 0.5823 0.771511
0.197574 0.492821 0.698634
0.190951 0.485695 0.693935
0.163989 0.456641 0.674189
0.116274 0.402808 0.635142
0.447837 0.534981 0.746303
0.833326 0.603204 0.782437
0.832074 0.551904 0.752987
0.831418 0.535576 0.741894
0.833051 0.583139 0.771969
0.203235 0.529946 0.678431
0.215427 0.542473 0.690074
0.232746 0.55935 0.706783
0.265309 0.588891 0.731701
0.435828 0.639826 0.7411
0.822278 0.697368 0.789212
0.840055 0.601419 0.752895
0.831678 0.541741 0.746166
0.833097 0.585809 0.773449
0.428367 0.78378 0.749706
0.431708 0.785473 0.751064
0.435935 0.787579 0.752773
0.445212 0.791943 0.756481
0.538857 0.803555 0.767941
0.79707 0.832029 0.798672
0.86862 0.805798 0.783642
0.858961 0.750286 0.767437
0.843244 0.643381 0.774243
0.31603 0.832868 0.713497
0.31664 0.832959 0.713909
0.317617 0.833082 0.714519
0.320638 0.833326 0.716243
0.397238 0.838621 0.726635
0.709865 0.854139 0.768719
0.855009 0.868467 0.811582
0.883116 0.866682 0.774899
0.87808 0.851911 0.802365
0.317479 0.850553 0.72195
0.322286 0.851774 0.722744
0.330999 0.853513 0.723995
0.364935 0.857496 0.728099
0.476295 0.862837 0.740948
0.663294 0.871717 0.768078
0.836027 0.884016 0.813672
0.885695 0.891478 0.829114
0.892409 0.891279 0.788907
0.637888 0.870939 0.774105
0.63946 0.871015 0.774334
0.641917 0.871138 0.774701
0.649424 0.871519 0.775814
0.671 0.872618 0.779141
0.725399 0.875563 0.788403
0.812955 0.881834 0.808667
0.875654 0.890745 0.836271
0.899184 0.898085 0.850904
0.325536 0.623911 0.771344
0.317708 0.617502 0.768765
0.32462 0.623178 0.771054
0.350103 0.642557 0.778058
0.559258 0.740551 0.810147
0.828153 0.772457 0.833143
0.828153 0.772457 0.833143
0.828153 0.772457 0.833143
0.828138 0.765316 0.831647
0.357122 0.647593 0.779706
0.331151 0.628367 0.773053
0.328161 0.626017 0.772152
0.351324 0.643442 0.778347
0.544701 0.73257 0.807721
0.82681 0.772488 0.833051
0.828153 0.772457 0.833143
0.828153 0.772457 0.833143
0.828138 0.765393 0.831662
0.402518 0.679667 0.789761
0.360983 0.65037 0.780606
0.339117 0.634485 0.775296
0.356008 0.646815 0.779446
0.525368 0.721706 0.804425
0.816648 0.77261 0.832258
0.828153 0.772457 0.833143
0.828153 0.772457 0.833143
0.828138 0.765545 0.831693
0.460899 0.718059 0.801251
0.45626 0.71516 0.800397
0.409461 0.684443 0.791211
0.366476 0.654292 0.781857
0.487022 0.700542 0.79794
0.789105 0.77229 0.829969
0.828153 0.772457 0.833143
0.828153 0.772457 0.833143
0.828138 0.765911 0.831769
0.460899 0.718059 0.801251
0.460899 0.718059 0.801251
0.460899 0.718059 0.801251
0.473732 0.727947 0.802976
0.497444 0.730999 0.799893
0.74876 0.793149 0.82797
0.840375 0.805783 0.838651
0.828199 0.758511 0.830198
0.828138 0.767056 0.832013
0.58613 0.80737 0.813291
0.590463 0.808789 0.814191
0.596826 0.810788 0.815518
0.612955 0.815396 0.818952
0.67808 0.82623 0.8262
0.764508 0.839292 0.829694
0.87335 0.85362 0.846052
0.864637 0.829541 0.837385
0.843061 0.773388 0.828687
0.688472 0.867109 0.828229
0.688365 0.867079 0.828199
0.688197 0.867002 0.828153
0.68751 0.866773 0.82797
0.716228 0.868055 0.830137
0.815015 0.874708 0.839902
0.87602 0.882109 0.849744
0.886992 0.875135 0.844663
0.880934 0.861448 0.838346
0.588846 0.872206 0.811261
0.593118 0.872404 0.811612
0.59971 0.872724 0.812177
0.619135 0.873671 0.813855
0.669947 0.876204 0.818479
0.769406 0.881819 0.829023
0.856977 0.887572 0.841993
0.889891 0.892164 0.853819
0.894682 0.889647 0.840452
0.719554 0.87776 0.814893
0.720653 0.877821 0.81503
0.722377 0.877913 0.815229
0.727626 0.878202 0.815869
0.742473 0.879057 0.817746
0.777905 0.881315 0.822614
0.833387 0.885939 0.832258
0.879637 0.892897 0.848066
0.899748 0.898909 0.858412
0.460899 0.718059 0.801251
0.460899 0.718059 0.801251
0.460899 0.718059 0.801251
0.460899 0.718059 0.801251
0.499428 0.726833 0.804715
0.688975 0.761913 0.821302
0.828153 0.772457 0.833143
0.828153 0.772457 0.833143
0.828153 0.772457 0.833143
0.460899 0.718059 0.801251
0.460899 0.718059 0.801251
0.460899 0.718059 0.801251
0.460899 0.718059 0.801251
0.497993 0.726513 0.804578
0.685389 0.76144 0.820996
0.828153 0.772457 0.833143
0.828153 0.772457 0.833143
0.828153 0.772457 0.833143
0.460899 0.718059 0.801251
0.460899 0.718059 0.801251
0.460899 0.718059 0.801251
0.460899 0.718059 0.801251
0.495857 0.726024 0.804395
0.68011 0.760723 0.820539
0.828153 0.772457 0.833143
0.828153 0.772457 0.833143
0.828153 0.772457 0.833143
0.460899 0.718059 0.801251
0.460899 0.718059 0.801251
0.460899 0.718059 0.801251
0.460899 0.718059 0.801251
0.48957 0.724575 0.80383
0.666072 0.758755 0.819333
0.828153 0.772457 0.833143
0.828153 0.772457 0.833143
0.828153 0.772457 0.833143
0.460899 0.718059 0.801251
0.460899 0.718059 0.801251
0.461341 0.71841 0.801312
0.481971 0.734066 0.804074
0.518196 0.754681 0.808438
0.672129 0.787411 0.82269
0.843687 0.81355 0.840162
0.842542 0.81091 0.839643
0.828153 0.772457 0.833143
0.571557 0.790005 0.815702
0.573343 0.790951 0.81593
0.576104 0.792401 0.816297
0.597925 0.798962 0.818586
0.659037 0.817105 0.825299
0.745739 0.841382 0.835813
0.85832 0.859907 0.851041
0.872648 0.864973 0.854261
0.855131 0.836912 0.845502
0.76875 0.867338 0.843244
0.768582 0.867277 0.843214
0.768246 0.86717 0.843153
0.767086 0.866789 0.842969
0.780179 0.867582 0.844373
0.837995 0.875517 0.852735
0.869444 0.884001 0.859297
0.891508 0.888182 0.864408
0.886076 0.881102 0.860563
0.836759 0.889204 0.856489
0.837217 0.889281 0.85655
0.837934 0.889387 0.856657
0.84007 0.889708 0.856962
0.845975 0.890608 0.857847
0.859617 0.892226 0.85977
0.879957 0.894286 0.862806
0.896147 0.896819 0.866194
0.897398 0.89366 0.863752
0.823697 0.887816 0.848753
0.824018 0.887861 0.848798
0.824537 0.887907 0.848875
0.826108 0.888075 0.849088
0.83064 0.888563 0.849744
0.842206 0.889876 0.851484
0.863905 0.892699 0.855253
0.887251 0.89659 0.860761
0.900954 0.90013 0.867323
0.480934 0.733303 0.803937
0.482139 0.734188 0.804105
0.483879 0.735454 0.804334
0.488121 0.738521 0.804898
0.496193 0.74313 0.805859
0.606119 0.768002 0.81593
0.805097 0.799023 0.834516
0.845243 0.816999 0.840879
0.833585 0.788235 0.835584
0.483375 0.735103 0.804273
0.484627 0.736004 0.804425
0.486427 0.737301 0.804669
0.490822 0.740429 0.805249
0.498344 0.745022 0.80618
0.607843 0.769711 0.81622
0.804822 0.800534 0.834699
0.84596 0.818601 0.841215
0.834989 0.792081 0.836225
0.48719 0.73785 0.804776
0.488502 0.738781 0.804944
0.490379 0.740124 0.805188
0.495018 0.743389 0.805798
0.501732 0.747936 0.806668
0.610574 0.77232 0.816663
0.804456 0.802853 0.834974
0.847074 0.820996 0.841718
0.837125 0.797696 0.837186
0.498466 0.745785 0.806256
0.499916 0.746777 0.806439
0.502052 0.748226 0.806714
0.507362 0.751812 0.807416
0.515465 0.757137 0.808469
0.619043 0.779995 0.818021
0.803693 0.809461 0.835813
0.850294 0.827634 0.843214
0.843076 0.812146 0.839887
0.528008 0.765072 0.810086
0.529915 0.766247 0.810346
0.532708 0.767956 0.810697
0.539864 0.772244 0.811627
0.552483 0.779568 0.813245
0.643305 0.7991 0.821866
0.80415 0.825299 0.838239
0.858228 0.842466 0.846983
0.856382 0.8392 0.846098
0.589548 0.799222 0.818021
0.59147 0.800183 0.81828
0.594476 0.801648 0.818662
0.603296 0.80589 0.819821
0.627436 0.81593 0.822843
0.699962 0.832593 0.830671
0.816175 0.851774 0.844327
0.872297 0.864469 0.854078
0.875654 0.869078 0.855863
0.743755 0.851499 0.837583
0.745754 0.851865 0.837827
0.748775 0.85243 0.838193
0.757443 0.854063 0.839261
0.777905 0.858244 0.841993
0.807401 0.866377 0.846799
0.847303 0.876524 0.8542
0.887236 0.883879 0.862531
0.891188 0.888334 0.864897
0.832441 0.883986 0.854475
0.833127 0.884062 0.854582
0.834195 0.884169 0.854765
0.837354 0.884504 0.855268
0.845579 0.885451 0.856672
0.861936 0.88777 0.859815
0.880308 0.891585 0.86421
0.891295 0.895521 0.86772
0.899367 0.897993 0.870237
0.873472 0.895399 0.864347
0.873564 0.89543 0.864363
0.873716 0.89546 0.864408
0.874205 0.895552 0.86453
0.875593 0.895857 0.864881
0.879225 0.896651 0.865827
0.886519 0.898329 0.867826
0.89601 0.900572 0.870466
0.902632 0.901991 0.87216
