LUTs/Log/FILMY39_SLOG3-REC709.cube
TITLE "Generated by Resolve"
LUT_3D_SIZE 65
0.0233921 0.0204623 0.0166629
0.0233921 0.0204623 0.0166629
0.0233921 0.0204623 0.0166629
0.0233921 0.0204623 0.0166629
0.0233921 0.0204623 0.0166629
0.0233921 0.0204623 0.0166629
0.0233921 0.0204623 0.0166629
0.0233921 0.0204623 0.0166629
0.0310063 0.0206149 0.0164034
0.0159762 0.0355383 0.0411231
0.0427558 0.019089 0.0144808
0.0534371 0.0171817 0.0124208
0.062501 0.0158236 0.0110323
0.0709544 0.0150607 0.0103151
0.0797589 0.014786 0.0100404
0.0895552 0.0148318 0.0100557
0.0995193 0.0151217 0.0102846
0.109987 0.015671 0.0107271
0.121355 0.016434 0.0113527
0.133623 0.0174411 0.0121767
0.146777 0.0187228 0.0132448
0.162234 0.0202182 0.0144808
0.179324 0.0219883 0.0159762
0.198489 0.024094 0.0177768
0.218097 0.0264439 0.0196231
0.238926 0.0290227 0.0216373
0.261143 0.0317845 0.0237888
0.284779 0.0350195 0.0260624
0.309895 0.038468 0.0284276
0.336385 0.0421302 0.0308537
0.363943 0.0462654 0.033463
0.392721 0.0515145 0.0364996
0.430472 0.0595712 0.0407111
0.464179 0.0679789 0.0446021
0.497353 0.0774853 0.0483864
0.530495 0.0883803 0.0519417
0.563119 0.0997024 0.0552529
0.594842 0.111452 0.0579843
0.610819 0.1178 0.0590829
0.610819 0.1178 0.0590829
0.610819 0.1178 0.0590829
0.610819 0.1178 0.0590829
0.610819 0.1178 0.0590829
0.610819 0.1178 0.0590829
0.610819 0.1178 0.0590829
0.610819 0.1178 0.0590829
0.610819 0.1178 0.0590829
0.610819 0.1178 0.0590829
0.610819 0.1178 0.0590829
0.610819 0.1178 0.0590829
0.625391 0.125109 0.0774395
0.651774 0.139712 0.11667
0.67895 0.154208 0.157366
0.699443 0.169635 0.200458
0.715908 0.18146 0.241794
0.731029 0.194095 0.284733
0.744823 0.208026 0.328588
0.757504 0.223728 0.372213
0.769436 0.241596 0.415366
0.781064 0.261982 0.457954
0.792096 0.285832 0.499321
0.80148 0.314229 0.53875
0.809033 0.346532 0.576059
0.81384 0.380636 0.609628
0.817609 0.412345 0.639002
0.0233921 0.0204623 0.0166629
0.0233921 0.0204623 0.0166629
0.0233921 0.0204623 0.0166629
0.0233921 0.0204623 0.0166629
0.0233921 0.0204623 0.0166629
0.0233921 0.0204623 0.0166629
0.0233921 0.0204623 0.0166629
0.0233921 0.0204623 0.0166629
0.036286 0.0201267 0.0156863
0.0140383 0.0388952 0.0466163
0.0444495 0.0187991 0.0141604
0.0545815 0.0169985 0.0122072
0.0633707 0.0157168 0.0109407
0.0717021 0.0150149 0.0102846
0.0804761 0.014786 0.0100404
0.0901961 0.014847 0.010071
0.100099 0.0151522 0.0103151
0.110521 0.0157015 0.0107576
0.121874 0.0164797 0.0113832
0.134112 0.0174868 0.0122225
0.147265 0.0187686 0.0132753
0.162707 0.020264 0.0145113
0.179782 0.022034 0.016022
0.198917 0.0241398 0.0178225
0.218479 0.0265049 0.0196689
0.239277 0.0290684 0.0216678
0.261479 0.0318303 0.0238193
0.285084 0.0350652 0.0260929
0.31017 0.0384985 0.0284428
0.336629 0.0421759 0.0308843
0.364172 0.0463111 0.0334783
0.392447 0.0514534 0.0364691
0.431083 0.0597086 0.0407874
0.464668 0.0681163 0.0446479
0.49778 0.0776074 0.0484321
0.530861 0.0885023 0.0519875
0.563424 0.0998093 0.0552834
0.595102 0.111559 0.0579995
0.610819 0.1178 0.0590829
0.610819 0.1178 0.0590829
0.610819 0.1178 0.0590829
0.610819 0.1178 0.0590829
0.610819 0.1178 0.0590829
0.610819 0.1178 0.0590829
0.610819 0.1178 0.0590829
0.610819 0.1178 0.0590829
0.610819 0.1178 0.0590829
0.610819 0.1178 0.0590829
0.610819 0.1178 0.0590829
0.610819 0.1178 0.0590829
0.625635 0.125246 0.0777905
0.652018 0.139849 0.117052
0.679118 0.15433 0.157671
0.699565 0.169726 0.200748
0.715984 0.181537 0.242039
0.731106 0.194171 0.284977
0.744884 0.208087 0.328771
0.757549 0.223789 0.372351
0.769467 0.241657 0.415503
0.781094 0.262028 0.458045
0.792111 0.285893 0.499397
0.801495 0.31429 0.538827
0.809049 0.346593 0.576135
0.813855 0.380697 0.609689
0.817624 0.412406 0.639063
0.0233921 0.0204623 0.0166629
0.0233921 0.0204623 0.0166629
0.0233921 0.0204623 0.0166629
0.0233921 0.0204623 0.0166629
0.0233921 0.0204623 0.0166629
0.0233921 0.0204623 0.0166629
0.0233921 0.0204623 0.0166629
0.0233921 0.0204623 0.0166629
0.0420386 0.0192264 0.0146334
0.0124208 0.0424506 0.0523537
0.0460059 0.0185245 0.0138552
0.0556802 0.0168154 0.0120241
0.0642252 0.0156252 0.0108492
0.0724346 0.0149844 0.0102388
0.0814221 0.014786 0.0100252
0.0908522 0.0148623 0.0100862
0.100694 0.0151827 0.0103304
0.111055 0.0157321 0.0107881
0.122393 0.0165103 0.0114137
0.134585 0.0175326 0.012253
0.147753 0.0188144 0.0133211
0.163165 0.0203098 0.0145571
0.18024 0.0220951 0.0160678
0.199344 0.0241855 0.0178531
0.218845 0.0265507 0.0196994
0.239628 0.029099 0.0216983
0.261799 0.0318761 0.0238499
0.285389 0.0350958 0.0261082
0.310445 0.0385443 0.0284733
0.336889 0.0422065 0.0308995
0.364385 0.0463417 0.0335088
0.397925 0.0525368 0.0370642
0.431708 0.0598611 0.0408637
0.465141 0.0682383 0.0447089
0.498207 0.0777447 0.0484779
0.531228 0.0886244 0.052018
0.563714 0.0999313 0.055314
0.595361 0.11165 0.0580301
0.610819 0.1178 0.0590829
0.610819 0.1178 0.0590829
0.610819 0.1178 0.0590829
0.610819 0.1178 0.0590829
0.610819 0.1178 0.0590829
0.610819 0.1178 0.0590829
0.610819 0.1178 0.0590829
0.610819 0.1178 0.0590829
0.610819 0.1178 0.0590829
0.610819 0.1178 0.0590829
0.610819 0.1178 0.0590829
0.610819 0.1178 0.0590829
0.62591 0.125399 0.0781872
0.652232 0.139971 0.117372
0.679301 0.154467 0.158038
0.699657 0.169787 0.200977
0.71606 0.181582 0.242222
0.731167 0.194232 0.285161
0.744945 0.208148 0.328969
0.75758 0.223835 0.372488
0.769512 0.241718 0.415641
0.781125 0.262089 0.458167
0.792142 0.285969 0.499535
0.801511 0.314351 0.538888
0.809049 0.346654 0.576196
0.813855 0.380774 0.609751
0.817624 0.412467 0.639109
0.0233921 0.0204623 0.0166629
0.0233921 0.0204623 0.0166629
0.0233921 0.0204623 0.0166629
0.0233921 0.0204623 0.0166629
0.0233921 0.0204623 0.0166629
0.0233921 0.0204623 0.0166629
0.0233921 0.0204623 0.0166629
0.0233921 0.0204623 0.0166629
0.0231022 0.0238041 0.0218204
0.0112459 0.0462043 0.0582284
0.0474556 0.0182498 0.0135653
0.0567178 0.0166476 0.011841
0.0650492 0.0155337 0.0107576
0.0731823 0.0149538 0.0102083
0.0821393 0.014786 0.0100252
0.0914931 0.0148775 0.0100862
0.101274 0.015198 0.0103456
0.111604 0.0157626 0.0108034
0.122911 0.016556 0.0114443
0.135073 0.0175784 0.0122835
0.148241 0.0188602 0.0133516
0.163638 0.0203555 0.0145876
0.180697 0.0221408 0.0160983
0.199756 0.0242313 0.0178988
0.219226 0.0265965 0.0197452
0.239979 0.0291447 0.0217441
0.262119 0.0319219 0.0238804
0.285695 0.0351415 0.0261387
0.310719 0.0385748 0.0285039
0.337148 0.042237 0.03093
0.364614 0.0463874 0.0335241
0.39884 0.0527199 0.037171
0.432319 0.0599985 0.0409247
0.465583 0.0683604 0.0447547
0.498619 0.0778668 0.0485237
0.531579 0.0887465 0.0520638
0.564034 0.100038 0.0553445
0.595605 0.111742 0.0580453
0.610819 0.1178 0.0590829
0.610819 0.1178 0.0590829
0.610819 0.1178 0.0590829
0.610819 0.1178 0.0590829
0.610819 0.1178 0.0590829
0.610819 0.1178 0.0590829
0.610819 0.1178 0.0590829
0.610819 0.1178 0.0590829
0.610819 0.1178 0.0590829
0.610819 0.1178 0.0590829
0.610819 0.1178 0.0590829
0.610819 0.1178 0.0590829
0.626169 0.125536 0.0785382
0.652461 0.140093 0.117708
0.679469 0.154604 0.158343
0.699779 0.169879 0.201251
0.716152 0.181659 0.242466
0.731228 0.194293 0.285359
0.744976 0.208194 0.329107
0.757641 0.223911 0.372671
0.769543 0.241779 0.415763
0.781155 0.262165 0.458305
0.792157 0.286015 0.499611
0.801541 0.314443 0.539025
0.809064 0.346716 0.576272
0.81387 0.380835 0.609812
0.817624 0.412482 0.639124
0.0233921 0.0204623 0.0166629
0.0233921 0.0204623 0.0166629
0.0233921 0.0204623 0.0166629
0.0233921 0.0204623 0.0166629
0.0233921 0.0204623 0.0166629
0.0233921 0.0204623 0.0166629
0.0233921 0.0204623 0.0166629
0.0233921 0.0204623 0.0166629
0.0216068 0.0273747 0.0276188
0.0106661 0.0502174 0.0641184
0.0496834 0.0178531 0.0131228
0.0577249 0.0164797 0.0116884
0.0658732 0.0154574 0.0106813
0.0739147 0.0149233 0.0101778
0.0828412 0.014786 0.0100252
0.092134 0.0148928 0.0101015
0.101869 0.0152285 0.0103761
0.112139 0.0158083 0.0108339
0.123415 0.0165866 0.0114748
0.135546 0.0176242 0.0123293
0.14873 0.0189059 0.0133822
0.164096 0.0204013 0.0146334
0.181155 0.0221866 0.016144
0.200168 0.0242771 0.0179446
0.219608 0.0266423 0.0197757
0.24033 0.0291905 0.0217746
0.26244 0.0319677 0.0239109
0.285985 0.0351873 0.0261692
0.310994 0.0386206 0.0285191
0.337392 0.0422675 0.0309453
0.364843 0.0464179 0.0335546
0.399664 0.0528878 0.0372625
0.432929 0.0601358 0.041001
0.465995 0.0684672 0.0448005
0.499031 0.0780041 0.0485695
0.531945 0.0888685 0.0520943
0.56434 0.100145 0.0553597
0.595865 0.111849 0.0580606
0.610819 0.1178 0.0590829
0.610819 0.1178 0.0590829
0.610819 0.1178 0.0590829
0.610819 0.1178 0.0590829
0.610819 0.1178 0.0590829
0.610819 0.1178 0.0590829
0.610819 0.1178 0.0590829
0.610819 0.1178 0.0590829
0.610819 0.1178 0.0590829
0.610819 0.1178 0.0590829
0.610819 0.1178 0.0590829
0.610819 0.1178 0.0590829
0.626444 0.125689 0.0789349
0.652705 0.14023 0.11809
0.679667 0.154742 0.158694
0.69987 0.16994 0.20148
0.716243 0.18172 0.242695
0.731289 0.194354 0.285557
0.745037 0.208255 0.329305
0.757671 0.223972 0.372808
0.769589 0.24184 0.4159
0.781201 0.262226 0.458442
0.792172 0.286076 0.499687
0.801556 0.314504 0.539086
0.809079 0.346792 0.576333
0.81387 0.38085 0.609827
0.817639 0.412543 0.639185
0.0233921 0.0204623 0.0166629
0.0233921 0.0204623 0.0166629
0.0233921 0.0204623 0.0166629
0.0233921 0.0204623 0.0166629
0.0233921 0.0204623 0.0166629
0.0233921 0.0204623 0.0166629
0.0233921 0.0204623 0.0166629
0.0251621 0.0205997 0.0166934
0.0191958 0.0307774 0.0333715
0.0105745 0.0545663 0.0702983
0.0509957 0.0176089 0.0128786
0.0587167 0.0163424 0.0115358
0.0666819 0.0153811 0.0106203
0.0746471 0.0148928 0.0101625
0.0835431 0.014786 0.0100252
0.0927596 0.0149081 0.0101167
0.102449 0.015259 0.0103914
0.112673 0.0158389 0.0108644
0.123934 0.0166323 0.0115053
0.136019 0.0176699 0.0123598
0.149218 0.0189517 0.0134279
0.164569 0.0204471 0.0146792
0.181613 0.0222324 0.0161898
0.20058 0.0243381 0.0179751
0.219989 0.026688 0.0198062
0.240681 0.0292363 0.0218051
0.262776 0.0320134 0.0239414
0.28629 0.0352331 0.0261997
0.311269 0.0386511 0.0285496
0.337652 0.0423133 0.0309758
0.365072 0.0464637 0.0335699
0.400366 0.0530251 0.0373388
0.433509 0.0602731 0.041062
0.466453 0.0685893 0.0448615
0.499458 0.0781262 0.0486152
0.532296 0.0889906 0.0521248
0.56463 0.100252 0.0553902
0.596124 0.11194 0.0580758
0.610819 0.1178 0.0590829
0.610819 0.1178 0.0590829
0.610819 0.1178 0.0590829
0.610819 0.1178 0.0590829
0.610819 0.1178 0.0590829
0.610819 0.1178 0.0590829
0.610819 0.1178 0.0590829
0.610819 0.1178 0.0590829
0.610819 0.1178 0.0590829
0.610819 0.1178 0.0590829
0.610819 0.1178 0.0590829
0.610819 0.1178 0.0590829
0.626688 0.125826 0.0792859
0.652934 0.140352 0.118425
0.679835 0.154864 0.159014
0.699992 0.170031 0.20177
0.716335 0.181796 0.242939
0.73138 0.19443 0.285801
0.745098 0.208331 0.329488
0.757733 0.224033 0.373007
0.769619 0.241901 0.416037
0.781216 0.262272 0.458518
0.792203 0.286152 0.499809
0.801572 0.314565 0.539162
0.809094 0.346853 0.57641
0.81387 0.380911 0.609888
0.817639 0.412604 0.639231
0.0233921 0.0204623 0.0166629
0.0233921 0.0204623 0.0166629
0.0233921 0.0204623 0.0166629
0.0233921 0.0204623 0.0166629
0.0233921 0.0204623 0.0166629
0.0233921 0.0204623 0.0166629
0.0233921 0.0204623 0.0166629
0.0287938 0.0206912 0.0165866
0.0169223 0.0341039 0.0387579
0.0419471 0.0192416 0.0146487
0.0522621 0.0173953 0.0126345
0.0596628 0.0162051 0.0113985
0.0674754 0.0153048 0.010544
0.0753643 0.0148775 0.010132
0.0842298 0.014786 0.0100252
0.0933852 0.0149233 0.010132
0.103029 0.0152895 0.0104219
0.113191 0.0158694 0.0108949
0.124453 0.0166781 0.0115358
0.136507 0.0177157 0.0124056
0.149691 0.0189975 0.0134585
0.165026 0.0204929 0.0147097
0.182071 0.0222934 0.0162356
0.200992 0.0243839 0.0180209
0.220371 0.0267338 0.019852
0.241032 0.0292821 0.0218357
0.263096 0.0320592 0.0239872
0.286595 0.0352636 0.0262303
0.311543 0.0386969 0.0285801
0.337896 0.0423438 0.0309911
0.365286 0.0464942 0.0336004
0.401038 0.0531624 0.0373999
0.434089 0.0604105 0.0411383
0.466896 0.0687114 0.0449073
0.49987 0.0782483 0.048661
0.532647 0.0890974 0.0521706
0.564935 0.100359 0.0554208
0.596368 0.112047 0.0581064
0.610819 0.1178 0.0590829
0.610819 0.1178 0.0590829
0.610819 0.1178 0.0590829
0.610819 0.1178 0.0590829
0.610819 0.1178 0.0590829
0.610819 0.1178 0.0590829
0.610819 0.1178 0.0590829
0.610819 0.1178 0.0590829
0.610819 0.1178 0.0590829
0.610819 0.1178 0.0590829
0.610819 0.1178 0.0590829
0.610819 0.1178 0.0590829
0.626963 0.125978 0.0796826
0.653147 0.140459 0.118746
0.679988 0.154986 0.159319
0.700099 0.170108 0.202045
0.716411 0.181857 0.243168
0.731441 0.194476 0.285985
0.745159 0.208392 0.329686
0.757778 0.224094 0.373144
0.76965 0.241962 0.416175
0.781262 0.262333 0.458656
0.792233 0.286198 0.499886
0.801587 0.314611 0.539239
0.80911 0.346914 0.576471
0.813886 0.380972 0.609949
0.817655 0.412619 0.639246
0.0262913 0.0206455 0.0166781
0.0259861 0.0206455 0.0166934
0.0256809 0.0206302 0.0166934
0.0253758 0.0206149 0.0166934
0.0250858 0.0205844 0.0166934
0.0247807 0.0205692 0.0166934
0.0233921 0.0204623 0.0166629
0.0300298 0.0258488 0.016846
0.00602731 0.0170748 0.0445258
0.00483711 0.0390021 0.0770123
0.0469215 0.0183566 0.0136721
0.0548409 0.0169528 0.0121614
0.0631571 0.0157473 0.010956
0.0712596 0.0150454 0.0102998
0.079881 0.014786 0.0100404
0.089601 0.0148318 0.0100557
0.0995804 0.0151369 0.0102998
0.11017 0.0156863 0.0107424
0.121798 0.0164645 0.0113832
0.134447 0.0175174 0.0122377
0.148363 0.0188754 0.0133669
0.164675 0.0204623 0.0146792
0.18204 0.0222782 0.0162203
0.200748 0.0243534 0.0179904
0.220478 0.0267491 0.019852
0.241382 0.0293278 0.0218814
0.263416 0.032105 0.0240177
0.286885 0.0353094 0.0262608
0.311818 0.0387274 0.0285954
0.338155 0.0423743 0.0310216
0.365515 0.04654 0.0336156
0.401694 0.0532998 0.0374762
0.434653 0.0605478 0.0411994
0.467369 0.0688334 0.0449683
0.500267 0.0783856 0.0487068
0.532998 0.0892195 0.0522011
0.565225 0.100465 0.0554513
0.596613 0.112139 0.0581216
0.610819 0.1178 0.0590829
0.610819 0.1178 0.0590829
0.610819 0.1178 0.0590829
0.610819 0.1178 0.0590829
0.610819 0.1178 0.0590829
0.610819 0.1178 0.0590829
0.610819 0.1178 0.0590829
0.610819 0.1178 0.0590829
0.610819 0.1178 0.0590829
0.610819 0.1178 0.0590829
0.610819 0.1178 0.0590829
0.610819 0.1178 0.0590829
0.627207 0.126116 0.0800488
0.653391 0.140597 0.119127
0.680186 0.155138 0.159686
0.700206 0.170184 0.202274
0.716503 0.181933 0.243412
0.731502 0.194537 0.286183
0.74519 0.208438 0.329824
0.757809 0.22414 0.373281
0.769696 0.242023 0.416312
0.781292 0.262409 0.458778
0.792264 0.28629 0.500008
0.801617 0.314717 0.539361
0.80911 0.346975 0.576547
0.813901 0.381048 0.61001
0.817655 0.41268 0.639307
0.0486152 0.0198978 0.0479896
0.0483101 0.019913 0.0474556
0.0480049 0.0199435 0.0469215
0.0476997 0.0199741 0.0463874
0.0474098 0.0200046 0.0458534
0.0471199 0.0200351 0.0453193
0.0358434 0.0185702 0.0450599
0.0107729 0.018677 0.0382391
0.00675975 0.0173495 0.0436103
0.000900282 0.0255741 0.0750591
0.0310521 0.0206149 0.0164034
0.0416571 0.0192874 0.0147097
0.0515297 0.0175174 0.0127718
0.0658579 0.0154574 0.0106813
0.0738689 0.0149233 0.0101778
0.0832532 0.014786 0.0100252
0.093019 0.0149081 0.0101167
0.10338 0.0153048 0.0104372
0.114458 0.0159609 0.010956
0.126757 0.0168612 0.0116884
0.140002 0.0180514 0.0126802
0.15494 0.0194858 0.0138705
0.171908 0.02121 0.0153048
0.190524 0.023209 0.0170138
0.210666 0.0255436 0.0189212
0.232395 0.0282139 0.0210117
0.255955 0.0311284 0.0232853
0.281315 0.0345464 0.0257267
0.308415 0.0382696 0.0282902
0.337041 0.0422217 0.0309148
0.365866 0.0466011 0.0336614
0.40235 0.0534371 0.0375525
0.435203 0.0606699 0.0412604
0.467811 0.0689555 0.0450141
0.500679 0.0785077 0.0487526
0.533349 0.0893416 0.0522316
0.56553 0.100572 0.0554818
0.596857 0.11223 0.0581369
0.610819 0.1178 0.0590829
0.610819 0.1178 0.0590829
0.610819 0.1178 0.0590829
0.610819 0.1178 0.0590829
0.610819 0.1178 0.0590829
0.610819 0.1178 0.0590829
0.610819 0.1178 0.0590829
0.610819 0.1178 0.0590829
0.610819 0.1178 0.0590829
0.610819 0.1178 0.0590829
0.610819 0.1178 0.0590829
0.610819 0.1178 0.0590829
0.627482 0.126268 0.0804456
0.65362 0.140719 0.119463
0.680354 0.155261 0.159991
0.700313 0.17026 0.202564
0.716594 0.181994 0.243641
0.731563 0.194598 0.286381
0.745251 0.208499 0.330022
0.75787 0.224216 0.373465
0.769726 0.242084 0.416449
0.781308 0.262455 0.458869
0.792279 0.286336 0.500084
0.801633 0.314778 0.539437
0.809125 0.347036 0.576608
0.813901 0.381109 0.610071
0.81767 0.412741 0.639368
0.0762341 0.0212558 0.090135
0.075639 0.0211948 0.0893721
0.0750439 0.0211185 0.0885939
0.074403 0.0210422 0.0877852
0.0737163 0.0209659 0.0868849
0.0731212 0.0209049 0.0860914
0.0534371 0.018265 0.0892042
0.0145571 0.0179141 0.0809339
0.000732433 0.0165713 0.0577249
0.00120546 0.0193027 0.0635538
0.0113527 0.0254978 0.0418097
0.0300755 0.0261845 0.016846
0.045655 0.0185855 0.0139162
0.0568246 0.0166323 0.0118257
0.0665141 0.0153964 0.0106355
0.0753338 0.0148775 0.010132
0.0885481 0.0148165 0.0100557
0.0975967 0.0150607 0.0102388
0.107362 0.0155184 0.010605
0.11812 0.0162051 0.0111543
0.130083 0.0171359 0.0119173
0.14316 0.0183566 0.0129397
0.158389 0.0198215 0.0141604
0.175601 0.0215915 0.0156405
0.19469 0.0236667 0.0174105
0.215534 0.0261387 0.019379
0.238437 0.0289616 0.0215915
0.263691 0.0321355 0.024033
0.291402 0.0359197 0.026688
0.321584 0.0400702 0.0295109
0.35584 0.0449378 0.032639
0.401266 0.0532082 0.0374304
0.435096 0.0606546 0.0412451
0.468269 0.0690929 0.0450752
0.501076 0.0786297 0.0487984
0.5337 0.0894484 0.0522774
0.56582 0.100679 0.0555123
0.597116 0.112322 0.0581521
0.610819 0.1178 0.0590829
0.610819 0.1178 0.0590829
0.610819 0.1178 0.0590829
0.610819 0.1178 0.0590829
0.610819 0.1178 0.0590829
0.610819 0.1178 0.0590829
0.610819 0.1178 0.0590829
0.610819 0.1178 0.0590829
0.610819 0.1178 0.0590829
0.610819 0.1178 0.0590829
0.610819 0.1178 0.0590829
0.610819 0.1178 0.0590829
0.627741 0.126406 0.0808118
0.653834 0.140841 0.119783
0.680522 0.155383 0.160296
0.700404 0.170321 0.202792
0.71667 0.182055 0.243839
0.73164 0.194675 0.286625
0.745312 0.208576 0.330205
0.7579 0.224277 0.373602
0.769772 0.242145 0.416587
0.781353 0.262516 0.458991
0.792309 0.286427 0.500221
0.801648 0.314824 0.539498
0.80914 0.347112 0.576684
0.813916 0.38117 0.610132
0.81767 0.412802 0.639414
0.0625925 0.0191043 0.0924239
0.0623178 0.0190738 0.0919661
0.0620432 0.0190433 0.0914931
0.0617685 0.0190127 0.0910353
0.0614939 0.0189822 0.0905776
0.0612192 0.0189517 0.0901045
0.0421302 0.0187076 0.0959182
0.0152438 0.0191348 0.0996872
0.00344854 0.0196384 0.0959487
0 0.0211185 0.0975967
0 0.0283818 0.101656
0.0277104 0.0233005 0.0168765
0.0369421 0.0224002 0.0159152
0.0475624 0.0193484 0.0137331
0.0588388 0.0163119 0.0115206
0.069276 0.0151675 0.0104219
0.079408 0.0148013 0.0100404
0.0900282 0.014847 0.010071
0.10016 0.0151522 0.0103151
0.113268 0.0158846 0.0108949
0.123659 0.0166018 0.01149
0.134798 0.0175479 0.0122683
0.147097 0.0187533 0.0132601
0.161883 0.0201724 0.0144503
0.178485 0.0218967 0.0158999
0.197284 0.0239567 0.0176547
0.218448 0.0264897 0.0196689
0.242893 0.0295109 0.0220188
0.269459 0.032929 0.0245975
0.298787 0.0369421 0.0273899
0.335531 0.0420081 0.0307774
0.386419 0.0502937 0.0358129
0.431022 0.0596933 0.0407874
0.46511 0.0682231 0.0447089
0.499962 0.0782788 0.0486763
0.534035 0.0895705 0.0523079
0.56611 0.100786 0.0555428
0.59736 0.112428 0.0581674
0.610819 0.1178 0.0590829
0.610819 0.1178 0.0590829
0.610819 0.1178 0.0590829
0.610819 0.1178 0.0590829
0.610819 0.1178 0.0590829
0.610819 0.1178 0.0590829
0.610819 0.1178 0.0590829
0.610819 0.1178 0.0590829
0.610819 0.1178 0.0590829
0.610819 0.1178 0.0590829
0.610819 0.1178 0.0590829
0.610819 0.1178 0.0590829
0.628016 0.126558 0.0814527
0.654093 0.140978 0.120165
0.680705 0.155535 0.160662
0.700526 0.170413 0.203067
0.716747 0.182116 0.244068
0.731716 0.194736 0.286809
0.745373 0.208637 0.330404
0.757946 0.224323 0.373739
0.769802 0.242206 0.416709
0.781384 0.262592 0.459129
0.792325 0.286473 0.500298
0.801663 0.314885 0.539574
0.809155 0.347173 0.576745
0.813916 0.381186 0.610147
0.81767 0.412818 0.639429
0.0856489 0.0227359 0.124865
0.0853132 0.0226596 0.124437
0.0849928 0.0225986 0.12401
0.0846571 0.0225376 0.123583
0.0843214 0.0224613 0.123156
0.0839857 0.0224002 0.122728
0.0546273 0.0221256 0.130541
0.023331 0.0227207 0.135271
0.00828565 0.024094 0.130648
0.00143435 0.0217136 0.107576
0.0218662 0.0311742 0.0194247
0.0239567 0.0277867 0.0187533
0.0332494 0.0271153 0.0166629
0.0420844 0.0254063 0.0153658
0.0524147 0.022385 0.0133669
0.0631266 0.0182498 0.0113832
0.0729839 0.0149538 0.0102235
0.0843366 0.014786 0.0100252
0.095613 0.0149844 0.0101778
0.106798 0.0154879 0.0105745
0.11809 0.0162051 0.0111543
0.129656 0.0171054 0.0118868
0.144015 0.0184482 0.0130007
0.156741 0.0196689 0.014023
0.170977 0.0211032 0.0152285
0.186923 0.0228122 0.0166781
0.204746 0.0248264 0.0183719
0.224521 0.0272374 0.0202487
0.24686 0.0299992 0.0224002
0.272267 0.0333104 0.0248569
0.30753 0.0381476 0.0281987
0.359915 0.045594 0.033051
0.413504 0.0557717 0.0387884
0.456977 0.0660868 0.0437629
0.492897 0.0761273 0.0478828
0.529091 0.0879225 0.0518044
0.565057 0.100404 0.055436
0.59762 0.11252 0.0581979
0.610819 0.1178 0.0590829
0.610819 0.1178 0.0590829
0.610819 0.1178 0.0590829
0.610819 0.1178 0.0590829
0.610819 0.1178 0.0590829
0.610819 0.1178 0.0590829
0.610819 0.1178 0.0590829
0.610819 0.1178 0.0590829
0.610819 0.1178 0.0590829
0.610819 0.1178 0.0590829
0.610819 0.1178 0.0590829
0.610819 0.1178 0.0590829
0.62829 0.126711 0.0818647
0.654307 0.1411 0.1205
0.680903 0.155673 0.161028
0.700648 0.170489 0.203357
0.716838 0.182193 0.244312
0.731792 0.194812 0.287053
0.745434 0.208698 0.330602
0.757992 0.224399 0.373938
0.769848 0.242267 0.416846
0.781415 0.262623 0.459205
0.792355 0.286564 0.50042
0.801678 0.314946 0.539651
0.809171 0.347234 0.576822
0.813916 0.381247 0.610208
0.817685 0.412879 0.63949
0.115572 0.0297398 0.161761
0.115251 0.0296483 0.161379
0.114931 0.029572 0.160998
0.114611 0.0294804 0.160601
0.11429 0.0294041 0.160235
0.114443 0.0294347 0.160372
0.0712902 0.029099 0.170932
0.0344701 0.0298161 0.175692
0.0152743 0.0218967 0.0409552
0.0208743 0.034226 0.0198672
0.0198825 0.0369116 0.0202182
0.0191653 0.0396277 0.0205844
0.0266728 0.0360418 0.0198215
0.0379034 0.0342107 0.0160678
0.0476081 0.0297856 0.0146487
0.0573892 0.0261997 0.0129854
0.0677958 0.0223697 0.0115816
0.0776532 0.0183566 0.0106966
0.0879988 0.0148165 0.0100404
0.100053 0.0151522 0.0103151
0.112215 0.0158083 0.0108492
0.12491 0.0167086 0.0115663
0.13785 0.0178378 0.0124971
0.151308 0.0191501 0.0135958
0.165866 0.0205844 0.014786
0.183322 0.0224308 0.0163424
0.198886 0.0241398 0.0178225
0.215656 0.026154 0.0193942
0.23444 0.0284581 0.02121
0.255573 0.0310826 0.0232547
0.286595 0.0352636 0.0262303
0.333333 0.0417029 0.0305791
0.389029 0.0507973 0.0361028
0.44062 0.0619669 0.041886
0.479637 0.0722515 0.0463722
0.514412 0.0831159 0.050248
0.550866 0.0953384 0.0540322
0.590814 0.109926 0.0576791
0.610819 0.1178 0.0590829
0.610819 0.1178 0.0590829
0.610819 0.1178 0.0590829
0.610819 0.1178 0.0590829
0.610819 0.1178 0.0590829
0.610819 0.1178 0.0590829
0.610819 0.1178 0.0590829
0.610819 0.1178 0.0590829
0.610819 0.1178 0.0590829
0.610819 0.1178 0.0590829
0.610819 0.1178 0.0590829
0.610819 0.1178 0.0590829
0.628641 0.126909 0.0823835
0.654643 0.141283 0.121004
0.681132 0.155856 0.161456
0.700786 0.170596 0.203693
0.716976 0.182284 0.244663
0.731884 0.194888 0.287327
0.74551 0.208789 0.330861
0.758053 0.224475 0.374136
0.769894 0.242359 0.41706
0.78146 0.26273 0.459403
0.792401 0.286656 0.500557
0.801709 0.315053 0.539788
0.809171 0.347311 0.576898
0.813931 0.381384 0.61033
0.817685 0.41294 0.639551
0.14966 0.0396429 0.201511
0.14934 0.0395514 0.20116
0.14902 0.0394446 0.200793
0.148714 0.039353 0.200427
0.148394 0.0392462 0.200076
0.137804 0.0380255 0.203021
0.0213626 0.0328222 0.0196841
0.0200198 0.0364996 0.0201572
0.0193942 0.0381476 0.0203555
0.0185855 0.0402228 0.0205997
0.0177005 0.0424659 0.0208743
