LUTs/Log/FILMY56_SLOG3-REC709.cube
TITLE "Generated by Resolve"
LUT_3D_SIZE 9
0.0233921 0.0204623 0.0166629
0.0318151 0.0204318 0.0160983
0.101366 0.01355 0.00817884
0.220661 0.0237583 0.0161593
0.444633 0.0582742 0.0434424
0.651774 0.135836 0.0999619
0.651774 0.135836 0.0999619
0.742992 0.195514 0.279088
0.815534 0.302052 0.543938
0.0540017 0.0210422 0.0362249
0.0130312 0.0193484 0.0354772
0.0948043 0.0133974 0.0081178
0.213016 0.0229343 0.0154879
0.44979 0.0595865 0.0443885
0.651774 0.135836 0.0999619
0.651774 0.135836 0.0999619
0.743358 0.195819 0.28014
0.815625 0.302312 0.544335
0.0216526 0.0483864 0.0195621
0.0211032 0.055848 0.0199893
0.0524147 0.0707866 0.0117342
0.138247 0.0216373 0.0104524
0.335378 0.0374304 0.0274968
0.651774 0.135836 0.0999619
0.651774 0.135836 0.0999619
0.743938 0.196292 0.281834
0.815763 0.302693 0.54493
0.0204776 0.101656 0.0250095
0.0220798 0.12079 0.0289311
0.0260014 0.147692 0.0361334
0.158053 0.186999 0.0313115
0.348333 0.106783 0.0342565
0.607324 0.115297 0.0844892
0.651774 0.135836 0.0999619
0.745693 0.197772 0.287068
0.816205 0.303883 0.546777
0.062089 0.294865 0.094316
0.0659495 0.307149 0.0997482
0.0712291 0.323278 0.106844
0.0991531 0.374762 0.11078
0.439506 0.446769 0.122194
0.667445 0.333318 0.130755
0.706477 0.229679 0.129656
0.746914 0.198825 0.290761
0.817563 0.307622 0.552453
0.154559 0.541634 0.201953
0.156558 0.545907 0.203845
0.15938 0.551904 0.206516
0.166705 0.567117 0.213336
0.325734 0.626337 0.197498
0.691264 0.702388 0.231342
0.842374 0.664729 0.272023
0.846082 0.577935 0.295521
0.850919 0.44802 0.578058
0.28098 0.776562 0.328771
0.281437 0.777218 0.329259
0.282078 0.778164 0.329961
0.283696 0.780545 0.331716
0.311696 0.790951 0.316518
0.632212 0.837995 0.38761
0.845853 0.86923 0.489723
0.875517 0.859922 0.459541
0.878996 0.831632 0.622049
0.407614 0.852354 0.535912
0.414694 0.852781 0.53785
0.425574 0.853452 0.540902
0.458595 0.855497 0.548898
0.544366 0.860883 0.570336
0.695979 0.870878 0.61857
0.837659 0.88661 0.69662
0.887587 0.894682 0.75935
0.891173 0.89456 0.707057
0.698436 0.871046 0.716243
0.699626 0.871122 0.71664
0.701503 0.871229 0.717266
0.70724 0.87158 0.719203
0.724376 0.872679 0.724178
0.766903 0.875731 0.736263
0.830503 0.88249 0.762051
0.879942 0.892439 0.802274
0.900328 0.898024 0.840391
0.0179599 0.0211795 0.0295109
0.0362707 0.019379 0.038117
0.104128 0.0136416 0.00823987
0.234257 0.0252537 0.01738
0.46772 0.0643931 0.0478523
0.651774 0.135836 0.0999619
0.651774 0.135836 0.0999619
0.746426 0.198413 0.289296
0.816403 0.304433 0.547616
0.0610819 0.0150759 0.0100099
0.0233921 0.0204623 0.0166629
0.105257 0.0136873 0.00825513
0.233936 0.0252232 0.0173495
0.471031 0.0653239 0.0485084
0.651774 0.135836 0.0999619
0.651774 0.135836 0.0999619
0.746761 0.198703 0.290318
0.816495 0.304662 0.547951
0.0206302 0.0659495 0.0207828
0.0203098 0.0773327 0.0219425
0.0953689 0.103685 0.0158236
0.189807 0.0259251 0.0140536
0.414237 0.0511788 0.0382086
0.651774 0.135836 0.0999619
0.651774 0.135836 0.0999619
0.747311 0.199176 0.291997
0.816632 0.305043 0.548547
0.0264897 0.150484 0.0369726
0.0311284 0.174426 0.0447089
0.0358282 0.196201 0.0523842
0.241306 0.249638 0.048661
0.403937 0.120668 0.042359
0.635203 0.127703 0.0939193
0.651774 0.135836 0.0999619
0.748974 0.200641 0.297108
0.817075 0.306264 0.550408
0.0711223 0.322942 0.106691
0.0747082 0.333516 0.111345
0.0793011 0.346548 0.117067
0.104814 0.386191 0.111711
0.457618 0.45803 0.127337
0.685039 0.344488 0.137667
0.711711 0.239704 0.13286
0.750423 0.201923 0.301595
0.818402 0.310018 0.556023
0.158984 0.551064 0.206149
0.161028 0.555337 0.208057
0.163836 0.561196 0.210681
0.170718 0.575311 0.217029
0.332113 0.631312 0.199542
0.69781 0.707897 0.235676
0.842847 0.667811 0.273106
0.850553 0.585458 0.306325
0.85095 0.449302 0.58117
0.282231 0.778393 0.330129
0.282673 0.779049 0.330602
0.283314 0.77998 0.331304
0.284916 0.782284 0.333043
0.315282 0.793088 0.324865
0.636133 0.838911 0.402548
0.846693 0.869612 0.500923
0.875929 0.860456 0.467582
0.879118 0.832227 0.626093
0.410254 0.852598 0.53959
0.417273 0.853025 0.541512
0.428061 0.853681 0.544518
0.460258 0.85565 0.552941
0.545586 0.861006 0.573999
0.697246 0.870924 0.622095
0.838041 0.886564 0.69955
0.887678 0.894682 0.760983
0.891234 0.894499 0.708705
0.699001 0.871092 0.717128
0.700191 0.871168 0.717525
0.702068 0.871275 0.718151
0.707774 0.871626 0.720073
0.724758 0.872709 0.725124
0.767193 0.875761 0.737133
0.830671 0.88249 0.762737
0.879973 0.892454 0.802625
0.900343 0.898039 0.840513
0.00198367 0.0160525 0.0528878
0.00115969 0.0163424 0.0567636
0.161227 0.033753 0.116197
0.287419 0.0344091 0.051667
0.488396 0.0704662 0.0521401
0.651774 0.135836 0.0999619
0.665843 0.143694 0.120516
0.751522 0.202914 0.305043
0.817761 0.308186 0.553307
0 0.0181125 0.0738537
0 0.0171511 0.0652781
0.151019 0.0331121 0.115312
0.276066 0.0327459 0.0519112
0.490974 0.0712749 0.0526894
0.651774 0.135836 0.0999619
0.667109 0.144381 0.122377
0.751842 0.203204 0.30605
0.817853 0.308461 0.553689
0.0282139 0.0988785 0.0933547
0.0301366 0.114214 0.109316
0.131212 0.136095 0.132753
0.26302 0.0437781 0.0523232
0.437263 0.0564584 0.0421149
0.651774 0.135836 0.0999619
0.669078 0.14548 0.125307
0.752346 0.203662 0.307637
0.81799 0.308858 0.554284
0.0364691 0.195819 0.0580148
0.0408789 0.215274 0.0750591
0.0437171 0.227237 0.0882429
0.276478 0.282536 0.0822766
0.441703 0.130266 0.0489967
0.651774 0.135836 0.0999619
0.672114 0.147143 0.129809
0.753887 0.205112 0.312566
0.818418 0.310063 0.556085
0.0806134 0.35021 0.118669
0.0836957 0.357977 0.122072
0.0884718 0.370993 0.127764
0.110277 0.402853 0.119005
0.480751 0.47602 0.136782
0.706264 0.358679 0.146593
0.71931 0.254658 0.137667
0.755611 0.20676 0.318105
0.819715 0.313817 0.561578
0.164889 0.563394 0.211658
0.167071 0.567895 0.213687
0.170001 0.573877 0.216373
0.176608 0.587121 0.222385
0.340673 0.638544 0.202609
0.708415 0.721752 0.251102
0.843488 0.672099 0.274617
0.856718 0.596994 0.324376
0.85098 0.451377 0.585992
0.284016 0.780987 0.332052
0.284474 0.781643 0.332555
0.285115 0.782559 0.333257
0.286717 0.784802 0.334981
0.322545 0.796948 0.344823
0.642023 0.840146 0.424552
0.847913 0.870115 0.517617
0.876554 0.861234 0.479927
0.879286 0.833143 0.632364
0.414405 0.852979 0.545342
0.421332 0.853391 0.547219
0.431998 0.854032 0.550149
0.46302 0.855894 0.559136
0.547524 0.861189 0.57969
0.699199 0.871 0.627512
0.838636 0.886519 0.704067
0.887816 0.894667 0.763485
0.89134 0.894408 0.711299
0.699886 0.871168 0.718517
0.701076 0.871244 0.718898
0.702937 0.871351 0.719524
0.708629 0.871687 0.721416
0.725368 0.872755 0.726589
0.767666 0.875807 0.738476
0.8309 0.88249 0.763821
0.880018 0.892454 0.803204
0.900359 0.898054 0.840711
0 0.0247501 0.11989
0 0.0267948 0.131334
0.0327459 0.0428168 0.239612
0.391135 0.0966506 0.270832
0.58999 0.118456 0.184176
0.698116 0.161975 0.169665
0.714076 0.17406 0.203403
0.765209 0.216678 0.350332
0.821775 0.320134 0.570504
0 0.0343023 0.166735
0 0.0296941 0.145724
0.019028 0.0397498 0.218753
0.370367 0.0955062 0.271672
0.577905 0.113817 0.182422
0.699229 0.162829 0.171756
0.714702 0.174502 0.204898
0.765469 0.216968 0.351247
0.821851 0.320378 0.57084
0 0.0308537 0.151202
0 0.0434119 0.20354
0.00349432 0.0489357 0.195178
0.336645 0.0927138 0.276158
0.537224 0.100359 0.186786
0.702739 0.165515 0.178378
0.715694 0.175219 0.207309
0.765866 0.217411 0.352651
0.821973 0.32076 0.571374
0.0631571 0.246754 0.240986
0.0739452 0.274037 0.263828
0.0816968 0.292226 0.2804
0.329854 0.334752 0.322133
0.577264 0.213779 0.215869
0.703227 0.165881 0.179294
0.719615 0.177996 0.216785
0.767132 0.21883 0.357046
0.82237 0.322011 0.573083
0.108537 0.418051 0.225238
0.111376 0.424933 0.23122
0.114534 0.432013 0.23856
0.126558 0.451713 0.254688
0.52369 0.536965 0.26305
0.747784 0.394263 0.183749
0.771939 0.320623 0.220279
0.769451 0.221546 0.365316
0.823545 0.325826 0.578256
0.183368 0.596521 0.241672
0.185122 0.599603 0.2448
0.187823 0.604486 0.249195
0.195819 0.619074 0.260822
0.356252 0.67068 0.280049
0.731395 0.75169 0.314672
0.849317 0.686931 0.289204
0.867399 0.62945 0.389319
0.851102 0.458152 0.600427
0.293904 0.791211 0.366445
0.294621 0.792004 0.367864
0.295705 0.793164 0.37023
0.298634 0.796094 0.378302
0.34226 0.807095 0.400183
0.658289 0.842939 0.482628
0.851164 0.871183 0.56286
0.878233 0.863249 0.515435
0.87982 0.835782 0.650736
0.427131 0.854109 0.562646
0.433783 0.85449 0.56437
0.444007 0.8551 0.567102
0.473915 0.85687 0.575479
0.553536 0.861708 0.596765
0.704799 0.871244 0.643259
0.840391 0.886336 0.717113
0.888212 0.89453 0.770611
0.891676 0.894148 0.719081
0.702632 0.871397 0.722713
0.703792 0.871473 0.723095
0.705638 0.87158 0.72369
0.711238 0.871916 0.725505
0.727321 0.872908 0.730938
0.769055 0.875944 0.742519
0.831632 0.882506 0.767071
0.880171 0.892485 0.804913
0.90042 0.8981 0.841306
0 0.0470436 0.216709
0 0.0563668 0.247333
0 0.0969253 0.333959
0.289067 0.170153 0.508431
0.707515 0.241627 0.490669
0.78085 0.236271 0.407462
0.776074 0.22977 0.389456
0.795224 0.258839 0.463218
0.831434 0.356893 0.617044
0 0.094667 0.328695
0 0.0679942 0.27779
0 0.0866102 0.314549
0.219333 0.159228 0.487968
0.683742 0.239658 0.496483
0.78114 0.236698 0.408576
0.776333 0.230106 0.390417
0.795392 0.259129 0.46389
0.831479 0.357107 0.617304
0 0.110597 0.354849
0 0.115358 0.36228
0 0.0898756 0.320394
0.147478 0.137041 0.45211
0.6589 0.23946 0.505653
0.78349 0.240085 0.417563
0.776761 0.230671 0.392004
0.795651 0.259586 0.464942
0.831556 0.357519 0.617777
0.00549325 0.145739 0.333623
0.00271611 0.155703 0.371435
0 0.158145 0.399542
0.108721 0.242634 0.4383
0.625879 0.277195 0.516716
0.785519 0.243091 0.425361
0.781003 0.2365 0.408042
0.796475 0.261006 0.468116
0.831785 0.358648 0.619104
0.186862 0.509071 0.467613
0.194385 0.520043 0.475837
0.202914 0.531914 0.485039
0.218128 0.55172 0.502022
0.588052 0.60293 0.553475
0.836805 0.547738 0.501167
0.838987 0.38349 0.438712
0.799649 0.266667 0.480476
0.832471 0.362188 0.623224
0.244373 0.680095 0.436652
0.245823 0.682048 0.439094
0.247791 0.684565 0.442557
0.252277 0.689479 0.451179
0.417838 0.717922 0.489662
0.7617 0.783429 0.55555
0.873472 0.739879 0.466712
0.872068 0.694362 0.555276
0.851698 0.481254 0.639735
0.326085 0.812253 0.488731
0.326635 0.812512 0.489708
0.327504 0.812924 0.491249
0.33019 0.814206 0.495735
0.384955 0.821988 0.514855
0.695048 0.846738 0.599481
0.85771 0.871977 0.659007
0.881895 0.866682 0.602548
0.881209 0.842145 0.69839
0.464607 0.857176 0.610544
0.470451 0.857496 0.611917
0.479484 0.858015 0.614099
0.50605 0.85951 0.620783
0.575326 0.863447 0.640497
0.718456 0.87219 0.683406
0.844938 0.885954 0.748547
0.889143 0.893858 0.787793
0.892576 0.89337 0.740261
0.710781 0.872099 0.734646
0.71191 0.87216 0.734981
0.713664 0.872267 0.735515
0.71899 0.872602 0.737133
0.734279 0.873564 0.741955
0.772793 0.876356 0.753552
0.833722 0.882612 0.775998
0.880598 0.892576 0.809781
0.900587 0.898253 0.842985
0 0.181262 0.452461
0 0.181735 0.452979
0.000320439 0.208545 0.482628
0.0691844 0.284611 0.57882
0.607858 0.405692 0.735698
0.846937 0.454826 0.722606
0.839658 0.409293 0.675196
0.838499 0.401511 0.666743
0.844694 0.441215 0.70901
0.00653086 0.245457 0.523171
0 0.200046 0.473259
0.00132753 0.215839 0.490639
0.047013 0.264378 0.554757
0.567269 0.399298 0.73048
0.847562 0.459617 0.726772
0.839704 0.409583 0.675502
0.838529 0.40174 0.667002
0.844724 0.441352 0.709148
0.0183719 0.288991 0.568902
0.00648508 0.245228 0.522911
0.0021973 0.221653 0.497032
0.0314488 0.250919 0.536904
0.522194 0.389059 0.721569
0.847883 0.46215 0.728985
0.839902 0.410986 0.677012
0.83859 0.402152 0.66743
0.844755 0.441566 0.709377
0.0284123 0.315053 0.593347
0.0262608 0.309957 0.588754
0.0185397 0.289479 0.56936
0.00984207 0.252506 0.531441
0.426642 0.35819 0.694942
0.847349 0.458015 0.725383
0.840879 0.417365 0.683879
0.838773 0.403372 0.668772
0.844862 0.442191 0.710033
0.110765 0.429465 0.590768
0.114199 0.436133 0.601907
0.116594 0.442084 0.617609
0.133394 0.457725 0.643015
0.40354 0.562188 0.68661
0.836652 0.620279 0.73901
0.851347 0.500938 0.689952
0.839567 0.408728 0.674571
0.845197 0.444175 0.712093
0.423972 0.762783 0.697276
0.426596 0.764752 0.699199
0.429938 0.767178 0.70164
0.437171 0.772244 0.707012
0.538598 0.785107 0.723232
0.807446 0.81709 0.766766
0.876966 0.803769 0.754162
0.874113 0.721904 0.723751
0.855741 0.547127 0.720577
0.464347 0.840558 0.681987
0.464622 0.840513 0.682399
0.465034 0.840436 0.683009
0.466011 0.840085 0.684627
0.517739 0.84155 0.695369
0.745953 0.854917 0.74313
0.866773 0.871885 0.781247
0.886595 0.86775 0.747707
0.883635 0.851972 0.778058
0.552239 0.863508 0.710552
0.55697 0.863752 0.711513
0.564279 0.864149 0.712993
0.585672 0.865293 0.717464
0.640772 0.86833 0.72958
0.748867 0.874846 0.756832
0.853956 0.88603 0.797452
0.890959 0.892973 0.817319
0.894469 0.891691 0.783825
0.733257 0.874189 0.763378
0.734218 0.87425 0.763607
0.735714 0.874342 0.763989
0.740261 0.874647 0.765133
0.753262 0.875532 0.768551
0.784985 0.877913 0.777905
0.838712 0.883452 0.795789
0.881819 0.892897 0.821469
0.900984 0.898634 0.847181
0.0904707 0.414405 0.668116
0.0863813 0.409155 0.664729
0.0899977 0.413794 0.66772
0.102663 0.43003 0.677928
0.360601 0.548012 0.774502
0.846433 0.598428 0.810605
0.846433 0.598428 0.810605
0.846433 0.598428 0.810605
0.847059 0.59057 0.807919
0.106035 0.434363 0.680568
0.0933394 0.418082 0.670451
0.0918135 0.416129 0.669215
0.103258 0.430793 0.678386
0.342519 0.53843 0.770687
0.844816 0.597894 0.810575
0.846433 0.598428 0.810605
0.846433 0.598428 0.810605
0.847044 0.590646 0.80795
0.12845 0.462821 0.697322
0.107897 0.436759 0.682017
0.097322 0.423194 0.673671
0.105501 0.433677 0.680156
0.319387 0.525841 0.764736
0.832029 0.594339 0.8103
0.846433 0.598428 0.810605
0.846433 0.598428 0.810605
0.847028 0.590814 0.807996
0.165805 0.503105 0.719814
0.162783 0.49984 0.718029
0.13283 0.467536 0.700023
0.110567 0.440162 0.684077
0.27483 0.502449 0.749294
0.79266 0.588052 0.808881
0.846433 0.598428 0.810605
0.846433 0.598428 0.810605
0.847013 0.591196 0.808133
0.165805 0.503105 0.719814
0.165805 0.503105 0.719814
0.165805 0.503105 0.719814
0.184878 0.525887 0.72784
0.282841 0.578882 0.755932
0.718532 0.666804 0.809094
0.855634 0.683925 0.820142
0.847562 0.583505 0.805341
0.846906 0.592432 0.808576
0.408789 0.746441 0.783993
0.411658 0.748135 0.785183
0.415427 0.750317 0.786923
0.422721 0.75433 0.791257
0.545541 0.773846 0.803738
0.730877 0.810803 0.812192
0.878218 0.831205 0.831815
0.872419 0.790295 0.8177
0.860624 0.659586 0.802777
0.647074 0.860716 0.811948
0.646922 0.86067 0.811902
0.646677 0.860578 0.811841
0.645701 0.860273 0.811582
0.684627 0.861845 0.814633
0.811246 0.869795 0.828107
0.877943 0.878386 0.841199
0.890654 0.874159 0.83743
0.884504 0.853391 0.826276
0.678492 0.873884 0.804074
0.681682 0.874067 0.804471
0.68661 0.874357 0.805081
0.701183 0.875212 0.806928
0.739101 0.877562 0.812009
0.806409 0.882719 0.822889
0.8645 0.887739 0.835706
0.893339 0.893095 0.845975
0.896788 0.890333 0.832563
0.778851 0.879423 0.807706
0.779522 0.879484 0.807843
0.78056 0.879561 0.808042
0.783719 0.87982 0.808682
0.792645 0.880568 0.810544
0.814099 0.882536 0.815427
0.849699 0.886687 0.825467
0.884504 0.893782 0.840452
0.901732 0.899458 0.855055
0.165805 0.503105 0.719814
0.165805 0.503105 0.719814
0.165805 0.503105 0.719814
0.165805 0.503105 0.719814
0.238117 0.524773 0.745495
0.629511 0.582696 0.798825
0.846433 0.598428 0.810605
0.846433 0.598428 0.810605
0.846433 0.598428 0.810605
0.165805 0.503105 0.719814
0.165805 0.503105 0.719814
0.165805 0.503105 0.719814
0.165805 0.503105 0.719814
0.235584 0.52398 0.744518
0.62269 0.581781 0.798245
0.846433 0.598428 0.810605
0.846433 0.598428 0.810605
0.846433 0.598428 0.810605
0.165805 0.503105 0.719814
0.165805 0.503105 0.719814
0.165805 0.503105 0.719814
0.165805 0.503105 0.719814
0.231769 0.522805 0.743084
0.612558 0.580453 0.797391
0.846433 0.598428 0.810605
0.846433 0.598428 0.810605
0.846433 0.598428 0.810605
0.165805 0.503105 0.719814
0.165805 0.503105 0.719814
0.165805 0.503105 0.719814
0.165805 0.503105 0.719814
0.220432 0.51928 0.738842
0.58529 0.576913 0.795041
0.846433 0.598428 0.810605
0.846433 0.598428 0.810605
0.846433 0.598428 0.810605
0.165805 0.503105 0.719814
0.165805 0.503105 0.719814
0.166461 0.503883 0.720088
0.19678 0.540124 0.732937
0.248478 0.589746 0.754726
0.564767 0.654169 0.799023
0.857725 0.70489 0.822629
0.857023 0.697719 0.821775
0.846433 0.598428 0.810605
0.310658 0.67837 0.780285
0.313283 0.680797 0.780941
0.317433 0.684535 0.781933
0.364248 0.701198 0.787961
0.490745 0.744839 0.800778
0.647334 0.798672 0.81796
0.859251 0.825956 0.841184
0.876463 0.83743 0.844785
0.864408 0.769268 0.83125
0.65568 0.850492 0.8271
0.655344 0.850385 0.827039
0.654734 0.850202 0.826963
0.652567 0.849531 0.826658
0.682872 0.850736 0.82916
0.808301 0.86363 0.843229
0.862058 0.876905 0.853208
0.892897 0.881544 0.859464
0.888167 0.870466 0.854002
0.811872 0.885801 0.849256
0.812863 0.885908 0.849378
0.814389 0.886061 0.849546
0.818875 0.886534 0.850095
0.830579 0.887816 0.85156
0.852796 0.890028 0.85449
0.879026 0.892531 0.858549
0.896773 0.895399 0.862852
0.89865 0.892546 0.860029
0.831479 0.887236 0.843839
0.8318 0.887266 0.8439
0.832319 0.887327 0.843992
0.833875 0.88751 0.844251
0.838331 0.888045 0.845029
0.849348 0.889464 0.847105
0.868955 0.892424 0.851484
0.889281 0.896452 0.857786
0.902556 0.900496 0.864347
0.1953 0.538354 0.732311
0.197024 0.540413 0.733043
0.199496 0.543374 0.734112
0.205478 0.550546 0.736706
0.217319 0.561563 0.741604
0.438727 0.615579 0.786389
0.808713 0.660716 0.816617
0.858656 0.714412 0.823804
0.850843 0.638163 0.814939
0.198795 0.542535 0.733806
0.200565 0.544656 0.734569
0.203098 0.547692 0.735668
0.209186 0.555062 0.738338
0.219791 0.566003 0.74284
0.440406 0.620371 0.786908
0.807691 0.665034 0.816999
0.859083 0.718822 0.824338
0.851896 0.648035 0.816037
0.204181 0.548989 0.736141
0.206012 0.551171 0.736934
0.208606 0.55433 0.738079
0.214786 0.562036 0.74081
0.223651 0.572869 0.744747
0.443198 0.627741 0.787717
0.806104 0.671672 0.817578
0.859724 0.72549 0.825177
0.853437 0.662577 0.81767
0.219333 0.567712 0.74284
0.221225 0.570092 0.743679
0.224002 0.573571 0.74493
0.230793 0.582132 0.747982
0.24094 0.595056 0.75259
0.452384 0.649363 0.790173
0.801572 0.691096 0.819257
0.86157 0.743969 0.827604
0.857343 0.701076 0.822171
0.256107 0.614588 0.759564
0.258366 0.617517 0.760601
0.261631 0.62179 0.762127
0.269871 0.632624 0.765957
0.284962 0.651347 0.772274
0.482216 0.699168 0.796277
0.791348 0.739849 0.823331
0.866316 0.783917 0.8336
0.865171 0.775387 0.832197
0.33904 0.701961 0.78616
0.342351 0.704372 0.786694
0.347631 0.708064 0.787488
0.363729 0.718563 0.789609
0.409918 0.742901 0.795087
0.560708 0.780575 0.809415
0.78703 0.813474 0.831678
0.876188 0.836362 0.844511
0.878843 0.846006 0.847181
0.626505 0.8206 0.819409
0.630411 0.821286 0.819791
0.636332 0.822354 0.820401
0.653269 0.825437 0.822141
0.693309 0.83328 0.82652
0.750607 0.848157 0.834073
0.826078 0.865049 0.84567
0.888716 0.873686 0.85687
0.892332 0.881086 0.860151
0.791897 0.877577 0.845243
0.793271 0.877668 0.845426
0.795407 0.877806 0.845685
0.801648 0.878248 0.846494
0.817517 0.87953 0.848676
0.846799 0.882582 0.853422
0.875334 0.887617 0.859693
0.88986 0.892851 0.864424
0.899947 0.895506 0.867445
0.867002 0.893385 0.860136
0.86714 0.893416 0.860182
0.867353 0.893446 0.860227
0.868025 0.893568 0.860395
0.869963 0.893935 0.860868
0.874907 0.894896 0.862135
0.884382 0.89691 0.864744
0.89575 0.899535 0.868116
0.902953 0.901167 0.870222
