LUTs/Log/GOLDEN_LUT.cube
LUT_3D_SIZE 16
0.016012 0.017778 0.017009
0.026671 0.016762 0.015315
0.036855 0.015851 0.014051
0.049561 0.014575 0.012767
0.072493 0.011205 0.009992
0.123653 0.002205 0.003160
0.221509 0.000000 0.000000
0.380804 0.000000 0.000000
0.547855 0.000000 0.000000
0.689814 0.000000 0.000000
0.800922 0.000000 0.000000
0.892589 0.000000 0.000000
0.966108 0.000000 0.000000
0.999662 0.000000 0.000000
0.999992 0.000000 0.000000
0.999992 0.000000 0.000000
0.015849 0.025211 0.014227
0.025853 0.024250 0.013905
0.035675 0.023213 0.013707
0.047861 0.022069 0.013569
0.068547 0.019057 0.013256
0.116186 0.009401 0.011541
0.210276 0.000248 0.005590
0.369480 0.000000 0.000000
0.540922 0.000000 0.000000
0.686934 0.000000 0.000000
0.801437 0.000000 0.000000
0.895538 0.000000 0.000000
0.969897 0.000000 0.000000
0.999992 0.000000 0.000000
0.999992 0.000000 0.000000
0.999992 0.000000 0.000000
0.015899 0.032026 0.011963
0.024626 0.031352 0.011660
0.034059 0.030365 0.011745
0.046498 0.029320 0.011865
0.067805 0.026587 0.011538
0.112728 0.018091 0.010436
0.202753 0.004660 0.006351
0.360137 0.000000 0.000935
0.536699 0.000000 0.000000
0.688933 0.000000 0.000000
0.806934 0.000000 0.000000
0.903951 0.000000 0.000000
0.976554 0.000000 0.000000
0.999992 0.000000 0.000000
0.999992 0.000000 0.000000
0.999992 0.000000 0.000000
0.015678 0.039647 0.009087
0.023424 0.039380 0.008042
0.032597 0.038651 0.007919
0.044258 0.037265 0.008279
0.066775 0.035711 0.007455
0.112480 0.029489 0.006186
0.199492 0.017213 0.003674
0.357813 0.003388 0.000660
0.536293 0.000000 0.000000
0.689842 0.000000 0.000000
0.809054 0.000000 0.000000
0.907342 0.000000 0.000000
0.979768 0.000000 0.000000
0.999992 0.000000 0.000000
0.999992 0.000000 0.000000
0.999992 0.000000 0.000000
0.013002 0.050419 0.003157
0.022352 0.050276 0.003214
0.029663 0.051195 0.002902
0.041302 0.051087 0.002776
0.062405 0.048508 0.003151
0.110832 0.046665 0.002213
0.200003 0.038640 0.001146
0.350942 0.025164 0.000352
0.531115 0.008143 0.000000
0.686999 0.000472 0.000000
0.807517 0.000868 0.000000
0.906236 0.001114 0.000000
0.979497 0.000848 0.000000
0.999992 0.000889 0.000572
0.999992 0.000984 0.001269
0.999992 0.000852 0.001349
0.005363 0.070184 0.000000
0.017348 0.071297 0.000000
0.027059 0.074223 0.000000
0.037428 0.077308 0.000000
0.058596 0.077382 0.000000
0.101612 0.072196 0.000000
0.194021 0.070059 0.000000
0.352676 0.061112 0.000000
0.528329 0.049843 0.000000
0.691618 0.033592 0.000000
0.820513 0.022662 0.000000
0.921243 0.020988 0.000000
0.989027 0.019625 0.000570
0.999992 0.020249 0.003982
0.999992 0.021353 0.010489
0.999992 0.018645 0.013734
0.000220 0.104786 0.000000
0.012050 0.108130 0.000000
0.024566 0.113066 0.000000
0.038206 0.119239 0.000000
0.056239 0.122961 0.000000
0.093672 0.119992 0.000000
0.170103 0.111108 0.000000
0.339123 0.113315 0.000000
0.547574 0.107122 0.000000
0.707990 0.107171 0.000000
0.841691 0.106089 0.000000
0.943406 0.105681 0.000000
0.998162 0.105510 0.001940
0.999992 0.108241 0.010627
0.999992 0.111942 0.020826
0.999992 0.109656 0.025290
0.000000 0.158241 0.000000
0.004321 0.164707 0.000000
0.017376 0.173200 0.000000
0.035556 0.182724 0.000000
0.056953 0.193907 0.000000
0.084152 0.196360 0.000000
0.152955 0.187304 0.000000
0.291846 0.181469 0.000000
0.530347 0.198446 0.000000
0.753362 0.185491 0.000000
0.872992 0.195270 0.000000
0.963235 0.206455 0.000000
0.999992 0.212840 0.001193
0.999992 0.219464 0.006851
0.999992 0.224139 0.014662
0.999992 0.220785 0.019220
0.000000 0.238378 0.000000
0.000151 0.251383 0.000000
0.009515 0.267050 0.000000
0.034636 0.283579 0.000000
0.066925 0.302245 0.000000
0.097662 0.320962 0.000000
0.133847 0.313274 0.000000
0.269075 0.297291 0.000000
0.471526 0.301512 0.000000
0.715178 0.324699 0.000000
0.907252 0.293232 0.000000
0.990789 0.297040 0.000000
0.999992 0.312560 0.000000
0.999992 0.328213 0.000325
0.999992 0.338422 0.000595
0.999992 0.336836 0.000759
0.000000 0.356421 0.000000
0.000000 0.378109 0.000000
0.010223 0.402664 0.000000
0.043690 0.426696 0.000000
0.087285 0.449284 0.000000
0.127736 0.479087 0.000000
0.161571 0.496189 0.000000
0.213442 0.464328 0.000000
0.452352 0.442103 0.000000
0.656154 0.433237 0.000000
0.859107 0.451838 0.000000
0.987111 0.423529 0.000000
0.999992 0.420351 0.000000
0.999992 0.428618 0.000000
0.999992 0.438483 0.000000
0.999992 0.436840 0.000000
0.000000 0.512773 0.000000
0.000277 0.539500 0.000000
0.019146 0.567484 0.000000
0.058389 0.592795 0.000000
0.109712 0.614235 0.000000
0.158529 0.640368 0.000000
0.208596 0.669144 0.000000
0.230868 0.664976 0.000000
0.346806 0.625578 0.000000
0.649515 0.600334 0.000000
0.824599 0.560514 0.000000
0.956063 0.575696 0.000000
0.999992 0.569136 0.000000
0.999992 0.565598 0.000000
0.999992 0.560636 0.000000
0.999992 0.549165 0.000000
0.000000 0.672002 0.000000
0.007735 0.696977 0.000000
0.039904 0.722697 0.000000
0.083750 0.745873 0.000000
0.141014 0.765016 0.000000
0.199451 0.786327 0.000000
0.254884 0.811897 0.000000
0.305775 0.827256 0.000000
0.339314 0.805296 0.000000
0.543668 0.771413 0.000000
0.832243 0.723957 0.000000
0.951951 0.675676 0.000000
0.999992 0.686624 0.000000
0.999992 0.699958 0.000000
0.999992 0.701135 0.000000
0.999992 0.692365 0.000000
0.007180 0.806921 0.000000
0.036599 0.829703 0.000000
0.074661 0.852804 0.000000
0.120979 0.872887 0.000000
0.182029 0.888666 0.000000
0.245429 0.904634 0.000000
0.304890 0.924065 0.000000
0.360806 0.939741 0.000000
0.392623 0.935740 0.000000
0.476083 0.904508 0.000000
0.761286 0.866984 0.000000
0.960846 0.799334 0.000000
0.999992 0.765598 0.000000
0.999992 0.772093 0.000000
0.999992 0.782043 0.000000
0.999992 0.782763 0.000000
0.037041 0.918056 0.000000
0.076359 0.937659 0.000000
0.113585 0.952694 0.000000
0.159745 0.964748 0.000000
0.221268 0.972675 0.000000
0.285991 0.979458 0.000000
0.345315 0.987517 0.000000
0.400552 0.994040 0.000000
0.444197 0.993789 0.000000
0.471416 0.980958 0.000000
0.656065 0.957274 0.000000
0.937335 0.917894 0.000000
0.999992 0.858862 0.000000
0.999992 0.839049 0.000000
0.999992 0.835443 0.000000
0.999992 0.830101 0.000000
0.079418 0.982995 0.000000
0.116426 0.992204 0.000000
0.151845 0.996592 0.000000
0.196533 0.999398 0.000000
0.257209 0.999992 0.000000
0.321422 0.999992 0.000000
0.380280 0.999992 0.000000
0.433693 0.999992 0.000000
0.484280 0.999992 0.000000
0.499207 0.999992 0.000000
0.602387 0.996583 0.000000
0.881352 0.980245 0.000000
0.999992 0.940648 0.000000
0.999992 0.906380 0.000000
0.999992 0.896634 0.000000
0.999992 0.889096 0.000000
0.102768 0.999992 0.000000
0.138300 0.999992 0.000000
0.172279 0.999992 0.000000
0.215676 0.999992 0.000000
0.275403 0.999992 0.000000
0.338920 0.999992 0.000000
0.397538 0.999992 0.000000
0.449284 0.999992 0.000000
0.503317 0.999992 0.000000
0.520451 0.999992 0.000000
0.574760 0.999992 0.000000
0.841309 0.998928 0.000000
0.999992 0.981587 0.000000
0.999992 0.942070 0.000000
0.999992 0.925749 0.000000
0.999992 0.924240 0.000000
0.013839 0.018069 0.026902
0.024197 0.016938 0.027006
0.034117 0.015979 0.027191
0.046359 0.014706 0.027994
0.068420 0.011367 0.026589
0.118447 0.003363 0.008965
0.212391 0.000000 0.000000
0.368287 0.000000 0.000000
0.536279 0.000000 0.000000
0.680284 0.000000 0.000000
0.794045 0.000000 0.000000
0.886658 0.000000 0.000000
0.961926 0.000000 0.000000
0.998708 0.000000 0.000000
0.999992 0.000000 0.000000
0.999992 0.000000 0.000000
0.012865 0.025829 0.023376
0.023046 0.024672 0.023811
0.032865 0.023636 0.023719
0.045125 0.022233 0.022910
0.066818 0.018661 0.020407
0.115794 0.009079 0.010842
0.209985 0.000277 0.001846
0.367877 0.000000 0.000000
0.538382 0.000000 0.000000
0.684167 0.000000 0.000000
0.798687 0.000000 0.000000
0.892313 0.000000 0.000000
0.967215 0.000000 0.000000
0.999992 0.000000 0.000000
0.999992 0.000000 0.000000
0.999992 0.000000 0.000000
0.012090 0.032976 0.020062
0.021974 0.031798 0.020639
0.031670 0.030714 0.020714
0.043819 0.029816 0.020091
0.065080 0.027059 0.018824
0.111549 0.018018 0.015840
0.203702 0.004506 0.009889
0.363735 0.000000 0.002212
0.540153 0.000000 0.000000
0.691162 0.000000 0.000000
0.808309 0.000000 0.000000
0.904628 0.000000 0.000000
0.976841 0.000000 0.000000
0.999992 0.000000 0.000000
0.999992 0.000000 0.000000
0.999992 0.000000 0.000000
0.010595 0.041127 0.015890
0.020682 0.039834 0.016570
0.030919 0.038806 0.017350
0.042091 0.037660 0.017847
0.063609 0.036374 0.017182
0.109774 0.030003 0.015644
0.198878 0.017030 0.012317
0.359109 0.003214 0.007780
0.539685 0.000000 0.002703
0.694041 0.000000 0.000161
0.813152 0.000000 0.000000
0.911345 0.000000 0.000000
0.982431 0.000000 0.000013
0.999992 0.000000 0.000071
0.999992 0.000000 0.000145
0.999992 0.000000 0.000081
0.006374 0.052948 0.007336
0.018345 0.051360 0.009867
0.028940 0.051346 0.011492
0.041134 0.051226 0.011829
0.060832 0.049237 0.011932
0.107982 0.047941 0.010085
0.196998 0.039990 0.008106
0.349918 0.026119 0.004672
0.531125 0.009016 0.001751
0.687169 0.000687 0.000616
0.807986 0.000492 0.000427
0.907720 0.000997 0.000497
0.980915 0.000782 0.000932
0.999992 0.000794 0.002882
0.999992 0.000976 0.005322
0.999992 0.000754 0.005827
0.000880 0.074006 0.000000
0.012905 0.073109 0.001326
0.026392 0.074753 0.003319
0.038342 0.077791 0.003226
0.059058 0.078536 0.002376
0.100428 0.073788 0.003571
0.191119 0.072304 0.002423
0.349544 0.063574 0.001206
0.526817 0.052185 0.000553
0.691845 0.036171 0.000245
0.820247 0.023577 0.000473
0.921281 0.021960 0.002002
0.989250 0.020297 0.007266
0.999992 0.019222 0.014870
0.999992 0.019362 0.024570
0.999992 0.017921 0.029633
0.000024 0.109535 0.000000
0.008050 0.110285 0.000000
0.023012 0.114595 0.000210
0.038948 0.120072 0.000240
0.057620 0.124247 0.000181
0.093789 0.122333 0.000000
0.168734 0.113762 0.000000
0.337653 0.116479 0.000105
0.544420 0.111618 0.000000
0.706944 0.111956 0.000000
0.842116 0.110001 0.000537
0.943970 0.109234 0.004392
0.998434 0.108818 0.012580
0.999992 0.111171 0.023671
0.999992 0.114352 0.033831
0.999992 0.111751 0.038323
0.000000 0.164168 0.000000
0.002271 0.166999 0.000000
0.015348 0.175823 0.000000
0.035674 0.184944 0.000000
0.059675 0.195857 0.000000
0.087026 0.200262 0.000000
0.153268 0.192010 0.000000
0.291160 0.185405 0.000000
0.531066 0.202911 0.000000
0.750919 0.191669 0.000000
0.869801 0.202753 0.000176
0.962511 0.212527 0.001503
0.999992 0.218010 0.007822
0.999992 0.223969 0.017044
0.999992 0.228331 0.026456
0.999992 0.224844 0.031765
0.000000 0.246805 0.000000
0.000058 0.253495 0.000000
0.008076 0.271251 0.000000
0.034317 0.287980 0.000000
0.069561 0.305567 0.000000
0.102647 0.325732 0.000000
0.137774 0.320567 0.000000
0.269446 0.303548 0.000000
0.472113 0.306656 0.000000
0.717860 0.329198 0.000000
0.906379 0.298406 0.000000
0.989055 0.304235 0.000000
0.999992 0.320089 0.000389
0.999992 0.335336 0.002216
0.999992 0.345061 0.006550
0.999992 0.343244 0.009721
0.000000 0.368058 0.000000
0.000000 0.379766 0.000000
0.008758 0.408232 0.000000
0.042963 0.432557 0.000000
0.089587 0.454597 0.000000
0.132486 0.482788 0.000000
0.170568 0.503021 0.000000
0.215615 0.471739 0.000000
0.450898 0.447782 0.000000
0.657146 0.439110 0.000000
0.861260 0.456942 0.000000
0.987639 0.428722 0.000000
0.999992 0.426981 0.000000
0.999992 0.436331 0.000000
0.999992 0.446744 0.000000
0.999992 0.445469 0.000000
0.000000 0.526989 0.000000
0.000128 0.540412 0.000000
0.016716 0.573218 0.000000
0.057298 0.599216 0.000000
0.111124 0.619663 0.000000
0.163538 0.644248 0.000000
0.214813 0.673935 0.000000
0.241615 0.674030 0.000000
0.344957 0.632362 0.000000
0.649525 0.607318 0.000000
0.825658 0.566784 0.000000
0.957022 0.581540 0.000000
0.999992 0.574394 0.000000
0.999992 0.570818 0.000000
0.999992 0.566018 0.000000
0.999992 0.554825 0.000000
0.000000 0.684873 0.000000
0.004771 0.697404 0.000000
0.036439 0.728006 0.000000
0.082054 0.751774 0.000000
0.142172 0.770398 0.000000
0.203797 0.790374 0.000000
0.261324 0.815294 0.000000
0.315632 0.832361 0.000000
0.347500 0.812216 0.000000
0.541631 0.776691 0.000000
0.832255 0.730197 0.000000
0.952233 0.681233 0.000000
0.999992 0.691662 0.000000
0.999992 0.704393 0.000000
0.999992 0.705242 0.000000
0.999992 0.696356 0.000000
0.006314 0.818394 0.000000
0.026329 0.829698 0.000000
0.070776 0.857432 0.000000
0.119085 0.878239 0.000000
0.182509 0.893402 0.000000
0.249099 0.908327 0.000000
0.310663 0.926649 0.000000
0.367929 0.942371 0.000000
0.403778 0.940070 0.000000
0.479061 0.909059 0.000000
0.757665 0.871302 0.000000
0.960468 0.804547 0.000000
0.999992 0.770021 0.000000
0.999992 0.776114 0.000000
0.999992 0.786092 0.000000
0.999992 0.786855 0.000000
0.035015 0.928266 0.000000
0.062650 0.936930 0.000000
0.109327 0.955679 0.000000
0.157108 0.967856 0.000000
0.220995 0.974974 0.000000
0.288455 0.981218 0.000000
0.350125 0.988613 0.000000
0.406378 0.994662 0.000000
0.453295 0.994932 0.000000
0.478985 0.983313 0.000000
0.653167 0.960055 0.000000
0.935179 0.922721 0.000000
0.999992 0.863235 0.000000
0.999992 0.842680 0.000000
0.999992 0.838783 0.000000
0.999992 0.833392 0.000000
0.076698 0.988022 0.000000
0.102939 0.991518 0.000000
0.146998 0.997352 0.000000
0.193057 0.999992 0.000000
0.256190 0.999992 0.000000
0.322809 0.999992 0.000000
0.384306 0.999992 0.000000
0.438875 0.999992 0.000000
0.491310 0.999992 0.000000
0.509565 0.999992 0.000000
0.602200 0.997340 0.000000
0.876273 0.982233 0.000000
0.999992 0.944559 0.000000
0.999992 0.910067 0.000000
0.999992 0.899687 0.000000
0.999992 0.892032 0.000000
0.099328 0.999992 0.000000
0.125019 0.999992 0.000000
0.167302 0.999992 0.000000
0.211767 0.999992 0.000000
0.273968 0.999992 0.000000
0.339753 0.999992 0.000000
0.401126 0.999992 0.000000
0.454447 0.999992 0.000000
0.509192 0.999992 0.000000
0.531998 0.999992 0.000000
0.576541 0.999992 0.000000
0.835087 0.999384 0.000000
0.999992 0.984701 0.000000
0.999992 0.945960 0.000000
0.999992 0.928618 0.000000
0.999992 0.926941 0.000000
0.011739 0.018402 0.036191
0.021922 0.017200 0.036989
0.031807 0.016223 0.037890
0.043876 0.015004 0.039634
0.065421 0.011553 0.040310
0.113812 0.002810 0.030604
0.206610 0.000000 0.005883
0.360948 0.000000 0.000000
0.527784 0.000000 0.000000
0.672248 0.000000 0.000000
0.787542 0.000000 0.000000
0.880991 0.000000 0.000000
0.957751 0.000000 0.000000
0.997660 0.000000 0.000000
0.999992 0.000000 0.000000
0.999992 0.000000 0.000000
0.009637 0.026511 0.032146
0.020423 0.025105 0.032967
0.030468 0.023954 0.033296
0.042455 0.022570 0.033897
0.063797 0.018933 0.033397
0.111865 0.009663 0.021011
0.203504 0.000557 0.002672
0.358049 0.000000 0.000000
0.528393 0.000000 0.000000
0.675726 0.000000 0.000000
0.792312 0.000000 0.000000
0.887046 0.000000 0.000000
0.963513 0.000000 0.000000
0.999237 0.000000 0.000000
0.999992 0.000000 0.000000
0.999992 0.000000 0.000000
0.008578 0.033792 0.028436
0.019309 0.032274 0.029312
0.029303 0.031075 0.029683
0.041409 0.029650 0.029378
0.062892 0.026072 0.027298
0.110819 0.016362 0.017944
0.203612 0.003010 0.006110
0.362191 0.000000 0.001016
0.536173 0.000000 0.000000
0.685283 0.000000 0.000000
0.801798 0.000000 0.000000
0.897014 0.000000 0.000000
0.971229 0.000000 0.000000
0.999992 0.000000 0.000000
0.999992 0.000000 0.000000
0.999992 0.000000 0.000000
0.007358 0.041875 0.024301
0.017810 0.040443 0.025449
0.027891 0.039320 0.025836
0.039938 0.038136 0.026530
0.061285 0.036440 0.025248
0.108050 0.029283 0.022229
0.199382 0.015152 0.017207
0.361808 0.002779 0.010578
0.542962 0.000000 0.003807
0.696699 0.000000 0.000309
0.814950 0.000000 0.000000
0.912544 0.000000 0.000000
0.983068 0.000000 0.000000
0.999992 0.000000 0.000000
0.999992 0.000000 0.000000
0.999992 0.000000 0.000000
0.003114 0.054084 0.015193
0.014155 0.052876 0.017518
0.025190 0.052052 0.018598
0.039443 0.051735 0.020390
0.059253 0.050083 0.020708
0.105808 0.048185 0.019147
0.195284 0.039196 0.016890
0.351296 0.023917 0.011795
0.533419 0.007369 0.006793
0.689609 0.000675 0.005382
0.810522 0.000000 0.003891
0.910024 0.000000 0.002569
0.982549 0.000000 0.002475
0.999992 0.000000 0.003579
0.999992 0.000000 0.005910
0.999992 0.000000 0.007067
0.000000 0.076788 0.001582
0.008239 0.076486 0.003290
0.020412 0.075975 0.005810
0.037180 0.078339 0.009162
0.058460 0.079642 0.008716
0.099593 0.075350 0.009714
0.189128 0.073390 0.007842
0.346867 0.064022 0.005472
0.526309 0.051378 0.003973
0.691897 0.035757 0.003702
0.819255 0.021848 0.005062
0.919662 0.014996 0.008668
0.988735 0.012112 0.017304
0.999992 0.012566 0.028822
0.999992 0.013733 0.039072
0.999992 0.012950 0.042976
0.000000 0.114825 0.000000
0.004199 0.115499 0.000000
0.015230 0.115799 0.000567
0.036547 0.120819 0.001642
0.057566 0.125486 0.001780
0.092755 0.124901 0.000905
0.167710 0.116392 0.001414
0.336824 0.118542 0.001103
0.541210 0.113967 0.000808
0.706025 0.113140 0.001581
0.841714 0.108987 0.005471
0.943900 0.106651 0.013175
0.998662 0.105229 0.024248
0.999992 0.106670 0.036246
0.999992 0.109137 0.046514
0.999992 0.106176 0.051125
0.000000 0.171409 0.000000
0.000760 0.174274 0.000000
0.007759 0.176318 0.000000
0.031463 0.186444 0.000176
0.059625 0.197119 0.000169
0.088809 0.203818 0.000000
0.152312 0.196896 0.000118
0.290865 0.189447 0.000198
0.532346 0.206043 0.000224
0.747519 0.195886 0.000379
0.865803 0.207257 0.000753
0.961006 0.215010 0.006549
0.999992 0.218348 0.017069
0.999992 0.222883 0.028938
0.999992 0.226482 0.039368
0.999992 0.222671 0.044944
0.000000 0.256590 0.000000
0.000007 0.264160 0.000000
0.003199 0.269770 0.000000
0.028197 0.290101 0.000000
0.067995 0.307830 0.000000
0.105398 0.329054 0.000000
0.141058 0.328270 0.000000
0.267935 0.310315 0.000000
0.472909 0.311810 0.000000
0.720952 0.332228 0.000000
0.906383 0.300612 0.000000
0.986850 0.308667 0.000296
0.999992 0.324792 0.001505
0.999992 0.339014 0.007147
0.999992 0.347807 0.014950
0.999992 0.345560 0.020043
0.000000 0.381350 0.000000
0.000000 0.394742 0.000000
0.003332 0.404071 0.000000
0.034880 0.434835 0.000000
0.086023 0.458045 0.000000
0.134200 0.484996 0.000000
0.176945 0.508555 0.000000
0.217467 0.480094 0.000000
0.447832 0.454491 0.000000
0.658326 0.444895 0.000000
0.863951 0.461136 0.000000
0.988725 0.431419 0.000000
0.999992 0.430636 0.000000
0.999992 0.441310 0.000000
0.999992 0.452254 0.000240
0.999992 0.451156 0.000384
0.000000 0.541772 0.000000
0.000088 0.557284 0.000000
0.006641 0.567567 0.000000
0.047770 0.601199 0.000000
0.105937 0.623457 0.000000
0.164020 0.646903 0.000000
0.218135 0.676923 0.000000
0.251127 0.683057 0.000000
0.337888 0.639674 0.000000
0.648307 0.614623 0.000000
0.826885 0.572995 0.000000
0.958020 0.586654 0.000000
0.999992 0.577885 0.000000
0.999992 0.573322 0.000000
0.999992 0.568469 0.000000
0.999992 0.557434 0.000000
0.000000 0.698503 0.000000
0.004204 0.712946 0.000000
0.018414 0.722250 0.000000
0.071821 0.753414 0.000000
0.135843 0.773828 0.000000
0.203036 0.792934 0.000000
0.264359 0.817529 0.000000
0.324421 0.837767 0.000000
0.352128 0.819941 0.000000
0.535132 0.782518 0.000000
0.831467 0.736670 0.000000
0.952669 0.686685 0.000000
0.999992 0.696182 0.000000
0.999992 0.707997 0.000000
0.999992 0.707917 0.000000
0.999992 0.698507 0.000000
0.005298 0.830396 0.000000
0.024991 0.843428 0.000000
0.048811 0.851821 0.000000
0.107935 0.879703 0.000000
0.174912 0.896542 0.000000
0.247129 0.910794 0.000000
0.312768 0.928274 0.000000
0.372864 0.944672 0.000000
0.414114 0.944938 0.000000
0.477280 0.913919 0.000000
0.751027 0.876058 0.000000
0.959871 0.809893 0.000000
0.999992 0.774390 0.000000
0.999992 0.779794 0.000000
0.999992 0.789694 0.000000
0.999992 0.790438 0.000000
0.032270 0.938425 0.000000
0.060636 0.946820 0.000000
0.087646 0.952120 0.000000
0.145284 0.968557 0.000000
0.212464 0.976533 0.000000
0.285104 0.982460 0.000000
0.351298 0.989381 0.000000
0.409315 0.995115 0.000000
0.461703 0.996170 0.000000
0.484607 0.985714 0.000000
0.645300 0.962985 0.000000
0.932150 0.928115 0.000000
0.999992 0.867696 0.000000
0.999992 0.846235 0.000000
0.999992 0.841805 0.000000
0.999992 0.836213 0.000000
0.073025 0.992771 0.000000
0.099831 0.995057 0.000000
0.125884 0.996485 0.000000
0.180976 0.999992 0.000000
0.247080 0.999992 0.000000
0.318382 0.999992 0.000000
0.384630 0.999992 0.000000
0.441265 0.999992 0.000000
0.497063 0.999992 0.000000
0.519459 0.999992 0.000000
0.596985 0.998079 0.000000
0.869091 0.984340 0.000000
0.999992 0.948488 0.000000
0.999992 0.913691 0.000000
0.999992 0.902649 0.000000
0.999992 0.894745 0.000000
0.095120 0.999992 0.000000
0.121215 0.999992 0.000000
0.146864 0.999992 0.000000
0.199967 0.999992 0.000000
0.264757 0.999992 0.000000
0.334698 0.999992 0.000000
0.400978 0.999992 0.000000
0.456824 0.999992 0.000000
0.513596 0.999992 0.000000
0.543391 0.999992 0.000000
0.573366 0.999992 0.000000
0.826285 0.999761 0.000000
0.999992 0.987515 0.000000
0.999992 0.949882 0.000000
0.999992 0.931416 0.000000
0.999992 0.929560 0.000000
0.008990 0.018798 0.047724
0.019676 0.017489 0.048477
0.030085 0.016524 0.049457
0.041479 0.015361 0.050483
0.062267 0.011789 0.054005
0.108839 0.002626 0.053207
0.198248 0.000000 0.036596
0.350615 0.000000 0.010036
0.518727 0.000000 0.000171
0.663592 0.000000 0.000000
0.779222 0.000000 0.000000
0.872987 0.000000 0.000000
0.951085 0.000000 0.000000
0.995852 0.000000 0.000000
0.999992 0.000000 0.000000
0.999992 0.000000 0.000000
0.005979 0.027564 0.043189
0.017454 0.025534 0.044287
0.028520 0.024157 0.045218
0.039785 0.022786 0.045981
0.060307 0.019066 0.048488
0.106511 0.009545 0.042942
0.195084 0.000570 0.025788
0.347446 0.000000 0.005019
0.517653 0.000000 0.000049
0.665384 0.000000 0.000000
0.783508 0.000000 0.000000
0.879294 0.000000 0.000000
0.957393 0.000000 0.000000
0.997642 0.000000 0.000000
0.999992 0.000000 0.000000
0.999992 0.000000 0.000000
0.005038 0.035104 0.039186
0.016031 0.033373 0.040078
0.026302 0.031473 0.041227
0.038433 0.029954 0.041858
0.059269 0.026372 0.042483
0.105923 0.016978 0.034343
0.195606 0.003909 0.017068
0.350655 0.000234 0.002149
0.524213 0.000000 0.000000
0.674617 0.000000 0.000000
0.793372 0.000000 0.000000
0.890011 0.000000 0.000000
0.966198 0.000000 0.000000
0.999462 0.000000 0.000000
0.999992 0.000000 0.000000
0.999992 0.000000 0.000000
0.004661 0.042412 0.034576
0.014546 0.041127 0.035333
0.024461 0.040038 0.036374
0.037108 0.038714 0.037265
0.058850 0.035673 0.035354
0.106481 0.026836 0.028519
0.199165 0.011671 0.015875
0.360943 0.001139 0.004819
0.539512 0.000000 0.001296
0.691744 0.000000 0.000116
0.809435 0.000000 0.000000
0.905911 0.000000 0.000000
0.977809 0.000000 0.000000
0.999992 0.000000 0.000000
0.999992 0.000000 0.000000
0.999992 0.000000 0.000000
0.001375 0.054609 0.026769
0.010234 0.054112 0.027931
0.020625 0.053591 0.029271
0.035084 0.052783 0.030628
0.056963 0.051202 0.031790
0.103629 0.047449 0.030627
0.194607 0.035916 0.027105
0.355883 0.017255 0.020320
0.539562 0.005387 0.014372
0.695537 0.000627 0.009946
0.815854 0.000000 0.007124
0.915048 0.000000 0.004644
0.985742 0.000000 0.004144
0.999992 0.000000 0.004512
0.999992 0.000000 0.005796
0.999992 0.000000 0.006405
0.000000 0.078559 0.009394
0.004148 0.079199 0.011266
0.013656 0.079658 0.013681
0.031138 0.079758 0.017281
0.056170 0.080937 0.020466
0.098425 0.077189 0.020467
0.186868 0.073496 0.018843
0.344056 0.062044 0.016146
0.526610 0.046287 0.014010
0.691887 0.030440 0.013250
0.818546 0.017736 0.015022
0.919261 0.012029 0.022284
0.988545 0.009742 0.029653
0.999992 0.009615 0.038374
0.999992 0.011372 0.046029
0.999992 0.012120 0.048058
0.000000 0.119200 0.000512
0.001153 0.120989 0.000789
0.008593 0.122175 0.001896
0.026976 0.122660 0.003763
0.055250 0.126856 0.007441
0.090755 0.127931 0.005035
0.166574 0.119477 0.006423
0.335462 0.119922 0.005796
0.536859 0.114505 0.005904
0.704533 0.110607 0.008700
0.840147 0.103456 0.017360
0.942416 0.098092 0.027952
0.998600 0.094150 0.039334
0.999992 0.093730 0.051274
0.999992 0.095554 0.061239
0.999992 0.093266 0.064784
0.000000 0.179856 0.000000
0.000114 0.183310 0.000000
0.003942 0.185975 0.000000
0.018451 0.188148 0.000319
0.055152 0.198265 0.000716
0.089738 0.207106 0.000692
0.150108 0.202729 0.000664
0.290342 0.194278 0.001237
