LUTs/Log/GOLDEN_LUT.cube
LUT_3D_SIZE 6
0.016012 0.017778 0.017009
0.049561 0.014575 0.012767
0.221509 0.000000 0.000000
0.689814 0.000000 0.000000
0.966108 0.000000 0.000000
0.999992 0.000000 0.000000
0.015678 0.039647 0.009087
0.044258 0.037265 0.008279
0.199492 0.017213 0.003674
0.689842 0.000000 0.000000
0.979768 0.000000 0.000000
0.999992 0.000000 0.000000
0.000220 0.104786 0.000000
0.038206 0.119239 0.000000
0.170103 0.111108 0.000000
0.707990 0.107171 0.000000
0.998162 0.105510 0.001940
0.999992 0.109656 0.025290
0.000000 0.356421 0.000000
0.043690 0.426696 0.000000
0.161571 0.496189 0.000000
0.656154 0.433237 0.000000
0.999992 0.420351 0.000000
0.999992 0.436840 0.000000
0.007180 0.806921 0.000000
0.120979 0.872887 0.000000
0.304890 0.924065 0.000000
0.476083 0.904508 0.000000
0.999992 0.765598 0.000000
0.999992 0.782763 0.000000
0.102768 0.999992 0.000000
0.215676 0.999992 0.000000
0.397538 0.999992 0.000000
0.520451 0.999992 0.000000
0.999992 0.981587 0.000000
0.999992 0.924240 0.000000
0.008990 0.018798 0.047724
0.041479 0.015361 0.050483
0.198248 0.000000 0.036596
0.663592 0.000000 0.000000
0.951085 0.000000 0.000000
0.999992 0.000000 0.000000
0.004661 0.042412 0.034576
0.037108 0.038714 0.037265
0.199165 0.011671 0.015875
0.691744 0.000000 0.000116
0.977809 0.000000 0.000000
0.999992 0.000000 0.000000
0.000000 0.119200 0.000512
0.026976 0.122660 0.003763
0.166574 0.119477 0.006423
0.704533 0.110607 0.008700
0.998600 0.094150 0.039334
0.999992 0.093266 0.064784
0.000000 0.398911 0.000000
0.013233 0.432955 0.000000
0.181628 0.512974 0.000000
0.659257 0.451514 0.000176
0.999992 0.432529 0.000604
0.999992 0.455694 0.003615
0.002439 0.845361 0.000000
0.079100 0.876414 0.000000
0.311144 0.929344 0.000000
0.472002 0.919879 0.000000
0.999992 0.779415 0.000000
0.999992 0.794239 0.000000
0.082264 0.999992 0.000000
0.172172 0.999992 0.000000
0.395232 0.999992 0.000586
0.558015 0.999992 0.000000
0.999992 0.990374 0.000000
0.999992 0.932478 0.000000
0.000000 0.018365 0.217994
0.013740 0.012551 0.218815
0.149464 0.000000 0.195834
0.578600 0.000000 0.228038
0.886819 0.000000 0.156911
0.995119 0.000000 0.082584
0.000000 0.049330 0.183683
0.005213 0.040333 0.195120
0.147843 0.013160 0.184187
0.608155 0.000000 0.216785
0.930747 0.000000 0.102937
0.999992 0.000000 0.034425
0.000000 0.125312 0.091110
0.001442 0.136861 0.106840
0.137195 0.131999 0.131807
0.686828 0.076009 0.110769
0.995417 0.055823 0.076915
0.999992 0.066450 0.083514
0.000000 0.443908 0.000741
0.000000 0.500215 0.003510
0.157941 0.523512 0.046810
0.626901 0.477672 0.052313
0.999992 0.460061 0.098299
0.999992 0.472119 0.142348
0.000000 0.902217 0.000000
0.002208 0.938350 0.000169
0.245163 0.940845 0.036255
0.530247 0.949623 0.016396
0.996976 0.802745 0.010688
0.999992 0.811729 0.035451
0.000000 0.999992 0.000000
0.044942 0.999992 0.000000
0.318186 0.999992 0.058717
0.613456 0.999992 0.029599
0.973652 0.999436 0.000752
0.999992 0.945459 0.002055
0.000000 0.014798 0.755028
0.000000 0.006844 0.757655
0.101582 0.000000 0.739092
0.461831 0.000000 0.680886
0.772516 0.000000 0.671634
0.894608 0.000000 0.632914
0.000000 0.057789 0.721732
0.000000 0.041268 0.739842
0.092737 0.007242 0.738385
0.489071 0.000000 0.705715
0.810445 0.000000 0.712991
0.935804 0.000000 0.684550
0.000000 0.190390 0.549455
0.000000 0.198451 0.611414
0.038759 0.167631 0.695059
0.545850 0.083591 0.712095
0.907580 0.060014 0.725961
0.999992 0.069184 0.716072
0.000000 0.458184 0.310766
0.000000 0.516782 0.369705
0.026649 0.564843 0.445356
0.536617 0.530381 0.507706
0.985216 0.516894 0.434643
0.999992 0.539244 0.432686
0.000000 0.919872 0.191053
0.000000 0.953996 0.245515
0.068544 0.976572 0.279557
0.546819 0.950459 0.368906
0.953934 0.842659 0.255635
0.999992 0.821326 0.306470
0.000000 0.999992 0.192884
0.000314 0.999992 0.224925
0.107177 0.999992 0.226183
0.582096 0.999992 0.360110
0.834207 0.999992 0.188153
0.999992 0.970959 0.184265
0.000000 0.010005 0.999992
0.000000 0.001676 0.999992
0.026355 0.000000 0.999992
0.373613 0.000000 0.999660
0.649116 0.000000 0.991102
0.779674 0.000000 0.988665
0.000000 0.057638 0.999992
0.000000 0.037773 0.999992
0.018387 0.006997 0.999992
0.402414 0.000000 0.999992
0.693231 0.000000 0.999992
0.834711 0.000000 0.999992
0.000000 0.210202 0.962127
0.000000 0.214984 0.981741
0.007434 0.174962 0.999992
0.449899 0.101462 0.999992
0.808344 0.079484 0.999992
0.971504 0.088386 0.999992
0.000000 0.555901 0.760042
0.000000 0.589013 0.797101
0.001243 0.577050 0.882551
0.422792 0.546790 0.981703
0.878784 0.521655 0.999992
0.999985 0.540553 0.999992
0.000000 0.931653 0.691883
0.000000 0.963881 0.745922
0.007664 0.984470 0.812076
0.323504 0.976886 0.862891
0.861747 0.920154 0.893000
0.983929 0.914807 0.899649
0.000000 0.999992 0.687451
0.000000 0.999992 0.722213
0.015749 0.999992 0.755321
0.329293 0.999992 0.784768
0.857853 0.999992 0.843777
0.963342 0.999992 0.820573
0.000000 0.007995 0.999992
0.000000 0.000640 0.999992
0.005320 0.000000 0.999992
0.307849 0.000000 0.999992
0.589295 0.000000 0.999992
0.726924 0.000000 0.999992
0.000000 0.057434 0.999992
0.000000 0.038075 0.999992
0.001261 0.011862 0.999992
0.340131 0.000000 0.999992
0.634999 0.000000 0.999992
0.788949 0.000000 0.999992
0.000000 0.210926 0.999992
0.000000 0.217862 0.999992
0.001933 0.185794 0.999992
0.387228 0.118546 0.999992
0.748747 0.094737 0.999992
0.934421 0.105681 0.999992
0.000000 0.540067 0.943543
0.000000 0.563336 0.985860
0.001101 0.576913 0.999992
0.381693 0.564264 0.999992
0.823174 0.544840 0.999992
0.999447 0.564013 0.999992
0.000000 0.932885 0.915234
0.000000 0.964099 0.967116
0.000656 0.982654 0.999992
0.140213 0.954000 0.999992
0.817909 0.924337 0.999992
0.945925 0.922823 0.999992
0.000000 0.999992 0.915223
0.000000 0.999992 0.952824
0.004708 0.999992 0.991163
0.265496 0.999992 0.999630
0.806854 0.999992 0.999319
0.921996 0.999992 0.997286
