LUTs/Log/Green Look.cube
TITLE "Generated by Resolve"
LUT_3D_SIZE 65
0.0212558 0.0308537 0.0363928
0.0240177 0.0314336 0.0369116
0.0276036 0.0317235 0.0370489
0.0320287 0.0319982 0.0377661
0.0336004 0.0324407 0.035523
0.0358587 0.0329747 0.0328527
0.0379797 0.0336461 0.0295872
0.041825 0.0332799 0.0262455
0.0458839 0.0326238 0.0217288
0.0507362 0.0320745 0.017792
0.0565194 0.0316014 0.0141756
0.0632334 0.0306096 0.00996414
0.069749 0.0298466 0.00631724
0.0775769 0.028748 0.00254826
0.0851301 0.027451 0
0.0936904 0.0263981 0
0.102052 0.0247807 0
0.111421 0.0230411 0
0.121599 0.0217899 0
0.131701 0.0199893 0
0.142931 0.0179294 0
0.154803 0.0162356 0
0.167361 0.0141604 0
0.180514 0.0117647 0
0.194095 0.00955215 0
0.208194 0.00714122 0
0.222293 0.00459297 0
0.237079 0.00204471 0
0.252583 0 0
0.267369 0 0
0.282689 0 0
0.29691 0 0
0.311879 0 0
0.326207 0 0
0.339712 0 0
0.353231 0 0
0.367346 0 0
0.377966 0 0
0.388479 0 0
0.400198 0 0
0.412757 0 0
0.42533 0 0
0.438193 0 0
0.450217 0 0
0.462348 0 0
0.473182 0 0
0.483848 0 0
0.494469 0 0
0.503029 0 0
0.512123 0 0
0.520424 0 0
0.527672 0 0
0.535241 0 0
0.541863 0 0
0.549249 0 0
0.555795 0 0
0.563561 0 0
0.571023 0 0
0.577951 0 0
0.58645 0 0
0.595239 0 0
0.603021 0 0
0.609857 0 0
0.61706 0 0
0.623301 0 0
0.0243229 0.0352941 0.0417487
0.0276799 0.0357366 0.042359
0.0314641 0.0367895 0.0435187
0.0350347 0.0375219 0.0433814
0.0398413 0.0368505 0.0405737
0.0452125 0.0367742 0.0401465
0.0504768 0.0365606 0.0380713
0.0563211 0.0358892 0.0352026
0.062089 0.0356603 0.0318608
0.0674754 0.0354162 0.0292821
0.0732586 0.0352941 0.0272831
0.0803845 0.0349126 0.0247501
0.0872969 0.0345006 0.0219883
0.0949416 0.0332036 0.0183719
0.103365 0.0323644 0.0153353
0.11223 0.0314031 0.0116274
0.120974 0.0297398 0.00709544
0.131273 0.0287022 0.00335698
0.141588 0.0273747 0
0.152529 0.0254368 0
0.165026 0.0238499 0
0.178088 0.0221408 0
0.191577 0.0196689 0
0.20557 0.0175631 0
0.219318 0.0152895 0
0.233387 0.0128939 0
0.248203 0.010605 0
0.263432 0.0083772 0
0.27863 0.00624094 0
0.294347 0.00451667 0
0.309316 0.00227359 0
0.324758 0.000808728 0
0.339162 0 0
0.353155 0 0
0.367056 0 0
0.380163 0 0
0.392416 0 0
0.403403 0 0
0.414374 0 0
0.426734 0 0
0.438956 0 0
0.451514 0 0
0.46392 0 0
0.476722 0 0
0.487938 0 0
0.498817 0 0
0.509377 0 0
0.518425 0 0
0.527382 0 0
0.535912 0 0
0.542809 0 0
0.550515 0 0
0.557168 0 0
0.564324 0 0
0.570535 0 0
0.577462 0 0
0.584772 0 0
0.591852 0 0
0.598459 0 0
0.605951 0 0
0.614954 0 0
0.622492 0 0
0.629175 0 0
0.636347 0 0
0.641932 0 0
0.0273289 0.0406958 0.047013
0.0306859 0.0412909 0.0479438
0.0344549 0.0417182 0.0483711
0.0367132 0.0428626 0.0481575
0.0403143 0.043061 0.0440528
0.0494087 0.0422522 0.0431525
0.0563516 0.0418402 0.0430457
0.0625925 0.0412604 0.0409247
0.0691844 0.0411536 0.0379034
0.0760052 0.0409247 0.0352331
0.0813458 0.0403296 0.0322728
0.0894179 0.0400549 0.0298161
0.0977798 0.0394751 0.0270237
0.106188 0.0380255 0.023621
0.115816 0.0374456 0.0210422
0.126009 0.0361028 0.0174563
0.136477 0.0348821 0.0139162
0.148013 0.0337682 0.0104524
0.160128 0.0319524 0.0065156
0.172549 0.0303349 0.00256352
0.186145 0.0290227 0
0.199664 0.0263676 0
0.214389 0.0244907 0
0.229404 0.0219883 0
0.245014 0.0197604 0
0.261662 0.0175937 0
0.277638 0.015259 0
0.293507 0.0133669 0
0.310277 0.0117494 0
0.32546 0.00953689 0
0.341939 0.00817884 0
0.356786 0.00650034 0
0.371878 0.00529488 0
0.387304 0.00445563 0
0.401297 0.00294499 0
0.414847 0.00238041 0
0.426917 0.00198367 0
0.437736 0.00135805 0
0.44921 0.00134279 0
0.461448 0.000793469 0
0.474113 0 0
0.486839 0 0
0.49958 0 0
0.510704 0 0
0.52166 0 0
0.532372 0 0
0.540978 0 0
0.549935 0 0
0.558434 0 0
0.566476 0 0
0.57348 0 0
0.580011 0 0
0.586465 0 0
0.592325 0 0
0.598672 0.000518807 0
0.604532 0.00143435 0
0.610605 0.00181582 0
0.617487 0.00192264 0
0.624079 0.00231937 0
0.631586 0.00271611 0
0.639765 0.00288396 0
0.646387 0.00289921 0
0.653132 0.00347906 0
0.659358 0.00407416 0
0.664759 0.00488289 0
0.0297856 0.0457313 0.0522927
0.0336461 0.0469368 0.053193
0.0368353 0.0483101 0.0538338
0.0387274 0.049424 0.0535439
0.0409094 0.0500801 0.05066
0.0505989 0.0489204 0.0460365
0.059617 0.0480964 0.046128
0.0680552 0.047364 0.0458991
0.0749828 0.0473945 0.0433814
0.0813764 0.0470436 0.040528
0.088365 0.046891 0.0383612
0.0968185 0.0465705 0.0360418
0.106035 0.0458839 0.0333104
0.115724 0.0453498 0.0306859
0.125917 0.0444343 0.0276341
0.136767 0.043473 0.0243229
0.147875 0.0419928 0.0204623
0.160128 0.0405127 0.016556
0.172717 0.0389868 0.0129091
0.186725 0.0373999 0.0087129
0.200443 0.0352331 0.00401312
0.214801 0.0332494 0
0.22974 0.03093 0
0.244892 0.0289311 0
0.261311 0.0271458 0
0.277119 0.0248112 0
0.293309 0.0229496 0
0.311009 0.021088 0
0.327291 0.0189212 0
0.344457 0.0174105 0
0.36054 0.0156863 0
0.376761 0.0143282 0
0.392584 0.0131685 0
0.407584 0.0116274 0
0.422538 0.0107118 0
0.436973 0.00991836 0
0.449393 0.00909438 0
0.46154 0.0090486 0
0.473533 0.00881971 0
0.486015 0.00801099 0
0.499275 0.0071107 0
0.512535 0.00634775 0
0.525093 0.00544747 0
0.536797 0.0049897 0
0.548684 0.0041352 0
0.558358 0.00343328 0
0.568521 0.00357061 0
0.577401 0.00408942 0
0.585855 0.00463874 0
0.593652 0.00463874 0
0.600671 0.00515755 0
0.607401 0.00605783 0
0.613352 0.00674449 0
0.618997 0.00749218 0
0.625803 0.00822461 0
0.631724 0.00918593 0
0.637415 0.00949111 0
0.643839 0.0100099 0
0.65069 0.0110781 0
0.657984 0.0116884 0
0.664973 0.0113527 0
0.672023 0.0122072 0
0.67805 0.0128481 0
0.684367 0.0136721 0
0.68957 0.014847 0
0.0340429 0.0519112 0.0581369
0.0361181 0.0533761 0.0590829
0.0390326 0.0551003 0.0594797
0.0406653 0.0564126 0.0590982
0.0428626 0.0577554 0.0573892
0.0498207 0.0563516 0.0505989
0.0601816 0.0556497 0.0486915
0.0693523 0.0555276 0.0484474
0.0786603 0.0545052 0.0476081
0.0873426 0.0548562 0.0468299
0.0957656 0.0547494 0.0449378
0.104738 0.0541543 0.0425727
0.114748 0.0542306 0.0406653
0.124239 0.0531472 0.0375677
0.134997 0.0527657 0.0349889
0.146151 0.0517128 0.0316014
0.157534 0.050309 0.0278019
0.170489 0.0492561 0.0242008
0.183062 0.0473335 0.0200504
0.19733 0.0459602 0.016083
0.211597 0.0441138 0.0115969
0.227359 0.0417182 0.00645457
0.242771 0.039765 0.00210575
0.25922 0.0380102 0
0.275166 0.0356756 0
0.291569 0.0338903 0
0.307683 0.0316014 0
0.324514 0.0298161 0
0.341848 0.0281529 0
0.358892 0.0261692 0
0.375479 0.0247196 0
0.392355 0.0235752 0
0.407858 0.0218204 0
0.423758 0.0207218 0
0.4383 0.0197452 0
0.452369 0.0186313 0
0.465919 0.0181125 0
0.47744 0.0177615 0
0.489174 0.0169528 0
0.501686 0.0162814 0
0.5149 0.0155184 0
0.527901 0.0142824 0
0.540383 0.0135958 0
0.552499 0.0132601 0
0.563485 0.0125277 0
0.573892 0.0124971 0
0.584436 0.0128176 0
0.59353 0.0130617 0
0.601923 0.0129549 0
0.610071 0.0131838 0
0.61735 0.0139315 0
0.624338 0.0147402 0
0.630594 0.015198 0
0.637324 0.0157015 0
0.644022 0.0166323 0
0.650309 0.0170596 0
0.656641 0.0178683 0
0.663417 0.0187839 0
0.669825 0.0196689 0
0.676921 0.0200809 0
0.684932 0.0202487 0
0.691844 0.0208743 0
0.698344 0.0218662 0
0.704585 0.022858 0
0.70898 0.023621 0
0.0349584 0.0590372 0.0629587
0.0374609 0.0609293 0.0641489
0.0390631 0.062089 0.0640421
0.041062 0.0643168 0.06421
0.0431678 0.0662394 0.0631418
0.0480049 0.0659495 0.0573434
0.0602426 0.0645457 0.0519875
0.0720836 0.0634165 0.0512703
0.0814679 0.063859 0.0525521
0.0914168 0.0641337 0.0525978
0.101335 0.0635691 0.0512398
0.111635 0.0633707 0.0496681
0.121614 0.0627756 0.0475013
0.132113 0.0623178 0.0449989
0.142947 0.0620432 0.0426184
0.154498 0.0606394 0.03888
0.166979 0.0600748 0.0358129
0.179492 0.0585336 0.0317693
0.193072 0.0573434 0.0281071
0.207202 0.0557259 0.024094
0.221683 0.0537575 0.0195315
0.236927 0.0519112 0.0149233
0.252613 0.0499428 0.0104677
0.269459 0.0479133 0.00587472
0.285649 0.0460822 0.00128176
0.302052 0.044007 0
0.319081 0.0421759 0
0.336522 0.0407568 0
0.353597 0.0387427 0
0.370367 0.0368353 0
0.387945 0.0353704 0
0.403998 0.0333867 0
0.420798 0.0320592 0
0.436667 0.0305486 0
0.451118 0.0290532 0
0.465629 0.0281529 0
0.478508 0.0271153 0
0.48986 0.0266117 0
0.501976 0.0260624 0
0.515129 0.0253452 0
0.527718 0.0242161 0
0.540978 0.0233768 0
0.553674 0.0227665 0
0.565103 0.0221103 0
0.576318 0.0216526 0
0.587228 0.0216068 0
0.596963 0.0214847 0
0.605692 0.0212711 0
0.61387 0.0217136 0
0.622629 0.0221408 0
0.629908 0.0227817 0
0.636591 0.0231785 0
0.643458 0.0242313 0
0.650034 0.0249027 0
0.656596 0.0258793 0
0.662272 0.0265049 0
0.669139 0.0272221 0
0.6757 0.0281682 0
0.68217 0.0288701 0
0.689906 0.0291752 0
0.697673 0.0295567 0
0.704707 0.0304265 0
0.711849 0.0315404 0
0.717678 0.0321202 0
0.723217 0.0331426 0
0.0355535 0.0670481 0.0685435
0.0380407 0.068925 0.0692149
0.0398871 0.0710002 0.0696727
0.0417334 0.0735485 0.0702068
0.0437324 0.0753948 0.0690471
0.0477607 0.0766461 0.0650492
0.0576791 0.0750134 0.0579843
0.0719158 0.0738842 0.0547799
0.0843977 0.0725872 0.0542306
0.0959793 0.072694 0.055848
0.106477 0.0729534 0.0564431
0.116609 0.0726787 0.0555276
0.127825 0.0726482 0.0541695
0.138903 0.072343 0.0521706
0.150027 0.0716869 0.049485
0.162539 0.0711681 0.0466773
0.174807 0.0701305 0.0433661
0.18819 0.0689403 0.0397498
0.201831 0.0678111 0.0363012
0.2159 0.0658885 0.0319219
0.230991 0.0646525 0.0279545
0.245518 0.0623789 0.0230259
0.261662 0.0610056 0.0190433
0.278508 0.0589914 0.0145571
0.294911 0.0571603 0.0099794
0.311177 0.0553597 0.00540169
0.328359 0.0539406 0.00109865
0.345205 0.052079 0
0.362341 0.0503243 0
0.379477 0.0482795 0
0.396582 0.0462501 0
0.413703 0.0446937 0
0.429786 0.042649 0
0.44538 0.0409857 0
0.460365 0.0397955 0
0.474708 0.038529 0
0.487785 0.0373846 0
0.499626 0.0368811 0
0.512062 0.0365454 0
0.524071 0.0355077 0
0.537697 0.0342565 0
0.551095 0.0333867 0
0.56321 0.0322271 0
0.574731 0.0315862 0
0.586389 0.0312657 0
0.597208 0.0308537 0
0.606455 0.0307317 0
0.615656 0.0307774 0
0.625193 0.0309758 0
0.633188 0.0316472 0
0.640223 0.0319371 0
0.647318 0.0326696 0
0.654292 0.0332647 0
0.661143 0.0343328 0
0.666697 0.0348821 0
0.673442 0.035584 0
0.679957 0.0366522 0
0.686442 0.0375677 0
0.693507 0.0380102 0
0.70071 0.0386816 0
0.707698 0.0394446 0
0.71545 0.0402991 0
0.721874 0.0411231 0
0.727993 0.0418708 0
0.73402 0.0430457 0
0.0353857 0.0762493 0.0737621
0.0377661 0.0786145 0.074876
0.0395666 0.0813306 0.0757458
0.0409705 0.0834669 0.0758373
0.0435645 0.0860914 0.0754101
0.0465553 0.0873426 0.0715801
0.0546578 0.0869306 0.0651865
0.0687877 0.0849775 0.0590066
0.0833448 0.0834058 0.0565805
0.0973068 0.0832227 0.0570382
0.110063 0.0820935 0.057908
0.122621 0.0827039 0.0597543
0.133349 0.0823835 0.0589761
0.14519 0.0825513 0.0580606
0.157275 0.0824903 0.0564279
0.169345 0.0813764 0.0534676
0.182223 0.0808881 0.0507362
0.194949 0.0794537 0.0472725
0.208881 0.0785229 0.0437476
0.22356 0.0773022 0.0398718
0.237903 0.075349 0.0353704
0.253452 0.0742046 0.0315099
0.269764 0.0725261 0.027451
0.286351 0.0704967 0.0229343
0.302403 0.068986 0.0187533
0.318929 0.0670481 0.0140383
0.335668 0.0654002 0.00953689
0.352468 0.0636912 0.00540169
0.36936 0.0616922 0.00062562
0.386755 0.0596323 0
0.403861 0.0580606 0
0.420676 0.056199 0
0.436591 0.0541848 0
0.452674 0.0527504 0
0.467933 0.0511482 0
0.482033 0.0495003 0
0.495476 0.0486763 0
0.50724 0.0479133 0
0.518639 0.0469978 0
0.531655 0.0459144 0
0.545022 0.0450752 0
0.557565 0.0438697 0
0.570108 0.0428626 0
0.582712 0.0421912 0
0.593896 0.0416419 0
0.604715 0.0412299 0
0.613993 0.0408942 0
0.624506 0.0410163 0
0.633219 0.0415045 0
0.641001 0.0414282 0
0.648859 0.0417792 0
0.656245 0.0424201 0
0.663035 0.0434119 0
0.669291 0.043946 0
0.67599 0.0444648 0
0.682628 0.0456855 0
0.688853 0.0464637 0
0.695994 0.0473182 0
0.701823 0.047837 0
0.708797 0.0486305 0
0.717006 0.0494087 0
0.72433 0.05037 0
0.73135 0.0514076 0
0.737392 0.0519722 0
0.743526 0.0533608 0
0.0344701 0.0862745 0.0788739
0.03682 0.0892348 0.0800031
0.0384833 0.0917983 0.080827
0.0400549 0.0944991 0.0812695
0.0420844 0.0967117 0.0803693
0.0455634 0.09897 0.0784314
0.0518807 0.099321 0.0723735
0.0644999 0.0979629 0.0653544
0.0801404 0.0962387 0.0607767
0.0952163 0.094789 0.0593118
0.110063 0.0939803 0.0593118
0.124651 0.0928817 0.0598611
0.138231 0.0925612 0.0612497
0.151141 0.0925765 0.0618143
0.162921 0.0922408 0.060914
0.175967 0.0923476 0.0594949
0.188098 0.091249 0.0566567
0.202014 0.0908217 0.0539712
0.216236 0.0899977 0.0508736
0.230365 0.0885023 0.0469368
0.245289 0.0871443 0.0430304
0.260502 0.0853742 0.0390784
0.276326 0.0838636 0.0349737
0.292882 0.0823682 0.030808
0.308461 0.080293 0.026276
0.325322 0.0789044 0.0222171
0.341634 0.0773938 0.0179751
0.358251 0.0755016 0.0133059
0.375708 0.0736095 0.00866712
0.393042 0.0720836 0.00448615
0.409552 0.0699321 0
0.425971 0.0680095 0
0.442344 0.0662852 0
0.45861 0.0644083 0
0.473472 0.0625162 0
0.48806 0.0612345 0
0.500633 0.0601663 0
0.511833 0.0591897 0
0.524178 0.0582437 0
0.537179 0.0573892 0
0.549874 0.0563668 0
0.562356 0.054963 0
0.576242 0.054139 0
0.588113 0.0533608 0
0.599832 0.0528267 0
0.610422 0.0518654 0
0.620737 0.0517586 0
0.630579 0.0518196 0
0.639185 0.0517433 0
0.647852 0.0519265 0
0.655787 0.0522316 0
0.662776 0.0530098 0
0.670451 0.0538338 0
0.676646 0.0540475 0
0.683253 0.055024 0
0.689677 0.0560311 0
0.69659 0.0569619 0
0.702678 0.0574502 0
0.709163 0.0582895 0
0.716548 0.0593271 0
0.723964 0.059968 0
0.731685 0.0609751 0
0.738247 0.0613718 0
0.744991 0.0627298 0
0.751492 0.0640879 0
0.0326543 0.097612 0.0841382
0.0346227 0.10013 0.085008
0.0366064 0.103517 0.0861219
0.0380255 0.105959 0.0860609
0.0406195 0.109071 0.0860456
0.0434272 0.111238 0.0838331
0.0486915 0.1122 0.0790265
0.0595865 0.111574 0.0717174
0.0747387 0.109133 0.0653849
0.0914778 0.107988 0.062501
0.107118 0.106371 0.0611734
0.122911 0.105394 0.0609903
0.138323 0.104295 0.0606394
0.153552 0.103395 0.0617838
0.167834 0.103471 0.0631418
0.181476 0.102556 0.0625772
0.195117 0.102571 0.0617533
0.208774 0.101732 0.0594339
0.2224 0.100893 0.0567636
0.237049 0.100023 0.0536355
0.25095 0.0982528 0.0496834
0.266926 0.0968795 0.0458076
0.282399 0.0957809 0.042237
0.297795 0.0936751 0.037705
0.314504 0.0924086 0.0340429
0.330404 0.0910506 0.030045
0.346807 0.0892195 0.025452
0.36408 0.0872969 0.0210422
0.381384 0.0857557 0.0168154
0.397925 0.0836652 0.0121614
0.414557 0.0817578 0.00788891
0.431189 0.0800946 0.00360113
0.447486 0.0779126 0
0.463081 0.0758221 0
0.478325 0.0743267 0
0.492164 0.0729076 0
0.505501 0.0714275 0
0.517143 0.0705882 0
0.529335 0.0698863 0
0.542016 0.0693217 0
0.553994 0.0676738 0
0.567498 0.0666361 0
0.580102 0.0655222 0
0.592233 0.0648356 0
0.603708 0.0636759 0
0.614679 0.063386 0
0.625299 0.0632639 0
0.634714 0.0631571 0
0.644083 0.0625772 0
0.652552 0.0629892 0
0.660563 0.0635691 0
0.668574 0.0640879 0
0.675563 0.0643626 0
0.682338 0.065156 0
0.688884 0.0657511 0
0.695491 0.0666361 0
0.702251 0.0675212 0
0.708812 0.0679484 0
0.71548 0.0690318 0
0.722103 0.0697948 0
0.730312 0.0709544 0
0.737285 0.0713207 0
0.744381 0.0721752 0
0.751568 0.0735637 0
0.757778 0.0748302 0
0.0300145 0.109102 0.0886244
0.0323186 0.112596 0.0897841
0.0337072 0.115434 0.0902724
0.0359655 0.118578 0.0909438
0.0386664 0.121477 0.0910048
0.0415656 0.123857 0.0893721
0.0462043 0.125414 0.0853437
0.0549172 0.125093 0.0784466
0.0691539 0.123491 0.0710765
0.0857404 0.12137 0.0660563
0.103182 0.119966 0.0640269
0.119921 0.118441 0.0627451
0.13579 0.117433 0.0620737
0.152499 0.116503 0.0619364
0.168154 0.114885 0.0616617
0.184314 0.114275 0.0626383
0.199252 0.113313 0.0626841
0.213886 0.112428 0.0618906
0.228565 0.111803 0.0604257
0.242634 0.110277 0.0577401
0.257557 0.109377 0.055024
0.272831 0.108507 0.0521859
0.287678 0.106767 0.0483711
0.303639 0.105394 0.0446326
0.319295 0.104082 0.0408331
0.335317 0.102266 0.0363012
0.3523 0.100893 0.0322423
0.368734 0.0994278 0.0283055
0.385214 0.0974289 0.0237125
0.401877 0.0956436 0.0193179
0.418677 0.0940719 0.0151064
0.435615 0.0919509 0.0104524
0.451331 0.0897841 0.00596628
0.467414 0.0880903 0.00204471
0.481849 0.0864881 0
0.496376 0.0847181 0
0.509621 0.0831006 0
0.521996 0.0823682 0
0.533669 0.0818189 0
0.545968 0.0803388 0
0.558846 0.0793164 0
0.570855 0.0783398 0
0.583658 0.0774853 0
0.595834 0.0757763 0
0.607401 0.075288 0
0.618875 0.0747692 0
0.629404 0.0746319 0
0.639597 0.074052 0
0.647883 0.07393 0
0.656641 0.0742504 0
0.665476 0.0746471 0
0.672786 0.0751202 0
0.679637 0.0754253 0
0.686809 0.0758984 0
0.693507 0.0769665 0
0.700206 0.0779126 0
0.70663 0.0778821 0
0.713573 0.0791485 0
0.720195 0.079881 0
0.727245 0.0808728 0
0.734386 0.0818189 0
0.741863 0.0822156 0
0.749615 0.083238 0
0.756252 0.0842451 0
0.76318 0.0856336 0
0.0271305 0.121843 0.0928664
0.0288548 0.125017 0.0939498
0.0307622 0.128374 0.0950179
0.0323949 0.131487 0.0950942
0.0350805 0.134585 0.0954299
0.0382544 0.137407 0.0941024
0.0423743 0.138811 0.0904097
0.0500496 0.139528 0.0842908
0.0622263 0.137926 0.0765545
0.0791638 0.136065 0.0706188
0.0970932 0.133928 0.0666209
0.115358 0.132219 0.064744
0.132296 0.130999 0.0634318
0.148882 0.129305 0.0623789
0.165896 0.127993 0.0620432
0.18323 0.126085 0.0609751
0.199939 0.124712 0.0612345
0.216754 0.123812 0.0616312
0.231861 0.122255 0.0610208
0.248035 0.12137 0.0600137
0.263523 0.120516 0.0585031
0.278096 0.118883 0.055848
0.293553 0.117952 0.0532235
0.308614 0.11667 0.0499428
0.324163 0.115038 0.0462959
0.340841 0.113787 0.04271
0.357214 0.112352 0.0387732
0.373816 0.110948 0.0347143
0.389975 0.108919 0.0301366
0.406775 0.107164 0.0257877
0.423697 0.105303 0.021622
0.439734 0.103136 0.0168612
0.455802 0.101564 0.0128023
0.470802 0.0997787 0.00856031
0.486641 0.0979171 0.00440986
0.500374 0.0961624 0.000839246
0.514061 0.0950332 0
0.526116 0.094377 0
0.537545 0.0927596 0
0.549844 0.0919966 0
0.561654 0.0909285 0
0.57435 0.0900587 0
0.587366 0.0887312 0
0.599817 0.08748 0
0.611444 0.0869306 0
0.622354 0.0862745 0
0.632868 0.0858167 0
0.642329 0.08542 0
0.651926 0.08542 0
0.660975 0.0857404 0
0.6692 0.085771 0
0.67686 0.0859998 0
0.683909 0.0863661 0
0.69099 0.0870832 0
0.697932 0.0882429 0
0.704402 0.0883192 0
0.710933 0.0891737 0
0.717601 0.0901656 0
0.724544 0.0910506 0
0.731334 0.0918593 0
0.738186 0.0926528 0
0.746166 0.0934005 0
0.753567 0.0942397 0
0.760632 0.0955367 0
0.767239 0.0966049 0
0.0235904 0.134401 0.0966964
0.0254215 0.138231 0.0982986
0.0272526 0.141985 0.0994278
0.0289921 0.144793 0.0995499
0.0316625 0.148302 0.100114
0.0344549 0.150484 0.0983291
0.0390936 0.153094 0.0955215
0.045716 0.153445 0.0896925
0.0564584 0.15285 0.082536
0.0718242 0.150591 0.0750439
0.090135 0.148348 0.0702678
0.109026 0.146395 0.0670176
0.126925 0.144335 0.0649424
0.144854 0.142641 0.0634318
0.161624 0.1411 0.0624552
0.179431 0.139452 0.0615549
0.19791 0.137881 0.0607156
0.215702 0.13547 0.0597086
0.233219 0.134295 0.0601968
0.251087 0.13286 0.0600443
0.266773 0.130968 0.0590982
0.282719 0.129992 0.0579995
0.297917 0.128786 0.0560311
0.313603 0.12723 0.0535286
0.329885 0.125978 0.0507057
0.345861 0.124697 0.0474861
0.362173 0.123415 0.0439612
0.377935 0.121538 0.039765
0.394812 0.120241 0.0358282
0.412116 0.118593 0.0315099
0.427893 0.11632 0.0267033
0.444007 0.114855 0.0227054
0.459815 0.1131 0.0188449
0.475639 0.11133 0.014725
0.490379 0.109102 0.0104372
0.504631 0.107866 0.00712596
0.518486 0.106645 0.00387579
0.530892 0.105425 0.000747692
0.54165 0.104646 0
0.553429 0.103655 0
0.566171 0.102602 0
0.579019 0.101488 0
0.590936 0.0999313 0
0.603464 0.099321 0
0.614755 0.098558 0
0.6262 0.0979171 0
0.635798 0.0969406 0
0.645975 0.0967117 0
0.655955 0.0968795 0
0.664744 0.096849 0
0.672572 0.0965286 0
0.68043 0.0970321 0
0.687678 0.0977035 0
0.694728 0.0984054 0
0.701671 0.0989853 0
0.708202 0.0994583 0
0.714458 0.100053 0
0.721569 0.100969 0
0.728527 0.10219 0
0.735119 0.103105 0
0.742153 0.103471 0
0.749279 0.104158 0
0.757137 0.105501 0
0.764614 0.106493 0
0.771359 0.107668 0
0.0196689 0.147875 0.10045
0.0214542 0.152102 0.10219
0.0226902 0.155169 0.102647
0.0247501 0.159014 0.103212
0.0268101 0.161654 0.103029
0.0297093 0.164828 0.102129
0.0335241 0.16672 0.0987716
0.040238 0.167834 0.0941329
0.0502632 0.1673 0.0869917
0.0640269 0.165454 0.0798962
0.0821698 0.163348 0.0737621
0.101091 0.160311 0.0690471
0.120363 0.158419 0.0667124
0.138964 0.156359 0.0647746
0.156863 0.154574 0.0632029
0.175067 0.153201 0.0621805
0.192966 0.150942 0.0606241
0.212161 0.148913 0.0593729
0.231266 0.146853 0.0582284
0.249088 0.144457 0.0572366
0.267048 0.142687 0.0573434
0.28423 0.141085 0.0572061
0.301244 0.139696 0.0566415
0.317968 0.137987 0.0551003
0.33463 0.136645 0.0531624
0.351186 0.135546 0.050782
0.366766 0.133715 0.0474708
0.383444 0.13257 0.0442969
0.400351 0.131197 0.0406195
0.416251 0.129 0.0358587
0.432898 0.127611 0.0321202
0.448951 0.125948 0.0282139
0.465156 0.124392 0.0241245
0.480156 0.122148 0.019913
0.495323 0.120745 0.0163882
0.509544 0.119463 0.0130159
0.522408 0.118151 0.00953689
0.534401 0.116655 0.00624094
0.545937 0.115892 0.00389105
0.557641 0.115236 0.00141909
0.57023 0.114336 0
0.58204 0.112566 0
0.594629 0.111589 0
0.606394 0.110536 0
0.61857 0.109758 0
0.629389 0.10898 0
0.639948 0.108293 0
0.650187 0.108125 0
0.659464 0.107927 0
0.668116 0.108293 0
0.675929 0.107683 0
0.684215 0.108049 0
0.691722 0.108827 0
0.698878 0.109361 0
0.705379 0.109728 0
