LUTs/Log/Green Look.cube
TITLE "Generated by Resolve"
LUT_3D_SIZE 5
0.0212558 0.0308537 0.0363928
0.102052 0.0247807 0
0.311879 0 0
0.503029 0 0
0.623301 0 0
0.00448615 0.188891 0.108782
0.172992 0.192126 0.0605478
0.478706 0.156054 0.0339208
0.670192 0.140566 0
0.785657 0.150729 0
0 0.400687 0.123095
0.00517281 0.425071 0.0725109
0.388235 0.36379 0
0.676539 0.314122 0
0.81355 0.306325 0
0 0.591287 0.157992
0 0.627482 0.12723
0.237186 0.566552 0.00796521
0.580301 0.49543 0
0.74789 0.468086 0
0 0.740581 0.219425
0 0.776272 0.197314
0.130831 0.727871 0.0740215
0.510628 0.639002 0
0.697322 0.600275 0
0 0.0779736 0.128618
0.0263066 0.0780957 0.105837
0.271199 0.0458381 0.0730449
0.47274 0.0278477 0
0.572396 0.0391241 0
0.0106203 0.228885 0.224079
0.177768 0.255497 0.248386
0.4542 0.215396 0.165393
0.631205 0.198535 0.0927596
0.736049 0.196536 0.0424353
0 0.438605 0.243091
0.0572061 0.479057 0.261997
0.401587 0.42771 0.146014
0.670008 0.379095 0.107652
0.799054 0.36556 0.089189
0 0.623102 0.277043
0 0.66714 0.290578
0.246754 0.627329 0.161913
0.594095 0.557488 0.0800488
0.752819 0.529641 0.0682994
0 0.768795 0.334051
0 0.810025 0.349172
0.174777 0.781048 0.24921
0.535485 0.695781 0.0926375
0.71664 0.660197 0.0622721
0 0.137743 0.311772
0.00793469 0.129686 0.306706
0.187747 0.112261 0.2318
0.38822 0.0987564 0.220829
0.536751 0.0961013 0.207141
0 0.282475 0.391043
0.101625 0.322408 0.435279
0.386007 0.292866 0.386175
0.610544 0.26331 0.361898
0.759197 0.247776 0.304921
0 0.486793 0.424689
0.0823682 0.530419 0.465171
0.429953 0.517632 0.444068
0.633234 0.473487 0.366278
0.744595 0.452232 0.294682
0 0.672084 0.461479
0.0323644 0.715633 0.507393
0.317494 0.701946 0.47602
0.624079 0.645274 0.377356
0.769192 0.614221 0.340627
0 0.813931 0.525399
0.0290532 0.852552 0.570977
0.269123 0.83714 0.537911
0.57319 0.780499 0.40618
0.759701 0.742138 0.354849
0 0.194263 0.458625
0 0.195575 0.51162
0.148562 0.158572 0.367788
0.307164 0.157473 0.341085
0.423026 0.166369 0.347417
0 0.338704 0.509255
0.0233921 0.377966 0.586038
0.346395 0.341283 0.553597
0.515282 0.331579 0.49865
0.650172 0.330816 0.508095
0 0.523842 0.560098
0.0263218 0.571221 0.588983
0.294682 0.574289 0.609308
0.550774 0.550225 0.555535
0.696834 0.533608 0.553002
0 0.706493 0.609751
0.0215457 0.75314 0.654444
0.316167 0.745754 0.647456
0.631998 0.729946 0.62858
0.739147 0.695857 0.549187
0 0.851698 0.676799
0.0269627 0.893462 0.730144
0.311467 0.878828 0.727214
0.63064 0.852857 0.69308
0.800427 0.824277 0.635721
0 0.244846 0.545922
0 0.264225 0.627359
0.107378 0.204883 0.50312
0.242069 0.195148 0.396078
0.341253 0.213367 0.40061
0 0.385382 0.581292
0 0.422507 0.675685
0.24686 0.395926 0.692515
0.462486 0.365942 0.570016
0.567056 0.379446 0.570581
0 0.556817 0.615427
0 0.608347 0.650736
0.181827 0.611719 0.698161
0.499275 0.57882 0.647715
0.602396 0.584375 0.621424
0 0.728008 0.684565
0 0.77673 0.719112
0.205539 0.775753 0.700572
0.514321 0.766049 0.717754
0.655406 0.757794 0.673335
0 0.870726 0.761852
0.00343328 0.91429 0.807477
0.274311 0.9028 0.799634
0.629099 0.87686 0.773007
0.7944 0.88629 0.781186
