LUTs/Log/Green Look.cube
TITLE "Generated by Resolve"
LUT_3D_SIZE 9
0.0212558 0.0308537 0.0363928
0.0458839 0.0326238 0.0217288
0.102052 0.0247807 0
0.194095 0.00955215 0
0.311879 0 0
0.412757 0 0
0.503029 0 0
0.563561 0 0
0.623301 0 0
0.0344701 0.0862745 0.0788739
0.0801404 0.0962387 0.0607767
0.188098 0.091249 0.0566567
0.308461 0.080293 0.026276
0.442344 0.0662852 0
0.549874 0.0563668 0
0.639185 0.0517433 0
0.69659 0.0569619 0
0.751492 0.0640879 0
0.00448615 0.188891 0.108782
0.0316777 0.209964 0.0985733
0.172992 0.192126 0.0605478
0.336309 0.171023 0.0467994
0.478706 0.156054 0.0339208
0.58262 0.146822 0.0131228
0.670192 0.140566 0
0.730312 0.143694 0
0.785657 0.150729 0
0 0.296223 0.117296
0 0.319844 0.112535
0.0809949 0.309316 0.0616159
0.270863 0.281498 0.0285191
0.459998 0.251804 0.0123903
0.597681 0.233112 0.0123751
0.69572 0.224643 0.00921645
0.758724 0.225315 0.00782788
0.812528 0.229206 0.00656138
0 0.400687 0.123095
0 0.426505 0.120897
0.00517281 0.425071 0.0725109
0.177295 0.399512 0.0263371
0.388235 0.36379 0
0.550347 0.334813 0
0.676539 0.314122 0
0.753491 0.307713 0
0.81355 0.306325 0
0 0.500084 0.135576
0 0.527504 0.134325
0 0.532998 0.0965591
0.0862135 0.510674 0.0424659
0.312367 0.470008 0
0.490593 0.435447 0
0.626947 0.408972 0
0.717311 0.3953 0
0.785489 0.387839 0
0 0.591287 0.157992
0 0.61828 0.157824
0 0.627482 0.12723
0.0303502 0.609598 0.0699016
0.237186 0.566552 0.00796521
0.434745 0.525521 0
0.580301 0.49543 0
0.678569 0.477638 0
0.74789 0.468086 0
0 0.671199 0.185977
0 0.697154 0.186099
0 0.708019 0.160464
0 0.693843 0.105455
0.172427 0.653269 0.0365911
0.385534 0.605753 0
0.54197 0.571756 0
0.646571 0.550118 0
0.718044 0.538552 0
0 0.740581 0.219425
0 0.76466 0.221118
0 0.776272 0.197314
0 0.764004 0.14548
0.130831 0.727871 0.0740215
0.344549 0.676814 0.0034638
0.510628 0.639002 0
0.626337 0.612787 0
0.697322 0.600275 0
0 0.0491035 0.0573739
0.0105592 0.0530404 0.0560159
0.0700694 0.0498817 0.0514229
0.168887 0.0349279 0.0113222
0.291264 0.0153506 0
0.390387 0.00935378 0
0.48014 0.00517281 0
0.540749 0.00688182 0
0.601892 0.00671397 0
0.0304875 0.101137 0.110002
0.0877394 0.116182 0.125673
0.189303 0.11046 0.103593
0.300328 0.101549 0.0687877
0.420859 0.089128 0.0268101
0.511131 0.0822461 0
0.591211 0.0773785 0
0.643061 0.079881 0
0.697063 0.0814832 0
0.0126802 0.20441 0.147204
0.0561837 0.226871 0.160174
0.174517 0.21796 0.122606
0.336095 0.197894 0.1066
0.468589 0.182086 0.0778515
0.573556 0.171603 0.0489967
0.662745 0.163027 0.024979
0.72256 0.164431 0.0141604
0.779644 0.169772 0.00756847
0 0.310842 0.15816
0.00347906 0.336309 0.167727
0.0825971 0.337881 0.130831
0.274708 0.3084 0.0822919
0.462364 0.278294 0.0611887
0.593149 0.259876 0.0527657
0.689632 0.250797 0.0434577
0.751156 0.249653 0.038056
0.80676 0.251575 0.034287
0 0.414679 0.163149
0 0.442481 0.172992
0.0179599 0.450385 0.142489
0.174731 0.426764 0.0793317
0.392416 0.390387 0.0442206
0.551781 0.363073 0.0301366
0.67454 0.341939 0.0196078
0.747478 0.334859 0.0188296
0.807492 0.331334 0.0186313
0 0.513085 0.172915
0 0.542077 0.181247
0 0.553536 0.156878
0.0897688 0.537972 0.0980545
0.316472 0.497261 0.0402228
0.493553 0.46305 0.0135653
0.628641 0.436774 0.00170901
0.715053 0.423804 0.00236515
0.781476 0.415137 0.00105287
0 0.602548 0.190402
0 0.631922 0.199237
0 0.644678 0.179309
0.0417029 0.633646 0.127626
0.243381 0.592966 0.0558633
0.440711 0.552529 0.0113222
0.58558 0.522301 0
0.679301 0.505226 0
0.749706 0.494896 0
0 0.682109 0.218357
0 0.709743 0.22652
0 0.723415 0.209522
0.0138857 0.714702 0.162692
0.181659 0.678096 0.088716
0.391806 0.632334 0.0248264
0.551186 0.596963 0
0.652171 0.577295 0
0.722103 0.565744 0
0 0.751431 0.254978
0 0.777722 0.264576
0 0.791287 0.250919
0.0021973 0.7832 0.204288
0.145006 0.750835 0.130373
0.355016 0.701976 0.0531777
0.522103 0.663462 0.00642405
0.633982 0.6392 0
0.704631 0.627085 0
0 0.0779736 0.128618
0 0.0799115 0.148898
0.0263066 0.0780957 0.105837
0.123445 0.0688792 0.0979629
0.271199 0.0458381 0.0730449
0.389288 0.0315099 0.0345464
0.47274 0.0278477 0
0.518135 0.0364385 0
0.572396 0.0391241 0
0.0115358 0.12607 0.179675
0.0487373 0.148302 0.198962
0.141115 0.150362 0.194781
0.265187 0.139757 0.184253
0.416678 0.112856 0.134554
0.500526 0.105562 0.0720378
0.568643 0.105592 0.0364691
0.614939 0.109697 0.0123598
0.666712 0.110933 0
0.0106203 0.228885 0.224079
0.0644541 0.251057 0.245838
0.177768 0.255497 0.248386
0.325933 0.234974 0.207568
0.4542 0.215396 0.165393
0.550515 0.205737 0.130388
0.631205 0.198535 0.0927596
0.684047 0.197375 0.0661021
0.736049 0.196536 0.0424353
0 0.335973 0.236194
0.0230411 0.360662 0.259556
0.111925 0.371542 0.258625
0.285405 0.348791 0.207675
0.466255 0.318151 0.180835
0.580087 0.300862 0.155734
0.674159 0.290013 0.129351
0.735637 0.286046 0.113024
0.792584 0.284672 0.101564
0 0.438605 0.243091
0 0.465537 0.265812
0.0572061 0.479057 0.261997
0.176272 0.466819 0.20795
0.401587 0.42771 0.146014
0.554665 0.401068 0.128267
0.670008 0.379095 0.107652
0.738766 0.371191 0.0976883
0.799054 0.36556 0.089189
0 0.535241 0.257313
0 0.56434 0.27808
0.0136263 0.578515 0.27303
0.11133 0.572015 0.227283
0.322194 0.531624 0.140581
0.499123 0.499519 0.108934
0.632792 0.473518 0.0936446
0.713222 0.460075 0.0850385
0.77818 0.449973 0.0734264
0 0.623102 0.277043
0 0.652384 0.295598
0 0.66714 0.290578
0.0747234 0.662089 0.250172
0.246754 0.627329 0.161913
0.44651 0.588006 0.106081
0.594095 0.557488 0.0800488
0.683375 0.541604 0.0734264
0.752819 0.529641 0.0682994
0 0.701183 0.302663
0 0.729076 0.320027
0 0.743664 0.316197
0.0543526 0.740093 0.282368
0.195041 0.71075 0.198947
0.398611 0.666651 0.121157
0.562005 0.63064 0.0789654
0.659815 0.611933 0.0651102
0.730907 0.599451 0.0613413
0 0.768795 0.334051
0 0.794919 0.350912
0 0.810025 0.349172
0.0471046 0.806577 0.320043
0.174777 0.781048 0.24921
0.365805 0.735943 0.155749
0.535485 0.695781 0.0926375
0.644907 0.672557 0.0678874
0.71664 0.660197 0.0622721
0 0.107469 0.219028
0 0.111528 0.256748
0.0155184 0.101061 0.189456
0.0945296 0.0965286 0.167895
0.219043 0.0827497 0.15697
0.337575 0.0700847 0.144671
0.445243 0.0615244 0.13228
0.521843 0.0583505 0.113909
0.59234 0.0529793 0.0709392
0 0.158038 0.258137
0.0154574 0.182361 0.295674
0.125444 0.18146 0.299229
0.223239 0.17525 0.266026
0.359777 0.157275 0.250874
0.480217 0.14229 0.233021
0.586892 0.12842 0.201862
0.651911 0.124727 0.161318
0.702541 0.123247 0.105608
0.00485237 0.254139 0.31313
0.0524758 0.277897 0.331472
0.140108 0.289219 0.341482
0.283986 0.277119 0.321462
0.433814 0.254276 0.299367
0.554559 0.231098 0.252247
0.635096 0.21915 0.190539
0.66981 0.228 0.160143
0.714076 0.231266 0.133928
0 0.360235 0.326909
0.0239719 0.386297 0.351629
0.126085 0.397665 0.361334
0.291585 0.392599 0.349264
0.450111 0.364935 0.308583
0.55201 0.348775 0.273106
0.637919 0.334981 0.233814
0.694743 0.330877 0.203632
0.750195 0.324468 0.172045
0 0.464134 0.332128
0 0.492882 0.360739
0.0819409 0.505425 0.372091
0.201282 0.507637 0.360037
0.419471 0.472587 0.299092
0.56202 0.446174 0.275593
0.664332 0.424765 0.246632
0.728847 0.416037 0.226184
0.788769 0.40856 0.207004
0 0.561486 0.347784
0 0.590616 0.376852
0.0459907 0.603586 0.384741
0.153338 0.604166 0.368627
0.334981 0.576394 0.298283
0.514351 0.543511 0.255726
0.641199 0.516762 0.233738
0.714656 0.502937 0.214267
0.778592 0.490715 0.192813
0 0.648127 0.371115
0 0.676371 0.397726
0.0194247 0.69041 0.404211
0.120256 0.689723 0.387182
0.266804 0.668833 0.328801
0.460716 0.628824 0.248203
0.607019 0.59823 0.214984
0.693339 0.583154 0.207553
0.761776 0.570977 0.198917
0 0.724086 0.398032
0 0.751354 0.423499
0.00477607 0.765362 0.428763
0.101411 0.764416 0.412863
0.231357 0.745907 0.362127
0.411429 0.708705 0.276875
0.578546 0.671153 0.218448
0.674266 0.653162 0.201541
0.747387 0.640253 0.19823
0 0.790005 0.429786
0 0.815732 0.45333
0.00273136 0.829618 0.458671
0.0945144 0.828565 0.444221
0.218021 0.810376 0.398474
0.383505 0.777173 0.318975
0.555093 0.736828 0.243793
0.663523 0.713588 0.21117
0.737682 0.699947 0.201282
0 0.137743 0.311772
0 0.142504 0.353796
0.00793469 0.129686 0.306706
0.0753185 0.123354 0.249012
0.187747 0.112261 0.2318
0.290562 0.106401 0.228977
0.38822 0.0987564 0.220829
0.457588 0.0997635 0.218082
0.536751 0.0961013 0.207141
0 0.19118 0.342077
0 0.215656 0.38996
0.0958877 0.21677 0.421439
0.206943 0.201434 0.351385
0.320623 0.191669 0.328939
0.423896 0.182177 0.322408
0.524102 0.172122 0.311406
0.598795 0.169406 0.30341
0.678264 0.163058 0.282216
0 0.282475 0.391043
0.0140841 0.308766 0.407706
0.101625 0.322408 0.435279
0.266407 0.30602 0.424765
0.386007 0.292866 0.386175
0.496651 0.281041 0.379217
0.610544 0.26331 0.361898
0.688121 0.254765 0.338048
0.759197 0.247776 0.304921
0 0.382773 0.415167
0.0164645 0.410208 0.438376
0.1075 0.423285 0.445914
0.234714 0.425757 0.450095
0.410315 0.406088 0.419852
0.532418 0.388693 0.405417
0.641901 0.36495 0.359701
0.691157 0.358541 0.312474
0.732082 0.360739 0.284016
0 0.486793 0.424689
0 0.516335 0.451957
0.0823682 0.530419 0.465171
0.215854 0.532982 0.464164
0.429953 0.517632 0.444068
0.550072 0.493034 0.408789
0.633234 0.473487 0.366278
0.688945 0.462272 0.3299
0.744595 0.452232 0.294682
0 0.584314 0.437736
0 0.614725 0.467185
0.0494545 0.629938 0.482002
0.180957 0.630243 0.482322
0.359655 0.618631 0.456336
0.529976 0.588571 0.406882
0.646784 0.562615 0.381094
0.713802 0.547677 0.354467
0.774762 0.5346 0.329412
0 0.672084 0.461479
0 0.701595 0.491356
0.0323644 0.715633 0.507393
0.156054 0.714458 0.504005
0.317494 0.701946 0.47602
0.475929 0.675975 0.410727
0.624079 0.645274 0.377356
0.704829 0.629099 0.36466
0.769192 0.614221 0.340627
0 0.748455 0.491203
0 0.775998 0.522347
0.0263828 0.789059 0.536919
0.139925 0.787701 0.531807
0.284627 0.774502 0.503899
0.430762 0.753094 0.444572
0.597559 0.715938 0.378973
0.692805 0.69836 0.36231
0.764263 0.683696 0.350759
0 0.813931 0.525399
0 0.838941 0.555535
0.0290532 0.852552 0.570977
0.135912 0.850721 0.56527
0.269123 0.83714 0.537911
0.414511 0.815518 0.484169
0.57319 0.780499 0.40618
0.684077 0.757595 0.370092
0.759701 0.742138 0.354849
0 0.166247 0.391424
0 0.173877 0.439826
0 0.161273 0.417868
0.0700236 0.146456 0.345235
0.162448 0.137362 0.299031
0.256123 0.135195 0.294652
0.344427 0.131838 0.291737
0.403357 0.134829 0.293843
0.474174 0.133455 0.290013
0 0.222446 0.420417
0 0.246586 0.47451
0.0585794 0.249134 0.517479
0.187106 0.231586 0.457527
0.2963 0.216114 0.397604
0.386755 0.213352 0.388357
0.475746 0.207004 0.384497
0.538033 0.208362 0.385611
0.614008 0.204334 0.379873
0 0.311101 0.455161
0 0.338643 0.479042
0.0628519 0.352041 0.518029
0.221744 0.34197 0.53463
0.365194 0.316838 0.460365
0.456947 0.313283 0.449256
0.55378 0.304051 0.445991
0.626047 0.300618 0.445197
0.708034 0.293111 0.437201
0 0.405921 0.484092
0 0.433829 0.50312
0.0639048 0.450233 0.512093
0.186465 0.453956 0.53576
0.388357 0.430289 0.507347
0.481559 0.4262 0.483986
0.583993 0.414084 0.478996
0.664973 0.404181 0.474113
0.74757 0.389685 0.45272
0 0.505699 0.502937
0 0.535103 0.528222
0.0667735 0.550561 0.539574
0.18616 0.555184 0.536004
0.368795 0.548775 0.536843
0.49723 0.536477 0.508812
0.602487 0.518242 0.495415
0.67097 0.503883 0.457588
0.716884 0.496468 0.421851
0 0.603174 0.519707
0 0.633585 0.547967
0.0462654 0.649439 0.562829
0.176486 0.651865 0.564691
0.367926 0.64329 0.551934
0.534142 0.63299 0.538018
0.623056 0.608072 0.488853
0.678538 0.592126 0.449607
0.733349 0.577111 0.411948
0 0.691814 0.542214
0 0.721706 0.572137
0.0282292 0.737453 0.588998
0.157336 0.738018 0.592355
0.344945 0.724819 0.578912
0.497154 0.716655 0.561227
0.6392 0.688762 0.519158
0.710216 0.672633 0.498451
0.770199 0.655726 0.466941
0 0.768917 0.572457
0 0.797116 0.60444
0.0246433 0.812299 0.624247
0.151858 0.810788 0.627665
0.321309 0.796826 0.613214
0.476112 0.784741 0.588296
0.614527 0.759564 0.527443
0.710674 0.742535 0.511757
0.778607 0.726329 0.494362
0 0.835203 0.609247
0 0.861646 0.643153
0.0344396 0.87538 0.66424
0.156954 0.871977 0.665919
0.309499 0.85861 0.650416
0.467887 0.843122 0.622217
0.592401 0.823499 0.56611
0.705379 0.800534 0.522133
0.781537 0.784482 0.505318
0 0.194263 0.458625
0 0.204608 0.512383
0 0.195575 0.51162
0.0537881 0.172702 0.438102
0.148562 0.158572 0.367788
0.223972 0.157504 0.344381
0.307164 0.157473 0.341085
0.361532 0.165103 0.347478
0.423026 0.166369 0.347417
0 0.252018 0.486839
0 0.275746 0.544076
0.0189517 0.280674 0.591287
0.151934 0.263081 0.558267
0.280385 0.237598 0.472984
0.355016 0.237034 0.439567
0.439231 0.234867 0.435874
0.494636 0.239216 0.441657
0.559777 0.239063 0.442023
0 0.338704 0.509255
0 0.366079 0.541604
0.0233921 0.377966 0.586038
0.165667 0.372961 0.6159
0.346395 0.341283 0.553597
0.428305 0.33611 0.502968
0.515282 0.331579 0.49865
0.578714 0.333989 0.507179
0.650172 0.330816 0.508095
0 0.428809 0.535012
0 0.457572 0.553628
0.0195621 0.47454 0.572076
0.142275 0.479362 0.604898
0.348653 0.458625 0.60618
0.456092 0.44564 0.541299
0.54342 0.44181 0.534905
0.609308 0.441596 0.542367
0.686244 0.433799 0.54165
0 0.523842 0.560098
0 0.553658 0.581064
0.0263218 0.571221 0.588983
0.134661 0.577447 0.588952
0.294682 0.574289 0.609308
0.46804 0.555795 0.575631
0.550774 0.550225 0.555535
0.616114 0.547341 0.559442
0.696834 0.533608 0.553002
0 0.618647 0.584695
0 0.648661 0.610529
0.0296483 0.665553 0.623346
0.150271 0.668757 0.621393
0.302708 0.664485 0.60679
0.475105 0.659815 0.616464
0.576532 0.647852 0.584588
0.637812 0.642069 0.581491
0.701564 0.62681 0.552697
0 0.706493 0.609751
0 0.735851 0.637659
0.0215457 0.75314 0.654444
0.148058 0.754192 0.656382
0.316167 0.745754 0.647456
0.504753 0.735866 0.635599
0.631998 0.729946 0.62858
0.686809 0.713771 0.589853
0.739147 0.695857 0.549187
0 0.784298 0.639384
0 0.812741 0.669444
0.0183566 0.829374 0.68925
0.143496 0.828916 0.69218
0.304646 0.819059 0.685252
0.504265 0.803632 0.67158
0.632593 0.798215 0.660075
0.725216 0.781888 0.633707
0.783963 0.765179 0.607996
0 0.851698 0.676799
0 0.877989 0.708186
0.0269627 0.893462 0.730144
0.151568 0.891798 0.734554
0.311467 0.878828 0.727214
0.505699 0.859983 0.709056
0.63064 0.852857 0.69308
0.723415 0.839506 0.649866
0.800427 0.824277 0.635721
0 0.22063 0.510262
0 0.236027 0.568521
0 0.23212 0.580606
0.0260624 0.204273 0.52314
0.133318 0.179767 0.437964
0.202121 0.17673 0.387274
0.269749 0.178332 0.372885
0.321599 0.188571 0.380819
0.38201 0.192355 0.383368
0 0.279423 0.537713
0 0.303914 0.595865
0 0.313481 0.6448
0.102205 0.298329 0.632624
0.251286 0.26421 0.550591
0.336492 0.254551 0.490394
0.401923 0.256687 0.469062
0.45536 0.264561 0.476677
0.51783 0.265797 0.480751
0 0.363439 0.551965
0 0.390204 0.59118
0 0.401801 0.639185
0.116243 0.39733 0.673075
0.30248 0.369726 0.634546
0.41297 0.352743 0.563363
0.480858 0.352667 0.534936
0.540246 0.358175 0.543267
0.606256 0.357885 0.549599
0 0.450126 0.570367
0 0.479301 0.59295
0 0.49633 0.621225
0.0972152 0.501244 0.65742
0.286687 0.485771 0.672847
0.437034 0.462837 0.614099
0.512566 0.459876 0.572
0.571267 0.464698 0.579767
0.639277 0.462089 0.585931
0 0.541314 0.596613
0 0.572076 0.615564
0 0.59115 0.624582
0.0842145 0.597559 0.634806
0.232166 0.594568 0.661112
0.425071 0.577371 0.655421
0.520745 0.565911 0.5944
0.573312 0.570703 0.596994
0.641566 0.566293 0.600916
0 0.632364 0.626215
0 0.662791 0.648814
0 0.681819 0.658534
0.0994125 0.686656 0.653269
0.23006 0.684337 0.646998
0.402731 0.679942 0.668559
0.545892 0.662745 0.62829
0.592309 0.666346 0.620356
0.65626 0.659922 0.621012
0 0.718074 0.657893
0 0.747448 0.683635
0.00250248 0.765347 0.698665
0.12105 0.767971 0.698009
0.265049 0.761654 0.685359
0.432502 0.754696 0.668254
0.582956 0.749264 0.682857
0.638636 0.747646 0.659327
0.701671 0.737758 0.654063
0 0.795377 0.690715
0 0.823484 0.718593
0.00805676 0.840894 0.73695
0.130083 0.84123 0.738537
0.283497 0.832029 0.730358
0.478935 0.818357 0.715541
0.633829 0.81239 0.710613
0.710567 0.816693 0.712917
0.762524 0.800122 0.679576
0 0.863203 0.727108
0 0.889158 0.755795
0.0170901 0.905928 0.776455
0.138705 0.905043 0.778973
0.294301 0.893446 0.771099
0.487297 0.877775 0.758373
0.652247 0.867933 0.751614
0.738506 0.872847 0.751644
0.813382 0.858305 0.730449
0 0.244846 0.545922
0 0.263615 0.604822
0 0.264225 0.627359
0 0.239155 0.586786
0.107378 0.204883 0.50312
0.181308 0.195453 0.430701
0.242069 0.195148 0.396078
0.281315 0.207431 0.395468
0.341253 0.213367 0.40061
0 0.304906 0.572686
0 0.329381 0.631327
0 0.341024 0.680613
0.0528878 0.329107 0.680217
0.206073 0.29514 0.618631
0.312581 0.273014 0.539544
0.378546 0.271824 0.496941
0.417044 0.284016 0.493477
0.476875 0.288396 0.499138
0 0.385382 0.581292
0 0.410697 0.624796
0 0.422507 0.675685
0.0672923 0.418845 0.711131
0.24686 0.395926 0.692515
0.38706 0.371328 0.624872
0.462486 0.365942 0.570016
0.504494 0.376791 0.563226
0.567056 0.379446 0.570581
0 0.468956 0.592676
0 0.498375 0.621561
0 0.51545 0.657191
0.051957 0.51928 0.693843
0.219409 0.508705 0.717479
0.401541 0.483619 0.680095
0.495171 0.47158 0.613443
0.537011 0.480583 0.59942
0.601785 0.481315 0.606821
0 0.556817 0.615427
0 0.588052 0.634562
0 0.608347 0.650736
0.0353399 0.614404 0.668406
0.181827 0.611719 0.698161
0.367559 0.597848 0.708415
0.499275 0.57882 0.647715
0.539361 0.584588 0.616968
0.602396 0.584375 0.621424
0 0.644831 0.648157
0 0.67541 0.66688
0 0.696452 0.675776
0.0435492 0.702876 0.674159
0.175082 0.699413 0.67715
0.32285 0.697856 0.705531
0.503792 0.679393 0.688853
0.558297 0.678584 0.640024
0.615198 0.678111 0.639399
0 0.728008 0.684565
0 0.757626 0.706783
0 0.77673 0.719112
0.073991 0.781216 0.715557
0.205539 0.775753 0.700572
0.336156 0.77557 0.699397
0.514321 0.766049 0.717754
0.607279 0.758022 0.682124
0.655406 0.757794 0.673335
0 0.803403 0.722576
0 0.831449 0.747936
0 0.850126 0.764675
0.101747 0.852064 0.765087
0.247578 0.842588 0.752514
0.405798 0.83476 0.737881
0.562112 0.826978 0.724285
0.669459 0.829053 0.745312
0.719463 0.826352 0.722927
0 0.870726 0.761852
0 0.896605 0.788174
0.00343328 0.91429 0.807477
0.121447 0.914488 0.8094
0.274311 0.9028 0.799634
0.454261 0.889006 0.786343
0.629099 0.87686 0.773007
0.72871 0.883741 0.779187
0.7944 0.88629 0.781186
